( Made using CamBam - http://www.cambam.co.uk )
( 210207_Frontpanel 2/9/2021 7:05:07 PM )
( T2 : 2.0 )
( CUTVIEWER )
( FROM/0,0,5 )
( Select dummy tool to avoid warnings )
( TOOL/MILL,1,0,20.0,0 )
( STOCK/BLOCK,180.0,100.0,6.0,90.0,50.0,6.0 )
G90 G91.1 G64 G40
G0 Z3.0
( T2 : 2.0 )
( Tool Taper coming soon )
( TOOL/MILL,2.0,0.0,0.0,0 )
T2 M6
( Display_window_profile )
G17
M3 S2300
G0 X58.5 Y25.5
G1 F300.0 Z0.0
G1 F800.0 Y-11.5 Z-0.036
G1 X-58.5 Z-0.15
G1 Y25.5 Z-0.186
G1 X58.5 Z-0.3
G1 Y-11.5 Z-0.336
G1 X-58.5 Z-0.45
G1 Y25.5 Z-0.486
G1 X58.5 Z-0.6
G1 Y-11.5 Z-0.636
G1 X-58.5 Z-0.75
G1 Y25.5 Z-0.786
G1 X58.5 Z-0.9
G1 Y-11.5 Z-0.936
G1 X-58.5 Z-1.05
G1 Y25.5 Z-1.086
G1 X58.5 Z-1.2
G1 Y-11.5 Z-1.236
G1 X-58.5 Z-1.35
G1 Y25.5 Z-1.386
G1 X58.5 Z-1.5
G1 Y-11.5 Z-1.536
G1 X-58.5 Z-1.65
G1 Y25.5 Z-1.686
G1 X58.5 Z-1.8
G1 Y-11.5 Z-1.836
G1 X-58.5 Z-1.95
G1 Y25.5 Z-1.986
G1 X58.5 Z-2.1
G1 Y-11.5 Z-2.136
G1 X-58.5 Z-2.25
G1 Y25.5 Z-2.286
G1 X58.5 Z-2.4
G1 Y-11.5 Z-2.436
G1 X-58.5 Z-2.55
G1 Y25.5 Z-2.586
G1 X58.5 Z-2.7
G1 Y-11.5 Z-2.736
G1 X-58.5 Z-2.85
G1 Y25.5 Z-2.886
G1 X58.5 Z-3.0
G1 Y-11.5 Z-3.036
G1 X-58.5 Z-3.15
G1 Y25.5 Z-3.186
G1 X58.5 Z-3.3
G1 Y-11.5 Z-3.336
G1 X-58.5 Z-3.45
G1 Y25.5 Z-3.486
G1 X58.5 Z-3.6
G1 Y-11.5 Z-3.636
G1 X-58.5 Z-3.75
G1 Y25.5 Z-3.786
G1 X58.5 Z-3.9
G1 Y-11.5 Z-3.936
G1 X-58.5 Z-4.05
G1 Y25.5 Z-4.086
G1 X58.5 Z-4.2
G1 Y-11.5 Z-4.236
G1 X-58.5 Z-4.35
G1 Y25.5 Z-4.386
G1 X58.5 Z-4.5
G1 Y-11.5 Z-4.536
G1 X-58.5 Z-4.65
G1 Y25.5 Z-4.686
G1 X58.5 Z-4.8
G1 Y-11.5 Z-4.836
G1 X-58.5 Z-4.95
G1 Y25.5 Z-4.986
G1 X58.5 Z-5.1
G1 Y-11.5 Z-5.136
G1 X-58.5 Z-5.25
G1 Y25.5 Z-5.286
G1 X58.5 Z-5.4
G1 Y-11.5 Z-5.436
G1 X-58.5 Z-5.55
G1 Y25.5 Z-5.586
G1 X58.5 Z-5.7
G1 Y-11.5 Z-5.736
G1 X-58.5 Z-5.85
G1 Y25.5 Z-5.886
G1 X58.5 Z-6.0
G1 Y-11.5 Z-6.036
G1 X-58.5 Z-6.15
G1 Y25.5 Z-6.186
G1 X58.5 Z-6.3
G1 Y-11.5
G1 X-58.5
G1 Y25.5
G1 X58.5
( Display_fixing_profile )
S2300
G0 Z3.0
G0 X60.0 Y4.5741
G1 F300.0 Z0.0
G1 F800.0 Y-5.0741 Z-0.0119
G3 X59.9688 Y-5.1123 Z-0.012 I0.759 J-0.6511
G1 X59.8918 Y-5.2116 Z-0.0121
G3 X59.8552 Y-5.2619 Z-0.0122 I0.7902 J-0.6129
G1 X59.7845 Y-5.3659 Z-0.0124
G3 X59.7504 Y-5.4196 I0.8268 J-0.5625
G1 X59.6865 Y-5.5278 Z-0.0126
G3 X59.6566 Y-5.5821 Z-0.0127 I0.8609 J-0.5087
G1 X59.5995 Y-5.6941 Z-0.0128
G3 X59.5725 Y-5.7513 Z-0.0129 I0.8908 J-0.4544
G1 X59.5226 Y-5.8666 Z-0.0131
G3 X59.4994 Y-5.9254 I0.9178 J-0.3972
G1 X59.4569 Y-6.0437 Z-0.0133
G3 X59.4377 Y-6.1026 Z-0.0134 I0.941 J-0.3383
G1 X59.4026 Y-6.2233 Z-0.0135
G3 X59.3869 Y-6.2845 Z-0.0136 I0.9602 J-0.2793
G1 X59.3595 Y-6.4072 Z-0.0138
G3 X59.3476 Y-6.4692 I0.9759 J-0.2181
G1 X59.328 Y-6.5933 Z-0.014
G3 X59.3203 Y-6.6546 Z-0.0141 I0.9878 J-0.156
G1 X59.3084 Y-6.7797 Z-0.0142
G3 X59.3044 Y-6.8434 Z-0.0143 I0.9955 J-0.0947
G1 X59.3005 Y-6.969 Z-0.0145
G3 Y-7.031 I0.9995 J-0.031
G1 X59.3044 Y-7.1566 Z-0.0147
G3 X59.3084 Y-7.2203 Z-0.0148 I0.9995 J0.031
G1 X59.3203 Y-7.3454 Z-0.0149
G3 X59.328 Y-7.4067 Z-0.015 I0.9955 J0.0947
G1 X59.3476 Y-7.5308 Z-0.0152
G3 X59.3595 Y-7.5928 I0.9878 J0.156
G1 X59.3869 Y-7.7155 Z-0.0154
G3 X59.4026 Y-7.7767 Z-0.0155 I0.9759 J0.2181
G1 X59.4377 Y-7.8974 Z-0.0156
G3 X59.4569 Y-7.9563 Z-0.0157 I0.9602 J0.2793
G1 X59.4994 Y-8.0746 Z-0.0159
G3 X59.5226 Y-8.1334 I0.941 J0.3383
G1 X59.5725 Y-8.2487 Z-0.0161
G3 X59.5995 Y-8.3059 Z-0.0162 I0.9178 J0.3972
G1 X59.6566 Y-8.4179 Z-0.0163
G3 X59.6865 Y-8.4722 Z-0.0164 I0.8908 J0.4544
G1 X59.7504 Y-8.5804 Z-0.0165
G3 X59.7845 Y-8.6341 Z-0.0166 I0.8609 J0.5087
G1 X59.8552 Y-8.7381 Z-0.0168
G3 X59.8918 Y-8.7884 Z-0.0169 I0.8268 J0.5625
G1 X59.9688 Y-8.8877 Z-0.017
G3 X60.0 Y-8.9259 Z-0.0171 I0.7902 J0.6129
G1 Y-13.0 Z-0.0221
G1 X54.4259 Z-0.029
G3 X54.388 Y-12.969 I-0.6511 J-0.759
G1 X54.2888 Y-12.892 Z-0.0292
G3 X54.2382 Y-12.8553 Z-0.0293 I-0.6132 J-0.79
G1 X54.1343 Y-12.7846 Z-0.0294
G3 X54.0802 Y-12.7502 Z-0.0295 I-0.5626 J-0.8267
G1 X53.972 Y-12.6863 Z-0.0297
G3 X53.918 Y-12.6567 I-0.5085 J-0.8611
G1 X53.8061 Y-12.5996 Z-0.0299
G3 X53.7485 Y-12.5724 Z-0.03 I-0.4545 J-0.8907
G1 X53.6331 Y-12.5225 Z-0.0301
G3 X53.5746 Y-12.4994 Z-0.0302 I-0.3969 J-0.9179
G1 X53.4564 Y-12.4569 Z-0.0304
G3 X53.3974 Y-12.4377 I-0.3384 J-0.941
G1 X53.2768 Y-12.4026 Z-0.0306
G3 X53.2155 Y-12.3869 Z-0.0307 I-0.2794 J-0.9602
G1 X53.0929 Y-12.3595 Z-0.0308
G3 X53.0308 Y-12.3476 Z-0.0309 I-0.2181 J-0.9759
G1 X52.9067 Y-12.328 Z-0.0311
G3 X52.8454 Y-12.3203 I-0.156 J-0.9878
G1 X52.7203 Y-12.3084 Z-0.0313
G3 X52.6566 Y-12.3044 Z-0.0314 I-0.0947 J-0.9955
G1 X52.531 Y-12.3005 Z-0.0315
G3 X52.469 Z-0.0316 I-0.031 J-0.9995
G1 X52.3434 Y-12.3044 Z-0.0318
G3 X52.2797 Y-12.3084 I0.031 J-0.9995
G1 X52.1546 Y-12.3203 Z-0.032
G3 X52.0933 Y-12.328 Z-0.0321 I0.0947 J-0.9955
G1 X51.9692 Y-12.3476 Z-0.0322
G3 X51.9071 Y-12.3595 Z-0.0323 I0.156 J-0.9878
G1 X51.7845 Y-12.3869 Z-0.0325
G3 X51.7232 Y-12.4026 I0.2181 J-0.9759
G1 X51.6026 Y-12.4377 Z-0.0327
G3 X51.5439 Y-12.4568 Z-0.0328 I0.2794 J-0.9602
G1 X51.4256 Y-12.4993 Z-0.0329
G3 X51.3665 Y-12.5227 Z-0.033 I0.3381 J-0.9411
G1 X51.2512 Y-12.5726 Z-0.0332
G3 X51.1939 Y-12.5996 I0.3972 J-0.9177
G1 X51.082 Y-12.6567 Z-0.0334
G3 X51.028 Y-12.6863 Z-0.0335 I0.4545 J-0.8907
G1 X50.9198 Y-12.7502 Z-0.0336
G3 X50.8657 Y-12.7846 Z-0.0337 I0.5085 J-0.8611
G1 X50.7618 Y-12.8553 Z-0.0339
G3 X50.7112 Y-12.892 I0.5626 J-0.8267
G1 X50.612 Y-12.969 Z-0.0341
G3 X50.5741 Y-13.0 Z-0.0342 I0.6132 J-0.79
G1 X1.9259 Z-0.0942
G3 X1.8877 Y-12.9688 Z-0.0943 I-0.6511 J-0.759
G1 X1.7884 Y-12.8918 Z-0.0944
G3 X1.7381 Y-12.8552 Z-0.0945 I-0.6129 J-0.7902
G1 X1.6341 Y-12.7845 Z-0.0947
G3 X1.5804 Y-12.7504 I-0.5625 J-0.8268
G1 X1.4722 Y-12.6865 Z-0.0949
G3 X1.4179 Y-12.6566 Z-0.095 I-0.5087 J-0.8609
G1 X1.3059 Y-12.5995 Z-0.0951
G3 X1.2487 Y-12.5725 Z-0.0952 I-0.4544 J-0.8908
G1 X1.1334 Y-12.5226 Z-0.0954
G3 X1.0746 Y-12.4994 I-0.3972 J-0.9178
G1 X0.9563 Y-12.4569 Z-0.0956
G3 X0.8974 Y-12.4377 Z-0.0957 I-0.3383 J-0.941
G1 X0.7767 Y-12.4026 Z-0.0958
G3 X0.7155 Y-12.3869 Z-0.0959 I-0.2793 J-0.9602
G1 X0.5928 Y-12.3595 Z-0.0961
G3 X0.5308 Y-12.3476 I-0.2181 J-0.9759
G1 X0.4067 Y-12.328 Z-0.0963
G3 X0.3454 Y-12.3203 Z-0.0964 I-0.156 J-0.9878
G1 X0.2203 Y-12.3084 Z-0.0965
G3 X0.1566 Y-12.3044 Z-0.0966 I-0.0947 J-0.9955
G1 X0.031 Y-12.3005 Z-0.0968
G3 X-0.031 I-0.031 J-0.9995
G1 X-0.1566 Y-12.3044 Z-0.097
G3 X-0.2203 Y-12.3084 Z-0.0971 I0.031 J-0.9995
G1 X-0.3454 Y-12.3203 Z-0.0972
G3 X-0.4067 Y-12.328 Z-0.0973 I0.0947 J-0.9955
G1 X-0.5308 Y-12.3476 Z-0.0975
G3 X-0.5928 Y-12.3595 I0.156 J-0.9878
G1 X-0.7155 Y-12.3869 Z-0.0977
G3 X-0.7767 Y-12.4026 Z-0.0978 I0.2181 J-0.9759
G1 X-0.8974 Y-12.4377 Z-0.0979
G3 X-0.9563 Y-12.4569 Z-0.098 I0.2793 J-0.9602
G1 X-1.0746 Y-12.4994 Z-0.0982
G3 X-1.1334 Y-12.5226 I0.3383 J-0.941
G1 X-1.2487 Y-12.5725 Z-0.0984
G3 X-1.3059 Y-12.5995 Z-0.0985 I0.3972 J-0.9178
G1 X-1.4179 Y-12.6566 Z-0.0986
G3 X-1.4722 Y-12.6865 Z-0.0987 I0.4544 J-0.8908
G1 X-1.5804 Y-12.7504 Z-0.0989
G3 X-1.6341 Y-12.7845 I0.5087 J-0.8609
G1 X-1.7381 Y-12.8552 Z-0.0991
G3 X-1.7884 Y-12.8918 Z-0.0992 I0.5625 J-0.8268
G1 X-1.8877 Y-12.9688 Z-0.0993
G3 X-1.9259 Y-13.0 Z-0.0994 I0.6129 J-0.7902
G1 X-50.5741 Z-0.1594
G3 X-50.612 Y-12.969 Z-0.1595 I-0.6511 J-0.759
G1 X-50.7112 Y-12.892 Z-0.1597
G3 X-50.7618 Y-12.8553 I-0.6132 J-0.79
G1 X-50.8657 Y-12.7846 Z-0.1599
G3 X-50.9198 Y-12.7502 Z-0.16 I-0.5626 J-0.8267
G1 X-51.028 Y-12.6863 Z-0.1601
G3 X-51.082 Y-12.6567 Z-0.1602 I-0.5085 J-0.8611
G1 X-51.1939 Y-12.5996 Z-0.1604
G3 X-51.2512 Y-12.5726 I-0.4545 J-0.8907
G1 X-51.3665 Y-12.5227 Z-0.1606
G3 X-51.4256 Y-12.4993 Z-0.1607 I-0.3972 J-0.9177
G1 X-51.5439 Y-12.4568 Z-0.1608
G3 X-51.6026 Y-12.4377 Z-0.1609 I-0.3381 J-0.9411
G1 X-51.7232 Y-12.4026 Z-0.1611
G3 X-51.7845 Y-12.3869 I-0.2794 J-0.9602
G1 X-51.9071 Y-12.3595 Z-0.1613
G3 X-51.9692 Y-12.3476 Z-0.1614 I-0.2181 J-0.9759
G1 X-52.0933 Y-12.328 Z-0.1615
G3 X-52.1546 Y-12.3203 Z-0.1616 I-0.156 J-0.9878
G1 X-52.2797 Y-12.3084 Z-0.1618
G3 X-52.3434 Y-12.3044 I-0.0947 J-0.9955
G1 X-52.469 Y-12.3005 Z-0.162
G3 X-52.531 Z-0.1621 I-0.031 J-0.9995
G1 X-52.6566 Y-12.3044 Z-0.1622
G3 X-52.7203 Y-12.3084 Z-0.1623 I0.031 J-0.9995
G1 X-52.8454 Y-12.3203 Z-0.1625
G3 X-52.9067 Y-12.328 I0.0947 J-0.9955
G1 X-53.0308 Y-12.3476 Z-0.1627
G3 X-53.0929 Y-12.3595 Z-0.1628 I0.156 J-0.9878
G1 X-53.2155 Y-12.3869 Z-0.1629
G3 X-53.2768 Y-12.4026 Z-0.163 I0.2181 J-0.9759
G1 X-53.3974 Y-12.4377 Z-0.1632
G3 X-53.4564 Y-12.4569 I0.2794 J-0.9602
G1 X-53.5746 Y-12.4994 Z-0.1634
G3 X-53.6331 Y-12.5225 Z-0.1635 I0.3384 J-0.941
G1 X-53.7485 Y-12.5724 Z-0.1636
G3 X-53.8061 Y-12.5996 Z-0.1637 I0.3969 J-0.9179
G1 X-53.918 Y-12.6567 Z-0.1639
G3 X-53.972 Y-12.6863 I0.4545 J-0.8907
G1 X-54.0802 Y-12.7502 Z-0.1641
G3 X-54.1343 Y-12.7846 Z-0.1642 I0.5085 J-0.8611
G1 X-54.2382 Y-12.8553 Z-0.1643
G3 X-54.2888 Y-12.892 Z-0.1644 I0.5626 J-0.8267
G1 X-54.388 Y-12.969 Z-0.1646
G3 X-54.4259 Y-13.0 I0.6132 J-0.79
G1 X-60.0 Z-0.1715
G1 Y-8.9259 Z-0.1765
G3 X-59.9688 Y-8.8877 Z-0.1766 I-0.759 J0.6511
G1 X-59.8918 Y-8.7884 Z-0.1767
G3 X-59.8552 Y-8.7381 Z-0.1768 I-0.7902 J0.6129
G1 X-59.7845 Y-8.6341 Z-0.177
G3 X-59.7504 Y-8.5804 Z-0.1771 I-0.8268 J0.5625
G1 X-59.6865 Y-8.4722 Z-0.1772
G3 X-59.6566 Y-8.4179 Z-0.1773 I-0.8609 J0.5087
G1 X-59.5995 Y-8.3059 Z-0.1774
G3 X-59.5725 Y-8.2487 Z-0.1775 I-0.8908 J0.4544
G1 X-59.5226 Y-8.1334 Z-0.1777
G3 X-59.4994 Y-8.0746 Z-0.1778 I-0.9178 J0.3972
G1 X-59.4569 Y-7.9563 Z-0.1779
G3 X-59.4377 Y-7.8974 Z-0.178 I-0.941 J0.3383
G1 X-59.4026 Y-7.7767 Z-0.1781
G3 X-59.3869 Y-7.7155 Z-0.1782 I-0.9602 J0.2793
G1 X-59.3595 Y-7.5928 Z-0.1784
G3 X-59.3476 Y-7.5308 I-0.9759 J0.2181
G1 X-59.328 Y-7.4067 Z-0.1786
G3 X-59.3203 Y-7.3454 Z-0.1787 I-0.9878 J0.156
G1 X-59.3084 Y-7.2203 Z-0.1788
G3 X-59.3044 Y-7.1566 Z-0.1789 I-0.9955 J0.0947
G1 X-59.3005 Y-7.031 Z-0.1791
G3 Y-6.969 I-0.9995 J0.031
G1 X-59.3044 Y-6.8434 Z-0.1793
G3 X-59.3084 Y-6.7797 Z-0.1794 I-0.9995 J-0.031
G1 X-59.3203 Y-6.6546 Z-0.1795
G3 X-59.328 Y-6.5933 Z-0.1796 I-0.9955 J-0.0947
G1 X-59.3476 Y-6.4692 Z-0.1798
G3 X-59.3595 Y-6.4072 I-0.9878 J-0.156
G1 X-59.3869 Y-6.2845 Z-0.18
G3 X-59.4026 Y-6.2233 Z-0.1801 I-0.9759 J-0.2181
G1 X-59.4377 Y-6.1026 Z-0.1802
G3 X-59.4569 Y-6.0437 Z-0.1803 I-0.9602 J-0.2793
G1 X-59.4994 Y-5.9254 Z-0.1805
G3 X-59.5226 Y-5.8666 I-0.941 J-0.3383
G1 X-59.5725 Y-5.7513 Z-0.1807
G3 X-59.5995 Y-5.6941 Z-0.1808 I-0.9178 J-0.3972
G1 X-59.6566 Y-5.5821 Z-0.1809
G3 X-59.6865 Y-5.5278 Z-0.181 I-0.8908 J-0.4544
G1 X-59.7504 Y-5.4196 Z-0.1812
G3 X-59.7845 Y-5.3659 I-0.8609 J-0.5087
G1 X-59.8552 Y-5.2619 Z-0.1814
G3 X-59.8918 Y-5.2116 Z-0.1815 I-0.8268 J-0.5625
G1 X-59.9688 Y-5.1123 Z-0.1816
G3 X-60.0 Y-5.0741 Z-0.1817 I-0.7902 J-0.6129
G1 Y4.5741 Z-0.1936
G3 X-59.9688 Y4.6123 Z-0.1937 I-0.759 J0.6511
G1 X-59.8918 Y4.7116 Z-0.1938
G3 X-59.8552 Y4.7619 Z-0.1939 I-0.7902 J0.6129
G1 X-59.7845 Y4.8659 Z-0.194
G3 X-59.7504 Y4.9196 Z-0.1941 I-0.8268 J0.5625
G1 X-59.6865 Y5.0278 Z-0.1943
G3 X-59.6566 Y5.0821 Z-0.1944 I-0.8609 J0.5087
G1 X-59.5995 Y5.1941 Z-0.1945
G3 X-59.5725 Y5.2513 Z-0.1946 I-0.8908 J0.4544
G1 X-59.5226 Y5.3666 Z-0.1947
G3 X-59.4994 Y5.4254 Z-0.1948 I-0.9178 J0.3972
G1 X-59.4569 Y5.5437 Z-0.195
G3 X-59.4377 Y5.6026 Z-0.1951 I-0.941 J0.3383
G1 X-59.4026 Y5.7233 Z-0.1952
G3 X-59.3869 Y5.7845 Z-0.1953 I-0.9602 J0.2793
G1 X-59.3595 Y5.9072 Z-0.1954
G3 X-59.3476 Y5.9692 Z-0.1955 I-0.9759 J0.2181
G1 X-59.328 Y6.0933 Z-0.1957
G3 X-59.3203 Y6.1546 Z-0.1958 I-0.9878 J0.156
G1 X-59.3084 Y6.2797 Z-0.1959
G3 X-59.3044 Y6.3434 Z-0.196 I-0.9955 J0.0947
G1 X-59.3005 Y6.469 Z-0.1961
G3 Y6.531 Z-0.1962 I-0.9995 J0.031
G1 X-59.3044 Y6.6566 Z-0.1964
G3 X-59.3084 Y6.7203 Z-0.1965 I-0.9995 J-0.031
G1 X-59.3203 Y6.8454 Z-0.1966
G3 X-59.328 Y6.9067 Z-0.1967 I-0.9955 J-0.0947
G1 X-59.3476 Y7.0308 Z-0.1968
G3 X-59.3595 Y7.0928 Z-0.1969 I-0.9878 J-0.156
G1 X-59.3869 Y7.2155 Z-0.1971
G3 X-59.4026 Y7.2767 Z-0.1972 I-0.9759 J-0.2181
G1 X-59.4377 Y7.3974 Z-0.1973
G3 X-59.4569 Y7.4563 Z-0.1974 I-0.9602 J-0.2793
G1 X-59.4994 Y7.5746 Z-0.1975
G3 X-59.5226 Y7.6334 Z-0.1976 I-0.941 J-0.3383
G1 X-59.5725 Y7.7487 Z-0.1978
G3 X-59.5995 Y7.8059 Z-0.1979 I-0.9178 J-0.3972
G1 X-59.6566 Y7.9179 Z-0.198
G3 X-59.6865 Y7.9722 Z-0.1981 I-0.8908 J-0.4544
G1 X-59.7504 Y8.0804 Z-0.1982
G3 X-59.7845 Y8.1341 Z-0.1983 I-0.8609 J-0.5087
G1 X-59.8552 Y8.2381 Z-0.1985
G3 X-59.8918 Y8.2884 I-0.8268 J-0.5625
G1 X-59.9688 Y8.3877 Z-0.1987
G3 X-60.0 Y8.4259 Z-0.1988 I-0.7902 J-0.6129
G1 Y18.0741 Z-0.2107
G3 X-59.969 Y18.112 I-0.759 J0.6511
G1 X-59.892 Y18.2112 Z-0.2109
G3 X-59.8553 Y18.2618 Z-0.211 I-0.79 J0.6132
G1 X-59.7846 Y18.3657 Z-0.2111
G3 X-59.7502 Y18.4198 Z-0.2112 I-0.8267 J0.5626
G1 X-59.6863 Y18.528 Z-0.2114
G3 X-59.6567 Y18.582 I-0.8611 J0.5085
G1 X-59.5996 Y18.6939 Z-0.2116
G3 X-59.5724 Y18.7515 Z-0.2117 I-0.8907 J0.4545
G1 X-59.5225 Y18.8669 Z-0.2118
G3 X-59.4994 Y18.9254 Z-0.2119 I-0.9179 J0.3969
G1 X-59.4569 Y19.0436 Z-0.2121
G3 X-59.4377 Y19.1026 I-0.941 J0.3384
G1 X-59.4026 Y19.2232 Z-0.2123
G3 X-59.3869 Y19.2845 Z-0.2124 I-0.9602 J0.2794
G1 X-59.3595 Y19.4071 Z-0.2125
G3 X-59.3476 Y19.4692 Z-0.2126 I-0.9759 J0.2181
G1 X-59.328 Y19.5933 Z-0.2128
G3 X-59.3203 Y19.6546 I-0.9878 J0.156
G1 X-59.3084 Y19.7797 Z-0.213
G3 X-59.3044 Y19.8434 Z-0.2131 I-0.9955 J0.0947
G1 X-59.3005 Y19.969 Z-0.2132
G3 Y20.031 Z-0.2133 I-0.9995 J0.031
G1 X-59.3044 Y20.1566 Z-0.2135
G3 X-59.3084 Y20.2203 I-0.9995 J-0.031
G1 X-59.3203 Y20.3454 Z-0.2137
G3 X-59.328 Y20.4067 Z-0.2138 I-0.9955 J-0.0947
G1 X-59.3476 Y20.5308 Z-0.2139
G3 X-59.3595 Y20.5929 Z-0.214 I-0.9878 J-0.156
G1 X-59.3869 Y20.7155 Z-0.2142
G3 X-59.4026 Y20.7768 I-0.9759 J-0.2181
G1 X-59.4377 Y20.8974 Z-0.2144
G3 X-59.4569 Y20.9564 Z-0.2145 I-0.9602 J-0.2794
G1 X-59.4994 Y21.0746 Z-0.2146
G3 X-59.5225 Y21.1331 Z-0.2147 I-0.941 J-0.3384
G1 X-59.5724 Y21.2485 Z-0.2148
G3 X-59.5996 Y21.3061 Z-0.2149 I-0.9179 J-0.3969
G1 X-59.6567 Y21.418 Z-0.2151
G3 X-59.6863 Y21.472 Z-0.2152 I-0.8907 J-0.4545
G1 X-59.7502 Y21.5802 Z-0.2153
G3 X-59.7846 Y21.6343 Z-0.2154 I-0.8611 J-0.5085
G1 X-59.8553 Y21.7382 Z-0.2155
G3 X-59.892 Y21.7888 Z-0.2156 I-0.8267 J-0.5626
G1 X-59.969 Y21.888 Z-0.2158
G3 X-60.0 Y21.9259 I-0.79 J-0.6132
G1 Y27.0 Z-0.2221
G1 X-54.4259 Z-0.229
G3 X-54.388 Y26.969 I0.6511 J0.759
G1 X-54.2888 Y26.892 Z-0.2292
G3 X-54.2382 Y26.8553 Z-0.2293 I0.6132 J0.79
G1 X-54.1343 Y26.7846 Z-0.2294
G3 X-54.0802 Y26.7502 Z-0.2295 I0.5626 J0.8267
G1 X-53.972 Y26.6863 Z-0.2297
G3 X-53.918 Y26.6567 I0.5085 J0.8611
G1 X-53.8061 Y26.5996 Z-0.2299
G3 X-53.7485 Y26.5724 Z-0.23 I0.4545 J0.8907
G1 X-53.6331 Y26.5225 Z-0.2301
G3 X-53.5746 Y26.4994 Z-0.2302 I0.3969 J0.9179
G1 X-53.4564 Y26.4569 Z-0.2304
G3 X-53.3974 Y26.4377 I0.3384 J0.941
G1 X-53.2768 Y26.4026 Z-0.2306
G3 X-53.2155 Y26.3869 Z-0.2307 I0.2794 J0.9602
G1 X-53.0929 Y26.3595 Z-0.2308
G3 X-53.0308 Y26.3476 Z-0.2309 I0.2181 J0.9759
G1 X-52.9067 Y26.328 Z-0.2311
G3 X-52.8454 Y26.3203 I0.156 J0.9878
G1 X-52.7203 Y26.3084 Z-0.2313
G3 X-52.6566 Y26.3044 Z-0.2314 I0.0947 J0.9955
G1 X-52.531 Y26.3005 Z-0.2315
G3 X-52.469 Z-0.2316 I0.031 J0.9995
G1 X-52.3434 Y26.3044 Z-0.2318
G3 X-52.2797 Y26.3084 I-0.031 J0.9995
G1 X-52.1546 Y26.3203 Z-0.232
G3 X-52.0933 Y26.328 Z-0.2321 I-0.0947 J0.9955
G1 X-51.9692 Y26.3476 Z-0.2322
G3 X-51.9071 Y26.3595 Z-0.2323 I-0.156 J0.9878
G1 X-51.7845 Y26.3869 Z-0.2325
G3 X-51.7232 Y26.4026 I-0.2181 J0.9759
G1 X-51.6026 Y26.4377 Z-0.2327
G3 X-51.5439 Y26.4568 Z-0.2328 I-0.2794 J0.9602
G1 X-51.4256 Y26.4993 Z-0.2329
G3 X-51.3665 Y26.5227 Z-0.233 I-0.3381 J0.9411
G1 X-51.2512 Y26.5726 Z-0.2332
G3 X-51.1939 Y26.5996 I-0.3972 J0.9177
G1 X-51.082 Y26.6567 Z-0.2334
G3 X-51.028 Y26.6863 Z-0.2335 I-0.4545 J0.8907
G1 X-50.9198 Y26.7502 Z-0.2336
G3 X-50.8657 Y26.7846 Z-0.2337 I-0.5085 J0.8611
G1 X-50.7618 Y26.8553 Z-0.2339
G3 X-50.7112 Y26.892 I-0.5626 J0.8267
G1 X-50.612 Y26.969 Z-0.2341
G3 X-50.5741 Y27.0 Z-0.2342 I-0.6132 J0.79
G1 X-1.9259 Z-0.2942
G3 X-1.8877 Y26.9688 Z-0.2943 I0.6511 J0.759
G1 X-1.7884 Y26.8918 Z-0.2944
G3 X-1.7381 Y26.8552 Z-0.2945 I0.6129 J0.7902
G1 X-1.6341 Y26.7845 Z-0.2947
G3 X-1.5804 Y26.7504 I0.5625 J0.8268
G1 X-1.4722 Y26.6865 Z-0.2949
G3 X-1.4179 Y26.6566 Z-0.295 I0.5087 J0.8609
G1 X-1.3059 Y26.5995 Z-0.2951
G3 X-1.2487 Y26.5725 Z-0.2952 I0.4544 J0.8908
G1 X-1.1334 Y26.5226 Z-0.2954
G3 X-1.0746 Y26.4994 I0.3972 J0.9178
G1 X-0.9563 Y26.4569 Z-0.2956
G3 X-0.8974 Y26.4377 Z-0.2957 I0.3383 J0.941
G1 X-0.7767 Y26.4026 Z-0.2958
G3 X-0.7155 Y26.3869 Z-0.2959 I0.2793 J0.9602
G1 X-0.5928 Y26.3595 Z-0.2961
G3 X-0.5308 Y26.3476 I0.2181 J0.9759
G1 X-0.4067 Y26.328 Z-0.2963
G3 X-0.3454 Y26.3203 Z-0.2964 I0.156 J0.9878
G1 X-0.2203 Y26.3084 Z-0.2965
G3 X-0.1566 Y26.3044 Z-0.2966 I0.0947 J0.9955
G1 X-0.031 Y26.3005 Z-0.2968
G3 X0.031 I0.031 J0.9995
G1 X0.1566 Y26.3044 Z-0.297
G3 X0.2203 Y26.3084 Z-0.2971 I-0.031 J0.9995
G1 X0.3454 Y26.3203 Z-0.2972
G3 X0.4067 Y26.328 Z-0.2973 I-0.0947 J0.9955
G1 X0.5308 Y26.3476 Z-0.2975
G3 X0.5928 Y26.3595 I-0.156 J0.9878
G1 X0.7155 Y26.3869 Z-0.2977
G3 X0.7767 Y26.4026 Z-0.2978 I-0.2181 J0.9759
G1 X0.8974 Y26.4377 Z-0.2979
G3 X0.9563 Y26.4569 Z-0.298 I-0.2793 J0.9602
G1 X1.0746 Y26.4994 Z-0.2982
G3 X1.1334 Y26.5226 I-0.3383 J0.941
G1 X1.2487 Y26.5725 Z-0.2984
G3 X1.3059 Y26.5995 Z-0.2985 I-0.3972 J0.9178
G1 X1.4179 Y26.6566 Z-0.2986
G3 X1.4722 Y26.6865 Z-0.2987 I-0.4544 J0.8908
G1 X1.5804 Y26.7504 Z-0.2989
G3 X1.6341 Y26.7845 I-0.5087 J0.8609
G1 X1.7381 Y26.8552 Z-0.2991
G3 X1.7884 Y26.8918 Z-0.2992 I-0.5625 J0.8268
G1 X1.8877 Y26.9688 Z-0.2993
G3 X1.9259 Y27.0 Z-0.2994 I-0.6129 J0.7902
G1 X50.5741 Z-0.3594
G3 X50.612 Y26.969 Z-0.3595 I0.6511 J0.759
G1 X50.7112 Y26.892 Z-0.3597
G3 X50.7618 Y26.8553 I0.6132 J0.79
G1 X50.8657 Y26.7846 Z-0.3599
G3 X50.9198 Y26.7502 Z-0.36 I0.5626 J0.8267
G1 X51.028 Y26.6863 Z-0.3601
G3 X51.082 Y26.6567 Z-0.3602 I0.5085 J0.8611
G1 X51.1939 Y26.5996 Z-0.3604
G3 X51.2512 Y26.5726 I0.4545 J0.8907
G1 X51.3665 Y26.5227 Z-0.3606
G3 X51.4256 Y26.4993 Z-0.3607 I0.3972 J0.9177
G1 X51.5439 Y26.4568 Z-0.3608
G3 X51.6026 Y26.4377 Z-0.3609 I0.3381 J0.9411
G1 X51.7232 Y26.4026 Z-0.3611
G3 X51.7845 Y26.3869 I0.2794 J0.9602
G1 X51.9071 Y26.3595 Z-0.3613
G3 X51.9692 Y26.3476 Z-0.3614 I0.2181 J0.9759
G1 X52.0933 Y26.328 Z-0.3615
G3 X52.1546 Y26.3203 Z-0.3616 I0.156 J0.9878
G1 X52.2797 Y26.3084 Z-0.3618
G3 X52.3434 Y26.3044 I0.0947 J0.9955
G1 X52.469 Y26.3005 Z-0.362
G3 X52.531 Z-0.3621 I0.031 J0.9995
G1 X52.6566 Y26.3044 Z-0.3622
G3 X52.7203 Y26.3084 Z-0.3623 I-0.031 J0.9995
G1 X52.8454 Y26.3203 Z-0.3625
G3 X52.9067 Y26.328 I-0.0947 J0.9955
G1 X53.0308 Y26.3476 Z-0.3627
G3 X53.0929 Y26.3595 Z-0.3628 I-0.156 J0.9878
G1 X53.2155 Y26.3869 Z-0.3629
G3 X53.2768 Y26.4026 Z-0.363 I-0.2181 J0.9759
G1 X53.3974 Y26.4377 Z-0.3632
G3 X53.4564 Y26.4569 I-0.2794 J0.9602
G1 X53.5746 Y26.4994 Z-0.3634
G3 X53.6331 Y26.5225 Z-0.3635 I-0.3384 J0.941
G1 X53.7485 Y26.5724 Z-0.3636
G3 X53.8061 Y26.5996 Z-0.3637 I-0.3969 J0.9179
G1 X53.918 Y26.6567 Z-0.3639
G3 X53.972 Y26.6863 I-0.4545 J0.8907
G1 X54.0802 Y26.7502 Z-0.3641
G3 X54.1343 Y26.7846 Z-0.3642 I-0.5085 J0.8611
G1 X54.2382 Y26.8553 Z-0.3643
G3 X54.2888 Y26.892 Z-0.3644 I-0.5626 J0.8267
G1 X54.388 Y26.969 Z-0.3646
G3 X54.4259 Y27.0 I-0.6132 J0.79
G1 X60.0 Z-0.3715
G1 Y21.9259 Z-0.3778
G3 X59.969 Y21.888 I0.759 J-0.6511
G1 X59.892 Y21.7888 Z-0.378
G3 X59.8553 Y21.7382 Z-0.3781 I0.79 J-0.6132
G1 X59.7846 Y21.6343 Z-0.3782
G3 X59.7502 Y21.5802 Z-0.3783 I0.8267 J-0.5626
G1 X59.6863 Y21.472 Z-0.3784
G3 X59.6567 Y21.418 Z-0.3785 I0.8611 J-0.5085
G1 X59.5996 Y21.3061 Z-0.3787
G3 X59.5724 Y21.2485 Z-0.3788 I0.8907 J-0.4545
G1 X59.5225 Y21.1331 Z-0.3789
G3 X59.4994 Y21.0746 Z-0.379 I0.9179 J-0.3969
G1 X59.4569 Y20.9564 Z-0.3791
G3 X59.4377 Y20.8974 Z-0.3792 I0.941 J-0.3384
G1 X59.4026 Y20.7768 Z-0.3794
G3 X59.3869 Y20.7155 I0.9602 J-0.2794
G1 X59.3595 Y20.5929 Z-0.3796
G3 X59.3476 Y20.5308 Z-0.3797 I0.9759 J-0.2181
G1 X59.328 Y20.4067 Z-0.3798
G3 X59.3203 Y20.3454 Z-0.3799 I0.9878 J-0.156
G1 X59.3084 Y20.2203 Z-0.3801
G3 X59.3044 Y20.1566 I0.9955 J-0.0947
G1 X59.3005 Y20.031 Z-0.3803
G3 Y19.969 Z-0.3804 I0.9995 J-0.031
G1 X59.3044 Y19.8434 Z-0.3805
G3 X59.3084 Y19.7797 Z-0.3806 I0.9995 J0.031
G1 X59.3203 Y19.6546 Z-0.3808
G3 X59.328 Y19.5933 I0.9955 J0.0947
G1 X59.3476 Y19.4692 Z-0.381
G3 X59.3595 Y19.4071 Z-0.3811 I0.9878 J0.156
G1 X59.3869 Y19.2845 Z-0.3812
G3 X59.4026 Y19.2232 Z-0.3813 I0.9759 J0.2181
G1 X59.4377 Y19.1026 Z-0.3815
G3 X59.4569 Y19.0436 I0.9602 J0.2794
G1 X59.4994 Y18.9254 Z-0.3817
G3 X59.5225 Y18.8669 Z-0.3818 I0.941 J0.3384
G1 X59.5724 Y18.7515 Z-0.3819
G3 X59.5996 Y18.6939 Z-0.382 I0.9179 J0.3969
G1 X59.6567 Y18.582 Z-0.3822
G3 X59.6863 Y18.528 I0.8907 J0.4545
G1 X59.7502 Y18.4198 Z-0.3824
G3 X59.7846 Y18.3657 Z-0.3825 I0.8611 J0.5085
G1 X59.8553 Y18.2618 Z-0.3826
G3 X59.892 Y18.2112 Z-0.3827 I0.8267 J0.5626
G1 X59.969 Y18.112 Z-0.3829
G3 X60.0 Y18.0741 I0.79 J0.6132
G1 Y8.4259 Z-0.3948
G3 X59.9688 Y8.3877 Z-0.3949 I0.759 J-0.6511
G1 X59.8918 Y8.2884 Z-0.3951
G3 X59.8552 Y8.2381 I0.7902 J-0.6129
G1 X59.7845 Y8.1341 Z-0.3953
G3 X59.7504 Y8.0804 Z-0.3954 I0.8268 J-0.5625
G1 X59.6865 Y7.9722 Z-0.3955
G3 X59.6566 Y7.9179 Z-0.3956 I0.8609 J-0.5087
G1 X59.5995 Y7.8059 Z-0.3957
G3 X59.5725 Y7.7487 Z-0.3958 I0.8908 J-0.4544
G1 X59.5226 Y7.6334 Z-0.396
G3 X59.4994 Y7.5746 Z-0.3961 I0.9178 J-0.3972
G1 X59.4569 Y7.4563 Z-0.3962
G3 X59.4377 Y7.3974 Z-0.3963 I0.941 J-0.3383
G1 X59.4026 Y7.2767 Z-0.3964
G3 X59.3869 Y7.2155 Z-0.3965 I0.9602 J-0.2793
G1 X59.3595 Y7.0928 Z-0.3967
G3 X59.3476 Y7.0308 Z-0.3968 I0.9759 J-0.2181
G1 X59.328 Y6.9067 Z-0.3969
G3 X59.3203 Y6.8454 Z-0.397 I0.9878 J-0.156
G1 X59.3084 Y6.7203 Z-0.3971
G3 X59.3044 Y6.6566 Z-0.3972 I0.9955 J-0.0947
G1 X59.3005 Y6.531 Z-0.3974
G3 Y6.469 Z-0.3975 I0.9995 J-0.031
G1 X59.3044 Y6.3434 Z-0.3976
G3 X59.3084 Y6.2797 Z-0.3977 I0.9995 J0.031
G1 X59.3203 Y6.1546 Z-0.3978
G3 X59.328 Y6.0933 Z-0.3979 I0.9955 J0.0947
G1 X59.3476 Y5.9692 Z-0.3981
G3 X59.3595 Y5.9072 Z-0.3982 I0.9878 J0.156
G1 X59.3869 Y5.7845 Z-0.3983
G3 X59.4026 Y5.7233 Z-0.3984 I0.9759 J0.2181
G1 X59.4377 Y5.6026 Z-0.3985
G3 X59.4569 Y5.5437 Z-0.3986 I0.9602 J0.2793
G1 X59.4994 Y5.4254 Z-0.3988
G3 X59.5226 Y5.3666 Z-0.3989 I0.941 J0.3383
G1 X59.5725 Y5.2513 Z-0.399
G3 X59.5995 Y5.1941 Z-0.3991 I0.9178 J0.3972
G1 X59.6566 Y5.0821 Z-0.3992
G3 X59.6865 Y5.0278 Z-0.3993 I0.8908 J0.4544
G1 X59.7504 Y4.9196 Z-0.3995
G3 X59.7845 Y4.8659 Z-0.3996 I0.8609 J0.5087
G1 X59.8552 Y4.7619 Z-0.3997
G3 X59.8918 Y4.7116 Z-0.3998 I0.8268 J0.5625
G1 X59.9688 Y4.6123 Z-0.3999
G3 X60.0 Y4.5741 Z-0.4 I0.7902 J0.6129
G1 Y-5.0741 Z-0.4119
G3 X59.9688 Y-5.1123 Z-0.412 I0.759 J-0.6511
G1 X59.8918 Y-5.2116 Z-0.4121
G3 X59.8552 Y-5.2619 Z-0.4122 I0.7902 J-0.6129
G1 X59.7845 Y-5.3659 Z-0.4124
G3 X59.7504 Y-5.4196 I0.8268 J-0.5625
G1 X59.6865 Y-5.5278 Z-0.4126
G3 X59.6566 Y-5.5821 Z-0.4127 I0.8609 J-0.5087
G1 X59.5995 Y-5.6941 Z-0.4128
G3 X59.5725 Y-5.7513 Z-0.4129 I0.8908 J-0.4544
G1 X59.5226 Y-5.8666 Z-0.4131
G3 X59.4994 Y-5.9254 I0.9178 J-0.3972
G1 X59.4569 Y-6.0437 Z-0.4133
G3 X59.4377 Y-6.1026 Z-0.4134 I0.941 J-0.3383
G1 X59.4026 Y-6.2233 Z-0.4135
G3 X59.3869 Y-6.2845 Z-0.4136 I0.9602 J-0.2793
G1 X59.3595 Y-6.4072 Z-0.4138
G3 X59.3476 Y-6.4692 I0.9759 J-0.2181
G1 X59.328 Y-6.5933 Z-0.414
G3 X59.3203 Y-6.6546 Z-0.4141 I0.9878 J-0.156
G1 X59.3084 Y-6.7797 Z-0.4142
G3 X59.3044 Y-6.8434 Z-0.4143 I0.9955 J-0.0947
G1 X59.3005 Y-6.969 Z-0.4145
G3 Y-7.031 I0.9995 J-0.031
G1 X59.3044 Y-7.1566 Z-0.4147
G3 X59.3084 Y-7.2203 Z-0.4148 I0.9995 J0.031
G1 X59.3203 Y-7.3454 Z-0.4149
G3 X59.328 Y-7.4067 Z-0.415 I0.9955 J0.0947
G1 X59.3476 Y-7.5308 Z-0.4152
G3 X59.3595 Y-7.5928 I0.9878 J0.156
G1 X59.3869 Y-7.7155 Z-0.4154
G3 X59.4026 Y-7.7767 Z-0.4155 I0.9759 J0.2181
G1 X59.4377 Y-7.8974 Z-0.4156
G3 X59.4569 Y-7.9563 Z-0.4157 I0.9602 J0.2793
G1 X59.4994 Y-8.0746 Z-0.4159
G3 X59.5226 Y-8.1334 I0.941 J0.3383
G1 X59.5725 Y-8.2487 Z-0.4161
G3 X59.5995 Y-8.3059 Z-0.4162 I0.9178 J0.3972
G1 X59.6566 Y-8.4179 Z-0.4163
G3 X59.6865 Y-8.4722 Z-0.4164 I0.8908 J0.4544
G1 X59.7504 Y-8.5804 Z-0.4165
G3 X59.7845 Y-8.6341 Z-0.4166 I0.8609 J0.5087
G1 X59.8552 Y-8.7381 Z-0.4168
G3 X59.8918 Y-8.7884 Z-0.4169 I0.8268 J0.5625
G1 X59.9688 Y-8.8877 Z-0.417
G3 X60.0 Y-8.9259 Z-0.4171 I0.7902 J0.6129
G1 Y-13.0 Z-0.4221
G1 X54.4259 Z-0.429
G3 X54.388 Y-12.969 I-0.6511 J-0.759
G1 X54.2888 Y-12.892 Z-0.4292
G3 X54.2382 Y-12.8553 Z-0.4293 I-0.6132 J-0.79
G1 X54.1343 Y-12.7846 Z-0.4294
G3 X54.0802 Y-12.7502 Z-0.4295 I-0.5626 J-0.8267
G1 X53.972 Y-12.6863 Z-0.4297
G3 X53.918 Y-12.6567 I-0.5085 J-0.8611
G1 X53.8061 Y-12.5996 Z-0.4299
G3 X53.7485 Y-12.5724 Z-0.43 I-0.4545 J-0.8907
G1 X53.6331 Y-12.5225 Z-0.4301
G3 X53.5746 Y-12.4994 Z-0.4302 I-0.3969 J-0.9179
G1 X53.4564 Y-12.4569 Z-0.4304
G3 X53.3974 Y-12.4377 I-0.3384 J-0.941
G1 X53.2768 Y-12.4026 Z-0.4306
G3 X53.2155 Y-12.3869 Z-0.4307 I-0.2794 J-0.9602
G1 X53.0929 Y-12.3595 Z-0.4308
G3 X53.0308 Y-12.3476 Z-0.4309 I-0.2181 J-0.9759
G1 X52.9067 Y-12.328 Z-0.4311
G3 X52.8454 Y-12.3203 I-0.156 J-0.9878
G1 X52.7203 Y-12.3084 Z-0.4313
G3 X52.6566 Y-12.3044 Z-0.4314 I-0.0947 J-0.9955
G1 X52.531 Y-12.3005 Z-0.4315
G3 X52.469 Z-0.4316 I-0.031 J-0.9995
G1 X52.3434 Y-12.3044 Z-0.4318
G3 X52.2797 Y-12.3084 I0.031 J-0.9995
G1 X52.1546 Y-12.3203 Z-0.432
G3 X52.0933 Y-12.328 Z-0.4321 I0.0947 J-0.9955
G1 X51.9692 Y-12.3476 Z-0.4322
G3 X51.9071 Y-12.3595 Z-0.4323 I0.156 J-0.9878
G1 X51.7845 Y-12.3869 Z-0.4325
G3 X51.7232 Y-12.4026 I0.2181 J-0.9759
G1 X51.6026 Y-12.4377 Z-0.4327
G3 X51.5439 Y-12.4568 Z-0.4328 I0.2794 J-0.9602
G1 X51.4256 Y-12.4993 Z-0.4329
G3 X51.3665 Y-12.5227 Z-0.433 I0.3381 J-0.9411
G1 X51.2512 Y-12.5726 Z-0.4332
G3 X51.1939 Y-12.5996 I0.3972 J-0.9177
G1 X51.082 Y-12.6567 Z-0.4334
G3 X51.028 Y-12.6863 Z-0.4335 I0.4545 J-0.8907
G1 X50.9198 Y-12.7502 Z-0.4336
G3 X50.8657 Y-12.7846 Z-0.4337 I0.5085 J-0.8611
G1 X50.7618 Y-12.8553 Z-0.4339
G3 X50.7112 Y-12.892 I0.5626 J-0.8267
G1 X50.612 Y-12.969 Z-0.4341
G3 X50.5741 Y-13.0 Z-0.4342 I0.6132 J-0.79
G1 X1.9259 Z-0.4942
G3 X1.8877 Y-12.9688 Z-0.4943 I-0.6511 J-0.759
G1 X1.7884 Y-12.8918 Z-0.4944
G3 X1.7381 Y-12.8552 Z-0.4945 I-0.6129 J-0.7902
G1 X1.6341 Y-12.7845 Z-0.4947
G3 X1.5804 Y-12.7504 I-0.5625 J-0.8268
G1 X1.4722 Y-12.6865 Z-0.4949
G3 X1.4179 Y-12.6566 Z-0.495 I-0.5087 J-0.8609
G1 X1.3059 Y-12.5995 Z-0.4951
G3 X1.2487 Y-12.5725 Z-0.4952 I-0.4544 J-0.8908
G1 X1.1334 Y-12.5226 Z-0.4954
G3 X1.0746 Y-12.4994 I-0.3972 J-0.9178
G1 X0.9563 Y-12.4569 Z-0.4956
G3 X0.8974 Y-12.4377 Z-0.4957 I-0.3383 J-0.941
G1 X0.7767 Y-12.4026 Z-0.4958
G3 X0.7155 Y-12.3869 Z-0.4959 I-0.2793 J-0.9602
G1 X0.5928 Y-12.3595 Z-0.4961
G3 X0.5308 Y-12.3476 I-0.2181 J-0.9759
G1 X0.4067 Y-12.328 Z-0.4963
G3 X0.3454 Y-12.3203 Z-0.4964 I-0.156 J-0.9878
G1 X0.2203 Y-12.3084 Z-0.4965
G3 X0.1566 Y-12.3044 Z-0.4966 I-0.0947 J-0.9955
G1 X0.031 Y-12.3005 Z-0.4968
G3 X-0.031 I-0.031 J-0.9995
G1 X-0.1566 Y-12.3044 Z-0.497
G3 X-0.2203 Y-12.3084 Z-0.4971 I0.031 J-0.9995
G1 X-0.3454 Y-12.3203 Z-0.4972
G3 X-0.4067 Y-12.328 Z-0.4973 I0.0947 J-0.9955
G1 X-0.5308 Y-12.3476 Z-0.4975
G3 X-0.5928 Y-12.3595 I0.156 J-0.9878
G1 X-0.7155 Y-12.3869 Z-0.4977
G3 X-0.7767 Y-12.4026 Z-0.4978 I0.2181 J-0.9759
G1 X-0.8974 Y-12.4377 Z-0.4979
G3 X-0.9563 Y-12.4569 Z-0.498 I0.2793 J-0.9602
G1 X-1.0746 Y-12.4994 Z-0.4982
G3 X-1.1334 Y-12.5226 I0.3383 J-0.941
G1 X-1.2487 Y-12.5725 Z-0.4984
G3 X-1.3059 Y-12.5995 Z-0.4985 I0.3972 J-0.9178
G1 X-1.4179 Y-12.6566 Z-0.4986
G3 X-1.4722 Y-12.6865 Z-0.4987 I0.4544 J-0.8908
G1 X-1.5804 Y-12.7504 Z-0.4989
G3 X-1.6341 Y-12.7845 I0.5087 J-0.8609
G1 X-1.7381 Y-12.8552 Z-0.4991
G3 X-1.7884 Y-12.8918 Z-0.4992 I0.5625 J-0.8268
G1 X-1.8877 Y-12.9688 Z-0.4993
G3 X-1.9259 Y-13.0 Z-0.4994 I0.6129 J-0.7902
G1 X-50.5741 Z-0.5594
G3 X-50.612 Y-12.969 Z-0.5595 I-0.6511 J-0.759
G1 X-50.7112 Y-12.892 Z-0.5597
G3 X-50.7618 Y-12.8553 I-0.6132 J-0.79
G1 X-50.8657 Y-12.7846 Z-0.5599
G3 X-50.9198 Y-12.7502 Z-0.56 I-0.5626 J-0.8267
G1 X-51.028 Y-12.6863 Z-0.5601
G3 X-51.082 Y-12.6567 Z-0.5602 I-0.5085 J-0.8611
G1 X-51.1939 Y-12.5996 Z-0.5604
G3 X-51.2512 Y-12.5726 I-0.4545 J-0.8907
G1 X-51.3665 Y-12.5227 Z-0.5606
G3 X-51.4256 Y-12.4993 Z-0.5607 I-0.3972 J-0.9177
G1 X-51.5439 Y-12.4568 Z-0.5608
G3 X-51.6026 Y-12.4377 Z-0.5609 I-0.3381 J-0.9411
G1 X-51.7232 Y-12.4026 Z-0.5611
G3 X-51.7845 Y-12.3869 I-0.2794 J-0.9602
G1 X-51.9071 Y-12.3595 Z-0.5613
G3 X-51.9692 Y-12.3476 Z-0.5614 I-0.2181 J-0.9759
G1 X-52.0933 Y-12.328 Z-0.5615
G3 X-52.1546 Y-12.3203 Z-0.5616 I-0.156 J-0.9878
G1 X-52.2797 Y-12.3084 Z-0.5618
G3 X-52.3434 Y-12.3044 I-0.0947 J-0.9955
G1 X-52.469 Y-12.3005 Z-0.562
G3 X-52.531 Z-0.5621 I-0.031 J-0.9995
G1 X-52.6566 Y-12.3044 Z-0.5622
G3 X-52.7203 Y-12.3084 Z-0.5623 I0.031 J-0.9995
G1 X-52.8454 Y-12.3203 Z-0.5625
G3 X-52.9067 Y-12.328 I0.0947 J-0.9955
G1 X-53.0308 Y-12.3476 Z-0.5627
G3 X-53.0929 Y-12.3595 Z-0.5628 I0.156 J-0.9878
G1 X-53.2155 Y-12.3869 Z-0.5629
G3 X-53.2768 Y-12.4026 Z-0.563 I0.2181 J-0.9759
G1 X-53.3974 Y-12.4377 Z-0.5632
G3 X-53.4564 Y-12.4569 I0.2794 J-0.9602
G1 X-53.5746 Y-12.4994 Z-0.5634
G3 X-53.6331 Y-12.5225 Z-0.5635 I0.3384 J-0.941
G1 X-53.7485 Y-12.5724 Z-0.5636
G3 X-53.8061 Y-12.5996 Z-0.5637 I0.3969 J-0.9179
G1 X-53.918 Y-12.6567 Z-0.5639
G3 X-53.972 Y-12.6863 I0.4545 J-0.8907
G1 X-54.0802 Y-12.7502 Z-0.5641
G3 X-54.1343 Y-12.7846 Z-0.5642 I0.5085 J-0.8611
G1 X-54.2382 Y-12.8553 Z-0.5643
G3 X-54.2888 Y-12.892 Z-0.5644 I0.5626 J-0.8267
G1 X-54.388 Y-12.969 Z-0.5646
G3 X-54.4259 Y-13.0 I0.6132 J-0.79
G1 X-60.0 Z-0.5715
G1 Y-8.9259 Z-0.5765
G3 X-59.9688 Y-8.8877 Z-0.5766 I-0.759 J0.6511
G1 X-59.8918 Y-8.7884 Z-0.5767
G3 X-59.8552 Y-8.7381 Z-0.5768 I-0.7902 J0.6129
G1 X-59.7845 Y-8.6341 Z-0.577
G3 X-59.7504 Y-8.5804 Z-0.5771 I-0.8268 J0.5625
G1 X-59.6865 Y-8.4722 Z-0.5772
G3 X-59.6566 Y-8.4179 Z-0.5773 I-0.8609 J0.5087
G1 X-59.5995 Y-8.3059 Z-0.5774
G3 X-59.5725 Y-8.2487 Z-0.5775 I-0.8908 J0.4544
G1 X-59.5226 Y-8.1334 Z-0.5777
G3 X-59.4994 Y-8.0746 Z-0.5778 I-0.9178 J0.3972
G1 X-59.4569 Y-7.9563 Z-0.5779
G3 X-59.4377 Y-7.8974 Z-0.578 I-0.941 J0.3383
G1 X-59.4026 Y-7.7767 Z-0.5781
G3 X-59.3869 Y-7.7155 Z-0.5782 I-0.9602 J0.2793
G1 X-59.3595 Y-7.5928 Z-0.5784
G3 X-59.3476 Y-7.5308 I-0.9759 J0.2181
G1 X-59.328 Y-7.4067 Z-0.5786
G3 X-59.3203 Y-7.3454 Z-0.5787 I-0.9878 J0.156
G1 X-59.3084 Y-7.2203 Z-0.5788
G3 X-59.3044 Y-7.1566 Z-0.5789 I-0.9955 J0.0947
G1 X-59.3005 Y-7.031 Z-0.5791
G3 Y-6.969 I-0.9995 J0.031
G1 X-59.3044 Y-6.8434 Z-0.5793
G3 X-59.3084 Y-6.7797 Z-0.5794 I-0.9995 J-0.031
G1 X-59.3203 Y-6.6546 Z-0.5795
G3 X-59.328 Y-6.5933 Z-0.5796 I-0.9955 J-0.0947
G1 X-59.3476 Y-6.4692 Z-0.5798
G3 X-59.3595 Y-6.4072 I-0.9878 J-0.156
G1 X-59.3869 Y-6.2845 Z-0.58
G3 X-59.4026 Y-6.2233 Z-0.5801 I-0.9759 J-0.2181
G1 X-59.4377 Y-6.1026 Z-0.5802
G3 X-59.4569 Y-6.0437 Z-0.5803 I-0.9602 J-0.2793
G1 X-59.4994 Y-5.9254 Z-0.5805
G3 X-59.5226 Y-5.8666 I-0.941 J-0.3383
G1 X-59.5725 Y-5.7513 Z-0.5807
G3 X-59.5995 Y-5.6941 Z-0.5808 I-0.9178 J-0.3972
G1 X-59.6566 Y-5.5821 Z-0.5809
G3 X-59.6865 Y-5.5278 Z-0.581 I-0.8908 J-0.4544
G1 X-59.7504 Y-5.4196 Z-0.5812
G3 X-59.7845 Y-5.3659 I-0.8609 J-0.5087
G1 X-59.8552 Y-5.2619 Z-0.5814
G3 X-59.8918 Y-5.2116 Z-0.5815 I-0.8268 J-0.5625
G1 X-59.9688 Y-5.1123 Z-0.5816
G3 X-60.0 Y-5.0741 Z-0.5817 I-0.7902 J-0.6129
G1 Y4.5741 Z-0.5936
G3 X-59.9688 Y4.6123 Z-0.5937 I-0.759 J0.6511
G1 X-59.8918 Y4.7116 Z-0.5938
G3 X-59.8552 Y4.7619 Z-0.5939 I-0.7902 J0.6129
G1 X-59.7845 Y4.8659 Z-0.594
G3 X-59.7504 Y4.9196 Z-0.5941 I-0.8268 J0.5625
G1 X-59.6865 Y5.0278 Z-0.5943
G3 X-59.6566 Y5.0821 Z-0.5944 I-0.8609 J0.5087
G1 X-59.5995 Y5.1941 Z-0.5945
G3 X-59.5725 Y5.2513 Z-0.5946 I-0.8908 J0.4544
G1 X-59.5226 Y5.3666 Z-0.5947
G3 X-59.4994 Y5.4254 Z-0.5948 I-0.9178 J0.3972
G1 X-59.4569 Y5.5437 Z-0.595
G3 X-59.4377 Y5.6026 Z-0.5951 I-0.941 J0.3383
G1 X-59.4026 Y5.7233 Z-0.5952
G3 X-59.3869 Y5.7845 Z-0.5953 I-0.9602 J0.2793
G1 X-59.3595 Y5.9072 Z-0.5954
G3 X-59.3476 Y5.9692 Z-0.5955 I-0.9759 J0.2181
G1 X-59.328 Y6.0933 Z-0.5957
G3 X-59.3203 Y6.1546 Z-0.5958 I-0.9878 J0.156
G1 X-59.3084 Y6.2797 Z-0.5959
G3 X-59.3044 Y6.3434 Z-0.596 I-0.9955 J0.0947
G1 X-59.3005 Y6.469 Z-0.5961
G3 Y6.531 Z-0.5962 I-0.9995 J0.031
G1 X-59.3044 Y6.6566 Z-0.5964
G3 X-59.3084 Y6.7203 Z-0.5965 I-0.9995 J-0.031
G1 X-59.3203 Y6.8454 Z-0.5966
G3 X-59.328 Y6.9067 Z-0.5967 I-0.9955 J-0.0947
G1 X-59.3476 Y7.0308 Z-0.5968
G3 X-59.3595 Y7.0928 Z-0.5969 I-0.9878 J-0.156
G1 X-59.3869 Y7.2155 Z-0.5971
G3 X-59.4026 Y7.2767 Z-0.5972 I-0.9759 J-0.2181
G1 X-59.4377 Y7.3974 Z-0.5973
G3 X-59.4569 Y7.4563 Z-0.5974 I-0.9602 J-0.2793
G1 X-59.4994 Y7.5746 Z-0.5975
G3 X-59.5226 Y7.6334 Z-0.5976 I-0.941 J-0.3383
G1 X-59.5725 Y7.7487 Z-0.5978
G3 X-59.5995 Y7.8059 Z-0.5979 I-0.9178 J-0.3972
G1 X-59.6566 Y7.9179 Z-0.598
G3 X-59.6865 Y7.9722 Z-0.5981 I-0.8908 J-0.4544
G1 X-59.7504 Y8.0804 Z-0.5982
G3 X-59.7845 Y8.1341 Z-0.5983 I-0.8609 J-0.5087
G1 X-59.8552 Y8.2381 Z-0.5985
G3 X-59.8918 Y8.2884 I-0.8268 J-0.5625
G1 X-59.9688 Y8.3877 Z-0.5987
G3 X-60.0 Y8.4259 Z-0.5988 I-0.7902 J-0.6129
G1 Y18.0741 Z-0.6107
G3 X-59.969 Y18.112 I-0.759 J0.6511
G1 X-59.892 Y18.2112 Z-0.6109
G3 X-59.8553 Y18.2618 Z-0.611 I-0.79 J0.6132
G1 X-59.7846 Y18.3657 Z-0.6111
G3 X-59.7502 Y18.4198 Z-0.6112 I-0.8267 J0.5626
G1 X-59.6863 Y18.528 Z-0.6114
G3 X-59.6567 Y18.582 I-0.8611 J0.5085
G1 X-59.5996 Y18.6939 Z-0.6116
G3 X-59.5724 Y18.7515 Z-0.6117 I-0.8907 J0.4545
G1 X-59.5225 Y18.8669 Z-0.6118
G3 X-59.4994 Y18.9254 Z-0.6119 I-0.9179 J0.3969
G1 X-59.4569 Y19.0436 Z-0.6121
G3 X-59.4377 Y19.1026 I-0.941 J0.3384
G1 X-59.4026 Y19.2232 Z-0.6123
G3 X-59.3869 Y19.2845 Z-0.6124 I-0.9602 J0.2794
G1 X-59.3595 Y19.4071 Z-0.6125
G3 X-59.3476 Y19.4692 Z-0.6126 I-0.9759 J0.2181
G1 X-59.328 Y19.5933 Z-0.6128
G3 X-59.3203 Y19.6546 I-0.9878 J0.156
G1 X-59.3084 Y19.7797 Z-0.613
G3 X-59.3044 Y19.8434 Z-0.6131 I-0.9955 J0.0947
G1 X-59.3005 Y19.969 Z-0.6132
G3 Y20.031 Z-0.6133 I-0.9995 J0.031
G1 X-59.3044 Y20.1566 Z-0.6135
G3 X-59.3084 Y20.2203 I-0.9995 J-0.031
G1 X-59.3203 Y20.3454 Z-0.6137
G3 X-59.328 Y20.4067 Z-0.6138 I-0.9955 J-0.0947
G1 X-59.3476 Y20.5308 Z-0.6139
G3 X-59.3595 Y20.5929 Z-0.614 I-0.9878 J-0.156
G1 X-59.3869 Y20.7155 Z-0.6142
G3 X-59.4026 Y20.7768 I-0.9759 J-0.2181
G1 X-59.4377 Y20.8974 Z-0.6144
G3 X-59.4569 Y20.9564 Z-0.6145 I-0.9602 J-0.2794
G1 X-59.4994 Y21.0746 Z-0.6146
G3 X-59.5225 Y21.1331 Z-0.6147 I-0.941 J-0.3384
G1 X-59.5724 Y21.2485 Z-0.6148
G3 X-59.5996 Y21.3061 Z-0.6149 I-0.9179 J-0.3969
G1 X-59.6567 Y21.418 Z-0.6151
G3 X-59.6863 Y21.472 Z-0.6152 I-0.8907 J-0.4545
G1 X-59.7502 Y21.5802 Z-0.6153
G3 X-59.7846 Y21.6343 Z-0.6154 I-0.8611 J-0.5085
G1 X-59.8553 Y21.7382 Z-0.6155
G3 X-59.892 Y21.7888 Z-0.6156 I-0.8267 J-0.5626
G1 X-59.969 Y21.888 Z-0.6158
G3 X-60.0 Y21.9259 I-0.79 J-0.6132
G1 Y27.0 Z-0.6221
G1 X-54.4259 Z-0.629
G3 X-54.388 Y26.969 I0.6511 J0.759
G1 X-54.2888 Y26.892 Z-0.6292
G3 X-54.2382 Y26.8553 Z-0.6293 I0.6132 J0.79
G1 X-54.1343 Y26.7846 Z-0.6294
G3 X-54.0802 Y26.7502 Z-0.6295 I0.5626 J0.8267
G1 X-53.972 Y26.6863 Z-0.6297
G3 X-53.918 Y26.6567 I0.5085 J0.8611
G1 X-53.8061 Y26.5996 Z-0.6299
G3 X-53.7485 Y26.5724 Z-0.63 I0.4545 J0.8907
G1 X-53.6331 Y26.5225 Z-0.6301
G3 X-53.5746 Y26.4994 Z-0.6302 I0.3969 J0.9179
G1 X-53.4564 Y26.4569 Z-0.6304
G3 X-53.3974 Y26.4377 I0.3384 J0.941
G1 X-53.2768 Y26.4026 Z-0.6306
G3 X-53.2155 Y26.3869 Z-0.6307 I0.2794 J0.9602
G1 X-53.0929 Y26.3595 Z-0.6308
G3 X-53.0308 Y26.3476 Z-0.6309 I0.2181 J0.9759
G1 X-52.9067 Y26.328 Z-0.6311
G3 X-52.8454 Y26.3203 I0.156 J0.9878
G1 X-52.7203 Y26.3084 Z-0.6313
G3 X-52.6566 Y26.3044 Z-0.6314 I0.0947 J0.9955
G1 X-52.531 Y26.3005 Z-0.6315
G3 X-52.469 Z-0.6316 I0.031 J0.9995
G1 X-52.3434 Y26.3044 Z-0.6318
G3 X-52.2797 Y26.3084 I-0.031 J0.9995
G1 X-52.1546 Y26.3203 Z-0.632
G3 X-52.0933 Y26.328 Z-0.6321 I-0.0947 J0.9955
G1 X-51.9692 Y26.3476 Z-0.6322
G3 X-51.9071 Y26.3595 Z-0.6323 I-0.156 J0.9878
G1 X-51.7845 Y26.3869 Z-0.6325
G3 X-51.7232 Y26.4026 I-0.2181 J0.9759
G1 X-51.6026 Y26.4377 Z-0.6327
G3 X-51.5439 Y26.4568 Z-0.6328 I-0.2794 J0.9602
G1 X-51.4256 Y26.4993 Z-0.6329
G3 X-51.3665 Y26.5227 Z-0.633 I-0.3381 J0.9411
G1 X-51.2512 Y26.5726 Z-0.6332
G3 X-51.1939 Y26.5996 I-0.3972 J0.9177
G1 X-51.082 Y26.6567 Z-0.6334
G3 X-51.028 Y26.6863 Z-0.6335 I-0.4545 J0.8907
G1 X-50.9198 Y26.7502 Z-0.6336
G3 X-50.8657 Y26.7846 Z-0.6337 I-0.5085 J0.8611
G1 X-50.7618 Y26.8553 Z-0.6339
G3 X-50.7112 Y26.892 I-0.5626 J0.8267
G1 X-50.612 Y26.969 Z-0.6341
G3 X-50.5741 Y27.0 Z-0.6342 I-0.6132 J0.79
G1 X-1.9259 Z-0.6942
G3 X-1.8877 Y26.9688 Z-0.6943 I0.6511 J0.759
G1 X-1.7884 Y26.8918 Z-0.6944
G3 X-1.7381 Y26.8552 Z-0.6945 I0.6129 J0.7902
G1 X-1.6341 Y26.7845 Z-0.6947
G3 X-1.5804 Y26.7504 I0.5625 J0.8268
G1 X-1.4722 Y26.6865 Z-0.6949
G3 X-1.4179 Y26.6566 Z-0.695 I0.5087 J0.8609
G1 X-1.3059 Y26.5995 Z-0.6951
G3 X-1.2487 Y26.5725 Z-0.6952 I0.4544 J0.8908
G1 X-1.1334 Y26.5226 Z-0.6954
G3 X-1.0746 Y26.4994 I0.3972 J0.9178
G1 X-0.9563 Y26.4569 Z-0.6956
G3 X-0.8974 Y26.4377 Z-0.6957 I0.3383 J0.941
G1 X-0.7767 Y26.4026 Z-0.6958
G3 X-0.7155 Y26.3869 Z-0.6959 I0.2793 J0.9602
G1 X-0.5928 Y26.3595 Z-0.6961
G3 X-0.5308 Y26.3476 I0.2181 J0.9759
G1 X-0.4067 Y26.328 Z-0.6963
G3 X-0.3454 Y26.3203 Z-0.6964 I0.156 J0.9878
G1 X-0.2203 Y26.3084 Z-0.6965
G3 X-0.1566 Y26.3044 Z-0.6966 I0.0947 J0.9955
G1 X-0.031 Y26.3005 Z-0.6968
G3 X0.031 I0.031 J0.9995
G1 X0.1566 Y26.3044 Z-0.697
G3 X0.2203 Y26.3084 Z-0.6971 I-0.031 J0.9995
G1 X0.3454 Y26.3203 Z-0.6972
G3 X0.4067 Y26.328 Z-0.6973 I-0.0947 J0.9955
G1 X0.5308 Y26.3476 Z-0.6975
G3 X0.5928 Y26.3595 I-0.156 J0.9878
G1 X0.7155 Y26.3869 Z-0.6977
G3 X0.7767 Y26.4026 Z-0.6978 I-0.2181 J0.9759
G1 X0.8974 Y26.4377 Z-0.6979
G3 X0.9563 Y26.4569 Z-0.698 I-0.2793 J0.9602
G1 X1.0746 Y26.4994 Z-0.6982
G3 X1.1334 Y26.5226 I-0.3383 J0.941
G1 X1.2487 Y26.5725 Z-0.6984
G3 X1.3059 Y26.5995 Z-0.6985 I-0.3972 J0.9178
G1 X1.4179 Y26.6566 Z-0.6986
G3 X1.4722 Y26.6865 Z-0.6987 I-0.4544 J0.8908
G1 X1.5804 Y26.7504 Z-0.6989
G3 X1.6341 Y26.7845 I-0.5087 J0.8609
G1 X1.7381 Y26.8552 Z-0.6991
G3 X1.7884 Y26.8918 Z-0.6992 I-0.5625 J0.8268
G1 X1.8877 Y26.9688 Z-0.6993
G3 X1.9259 Y27.0 Z-0.6994 I-0.6129 J0.7902
G1 X50.5741 Z-0.7594
G3 X50.612 Y26.969 Z-0.7595 I0.6511 J0.759
G1 X50.7112 Y26.892 Z-0.7597
G3 X50.7618 Y26.8553 I0.6132 J0.79
G1 X50.8657 Y26.7846 Z-0.7599
G3 X50.9198 Y26.7502 Z-0.76 I0.5626 J0.8267
G1 X51.028 Y26.6863 Z-0.7601
G3 X51.082 Y26.6567 Z-0.7602 I0.5085 J0.8611
G1 X51.1939 Y26.5996 Z-0.7604
G3 X51.2512 Y26.5726 I0.4545 J0.8907
G1 X51.3665 Y26.5227 Z-0.7606
G3 X51.4256 Y26.4993 Z-0.7607 I0.3972 J0.9177
G1 X51.5439 Y26.4568 Z-0.7608
G3 X51.6026 Y26.4377 Z-0.7609 I0.3381 J0.9411
G1 X51.7232 Y26.4026 Z-0.7611
G3 X51.7845 Y26.3869 I0.2794 J0.9602
G1 X51.9071 Y26.3595 Z-0.7613
G3 X51.9692 Y26.3476 Z-0.7614 I0.2181 J0.9759
G1 X52.0933 Y26.328 Z-0.7615
G3 X52.1546 Y26.3203 Z-0.7616 I0.156 J0.9878
G1 X52.2797 Y26.3084 Z-0.7618
G3 X52.3434 Y26.3044 I0.0947 J0.9955
G1 X52.469 Y26.3005 Z-0.762
G3 X52.531 Z-0.7621 I0.031 J0.9995
G1 X52.6566 Y26.3044 Z-0.7622
G3 X52.7203 Y26.3084 Z-0.7623 I-0.031 J0.9995
G1 X52.8454 Y26.3203 Z-0.7625
G3 X52.9067 Y26.328 I-0.0947 J0.9955
G1 X53.0308 Y26.3476 Z-0.7627
G3 X53.0929 Y26.3595 Z-0.7628 I-0.156 J0.9878
G1 X53.2155 Y26.3869 Z-0.7629
G3 X53.2768 Y26.4026 Z-0.763 I-0.2181 J0.9759
G1 X53.3974 Y26.4377 Z-0.7632
G3 X53.4564 Y26.4569 I-0.2794 J0.9602
G1 X53.5746 Y26.4994 Z-0.7634
G3 X53.6331 Y26.5225 Z-0.7635 I-0.3384 J0.941
G1 X53.7485 Y26.5724 Z-0.7636
G3 X53.8061 Y26.5996 Z-0.7637 I-0.3969 J0.9179
G1 X53.918 Y26.6567 Z-0.7639
G3 X53.972 Y26.6863 I-0.4545 J0.8907
G1 X54.0802 Y26.7502 Z-0.7641
G3 X54.1343 Y26.7846 Z-0.7642 I-0.5085 J0.8611
G1 X54.2382 Y26.8553 Z-0.7643
G3 X54.2888 Y26.892 Z-0.7644 I-0.5626 J0.8267
G1 X54.388 Y26.969 Z-0.7646
G3 X54.4259 Y27.0 I-0.6132 J0.79
G1 X60.0 Z-0.7715
G1 Y21.9259 Z-0.7778
G3 X59.969 Y21.888 I0.759 J-0.6511
G1 X59.892 Y21.7888 Z-0.778
G3 X59.8553 Y21.7382 Z-0.7781 I0.79 J-0.6132
G1 X59.7846 Y21.6343 Z-0.7782
G3 X59.7502 Y21.5802 Z-0.7783 I0.8267 J-0.5626
G1 X59.6863 Y21.472 Z-0.7784
G3 X59.6567 Y21.418 Z-0.7785 I0.8611 J-0.5085
G1 X59.5996 Y21.3061 Z-0.7787
G3 X59.5724 Y21.2485 Z-0.7788 I0.8907 J-0.4545
G1 X59.5225 Y21.1331 Z-0.7789
G3 X59.4994 Y21.0746 Z-0.779 I0.9179 J-0.3969
G1 X59.4569 Y20.9564 Z-0.7791
G3 X59.4377 Y20.8974 Z-0.7792 I0.941 J-0.3384
G1 X59.4026 Y20.7768 Z-0.7794
G3 X59.3869 Y20.7155 I0.9602 J-0.2794
G1 X59.3595 Y20.5929 Z-0.7796
G3 X59.3476 Y20.5308 Z-0.7797 I0.9759 J-0.2181
G1 X59.328 Y20.4067 Z-0.7798
G3 X59.3203 Y20.3454 Z-0.7799 I0.9878 J-0.156
G1 X59.3084 Y20.2203 Z-0.7801
G3 X59.3044 Y20.1566 I0.9955 J-0.0947
G1 X59.3005 Y20.031 Z-0.7803
G3 Y19.969 Z-0.7804 I0.9995 J-0.031
G1 X59.3044 Y19.8434 Z-0.7805
G3 X59.3084 Y19.7797 Z-0.7806 I0.9995 J0.031
G1 X59.3203 Y19.6546 Z-0.7808
G3 X59.328 Y19.5933 I0.9955 J0.0947
G1 X59.3476 Y19.4692 Z-0.781
G3 X59.3595 Y19.4071 Z-0.7811 I0.9878 J0.156
G1 X59.3869 Y19.2845 Z-0.7812
G3 X59.4026 Y19.2232 Z-0.7813 I0.9759 J0.2181
G1 X59.4377 Y19.1026 Z-0.7815
G3 X59.4569 Y19.0436 I0.9602 J0.2794
G1 X59.4994 Y18.9254 Z-0.7817
G3 X59.5225 Y18.8669 Z-0.7818 I0.941 J0.3384
G1 X59.5724 Y18.7515 Z-0.7819
G3 X59.5996 Y18.6939 Z-0.782 I0.9179 J0.3969
G1 X59.6567 Y18.582 Z-0.7822
G3 X59.6863 Y18.528 I0.8907 J0.4545
G1 X59.7502 Y18.4198 Z-0.7824
G3 X59.7846 Y18.3657 Z-0.7825 I0.8611 J0.5085
G1 X59.8553 Y18.2618 Z-0.7826
G3 X59.892 Y18.2112 Z-0.7827 I0.8267 J0.5626
G1 X59.969 Y18.112 Z-0.7829
G3 X60.0 Y18.0741 I0.79 J0.6132
G1 Y8.4259 Z-0.7948
G3 X59.9688 Y8.3877 Z-0.7949 I0.759 J-0.6511
G1 X59.8918 Y8.2884 Z-0.7951
G3 X59.8552 Y8.2381 I0.7902 J-0.6129
G1 X59.7845 Y8.1341 Z-0.7953
G3 X59.7504 Y8.0804 Z-0.7954 I0.8268 J-0.5625
G1 X59.6865 Y7.9722 Z-0.7955
G3 X59.6566 Y7.9179 Z-0.7956 I0.8609 J-0.5087
G1 X59.5995 Y7.8059 Z-0.7957
G3 X59.5725 Y7.7487 Z-0.7958 I0.8908 J-0.4544
G1 X59.5226 Y7.6334 Z-0.796
G3 X59.4994 Y7.5746 Z-0.7961 I0.9178 J-0.3972
G1 X59.4569 Y7.4563 Z-0.7962
G3 X59.4377 Y7.3974 Z-0.7963 I0.941 J-0.3383
G1 X59.4026 Y7.2767 Z-0.7964
G3 X59.3869 Y7.2155 Z-0.7965 I0.9602 J-0.2793
G1 X59.3595 Y7.0928 Z-0.7967
G3 X59.3476 Y7.0308 Z-0.7968 I0.9759 J-0.2181
G1 X59.328 Y6.9067 Z-0.7969
G3 X59.3203 Y6.8454 Z-0.797 I0.9878 J-0.156
G1 X59.3084 Y6.7203 Z-0.7971
G3 X59.3044 Y6.6566 Z-0.7972 I0.9955 J-0.0947
G1 X59.3005 Y6.531 Z-0.7974
G3 Y6.469 Z-0.7975 I0.9995 J-0.031
G1 X59.3044 Y6.3434 Z-0.7976
G3 X59.3084 Y6.2797 Z-0.7977 I0.9995 J0.031
G1 X59.3203 Y6.1546 Z-0.7978
G3 X59.328 Y6.0933 Z-0.7979 I0.9955 J0.0947
G1 X59.3476 Y5.9692 Z-0.7981
G3 X59.3595 Y5.9072 Z-0.7982 I0.9878 J0.156
G1 X59.3869 Y5.7845 Z-0.7983
G3 X59.4026 Y5.7233 Z-0.7984 I0.9759 J0.2181
G1 X59.4377 Y5.6026 Z-0.7985
G3 X59.4569 Y5.5437 Z-0.7986 I0.9602 J0.2793
G1 X59.4994 Y5.4254 Z-0.7988
G3 X59.5226 Y5.3666 Z-0.7989 I0.941 J0.3383
G1 X59.5725 Y5.2513 Z-0.799
G3 X59.5995 Y5.1941 Z-0.7991 I0.9178 J0.3972
G1 X59.6566 Y5.0821 Z-0.7992
G3 X59.6865 Y5.0278 Z-0.7993 I0.8908 J0.4544
G1 X59.7504 Y4.9196 Z-0.7995
G3 X59.7845 Y4.8659 Z-0.7996 I0.8609 J0.5087
G1 X59.8552 Y4.7619 Z-0.7997
G3 X59.8918 Y4.7116 Z-0.7998 I0.8268 J0.5625
G1 X59.9688 Y4.6123 Z-0.7999
G3 X60.0 Y4.5741 Z-0.8 I0.7902 J0.6129
G1 Y-5.0741 Z-0.8119
G3 X59.9688 Y-5.1123 Z-0.812 I0.759 J-0.6511
G1 X59.8918 Y-5.2116 Z-0.8121
G3 X59.8552 Y-5.2619 Z-0.8122 I0.7902 J-0.6129
G1 X59.7845 Y-5.3659 Z-0.8124
G3 X59.7504 Y-5.4196 I0.8268 J-0.5625
G1 X59.6865 Y-5.5278 Z-0.8126
G3 X59.6566 Y-5.5821 Z-0.8127 I0.8609 J-0.5087
G1 X59.5995 Y-5.6941 Z-0.8128
G3 X59.5725 Y-5.7513 Z-0.8129 I0.8908 J-0.4544
G1 X59.5226 Y-5.8666 Z-0.8131
G3 X59.4994 Y-5.9254 I0.9178 J-0.3972
G1 X59.4569 Y-6.0437 Z-0.8133
G3 X59.4377 Y-6.1026 Z-0.8134 I0.941 J-0.3383
G1 X59.4026 Y-6.2233 Z-0.8135
G3 X59.3869 Y-6.2845 Z-0.8136 I0.9602 J-0.2793
G1 X59.3595 Y-6.4072 Z-0.8138
G3 X59.3476 Y-6.4692 I0.9759 J-0.2181
G1 X59.328 Y-6.5933 Z-0.814
G3 X59.3203 Y-6.6546 Z-0.8141 I0.9878 J-0.156
G1 X59.3084 Y-6.7797 Z-0.8142
G3 X59.3044 Y-6.8434 Z-0.8143 I0.9955 J-0.0947
G1 X59.3005 Y-6.969 Z-0.8145
G3 Y-7.031 I0.9995 J-0.031
G1 X59.3044 Y-7.1566 Z-0.8147
G3 X59.3084 Y-7.2203 Z-0.8148 I0.9995 J0.031
G1 X59.3203 Y-7.3454 Z-0.8149
G3 X59.328 Y-7.4067 Z-0.815 I0.9955 J0.0947
G1 X59.3476 Y-7.5308 Z-0.8152
G3 X59.3595 Y-7.5928 I0.9878 J0.156
G1 X59.3869 Y-7.7155 Z-0.8154
G3 X59.4026 Y-7.7767 Z-0.8155 I0.9759 J0.2181
G1 X59.4377 Y-7.8974 Z-0.8156
G3 X59.4569 Y-7.9563 Z-0.8157 I0.9602 J0.2793
G1 X59.4994 Y-8.0746 Z-0.8159
G3 X59.5226 Y-8.1334 I0.941 J0.3383
G1 X59.5725 Y-8.2487 Z-0.8161
G3 X59.5995 Y-8.3059 Z-0.8162 I0.9178 J0.3972
G1 X59.6566 Y-8.4179 Z-0.8163
G3 X59.6865 Y-8.4722 Z-0.8164 I0.8908 J0.4544
G1 X59.7504 Y-8.5804 Z-0.8165
G3 X59.7845 Y-8.6341 Z-0.8166 I0.8609 J0.5087
G1 X59.8552 Y-8.7381 Z-0.8168
G3 X59.8918 Y-8.7884 Z-0.8169 I0.8268 J0.5625
G1 X59.9688 Y-8.8877 Z-0.817
G3 X60.0 Y-8.9259 Z-0.8171 I0.7902 J0.6129
G1 Y-13.0 Z-0.8221
G1 X54.4259 Z-0.829
G3 X54.388 Y-12.969 I-0.6511 J-0.759
G1 X54.2888 Y-12.892 Z-0.8292
G3 X54.2382 Y-12.8553 Z-0.8293 I-0.6132 J-0.79
G1 X54.1343 Y-12.7846 Z-0.8294
G3 X54.0802 Y-12.7502 Z-0.8295 I-0.5626 J-0.8267
G1 X53.972 Y-12.6863 Z-0.8297
G3 X53.918 Y-12.6567 I-0.5085 J-0.8611
G1 X53.8061 Y-12.5996 Z-0.8299
G3 X53.7485 Y-12.5724 Z-0.83 I-0.4545 J-0.8907
G1 X53.6331 Y-12.5225 Z-0.8301
G3 X53.5746 Y-12.4994 Z-0.8302 I-0.3969 J-0.9179
G1 X53.4564 Y-12.4569 Z-0.8304
G3 X53.3974 Y-12.4377 I-0.3384 J-0.941
G1 X53.2768 Y-12.4026 Z-0.8306
G3 X53.2155 Y-12.3869 Z-0.8307 I-0.2794 J-0.9602
G1 X53.0929 Y-12.3595 Z-0.8308
G3 X53.0308 Y-12.3476 Z-0.8309 I-0.2181 J-0.9759
G1 X52.9067 Y-12.328 Z-0.8311
G3 X52.8454 Y-12.3203 I-0.156 J-0.9878
G1 X52.7203 Y-12.3084 Z-0.8313
G3 X52.6566 Y-12.3044 Z-0.8314 I-0.0947 J-0.9955
G1 X52.531 Y-12.3005 Z-0.8315
G3 X52.469 Z-0.8316 I-0.031 J-0.9995
G1 X52.3434 Y-12.3044 Z-0.8318
G3 X52.2797 Y-12.3084 I0.031 J-0.9995
G1 X52.1546 Y-12.3203 Z-0.832
G3 X52.0933 Y-12.328 Z-0.8321 I0.0947 J-0.9955
G1 X51.9692 Y-12.3476 Z-0.8322
G3 X51.9071 Y-12.3595 Z-0.8323 I0.156 J-0.9878
G1 X51.7845 Y-12.3869 Z-0.8325
G3 X51.7232 Y-12.4026 I0.2181 J-0.9759
G1 X51.6026 Y-12.4377 Z-0.8327
G3 X51.5439 Y-12.4568 Z-0.8328 I0.2794 J-0.9602
G1 X51.4256 Y-12.4993 Z-0.8329
G3 X51.3665 Y-12.5227 Z-0.833 I0.3381 J-0.9411
G1 X51.2512 Y-12.5726 Z-0.8332
G3 X51.1939 Y-12.5996 I0.3972 J-0.9177
G1 X51.082 Y-12.6567 Z-0.8334
G3 X51.028 Y-12.6863 Z-0.8335 I0.4545 J-0.8907
G1 X50.9198 Y-12.7502 Z-0.8336
G3 X50.8657 Y-12.7846 Z-0.8337 I0.5085 J-0.8611
G1 X50.7618 Y-12.8553 Z-0.8339
G3 X50.7112 Y-12.892 I0.5626 J-0.8267
G1 X50.612 Y-12.969 Z-0.8341
G3 X50.5741 Y-13.0 Z-0.8342 I0.6132 J-0.79
G1 X1.9259 Z-0.8942
G3 X1.8877 Y-12.9688 Z-0.8943 I-0.6511 J-0.759
G1 X1.7884 Y-12.8918 Z-0.8944
G3 X1.7381 Y-12.8552 Z-0.8945 I-0.6129 J-0.7902
G1 X1.6341 Y-12.7845 Z-0.8947
G3 X1.5804 Y-12.7504 I-0.5625 J-0.8268
G1 X1.4722 Y-12.6865 Z-0.8949
G3 X1.4179 Y-12.6566 Z-0.895 I-0.5087 J-0.8609
G1 X1.3059 Y-12.5995 Z-0.8951
G3 X1.2487 Y-12.5725 Z-0.8952 I-0.4544 J-0.8908
G1 X1.1334 Y-12.5226 Z-0.8954
G3 X1.0746 Y-12.4994 I-0.3972 J-0.9178
G1 X0.9563 Y-12.4569 Z-0.8956
G3 X0.8974 Y-12.4377 Z-0.8957 I-0.3383 J-0.941
G1 X0.7767 Y-12.4026 Z-0.8958
G3 X0.7155 Y-12.3869 Z-0.8959 I-0.2793 J-0.9602
G1 X0.5928 Y-12.3595 Z-0.8961
G3 X0.5308 Y-12.3476 I-0.2181 J-0.9759
G1 X0.4067 Y-12.328 Z-0.8963
G3 X0.3454 Y-12.3203 Z-0.8964 I-0.156 J-0.9878
G1 X0.2203 Y-12.3084 Z-0.8965
G3 X0.1566 Y-12.3044 Z-0.8966 I-0.0947 J-0.9955
G1 X0.031 Y-12.3005 Z-0.8968
G3 X-0.031 I-0.031 J-0.9995
G1 X-0.1566 Y-12.3044 Z-0.897
G3 X-0.2203 Y-12.3084 Z-0.8971 I0.031 J-0.9995
G1 X-0.3454 Y-12.3203 Z-0.8972
G3 X-0.4067 Y-12.328 Z-0.8973 I0.0947 J-0.9955
G1 X-0.5308 Y-12.3476 Z-0.8975
G3 X-0.5928 Y-12.3595 I0.156 J-0.9878
G1 X-0.7155 Y-12.3869 Z-0.8977
G3 X-0.7767 Y-12.4026 Z-0.8978 I0.2181 J-0.9759
G1 X-0.8974 Y-12.4377 Z-0.8979
G3 X-0.9563 Y-12.4569 Z-0.898 I0.2793 J-0.9602
G1 X-1.0746 Y-12.4994 Z-0.8982
G3 X-1.1334 Y-12.5226 I0.3383 J-0.941
G1 X-1.2487 Y-12.5725 Z-0.8984
G3 X-1.3059 Y-12.5995 Z-0.8985 I0.3972 J-0.9178
G1 X-1.4179 Y-12.6566 Z-0.8986
G3 X-1.4722 Y-12.6865 Z-0.8987 I0.4544 J-0.8908
G1 X-1.5804 Y-12.7504 Z-0.8989
G3 X-1.6341 Y-12.7845 I0.5087 J-0.8609
G1 X-1.7381 Y-12.8552 Z-0.8991
G3 X-1.7884 Y-12.8918 Z-0.8992 I0.5625 J-0.8268
G1 X-1.8877 Y-12.9688 Z-0.8993
G3 X-1.9259 Y-13.0 Z-0.8994 I0.6129 J-0.7902
G1 X-50.5741 Z-0.9594
G3 X-50.612 Y-12.969 Z-0.9595 I-0.6511 J-0.759
G1 X-50.7112 Y-12.892 Z-0.9597
G3 X-50.7618 Y-12.8553 I-0.6132 J-0.79
G1 X-50.8657 Y-12.7846 Z-0.9599
G3 X-50.9198 Y-12.7502 Z-0.96 I-0.5626 J-0.8267
G1 X-51.028 Y-12.6863 Z-0.9601
G3 X-51.082 Y-12.6567 Z-0.9602 I-0.5085 J-0.8611
G1 X-51.1939 Y-12.5996 Z-0.9604
G3 X-51.2512 Y-12.5726 I-0.4545 J-0.8907
G1 X-51.3665 Y-12.5227 Z-0.9606
G3 X-51.4256 Y-12.4993 Z-0.9607 I-0.3972 J-0.9177
G1 X-51.5439 Y-12.4568 Z-0.9608
G3 X-51.6026 Y-12.4377 Z-0.9609 I-0.3381 J-0.9411
G1 X-51.7232 Y-12.4026 Z-0.9611
G3 X-51.7845 Y-12.3869 I-0.2794 J-0.9602
G1 X-51.9071 Y-12.3595 Z-0.9613
G3 X-51.9692 Y-12.3476 Z-0.9614 I-0.2181 J-0.9759
G1 X-52.0933 Y-12.328 Z-0.9615
G3 X-52.1546 Y-12.3203 Z-0.9616 I-0.156 J-0.9878
G1 X-52.2797 Y-12.3084 Z-0.9618
G3 X-52.3434 Y-12.3044 I-0.0947 J-0.9955
G1 X-52.469 Y-12.3005 Z-0.962
G3 X-52.531 Z-0.9621 I-0.031 J-0.9995
G1 X-52.6566 Y-12.3044 Z-0.9622
G3 X-52.7203 Y-12.3084 Z-0.9623 I0.031 J-0.9995
G1 X-52.8454 Y-12.3203 Z-0.9625
G3 X-52.9067 Y-12.328 I0.0947 J-0.9955
G1 X-53.0308 Y-12.3476 Z-0.9627
G3 X-53.0929 Y-12.3595 Z-0.9628 I0.156 J-0.9878
G1 X-53.2155 Y-12.3869 Z-0.9629
G3 X-53.2768 Y-12.4026 Z-0.963 I0.2181 J-0.9759
G1 X-53.3974 Y-12.4377 Z-0.9632
G3 X-53.4564 Y-12.4569 I0.2794 J-0.9602
G1 X-53.5746 Y-12.4994 Z-0.9634
G3 X-53.6331 Y-12.5225 Z-0.9635 I0.3384 J-0.941
G1 X-53.7485 Y-12.5724 Z-0.9636
G3 X-53.8061 Y-12.5996 Z-0.9637 I0.3969 J-0.9179
G1 X-53.918 Y-12.6567 Z-0.9639
G3 X-53.972 Y-12.6863 I0.4545 J-0.8907
G1 X-54.0802 Y-12.7502 Z-0.9641
G3 X-54.1343 Y-12.7846 Z-0.9642 I0.5085 J-0.8611
G1 X-54.2382 Y-12.8553 Z-0.9643
G3 X-54.2888 Y-12.892 Z-0.9644 I0.5626 J-0.8267
G1 X-54.388 Y-12.969 Z-0.9646
G3 X-54.4259 Y-13.0 I0.6132 J-0.79
G1 X-60.0 Z-0.9715
G1 Y-8.9259 Z-0.9765
G3 X-59.9688 Y-8.8877 Z-0.9766 I-0.759 J0.6511
G1 X-59.8918 Y-8.7884 Z-0.9767
G3 X-59.8552 Y-8.7381 Z-0.9768 I-0.7902 J0.6129
G1 X-59.7845 Y-8.6341 Z-0.977
G3 X-59.7504 Y-8.5804 Z-0.9771 I-0.8268 J0.5625
G1 X-59.6865 Y-8.4722 Z-0.9772
G3 X-59.6566 Y-8.4179 Z-0.9773 I-0.8609 J0.5087
G1 X-59.5995 Y-8.3059 Z-0.9774
G3 X-59.5725 Y-8.2487 Z-0.9775 I-0.8908 J0.4544
G1 X-59.5226 Y-8.1334 Z-0.9777
G3 X-59.4994 Y-8.0746 Z-0.9778 I-0.9178 J0.3972
G1 X-59.4569 Y-7.9563 Z-0.9779
G3 X-59.4377 Y-7.8974 Z-0.978 I-0.941 J0.3383
G1 X-59.4026 Y-7.7767 Z-0.9781
G3 X-59.3869 Y-7.7155 Z-0.9782 I-0.9602 J0.2793
G1 X-59.3595 Y-7.5928 Z-0.9784
G3 X-59.3476 Y-7.5308 I-0.9759 J0.2181
G1 X-59.328 Y-7.4067 Z-0.9786
G3 X-59.3203 Y-7.3454 Z-0.9787 I-0.9878 J0.156
G1 X-59.3084 Y-7.2203 Z-0.9788
G3 X-59.3044 Y-7.1566 Z-0.9789 I-0.9955 J0.0947
G1 X-59.3005 Y-7.031 Z-0.9791
G3 Y-6.969 I-0.9995 J0.031
G1 X-59.3044 Y-6.8434 Z-0.9793
G3 X-59.3084 Y-6.7797 Z-0.9794 I-0.9995 J-0.031
G1 X-59.3203 Y-6.6546 Z-0.9795
G3 X-59.328 Y-6.5933 Z-0.9796 I-0.9955 J-0.0947
G1 X-59.3476 Y-6.4692 Z-0.9798
G3 X-59.3595 Y-6.4072 I-0.9878 J-0.156
G1 X-59.3869 Y-6.2845 Z-0.98
G3 X-59.4026 Y-6.2233 Z-0.9801 I-0.9759 J-0.2181
G1 X-59.4377 Y-6.1026 Z-0.9802
G3 X-59.4569 Y-6.0437 Z-0.9803 I-0.9602 J-0.2793
G1 X-59.4994 Y-5.9254 Z-0.9805
G3 X-59.5226 Y-5.8666 I-0.941 J-0.3383
G1 X-59.5725 Y-5.7513 Z-0.9807
G3 X-59.5995 Y-5.6941 Z-0.9808 I-0.9178 J-0.3972
G1 X-59.6566 Y-5.5821 Z-0.9809
G3 X-59.6865 Y-5.5278 Z-0.981 I-0.8908 J-0.4544
G1 X-59.7504 Y-5.4196 Z-0.9812
G3 X-59.7845 Y-5.3659 I-0.8609 J-0.5087
G1 X-59.8552 Y-5.2619 Z-0.9814
G3 X-59.8918 Y-5.2116 Z-0.9815 I-0.8268 J-0.5625
G1 X-59.9688 Y-5.1123 Z-0.9816
G3 X-60.0 Y-5.0741 Z-0.9817 I-0.7902 J-0.6129
G1 Y4.5741 Z-0.9936
G3 X-59.9688 Y4.6123 Z-0.9937 I-0.759 J0.6511
G1 X-59.8918 Y4.7116 Z-0.9938
G3 X-59.8552 Y4.7619 Z-0.9939 I-0.7902 J0.6129
G1 X-59.7845 Y4.8659 Z-0.994
G3 X-59.7504 Y4.9196 Z-0.9941 I-0.8268 J0.5625
G1 X-59.6865 Y5.0278 Z-0.9943
G3 X-59.6566 Y5.0821 Z-0.9944 I-0.8609 J0.5087
G1 X-59.5995 Y5.1941 Z-0.9945
G3 X-59.5725 Y5.2513 Z-0.9946 I-0.8908 J0.4544
G1 X-59.5226 Y5.3666 Z-0.9947
G3 X-59.4994 Y5.4254 Z-0.9948 I-0.9178 J0.3972
G1 X-59.4569 Y5.5437 Z-0.995
G3 X-59.4377 Y5.6026 Z-0.9951 I-0.941 J0.3383
G1 X-59.4026 Y5.7233 Z-0.9952
G3 X-59.3869 Y5.7845 Z-0.9953 I-0.9602 J0.2793
G1 X-59.3595 Y5.9072 Z-0.9954
G3 X-59.3476 Y5.9692 Z-0.9955 I-0.9759 J0.2181
G1 X-59.328 Y6.0933 Z-0.9957
G3 X-59.3203 Y6.1546 Z-0.9958 I-0.9878 J0.156
G1 X-59.3084 Y6.2797 Z-0.9959
G3 X-59.3044 Y6.3434 Z-0.996 I-0.9955 J0.0947
G1 X-59.3005 Y6.469 Z-0.9961
G3 Y6.531 Z-0.9962 I-0.9995 J0.031
G1 X-59.3044 Y6.6566 Z-0.9964
G3 X-59.3084 Y6.7203 Z-0.9965 I-0.9995 J-0.031
G1 X-59.3203 Y6.8454 Z-0.9966
G3 X-59.328 Y6.9067 Z-0.9967 I-0.9955 J-0.0947
G1 X-59.3476 Y7.0308 Z-0.9968
G3 X-59.3595 Y7.0928 Z-0.9969 I-0.9878 J-0.156
G1 X-59.3869 Y7.2155 Z-0.9971
G3 X-59.4026 Y7.2767 Z-0.9972 I-0.9759 J-0.2181
G1 X-59.4377 Y7.3974 Z-0.9973
G3 X-59.4569 Y7.4563 Z-0.9974 I-0.9602 J-0.2793
G1 X-59.4994 Y7.5746 Z-0.9975
G3 X-59.5226 Y7.6334 Z-0.9976 I-0.941 J-0.3383
G1 X-59.5725 Y7.7487 Z-0.9978
G3 X-59.5995 Y7.8059 Z-0.9979 I-0.9178 J-0.3972
G1 X-59.6566 Y7.9179 Z-0.998
G3 X-59.6865 Y7.9722 Z-0.9981 I-0.8908 J-0.4544
G1 X-59.7504 Y8.0804 Z-0.9982
G3 X-59.7845 Y8.1341 Z-0.9983 I-0.8609 J-0.5087
G1 X-59.8552 Y8.2381 Z-0.9985
G3 X-59.8918 Y8.2884 I-0.8268 J-0.5625
G1 X-59.9688 Y8.3877 Z-0.9987
G3 X-60.0 Y8.4259 Z-0.9988 I-0.7902 J-0.6129
G1 Y18.0741 Z-1.0107
G3 X-59.969 Y18.112 I-0.759 J0.6511
G1 X-59.892 Y18.2112 Z-1.0109
G3 X-59.8553 Y18.2618 Z-1.011 I-0.79 J0.6132
G1 X-59.7846 Y18.3657 Z-1.0111
G3 X-59.7502 Y18.4198 Z-1.0112 I-0.8267 J0.5626
G1 X-59.6863 Y18.528 Z-1.0114
G3 X-59.6567 Y18.582 I-0.8611 J0.5085
G1 X-59.5996 Y18.6939 Z-1.0116
G3 X-59.5724 Y18.7515 Z-1.0117 I-0.8907 J0.4545
G1 X-59.5225 Y18.8669 Z-1.0118
G3 X-59.4994 Y18.9254 Z-1.0119 I-0.9179 J0.3969
G1 X-59.4569 Y19.0436 Z-1.0121
G3 X-59.4377 Y19.1026 I-0.941 J0.3384
G1 X-59.4026 Y19.2232 Z-1.0123
G3 X-59.3869 Y19.2845 Z-1.0124 I-0.9602 J0.2794
G1 X-59.3595 Y19.4071 Z-1.0125
G3 X-59.3476 Y19.4692 Z-1.0126 I-0.9759 J0.2181
G1 X-59.328 Y19.5933 Z-1.0128
G3 X-59.3203 Y19.6546 I-0.9878 J0.156
G1 X-59.3084 Y19.7797 Z-1.013
G3 X-59.3044 Y19.8434 Z-1.0131 I-0.9955 J0.0947
G1 X-59.3005 Y19.969 Z-1.0132
G3 Y20.031 Z-1.0133 I-0.9995 J0.031
G1 X-59.3044 Y20.1566 Z-1.0135
G3 X-59.3084 Y20.2203 I-0.9995 J-0.031
G1 X-59.3203 Y20.3454 Z-1.0137
G3 X-59.328 Y20.4067 Z-1.0138 I-0.9955 J-0.0947
G1 X-59.3476 Y20.5308 Z-1.0139
G3 X-59.3595 Y20.5929 Z-1.014 I-0.9878 J-0.156
G1 X-59.3869 Y20.7155 Z-1.0142
G3 X-59.4026 Y20.7768 I-0.9759 J-0.2181
G1 X-59.4377 Y20.8974 Z-1.0144
G3 X-59.4569 Y20.9564 Z-1.0145 I-0.9602 J-0.2794
G1 X-59.4994 Y21.0746 Z-1.0146
G3 X-59.5225 Y21.1331 Z-1.0147 I-0.941 J-0.3384
G1 X-59.5724 Y21.2485 Z-1.0148
G3 X-59.5996 Y21.3061 Z-1.0149 I-0.9179 J-0.3969
G1 X-59.6567 Y21.418 Z-1.0151
G3 X-59.6863 Y21.472 Z-1.0152 I-0.8907 J-0.4545
G1 X-59.7502 Y21.5802 Z-1.0153
G3 X-59.7846 Y21.6343 Z-1.0154 I-0.8611 J-0.5085
G1 X-59.8553 Y21.7382 Z-1.0155
G3 X-59.892 Y21.7888 Z-1.0156 I-0.8267 J-0.5626
G1 X-59.969 Y21.888 Z-1.0158
G3 X-60.0 Y21.9259 I-0.79 J-0.6132
G1 Y27.0 Z-1.0221
G1 X-54.4259 Z-1.029
G3 X-54.388 Y26.969 I0.6511 J0.759
G1 X-54.2888 Y26.892 Z-1.0292
G3 X-54.2382 Y26.8553 Z-1.0293 I0.6132 J0.79
G1 X-54.1343 Y26.7846 Z-1.0294
G3 X-54.0802 Y26.7502 Z-1.0295 I0.5626 J0.8267
G1 X-53.972 Y26.6863 Z-1.0297
G3 X-53.918 Y26.6567 I0.5085 J0.8611
G1 X-53.8061 Y26.5996 Z-1.0299
G3 X-53.7485 Y26.5724 Z-1.03 I0.4545 J0.8907
G1 X-53.6331 Y26.5225 Z-1.0301
G3 X-53.5746 Y26.4994 Z-1.0302 I0.3969 J0.9179
G1 X-53.4564 Y26.4569 Z-1.0304
G3 X-53.3974 Y26.4377 I0.3384 J0.941
G1 X-53.2768 Y26.4026 Z-1.0306
G3 X-53.2155 Y26.3869 Z-1.0307 I0.2794 J0.9602
G1 X-53.0929 Y26.3595 Z-1.0308
G3 X-53.0308 Y26.3476 Z-1.0309 I0.2181 J0.9759
G1 X-52.9067 Y26.328 Z-1.0311
G3 X-52.8454 Y26.3203 I0.156 J0.9878
G1 X-52.7203 Y26.3084 Z-1.0313
G3 X-52.6566 Y26.3044 Z-1.0314 I0.0947 J0.9955
G1 X-52.531 Y26.3005 Z-1.0315
G3 X-52.469 Z-1.0316 I0.031 J0.9995
G1 X-52.3434 Y26.3044 Z-1.0318
G3 X-52.2797 Y26.3084 I-0.031 J0.9995
G1 X-52.1546 Y26.3203 Z-1.032
G3 X-52.0933 Y26.328 Z-1.0321 I-0.0947 J0.9955
G1 X-51.9692 Y26.3476 Z-1.0322
G3 X-51.9071 Y26.3595 Z-1.0323 I-0.156 J0.9878
G1 X-51.7845 Y26.3869 Z-1.0325
G3 X-51.7232 Y26.4026 I-0.2181 J0.9759
G1 X-51.6026 Y26.4377 Z-1.0327
G3 X-51.5439 Y26.4568 Z-1.0328 I-0.2794 J0.9602
G1 X-51.4256 Y26.4993 Z-1.0329
G3 X-51.3665 Y26.5227 Z-1.033 I-0.3381 J0.9411
G1 X-51.2512 Y26.5726 Z-1.0332
G3 X-51.1939 Y26.5996 I-0.3972 J0.9177
G1 X-51.082 Y26.6567 Z-1.0334
G3 X-51.028 Y26.6863 Z-1.0335 I-0.4545 J0.8907
G1 X-50.9198 Y26.7502 Z-1.0336
G3 X-50.8657 Y26.7846 Z-1.0337 I-0.5085 J0.8611
G1 X-50.7618 Y26.8553 Z-1.0339
G3 X-50.7112 Y26.892 I-0.5626 J0.8267
G1 X-50.612 Y26.969 Z-1.0341
G3 X-50.5741 Y27.0 Z-1.0342 I-0.6132 J0.79
G1 X-1.9259 Z-1.0942
G3 X-1.8877 Y26.9688 Z-1.0943 I0.6511 J0.759
G1 X-1.7884 Y26.8918 Z-1.0944
G3 X-1.7381 Y26.8552 Z-1.0945 I0.6129 J0.7902
G1 X-1.6341 Y26.7845 Z-1.0947
G3 X-1.5804 Y26.7504 I0.5625 J0.8268
G1 X-1.4722 Y26.6865 Z-1.0949
G3 X-1.4179 Y26.6566 Z-1.095 I0.5087 J0.8609
G1 X-1.3059 Y26.5995 Z-1.0951
G3 X-1.2487 Y26.5725 Z-1.0952 I0.4544 J0.8908
G1 X-1.1334 Y26.5226 Z-1.0954
G3 X-1.0746 Y26.4994 I0.3972 J0.9178
G1 X-0.9563 Y26.4569 Z-1.0956
G3 X-0.8974 Y26.4377 Z-1.0957 I0.3383 J0.941
G1 X-0.7767 Y26.4026 Z-1.0958
G3 X-0.7155 Y26.3869 Z-1.0959 I0.2793 J0.9602
G1 X-0.5928 Y26.3595 Z-1.0961
G3 X-0.5308 Y26.3476 I0.2181 J0.9759
G1 X-0.4067 Y26.328 Z-1.0963
G3 X-0.3454 Y26.3203 Z-1.0964 I0.156 J0.9878
G1 X-0.2203 Y26.3084 Z-1.0965
G3 X-0.1566 Y26.3044 Z-1.0966 I0.0947 J0.9955
G1 X-0.031 Y26.3005 Z-1.0968
G3 X0.031 I0.031 J0.9995
G1 X0.1566 Y26.3044 Z-1.097
G3 X0.2203 Y26.3084 Z-1.0971 I-0.031 J0.9995
G1 X0.3454 Y26.3203 Z-1.0972
G3 X0.4067 Y26.328 Z-1.0973 I-0.0947 J0.9955
G1 X0.5308 Y26.3476 Z-1.0975
G3 X0.5928 Y26.3595 I-0.156 J0.9878
G1 X0.7155 Y26.3869 Z-1.0977
G3 X0.7767 Y26.4026 Z-1.0978 I-0.2181 J0.9759
G1 X0.8974 Y26.4377 Z-1.0979
G3 X0.9563 Y26.4569 Z-1.098 I-0.2793 J0.9602
G1 X1.0746 Y26.4994 Z-1.0982
G3 X1.1334 Y26.5226 I-0.3383 J0.941
G1 X1.2487 Y26.5725 Z-1.0984
G3 X1.3059 Y26.5995 Z-1.0985 I-0.3972 J0.9178
G1 X1.4179 Y26.6566 Z-1.0986
G3 X1.4722 Y26.6865 Z-1.0987 I-0.4544 J0.8908
G1 X1.5804 Y26.7504 Z-1.0989
G3 X1.6341 Y26.7845 I-0.5087 J0.8609
G1 X1.7381 Y26.8552 Z-1.0991
G3 X1.7884 Y26.8918 Z-1.0992 I-0.5625 J0.8268
G1 X1.8877 Y26.9688 Z-1.0993
G3 X1.9259 Y27.0 Z-1.0994 I-0.6129 J0.7902
G1 X50.5741 Z-1.1594
G3 X50.612 Y26.969 Z-1.1595 I0.6511 J0.759
G1 X50.7112 Y26.892 Z-1.1597
G3 X50.7618 Y26.8553 I0.6132 J0.79
G1 X50.8657 Y26.7846 Z-1.1599
G3 X50.9198 Y26.7502 Z-1.16 I0.5626 J0.8267
G1 X51.028 Y26.6863 Z-1.1601
G3 X51.082 Y26.6567 Z-1.1602 I0.5085 J0.8611
G1 X51.1939 Y26.5996 Z-1.1604
G3 X51.2512 Y26.5726 I0.4545 J0.8907
G1 X51.3665 Y26.5227 Z-1.1606
G3 X51.4256 Y26.4993 Z-1.1607 I0.3972 J0.9177
G1 X51.5439 Y26.4568 Z-1.1608
G3 X51.6026 Y26.4377 Z-1.1609 I0.3381 J0.9411
G1 X51.7232 Y26.4026 Z-1.1611
G3 X51.7845 Y26.3869 I0.2794 J0.9602
G1 X51.9071 Y26.3595 Z-1.1613
G3 X51.9692 Y26.3476 Z-1.1614 I0.2181 J0.9759
G1 X52.0933 Y26.328 Z-1.1615
G3 X52.1546 Y26.3203 Z-1.1616 I0.156 J0.9878
G1 X52.2797 Y26.3084 Z-1.1618
G3 X52.3434 Y26.3044 I0.0947 J0.9955
G1 X52.469 Y26.3005 Z-1.162
G3 X52.531 Z-1.1621 I0.031 J0.9995
G1 X52.6566 Y26.3044 Z-1.1622
G3 X52.7203 Y26.3084 Z-1.1623 I-0.031 J0.9995
G1 X52.8454 Y26.3203 Z-1.1625
G3 X52.9067 Y26.328 I-0.0947 J0.9955
G1 X53.0308 Y26.3476 Z-1.1627
G3 X53.0929 Y26.3595 Z-1.1628 I-0.156 J0.9878
G1 X53.2155 Y26.3869 Z-1.1629
G3 X53.2768 Y26.4026 Z-1.163 I-0.2181 J0.9759
G1 X53.3974 Y26.4377 Z-1.1632
G3 X53.4564 Y26.4569 I-0.2794 J0.9602
G1 X53.5746 Y26.4994 Z-1.1634
G3 X53.6331 Y26.5225 Z-1.1635 I-0.3384 J0.941
G1 X53.7485 Y26.5724 Z-1.1636
G3 X53.8061 Y26.5996 Z-1.1637 I-0.3969 J0.9179
G1 X53.918 Y26.6567 Z-1.1639
G3 X53.972 Y26.6863 I-0.4545 J0.8907
G1 X54.0802 Y26.7502 Z-1.1641
G3 X54.1343 Y26.7846 Z-1.1642 I-0.5085 J0.8611
G1 X54.2382 Y26.8553 Z-1.1643
G3 X54.2888 Y26.892 Z-1.1644 I-0.5626 J0.8267
G1 X54.388 Y26.969 Z-1.1646
G3 X54.4259 Y27.0 I-0.6132 J0.79
G1 X60.0 Z-1.1715
G1 Y21.9259 Z-1.1778
G3 X59.969 Y21.888 I0.759 J-0.6511
G1 X59.892 Y21.7888 Z-1.178
G3 X59.8553 Y21.7382 Z-1.1781 I0.79 J-0.6132
G1 X59.7846 Y21.6343 Z-1.1782
G3 X59.7502 Y21.5802 Z-1.1783 I0.8267 J-0.5626
G1 X59.6863 Y21.472 Z-1.1784
G3 X59.6567 Y21.418 Z-1.1785 I0.8611 J-0.5085
G1 X59.5996 Y21.3061 Z-1.1787
G3 X59.5724 Y21.2485 Z-1.1788 I0.8907 J-0.4545
G1 X59.5225 Y21.1331 Z-1.1789
G3 X59.4994 Y21.0746 Z-1.179 I0.9179 J-0.3969
G1 X59.4569 Y20.9564 Z-1.1791
G3 X59.4377 Y20.8974 Z-1.1792 I0.941 J-0.3384
G1 X59.4026 Y20.7768 Z-1.1794
G3 X59.3869 Y20.7155 I0.9602 J-0.2794
G1 X59.3595 Y20.5929 Z-1.1796
G3 X59.3476 Y20.5308 Z-1.1797 I0.9759 J-0.2181
G1 X59.328 Y20.4067 Z-1.1798
G3 X59.3203 Y20.3454 Z-1.1799 I0.9878 J-0.156
G1 X59.3084 Y20.2203 Z-1.1801
G3 X59.3044 Y20.1566 I0.9955 J-0.0947
G1 X59.3005 Y20.031 Z-1.1803
G3 Y19.969 Z-1.1804 I0.9995 J-0.031
G1 X59.3044 Y19.8434 Z-1.1805
G3 X59.3084 Y19.7797 Z-1.1806 I0.9995 J0.031
G1 X59.3203 Y19.6546 Z-1.1808
G3 X59.328 Y19.5933 I0.9955 J0.0947
G1 X59.3476 Y19.4692 Z-1.181
G3 X59.3595 Y19.4071 Z-1.1811 I0.9878 J0.156
G1 X59.3869 Y19.2845 Z-1.1812
G3 X59.4026 Y19.2232 Z-1.1813 I0.9759 J0.2181
G1 X59.4377 Y19.1026 Z-1.1815
G3 X59.4569 Y19.0436 I0.9602 J0.2794
G1 X59.4994 Y18.9254 Z-1.1817
G3 X59.5225 Y18.8669 Z-1.1818 I0.941 J0.3384
G1 X59.5724 Y18.7515 Z-1.1819
G3 X59.5996 Y18.6939 Z-1.182 I0.9179 J0.3969
G1 X59.6567 Y18.582 Z-1.1822
G3 X59.6863 Y18.528 I0.8907 J0.4545
G1 X59.7502 Y18.4198 Z-1.1824
G3 X59.7846 Y18.3657 Z-1.1825 I0.8611 J0.5085
G1 X59.8553 Y18.2618 Z-1.1826
G3 X59.892 Y18.2112 Z-1.1827 I0.8267 J0.5626
G1 X59.969 Y18.112 Z-1.1829
G3 X60.0 Y18.0741 I0.79 J0.6132
G1 Y8.4259 Z-1.1948
G3 X59.9688 Y8.3877 Z-1.1949 I0.759 J-0.6511
G1 X59.8918 Y8.2884 Z-1.1951
G3 X59.8552 Y8.2381 I0.7902 J-0.6129
G1 X59.7845 Y8.1341 Z-1.1953
G3 X59.7504 Y8.0804 Z-1.1954 I0.8268 J-0.5625
G1 X59.6865 Y7.9722 Z-1.1955
G3 X59.6566 Y7.9179 Z-1.1956 I0.8609 J-0.5087
G1 X59.5995 Y7.8059 Z-1.1957
G3 X59.5725 Y7.7487 Z-1.1958 I0.8908 J-0.4544
G1 X59.5226 Y7.6334 Z-1.196
G3 X59.4994 Y7.5746 Z-1.1961 I0.9178 J-0.3972
G1 X59.4569 Y7.4563 Z-1.1962
G3 X59.4377 Y7.3974 Z-1.1963 I0.941 J-0.3383
G1 X59.4026 Y7.2767 Z-1.1964
G3 X59.3869 Y7.2155 Z-1.1965 I0.9602 J-0.2793
G1 X59.3595 Y7.0928 Z-1.1967
G3 X59.3476 Y7.0308 Z-1.1968 I0.9759 J-0.2181
G1 X59.328 Y6.9067 Z-1.1969
G3 X59.3203 Y6.8454 Z-1.197 I0.9878 J-0.156
G1 X59.3084 Y6.7203 Z-1.1971
G3 X59.3044 Y6.6566 Z-1.1972 I0.9955 J-0.0947
G1 X59.3005 Y6.531 Z-1.1974
G3 Y6.469 Z-1.1975 I0.9995 J-0.031
G1 X59.3044 Y6.3434 Z-1.1976
G3 X59.3084 Y6.2797 Z-1.1977 I0.9995 J0.031
G1 X59.3203 Y6.1546 Z-1.1978
G3 X59.328 Y6.0933 Z-1.1979 I0.9955 J0.0947
G1 X59.3476 Y5.9692 Z-1.1981
G3 X59.3595 Y5.9072 Z-1.1982 I0.9878 J0.156
G1 X59.3869 Y5.7845 Z-1.1983
G3 X59.4026 Y5.7233 Z-1.1984 I0.9759 J0.2181
G1 X59.4377 Y5.6026 Z-1.1985
G3 X59.4569 Y5.5437 Z-1.1986 I0.9602 J0.2793
G1 X59.4994 Y5.4254 Z-1.1988
G3 X59.5226 Y5.3666 Z-1.1989 I0.941 J0.3383
G1 X59.5725 Y5.2513 Z-1.199
G3 X59.5995 Y5.1941 Z-1.1991 I0.9178 J0.3972
G1 X59.6566 Y5.0821 Z-1.1992
G3 X59.6865 Y5.0278 Z-1.1993 I0.8908 J0.4544
G1 X59.7504 Y4.9196 Z-1.1995
G3 X59.7845 Y4.8659 Z-1.1996 I0.8609 J0.5087
G1 X59.8552 Y4.7619 Z-1.1997
G3 X59.8918 Y4.7116 Z-1.1998 I0.8268 J0.5625
G1 X59.9688 Y4.6123 Z-1.1999
G3 X60.0 Y4.5741 Z-1.2 I0.7902 J0.6129
G1 Y-5.0741 Z-1.2119
G3 X59.9688 Y-5.1123 Z-1.212 I0.759 J-0.6511
G1 X59.8918 Y-5.2116 Z-1.2121
G3 X59.8552 Y-5.2619 Z-1.2122 I0.7902 J-0.6129
G1 X59.7845 Y-5.3659 Z-1.2124
G3 X59.7504 Y-5.4196 I0.8268 J-0.5625
G1 X59.6865 Y-5.5278 Z-1.2126
G3 X59.6566 Y-5.5821 Z-1.2127 I0.8609 J-0.5087
G1 X59.5995 Y-5.6941 Z-1.2128
G3 X59.5725 Y-5.7513 Z-1.2129 I0.8908 J-0.4544
G1 X59.5226 Y-5.8666 Z-1.2131
G3 X59.4994 Y-5.9254 I0.9178 J-0.3972
G1 X59.4569 Y-6.0437 Z-1.2133
G3 X59.4377 Y-6.1026 Z-1.2134 I0.941 J-0.3383
G1 X59.4026 Y-6.2233 Z-1.2135
G3 X59.3869 Y-6.2845 Z-1.2136 I0.9602 J-0.2793
G1 X59.3595 Y-6.4072 Z-1.2138
G3 X59.3476 Y-6.4692 I0.9759 J-0.2181
G1 X59.328 Y-6.5933 Z-1.214
G3 X59.3203 Y-6.6546 Z-1.2141 I0.9878 J-0.156
G1 X59.3084 Y-6.7797 Z-1.2142
G3 X59.3044 Y-6.8434 Z-1.2143 I0.9955 J-0.0947
G1 X59.3005 Y-6.969 Z-1.2145
G3 Y-7.031 I0.9995 J-0.031
G1 X59.3044 Y-7.1566 Z-1.2147
G3 X59.3084 Y-7.2203 Z-1.2148 I0.9995 J0.031
G1 X59.3203 Y-7.3454 Z-1.2149
G3 X59.328 Y-7.4067 Z-1.215 I0.9955 J0.0947
G1 X59.3476 Y-7.5308 Z-1.2152
G3 X59.3595 Y-7.5928 I0.9878 J0.156
G1 X59.3869 Y-7.7155 Z-1.2154
G3 X59.4026 Y-7.7767 Z-1.2155 I0.9759 J0.2181
G1 X59.4377 Y-7.8974 Z-1.2156
G3 X59.4569 Y-7.9563 Z-1.2157 I0.9602 J0.2793
G1 X59.4994 Y-8.0746 Z-1.2159
G3 X59.5226 Y-8.1334 I0.941 J0.3383
G1 X59.5725 Y-8.2487 Z-1.2161
G3 X59.5995 Y-8.3059 Z-1.2162 I0.9178 J0.3972
G1 X59.6566 Y-8.4179 Z-1.2163
G3 X59.6865 Y-8.4722 Z-1.2164 I0.8908 J0.4544
G1 X59.7504 Y-8.5804 Z-1.2165
G3 X59.7845 Y-8.6341 Z-1.2166 I0.8609 J0.5087
G1 X59.8552 Y-8.7381 Z-1.2168
G3 X59.8918 Y-8.7884 Z-1.2169 I0.8268 J0.5625
G1 X59.9688 Y-8.8877 Z-1.217
G3 X60.0 Y-8.9259 Z-1.2171 I0.7902 J0.6129
G1 Y-13.0 Z-1.2221
G1 X54.4259 Z-1.229
G3 X54.388 Y-12.969 I-0.6511 J-0.759
G1 X54.2888 Y-12.892 Z-1.2292
G3 X54.2382 Y-12.8553 Z-1.2293 I-0.6132 J-0.79
G1 X54.1343 Y-12.7846 Z-1.2294
G3 X54.0802 Y-12.7502 Z-1.2295 I-0.5626 J-0.8267
G1 X53.972 Y-12.6863 Z-1.2297
G3 X53.918 Y-12.6567 I-0.5085 J-0.8611
G1 X53.8061 Y-12.5996 Z-1.2299
G3 X53.7485 Y-12.5724 Z-1.23 I-0.4545 J-0.8907
G1 X53.6331 Y-12.5225 Z-1.2301
G3 X53.5746 Y-12.4994 Z-1.2302 I-0.3969 J-0.9179
G1 X53.4564 Y-12.4569 Z-1.2304
G3 X53.3974 Y-12.4377 I-0.3384 J-0.941
G1 X53.2768 Y-12.4026 Z-1.2306
G3 X53.2155 Y-12.3869 Z-1.2307 I-0.2794 J-0.9602
G1 X53.0929 Y-12.3595 Z-1.2308
G3 X53.0308 Y-12.3476 Z-1.2309 I-0.2181 J-0.9759
G1 X52.9067 Y-12.328 Z-1.2311
G3 X52.8454 Y-12.3203 I-0.156 J-0.9878
G1 X52.7203 Y-12.3084 Z-1.2313
G3 X52.6566 Y-12.3044 Z-1.2314 I-0.0947 J-0.9955
G1 X52.531 Y-12.3005 Z-1.2315
G3 X52.469 Z-1.2316 I-0.031 J-0.9995
G1 X52.3434 Y-12.3044 Z-1.2318
G3 X52.2797 Y-12.3084 I0.031 J-0.9995
G1 X52.1546 Y-12.3203 Z-1.232
G3 X52.0933 Y-12.328 Z-1.2321 I0.0947 J-0.9955
G1 X51.9692 Y-12.3476 Z-1.2322
G3 X51.9071 Y-12.3595 Z-1.2323 I0.156 J-0.9878
G1 X51.7845 Y-12.3869 Z-1.2325
G3 X51.7232 Y-12.4026 I0.2181 J-0.9759
G1 X51.6026 Y-12.4377 Z-1.2327
G3 X51.5439 Y-12.4568 Z-1.2328 I0.2794 J-0.9602
G1 X51.4256 Y-12.4993 Z-1.2329
G3 X51.3665 Y-12.5227 Z-1.233 I0.3381 J-0.9411
G1 X51.2512 Y-12.5726 Z-1.2332
G3 X51.1939 Y-12.5996 I0.3972 J-0.9177
G1 X51.082 Y-12.6567 Z-1.2334
G3 X51.028 Y-12.6863 Z-1.2335 I0.4545 J-0.8907
G1 X50.9198 Y-12.7502 Z-1.2336
G3 X50.8657 Y-12.7846 Z-1.2337 I0.5085 J-0.8611
G1 X50.7618 Y-12.8553 Z-1.2339
G3 X50.7112 Y-12.892 I0.5626 J-0.8267
G1 X50.612 Y-12.969 Z-1.2341
G3 X50.5741 Y-13.0 Z-1.2342 I0.6132 J-0.79
G1 X1.9259 Z-1.2942
G3 X1.8877 Y-12.9688 Z-1.2943 I-0.6511 J-0.759
G1 X1.7884 Y-12.8918 Z-1.2944
G3 X1.7381 Y-12.8552 Z-1.2945 I-0.6129 J-0.7902
G1 X1.6341 Y-12.7845 Z-1.2947
G3 X1.5804 Y-12.7504 I-0.5625 J-0.8268
G1 X1.4722 Y-12.6865 Z-1.2949
G3 X1.4179 Y-12.6566 Z-1.295 I-0.5087 J-0.8609
G1 X1.3059 Y-12.5995 Z-1.2951
G3 X1.2487 Y-12.5725 Z-1.2952 I-0.4544 J-0.8908
G1 X1.1334 Y-12.5226 Z-1.2954
G3 X1.0746 Y-12.4994 I-0.3972 J-0.9178
G1 X0.9563 Y-12.4569 Z-1.2956
G3 X0.8974 Y-12.4377 Z-1.2957 I-0.3383 J-0.941
G1 X0.7767 Y-12.4026 Z-1.2958
G3 X0.7155 Y-12.3869 Z-1.2959 I-0.2793 J-0.9602
G1 X0.5928 Y-12.3595 Z-1.2961
G3 X0.5308 Y-12.3476 I-0.2181 J-0.9759
G1 X0.4067 Y-12.328 Z-1.2963
G3 X0.3454 Y-12.3203 Z-1.2964 I-0.156 J-0.9878
G1 X0.2203 Y-12.3084 Z-1.2965
G3 X0.1566 Y-12.3044 Z-1.2966 I-0.0947 J-0.9955
G1 X0.031 Y-12.3005 Z-1.2968
G3 X-0.031 I-0.031 J-0.9995
G1 X-0.1566 Y-12.3044 Z-1.297
G3 X-0.2203 Y-12.3084 Z-1.2971 I0.031 J-0.9995
G1 X-0.3454 Y-12.3203 Z-1.2972
G3 X-0.4067 Y-12.328 Z-1.2973 I0.0947 J-0.9955
G1 X-0.5308 Y-12.3476 Z-1.2975
G3 X-0.5928 Y-12.3595 I0.156 J-0.9878
G1 X-0.7155 Y-12.3869 Z-1.2977
G3 X-0.7767 Y-12.4026 Z-1.2978 I0.2181 J-0.9759
G1 X-0.8974 Y-12.4377 Z-1.2979
G3 X-0.9563 Y-12.4569 Z-1.298 I0.2793 J-0.9602
G1 X-1.0746 Y-12.4994 Z-1.2982
G3 X-1.1334 Y-12.5226 I0.3383 J-0.941
G1 X-1.2487 Y-12.5725 Z-1.2984
G3 X-1.3059 Y-12.5995 Z-1.2985 I0.3972 J-0.9178
G1 X-1.4179 Y-12.6566 Z-1.2986
G3 X-1.4722 Y-12.6865 Z-1.2987 I0.4544 J-0.8908
G1 X-1.5804 Y-12.7504 Z-1.2989
G3 X-1.6341 Y-12.7845 I0.5087 J-0.8609
G1 X-1.7381 Y-12.8552 Z-1.2991
G3 X-1.7884 Y-12.8918 Z-1.2992 I0.5625 J-0.8268
G1 X-1.8877 Y-12.9688 Z-1.2993
G3 X-1.9259 Y-13.0 Z-1.2994 I0.6129 J-0.7902
G1 X-50.5741 Z-1.3594
G3 X-50.612 Y-12.969 Z-1.3595 I-0.6511 J-0.759
G1 X-50.7112 Y-12.892 Z-1.3597
G3 X-50.7618 Y-12.8553 I-0.6132 J-0.79
G1 X-50.8657 Y-12.7846 Z-1.3599
G3 X-50.9198 Y-12.7502 Z-1.36 I-0.5626 J-0.8267
G1 X-51.028 Y-12.6863 Z-1.3601
G3 X-51.082 Y-12.6567 Z-1.3602 I-0.5085 J-0.8611
G1 X-51.1939 Y-12.5996 Z-1.3604
G3 X-51.2512 Y-12.5726 I-0.4545 J-0.8907
G1 X-51.3665 Y-12.5227 Z-1.3606
G3 X-51.4256 Y-12.4993 Z-1.3607 I-0.3972 J-0.9177
G1 X-51.5439 Y-12.4568 Z-1.3608
G3 X-51.6026 Y-12.4377 Z-1.3609 I-0.3381 J-0.9411
G1 X-51.7232 Y-12.4026 Z-1.3611
G3 X-51.7845 Y-12.3869 I-0.2794 J-0.9602
G1 X-51.9071 Y-12.3595 Z-1.3613
G3 X-51.9692 Y-12.3476 Z-1.3614 I-0.2181 J-0.9759
G1 X-52.0933 Y-12.328 Z-1.3615
G3 X-52.1546 Y-12.3203 Z-1.3616 I-0.156 J-0.9878
G1 X-52.2797 Y-12.3084 Z-1.3618
G3 X-52.3434 Y-12.3044 I-0.0947 J-0.9955
G1 X-52.469 Y-12.3005 Z-1.362
G3 X-52.531 Z-1.3621 I-0.031 J-0.9995
G1 X-52.6566 Y-12.3044 Z-1.3622
G3 X-52.7203 Y-12.3084 Z-1.3623 I0.031 J-0.9995
G1 X-52.8454 Y-12.3203 Z-1.3625
G3 X-52.9067 Y-12.328 I0.0947 J-0.9955
G1 X-53.0308 Y-12.3476 Z-1.3627
G3 X-53.0929 Y-12.3595 Z-1.3628 I0.156 J-0.9878
G1 X-53.2155 Y-12.3869 Z-1.3629
G3 X-53.2768 Y-12.4026 Z-1.363 I0.2181 J-0.9759
G1 X-53.3974 Y-12.4377 Z-1.3632
G3 X-53.4564 Y-12.4569 I0.2794 J-0.9602
G1 X-53.5746 Y-12.4994 Z-1.3634
G3 X-53.6331 Y-12.5225 Z-1.3635 I0.3384 J-0.941
G1 X-53.7485 Y-12.5724 Z-1.3636
G3 X-53.8061 Y-12.5996 Z-1.3637 I0.3969 J-0.9179
G1 X-53.918 Y-12.6567 Z-1.3639
G3 X-53.972 Y-12.6863 I0.4545 J-0.8907
G1 X-54.0802 Y-12.7502 Z-1.3641
G3 X-54.1343 Y-12.7846 Z-1.3642 I0.5085 J-0.8611
G1 X-54.2382 Y-12.8553 Z-1.3643
G3 X-54.2888 Y-12.892 Z-1.3644 I0.5626 J-0.8267
G1 X-54.388 Y-12.969 Z-1.3646
G3 X-54.4259 Y-13.0 I0.6132 J-0.79
G1 X-60.0 Z-1.3715
G1 Y-8.9259 Z-1.3765
G3 X-59.9688 Y-8.8877 Z-1.3766 I-0.759 J0.6511
G1 X-59.8918 Y-8.7884 Z-1.3767
G3 X-59.8552 Y-8.7381 Z-1.3768 I-0.7902 J0.6129
G1 X-59.7845 Y-8.6341 Z-1.377
G3 X-59.7504 Y-8.5804 Z-1.3771 I-0.8268 J0.5625
G1 X-59.6865 Y-8.4722 Z-1.3772
G3 X-59.6566 Y-8.4179 Z-1.3773 I-0.8609 J0.5087
G1 X-59.5995 Y-8.3059 Z-1.3774
G3 X-59.5725 Y-8.2487 Z-1.3775 I-0.8908 J0.4544
G1 X-59.5226 Y-8.1334 Z-1.3777
G3 X-59.4994 Y-8.0746 Z-1.3778 I-0.9178 J0.3972
G1 X-59.4569 Y-7.9563 Z-1.3779
G3 X-59.4377 Y-7.8974 Z-1.378 I-0.941 J0.3383
G1 X-59.4026 Y-7.7767 Z-1.3781
G3 X-59.3869 Y-7.7155 Z-1.3782 I-0.9602 J0.2793
G1 X-59.3595 Y-7.5928 Z-1.3784
G3 X-59.3476 Y-7.5308 I-0.9759 J0.2181
G1 X-59.328 Y-7.4067 Z-1.3786
G3 X-59.3203 Y-7.3454 Z-1.3787 I-0.9878 J0.156
G1 X-59.3084 Y-7.2203 Z-1.3788
G3 X-59.3044 Y-7.1566 Z-1.3789 I-0.9955 J0.0947
G1 X-59.3005 Y-7.031 Z-1.3791
G3 Y-6.969 I-0.9995 J0.031
G1 X-59.3044 Y-6.8434 Z-1.3793
G3 X-59.3084 Y-6.7797 Z-1.3794 I-0.9995 J-0.031
G1 X-59.3203 Y-6.6546 Z-1.3795
G3 X-59.328 Y-6.5933 Z-1.3796 I-0.9955 J-0.0947
G1 X-59.3476 Y-6.4692 Z-1.3798
G3 X-59.3595 Y-6.4072 I-0.9878 J-0.156
G1 X-59.3869 Y-6.2845 Z-1.38
G3 X-59.4026 Y-6.2233 Z-1.3801 I-0.9759 J-0.2181
G1 X-59.4377 Y-6.1026 Z-1.3802
G3 X-59.4569 Y-6.0437 Z-1.3803 I-0.9602 J-0.2793
G1 X-59.4994 Y-5.9254 Z-1.3805
G3 X-59.5226 Y-5.8666 I-0.941 J-0.3383
G1 X-59.5725 Y-5.7513 Z-1.3807
G3 X-59.5995 Y-5.6941 Z-1.3808 I-0.9178 J-0.3972
G1 X-59.6566 Y-5.5821 Z-1.3809
G3 X-59.6865 Y-5.5278 Z-1.381 I-0.8908 J-0.4544
G1 X-59.7504 Y-5.4196 Z-1.3812
G3 X-59.7845 Y-5.3659 I-0.8609 J-0.5087
G1 X-59.8552 Y-5.2619 Z-1.3814
G3 X-59.8918 Y-5.2116 Z-1.3815 I-0.8268 J-0.5625
G1 X-59.9688 Y-5.1123 Z-1.3816
G3 X-60.0 Y-5.0741 Z-1.3817 I-0.7902 J-0.6129
G1 Y4.5741 Z-1.3936
G3 X-59.9688 Y4.6123 Z-1.3937 I-0.759 J0.6511
G1 X-59.8918 Y4.7116 Z-1.3938
G3 X-59.8552 Y4.7619 Z-1.3939 I-0.7902 J0.6129
G1 X-59.7845 Y4.8659 Z-1.394
G3 X-59.7504 Y4.9196 Z-1.3941 I-0.8268 J0.5625
G1 X-59.6865 Y5.0278 Z-1.3943
G3 X-59.6566 Y5.0821 Z-1.3944 I-0.8609 J0.5087
G1 X-59.5995 Y5.1941 Z-1.3945
G3 X-59.5725 Y5.2513 Z-1.3946 I-0.8908 J0.4544
G1 X-59.5226 Y5.3666 Z-1.3947
G3 X-59.4994 Y5.4254 Z-1.3948 I-0.9178 J0.3972
G1 X-59.4569 Y5.5437 Z-1.395
G3 X-59.4377 Y5.6026 Z-1.3951 I-0.941 J0.3383
G1 X-59.4026 Y5.7233 Z-1.3952
G3 X-59.3869 Y5.7845 Z-1.3953 I-0.9602 J0.2793
G1 X-59.3595 Y5.9072 Z-1.3954
G3 X-59.3476 Y5.9692 Z-1.3955 I-0.9759 J0.2181
G1 X-59.328 Y6.0933 Z-1.3957
G3 X-59.3203 Y6.1546 Z-1.3958 I-0.9878 J0.156
G1 X-59.3084 Y6.2797 Z-1.3959
G3 X-59.3044 Y6.3434 Z-1.396 I-0.9955 J0.0947
G1 X-59.3005 Y6.469 Z-1.3961
G3 Y6.531 Z-1.3962 I-0.9995 J0.031
G1 X-59.3044 Y6.6566 Z-1.3964
G3 X-59.3084 Y6.7203 Z-1.3965 I-0.9995 J-0.031
G1 X-59.3203 Y6.8454 Z-1.3966
G3 X-59.328 Y6.9067 Z-1.3967 I-0.9955 J-0.0947
G1 X-59.3476 Y7.0308 Z-1.3968
G3 X-59.3595 Y7.0928 Z-1.3969 I-0.9878 J-0.156
G1 X-59.3869 Y7.2155 Z-1.3971
G3 X-59.4026 Y7.2767 Z-1.3972 I-0.9759 J-0.2181
G1 X-59.4377 Y7.3974 Z-1.3973
G3 X-59.4569 Y7.4563 Z-1.3974 I-0.9602 J-0.2793
G1 X-59.4994 Y7.5746 Z-1.3975
G3 X-59.5226 Y7.6334 Z-1.3976 I-0.941 J-0.3383
G1 X-59.5725 Y7.7487 Z-1.3978
G3 X-59.5995 Y7.8059 Z-1.3979 I-0.9178 J-0.3972
G1 X-59.6566 Y7.9179 Z-1.398
G3 X-59.6865 Y7.9722 Z-1.3981 I-0.8908 J-0.4544
G1 X-59.7504 Y8.0804 Z-1.3982
G3 X-59.7845 Y8.1341 Z-1.3983 I-0.8609 J-0.5087
G1 X-59.8552 Y8.2381 Z-1.3985
G3 X-59.8918 Y8.2884 I-0.8268 J-0.5625
G1 X-59.9688 Y8.3877 Z-1.3987
G3 X-60.0 Y8.4259 Z-1.3988 I-0.7902 J-0.6129
G1 Y18.0741 Z-1.4107
G3 X-59.969 Y18.112 I-0.759 J0.6511
G1 X-59.892 Y18.2112 Z-1.4109
G3 X-59.8553 Y18.2618 Z-1.411 I-0.79 J0.6132
G1 X-59.7846 Y18.3657 Z-1.4111
G3 X-59.7502 Y18.4198 Z-1.4112 I-0.8267 J0.5626
G1 X-59.6863 Y18.528 Z-1.4114
G3 X-59.6567 Y18.582 I-0.8611 J0.5085
G1 X-59.5996 Y18.6939 Z-1.4116
G3 X-59.5724 Y18.7515 Z-1.4117 I-0.8907 J0.4545
G1 X-59.5225 Y18.8669 Z-1.4118
G3 X-59.4994 Y18.9254 Z-1.4119 I-0.9179 J0.3969
G1 X-59.4569 Y19.0436 Z-1.4121
G3 X-59.4377 Y19.1026 I-0.941 J0.3384
G1 X-59.4026 Y19.2232 Z-1.4123
G3 X-59.3869 Y19.2845 Z-1.4124 I-0.9602 J0.2794
G1 X-59.3595 Y19.4071 Z-1.4125
G3 X-59.3476 Y19.4692 Z-1.4126 I-0.9759 J0.2181
G1 X-59.328 Y19.5933 Z-1.4128
G3 X-59.3203 Y19.6546 I-0.9878 J0.156
G1 X-59.3084 Y19.7797 Z-1.413
G3 X-59.3044 Y19.8434 Z-1.4131 I-0.9955 J0.0947
G1 X-59.3005 Y19.969 Z-1.4132
G3 Y20.031 Z-1.4133 I-0.9995 J0.031
G1 X-59.3044 Y20.1566 Z-1.4135
G3 X-59.3084 Y20.2203 I-0.9995 J-0.031
G1 X-59.3203 Y20.3454 Z-1.4137
G3 X-59.328 Y20.4067 Z-1.4138 I-0.9955 J-0.0947
G1 X-59.3476 Y20.5308 Z-1.4139
G3 X-59.3595 Y20.5929 Z-1.414 I-0.9878 J-0.156
G1 X-59.3869 Y20.7155 Z-1.4142
G3 X-59.4026 Y20.7768 I-0.9759 J-0.2181
G1 X-59.4377 Y20.8974 Z-1.4144
G3 X-59.4569 Y20.9564 Z-1.4145 I-0.9602 J-0.2794
G1 X-59.4994 Y21.0746 Z-1.4146
G3 X-59.5225 Y21.1331 Z-1.4147 I-0.941 J-0.3384
G1 X-59.5724 Y21.2485 Z-1.4148
G3 X-59.5996 Y21.3061 Z-1.4149 I-0.9179 J-0.3969
G1 X-59.6567 Y21.418 Z-1.4151
G3 X-59.6863 Y21.472 Z-1.4152 I-0.8907 J-0.4545
G1 X-59.7502 Y21.5802 Z-1.4153
G3 X-59.7846 Y21.6343 Z-1.4154 I-0.8611 J-0.5085
G1 X-59.8553 Y21.7382 Z-1.4155
G3 X-59.892 Y21.7888 Z-1.4156 I-0.8267 J-0.5626
G1 X-59.969 Y21.888 Z-1.4158
G3 X-60.0 Y21.9259 I-0.79 J-0.6132
G1 Y27.0 Z-1.4221
G1 X-54.4259 Z-1.429
G3 X-54.388 Y26.969 I0.6511 J0.759
G1 X-54.2888 Y26.892 Z-1.4292
G3 X-54.2382 Y26.8553 Z-1.4293 I0.6132 J0.79
G1 X-54.1343 Y26.7846 Z-1.4294
G3 X-54.0802 Y26.7502 Z-1.4295 I0.5626 J0.8267
G1 X-53.972 Y26.6863 Z-1.4297
G3 X-53.918 Y26.6567 I0.5085 J0.8611
G1 X-53.8061 Y26.5996 Z-1.4299
G3 X-53.7485 Y26.5724 Z-1.43 I0.4545 J0.8907
G1 X-53.6331 Y26.5225 Z-1.4301
G3 X-53.5746 Y26.4994 Z-1.4302 I0.3969 J0.9179
G1 X-53.4564 Y26.4569 Z-1.4304
G3 X-53.3974 Y26.4377 I0.3384 J0.941
G1 X-53.2768 Y26.4026 Z-1.4306
G3 X-53.2155 Y26.3869 Z-1.4307 I0.2794 J0.9602
G1 X-53.0929 Y26.3595 Z-1.4308
G3 X-53.0308 Y26.3476 Z-1.4309 I0.2181 J0.9759
G1 X-52.9067 Y26.328 Z-1.4311
G3 X-52.8454 Y26.3203 I0.156 J0.9878
G1 X-52.7203 Y26.3084 Z-1.4313
G3 X-52.6566 Y26.3044 Z-1.4314 I0.0947 J0.9955
G1 X-52.531 Y26.3005 Z-1.4315
G3 X-52.469 Z-1.4316 I0.031 J0.9995
G1 X-52.3434 Y26.3044 Z-1.4318
G3 X-52.2797 Y26.3084 I-0.031 J0.9995
G1 X-52.1546 Y26.3203 Z-1.432
G3 X-52.0933 Y26.328 Z-1.4321 I-0.0947 J0.9955
G1 X-51.9692 Y26.3476 Z-1.4322
G3 X-51.9071 Y26.3595 Z-1.4323 I-0.156 J0.9878
G1 X-51.7845 Y26.3869 Z-1.4325
G3 X-51.7232 Y26.4026 I-0.2181 J0.9759
G1 X-51.6026 Y26.4377 Z-1.4327
G3 X-51.5439 Y26.4568 Z-1.4328 I-0.2794 J0.9602
G1 X-51.4256 Y26.4993 Z-1.4329
G3 X-51.3665 Y26.5227 Z-1.433 I-0.3381 J0.9411
G1 X-51.2512 Y26.5726 Z-1.4332
G3 X-51.1939 Y26.5996 I-0.3972 J0.9177
G1 X-51.082 Y26.6567 Z-1.4334
G3 X-51.028 Y26.6863 Z-1.4335 I-0.4545 J0.8907
G1 X-50.9198 Y26.7502 Z-1.4336
G3 X-50.8657 Y26.7846 Z-1.4337 I-0.5085 J0.8611
G1 X-50.7618 Y26.8553 Z-1.4339
G3 X-50.7112 Y26.892 I-0.5626 J0.8267
G1 X-50.612 Y26.969 Z-1.4341
G3 X-50.5741 Y27.0 Z-1.4342 I-0.6132 J0.79
G1 X-1.9259 Z-1.4942
G3 X-1.8877 Y26.9688 Z-1.4943 I0.6511 J0.759
G1 X-1.7884 Y26.8918 Z-1.4944
G3 X-1.7381 Y26.8552 Z-1.4945 I0.6129 J0.7902
G1 X-1.6341 Y26.7845 Z-1.4947
G3 X-1.5804 Y26.7504 I0.5625 J0.8268
G1 X-1.4722 Y26.6865 Z-1.4949
G3 X-1.4179 Y26.6566 Z-1.495 I0.5087 J0.8609
G1 X-1.3059 Y26.5995 Z-1.4951
G3 X-1.2487 Y26.5725 Z-1.4952 I0.4544 J0.8908
G1 X-1.1334 Y26.5226 Z-1.4954
G3 X-1.0746 Y26.4994 I0.3972 J0.9178
G1 X-0.9563 Y26.4569 Z-1.4956
G3 X-0.8974 Y26.4377 Z-1.4957 I0.3383 J0.941
G1 X-0.7767 Y26.4026 Z-1.4958
G3 X-0.7155 Y26.3869 Z-1.4959 I0.2793 J0.9602
G1 X-0.5928 Y26.3595 Z-1.4961
G3 X-0.5308 Y26.3476 I0.2181 J0.9759
G1 X-0.4067 Y26.328 Z-1.4963
G3 X-0.3454 Y26.3203 Z-1.4964 I0.156 J0.9878
G1 X-0.2203 Y26.3084 Z-1.4965
G3 X-0.1566 Y26.3044 Z-1.4966 I0.0947 J0.9955
G1 X-0.031 Y26.3005 Z-1.4968
G3 X0.031 I0.031 J0.9995
G1 X0.1566 Y26.3044 Z-1.497
G3 X0.2203 Y26.3084 Z-1.4971 I-0.031 J0.9995
G1 X0.3454 Y26.3203 Z-1.4972
G3 X0.4067 Y26.328 Z-1.4973 I-0.0947 J0.9955
G1 X0.5308 Y26.3476 Z-1.4975
G3 X0.5928 Y26.3595 I-0.156 J0.9878
G1 X0.7155 Y26.3869 Z-1.4977
G3 X0.7767 Y26.4026 Z-1.4978 I-0.2181 J0.9759
G1 X0.8974 Y26.4377 Z-1.4979
G3 X0.9563 Y26.4569 Z-1.498 I-0.2793 J0.9602
G1 X1.0746 Y26.4994 Z-1.4982
G3 X1.1334 Y26.5226 I-0.3383 J0.941
G1 X1.2487 Y26.5725 Z-1.4984
G3 X1.3059 Y26.5995 Z-1.4985 I-0.3972 J0.9178
G1 X1.4179 Y26.6566 Z-1.4986
G3 X1.4722 Y26.6865 Z-1.4987 I-0.4544 J0.8908
G1 X1.5804 Y26.7504 Z-1.4989
G3 X1.6341 Y26.7845 I-0.5087 J0.8609
G1 X1.7381 Y26.8552 Z-1.4991
G3 X1.7884 Y26.8918 Z-1.4992 I-0.5625 J0.8268
G1 X1.8877 Y26.9688 Z-1.4993
G3 X1.9259 Y27.0 Z-1.4994 I-0.6129 J0.7902
G1 X50.5741 Z-1.5594
G3 X50.612 Y26.969 Z-1.5595 I0.6511 J0.759
G1 X50.7112 Y26.892 Z-1.5597
G3 X50.7618 Y26.8553 I0.6132 J0.79
G1 X50.8657 Y26.7846 Z-1.5599
G3 X50.9198 Y26.7502 Z-1.56 I0.5626 J0.8267
G1 X51.028 Y26.6863 Z-1.5601
G3 X51.082 Y26.6567 Z-1.5602 I0.5085 J0.8611
G1 X51.1939 Y26.5996 Z-1.5604
G3 X51.2512 Y26.5726 I0.4545 J0.8907
G1 X51.3665 Y26.5227 Z-1.5606
G3 X51.4256 Y26.4993 Z-1.5607 I0.3972 J0.9177
G1 X51.5439 Y26.4568 Z-1.5608
G3 X51.6026 Y26.4377 Z-1.5609 I0.3381 J0.9411
G1 X51.7232 Y26.4026 Z-1.5611
G3 X51.7845 Y26.3869 I0.2794 J0.9602
G1 X51.9071 Y26.3595 Z-1.5613
G3 X51.9692 Y26.3476 Z-1.5614 I0.2181 J0.9759
G1 X52.0933 Y26.328 Z-1.5615
G3 X52.1546 Y26.3203 Z-1.5616 I0.156 J0.9878
G1 X52.2797 Y26.3084 Z-1.5618
G3 X52.3434 Y26.3044 I0.0947 J0.9955
G1 X52.469 Y26.3005 Z-1.562
G3 X52.531 Z-1.5621 I0.031 J0.9995
G1 X52.6566 Y26.3044 Z-1.5622
G3 X52.7203 Y26.3084 Z-1.5623 I-0.031 J0.9995
G1 X52.8454 Y26.3203 Z-1.5625
G3 X52.9067 Y26.328 I-0.0947 J0.9955
G1 X53.0308 Y26.3476 Z-1.5627
G3 X53.0929 Y26.3595 Z-1.5628 I-0.156 J0.9878
G1 X53.2155 Y26.3869 Z-1.5629
G3 X53.2768 Y26.4026 Z-1.563 I-0.2181 J0.9759
G1 X53.3974 Y26.4377 Z-1.5632
G3 X53.4564 Y26.4569 I-0.2794 J0.9602
G1 X53.5746 Y26.4994 Z-1.5634
G3 X53.6331 Y26.5225 Z-1.5635 I-0.3384 J0.941
G1 X53.7485 Y26.5724 Z-1.5636
G3 X53.8061 Y26.5996 Z-1.5637 I-0.3969 J0.9179
G1 X53.918 Y26.6567 Z-1.5639
G3 X53.972 Y26.6863 I-0.4545 J0.8907
G1 X54.0802 Y26.7502 Z-1.5641
G3 X54.1343 Y26.7846 Z-1.5642 I-0.5085 J0.8611
G1 X54.2382 Y26.8553 Z-1.5643
G3 X54.2888 Y26.892 Z-1.5644 I-0.5626 J0.8267
G1 X54.388 Y26.969 Z-1.5646
G3 X54.4259 Y27.0 I-0.6132 J0.79
G1 X60.0 Z-1.5715
G1 Y21.9259 Z-1.5778
G3 X59.969 Y21.888 I0.759 J-0.6511
G1 X59.892 Y21.7888 Z-1.578
G3 X59.8553 Y21.7382 Z-1.5781 I0.79 J-0.6132
G1 X59.7846 Y21.6343 Z-1.5782
G3 X59.7502 Y21.5802 Z-1.5783 I0.8267 J-0.5626
G1 X59.6863 Y21.472 Z-1.5784
G3 X59.6567 Y21.418 Z-1.5785 I0.8611 J-0.5085
G1 X59.5996 Y21.3061 Z-1.5787
G3 X59.5724 Y21.2485 Z-1.5788 I0.8907 J-0.4545
G1 X59.5225 Y21.1331 Z-1.5789
G3 X59.4994 Y21.0746 Z-1.579 I0.9179 J-0.3969
G1 X59.4569 Y20.9564 Z-1.5791
G3 X59.4377 Y20.8974 Z-1.5792 I0.941 J-0.3384
G1 X59.4026 Y20.7768 Z-1.5794
G3 X59.3869 Y20.7155 I0.9602 J-0.2794
G1 X59.3595 Y20.5929 Z-1.5796
G3 X59.3476 Y20.5308 Z-1.5797 I0.9759 J-0.2181
G1 X59.328 Y20.4067 Z-1.5798
G3 X59.3203 Y20.3454 Z-1.5799 I0.9878 J-0.156
G1 X59.3084 Y20.2203 Z-1.5801
G3 X59.3044 Y20.1566 I0.9955 J-0.0947
G1 X59.3005 Y20.031 Z-1.5803
G3 Y19.969 Z-1.5804 I0.9995 J-0.031
G1 X59.3044 Y19.8434 Z-1.5805
G3 X59.3084 Y19.7797 Z-1.5806 I0.9995 J0.031
G1 X59.3203 Y19.6546 Z-1.5808
G3 X59.328 Y19.5933 I0.9955 J0.0947
G1 X59.3476 Y19.4692 Z-1.581
G3 X59.3595 Y19.4071 Z-1.5811 I0.9878 J0.156
G1 X59.3869 Y19.2845 Z-1.5812
G3 X59.4026 Y19.2232 Z-1.5813 I0.9759 J0.2181
G1 X59.4377 Y19.1026 Z-1.5815
G3 X59.4569 Y19.0436 I0.9602 J0.2794
G1 X59.4994 Y18.9254 Z-1.5817
G3 X59.5225 Y18.8669 Z-1.5818 I0.941 J0.3384
G1 X59.5724 Y18.7515 Z-1.5819
G3 X59.5996 Y18.6939 Z-1.582 I0.9179 J0.3969
G1 X59.6567 Y18.582 Z-1.5822
G3 X59.6863 Y18.528 I0.8907 J0.4545
G1 X59.7502 Y18.4198 Z-1.5824
G3 X59.7846 Y18.3657 Z-1.5825 I0.8611 J0.5085
G1 X59.8553 Y18.2618 Z-1.5826
G3 X59.892 Y18.2112 Z-1.5827 I0.8267 J0.5626
G1 X59.969 Y18.112 Z-1.5829
G3 X60.0 Y18.0741 I0.79 J0.6132
G1 Y8.4259 Z-1.5948
G3 X59.9688 Y8.3877 Z-1.5949 I0.759 J-0.6511
G1 X59.8918 Y8.2884 Z-1.5951
G3 X59.8552 Y8.2381 I0.7902 J-0.6129
G1 X59.7845 Y8.1341 Z-1.5953
G3 X59.7504 Y8.0804 Z-1.5954 I0.8268 J-0.5625
G1 X59.6865 Y7.9722 Z-1.5955
G3 X59.6566 Y7.9179 Z-1.5956 I0.8609 J-0.5087
G1 X59.5995 Y7.8059 Z-1.5957
G3 X59.5725 Y7.7487 Z-1.5958 I0.8908 J-0.4544
G1 X59.5226 Y7.6334 Z-1.596
G3 X59.4994 Y7.5746 Z-1.5961 I0.9178 J-0.3972
G1 X59.4569 Y7.4563 Z-1.5962
G3 X59.4377 Y7.3974 Z-1.5963 I0.941 J-0.3383
G1 X59.4026 Y7.2767 Z-1.5964
G3 X59.3869 Y7.2155 Z-1.5965 I0.9602 J-0.2793
G1 X59.3595 Y7.0928 Z-1.5967
G3 X59.3476 Y7.0308 Z-1.5968 I0.9759 J-0.2181
G1 X59.328 Y6.9067 Z-1.5969
G3 X59.3203 Y6.8454 Z-1.597 I0.9878 J-0.156
G1 X59.3084 Y6.7203 Z-1.5971
G3 X59.3044 Y6.6566 Z-1.5972 I0.9955 J-0.0947
G1 X59.3005 Y6.531 Z-1.5974
G3 Y6.469 Z-1.5975 I0.9995 J-0.031
G1 X59.3044 Y6.3434 Z-1.5976
G3 X59.3084 Y6.2797 Z-1.5977 I0.9995 J0.031
G1 X59.3203 Y6.1546 Z-1.5978
G3 X59.328 Y6.0933 Z-1.5979 I0.9955 J0.0947
G1 X59.3476 Y5.9692 Z-1.5981
G3 X59.3595 Y5.9072 Z-1.5982 I0.9878 J0.156
G1 X59.3869 Y5.7845 Z-1.5983
G3 X59.4026 Y5.7233 Z-1.5984 I0.9759 J0.2181
G1 X59.4377 Y5.6026 Z-1.5985
G3 X59.4569 Y5.5437 Z-1.5986 I0.9602 J0.2793
G1 X59.4994 Y5.4254 Z-1.5988
G3 X59.5226 Y5.3666 Z-1.5989 I0.941 J0.3383
G1 X59.5725 Y5.2513 Z-1.599
G3 X59.5995 Y5.1941 Z-1.5991 I0.9178 J0.3972
G1 X59.6566 Y5.0821 Z-1.5992
G3 X59.6865 Y5.0278 Z-1.5993 I0.8908 J0.4544
G1 X59.7504 Y4.9196 Z-1.5995
G3 X59.7845 Y4.8659 Z-1.5996 I0.8609 J0.5087
G1 X59.8552 Y4.7619 Z-1.5997
G3 X59.8918 Y4.7116 Z-1.5998 I0.8268 J0.5625
G1 X59.9688 Y4.6123 Z-1.5999
G3 X60.0 Y4.5741 Z-1.6 I0.7902 J0.6129
G1 Y-5.0741 Z-1.6119
G3 X59.9688 Y-5.1123 Z-1.612 I0.759 J-0.6511
G1 X59.8918 Y-5.2116 Z-1.6121
G3 X59.8552 Y-5.2619 Z-1.6122 I0.7902 J-0.6129
G1 X59.7845 Y-5.3659 Z-1.6124
G3 X59.7504 Y-5.4196 I0.8268 J-0.5625
G1 X59.6865 Y-5.5278 Z-1.6126
G3 X59.6566 Y-5.5821 Z-1.6127 I0.8609 J-0.5087
G1 X59.5995 Y-5.6941 Z-1.6128
G3 X59.5725 Y-5.7513 Z-1.6129 I0.8908 J-0.4544
G1 X59.5226 Y-5.8666 Z-1.6131
G3 X59.4994 Y-5.9254 I0.9178 J-0.3972
G1 X59.4569 Y-6.0437 Z-1.6133
G3 X59.4377 Y-6.1026 Z-1.6134 I0.941 J-0.3383
G1 X59.4026 Y-6.2233 Z-1.6135
G3 X59.3869 Y-6.2845 Z-1.6136 I0.9602 J-0.2793
G1 X59.3595 Y-6.4072 Z-1.6138
G3 X59.3476 Y-6.4692 I0.9759 J-0.2181
G1 X59.328 Y-6.5933 Z-1.614
G3 X59.3203 Y-6.6546 Z-1.6141 I0.9878 J-0.156
G1 X59.3084 Y-6.7797 Z-1.6142
G3 X59.3044 Y-6.8434 Z-1.6143 I0.9955 J-0.0947
G1 X59.3005 Y-6.969 Z-1.6145
G3 Y-7.031 I0.9995 J-0.031
G1 X59.3044 Y-7.1566 Z-1.6147
G3 X59.3084 Y-7.2203 Z-1.6148 I0.9995 J0.031
G1 X59.3203 Y-7.3454 Z-1.6149
G3 X59.328 Y-7.4067 Z-1.615 I0.9955 J0.0947
G1 X59.3476 Y-7.5308 Z-1.6152
G3 X59.3595 Y-7.5928 I0.9878 J0.156
G1 X59.3869 Y-7.7155 Z-1.6154
G3 X59.4026 Y-7.7767 Z-1.6155 I0.9759 J0.2181
G1 X59.4377 Y-7.8974 Z-1.6156
G3 X59.4569 Y-7.9563 Z-1.6157 I0.9602 J0.2793
G1 X59.4994 Y-8.0746 Z-1.6159
G3 X59.5226 Y-8.1334 I0.941 J0.3383
G1 X59.5725 Y-8.2487 Z-1.6161
G3 X59.5995 Y-8.3059 Z-1.6162 I0.9178 J0.3972
G1 X59.6566 Y-8.4179 Z-1.6163
G3 X59.6865 Y-8.4722 Z-1.6164 I0.8908 J0.4544
G1 X59.7504 Y-8.5804 Z-1.6165
G3 X59.7845 Y-8.6341 Z-1.6166 I0.8609 J0.5087
G1 X59.8552 Y-8.7381 Z-1.6168
G3 X59.8918 Y-8.7884 Z-1.6169 I0.8268 J0.5625
G1 X59.9688 Y-8.8877 Z-1.617
G3 X60.0 Y-8.9259 Z-1.6171 I0.7902 J0.6129
G1 Y-13.0 Z-1.6221
G1 X54.4259 Z-1.629
G3 X54.388 Y-12.969 I-0.6511 J-0.759
G1 X54.2888 Y-12.892 Z-1.6292
G3 X54.2382 Y-12.8553 Z-1.6293 I-0.6132 J-0.79
G1 X54.1343 Y-12.7846 Z-1.6294
G3 X54.0802 Y-12.7502 Z-1.6295 I-0.5626 J-0.8267
G1 X53.972 Y-12.6863 Z-1.6297
G3 X53.918 Y-12.6567 I-0.5085 J-0.8611
G1 X53.8061 Y-12.5996 Z-1.6299
G3 X53.7485 Y-12.5724 Z-1.63 I-0.4545 J-0.8907
G1 X53.6331 Y-12.5225 Z-1.6301
G3 X53.5746 Y-12.4994 Z-1.6302 I-0.3969 J-0.9179
G1 X53.4564 Y-12.4569 Z-1.6304
G3 X53.3974 Y-12.4377 I-0.3384 J-0.941
G1 X53.2768 Y-12.4026 Z-1.6306
G3 X53.2155 Y-12.3869 Z-1.6307 I-0.2794 J-0.9602
G1 X53.0929 Y-12.3595 Z-1.6308
G3 X53.0308 Y-12.3476 Z-1.6309 I-0.2181 J-0.9759
G1 X52.9067 Y-12.328 Z-1.6311
G3 X52.8454 Y-12.3203 I-0.156 J-0.9878
G1 X52.7203 Y-12.3084 Z-1.6313
G3 X52.6566 Y-12.3044 Z-1.6314 I-0.0947 J-0.9955
G1 X52.531 Y-12.3005 Z-1.6315
G3 X52.469 Z-1.6316 I-0.031 J-0.9995
G1 X52.3434 Y-12.3044 Z-1.6318
G3 X52.2797 Y-12.3084 I0.031 J-0.9995
G1 X52.1546 Y-12.3203 Z-1.632
G3 X52.0933 Y-12.328 Z-1.6321 I0.0947 J-0.9955
G1 X51.9692 Y-12.3476 Z-1.6322
G3 X51.9071 Y-12.3595 Z-1.6323 I0.156 J-0.9878
G1 X51.7845 Y-12.3869 Z-1.6325
G3 X51.7232 Y-12.4026 I0.2181 J-0.9759
G1 X51.6026 Y-12.4377 Z-1.6327
G3 X51.5439 Y-12.4568 Z-1.6328 I0.2794 J-0.9602
G1 X51.4256 Y-12.4993 Z-1.6329
G3 X51.3665 Y-12.5227 Z-1.633 I0.3381 J-0.9411
G1 X51.2512 Y-12.5726 Z-1.6332
G3 X51.1939 Y-12.5996 I0.3972 J-0.9177
G1 X51.082 Y-12.6567 Z-1.6334
G3 X51.028 Y-12.6863 Z-1.6335 I0.4545 J-0.8907
G1 X50.9198 Y-12.7502 Z-1.6336
G3 X50.8657 Y-12.7846 Z-1.6337 I0.5085 J-0.8611
G1 X50.7618 Y-12.8553 Z-1.6339
G3 X50.7112 Y-12.892 I0.5626 J-0.8267
G1 X50.612 Y-12.969 Z-1.6341
G3 X50.5741 Y-13.0 Z-1.6342 I0.6132 J-0.79
G1 X1.9259 Z-1.6942
G3 X1.8877 Y-12.9688 Z-1.6943 I-0.6511 J-0.759
G1 X1.7884 Y-12.8918 Z-1.6944
G3 X1.7381 Y-12.8552 Z-1.6945 I-0.6129 J-0.7902
G1 X1.6341 Y-12.7845 Z-1.6947
G3 X1.5804 Y-12.7504 I-0.5625 J-0.8268
G1 X1.4722 Y-12.6865 Z-1.6949
G3 X1.4179 Y-12.6566 Z-1.695 I-0.5087 J-0.8609
G1 X1.3059 Y-12.5995 Z-1.6951
G3 X1.2487 Y-12.5725 Z-1.6952 I-0.4544 J-0.8908
G1 X1.1334 Y-12.5226 Z-1.6954
G3 X1.0746 Y-12.4994 I-0.3972 J-0.9178
G1 X0.9563 Y-12.4569 Z-1.6956
G3 X0.8974 Y-12.4377 Z-1.6957 I-0.3383 J-0.941
G1 X0.7767 Y-12.4026 Z-1.6958
G3 X0.7155 Y-12.3869 Z-1.6959 I-0.2793 J-0.9602
G1 X0.5928 Y-12.3595 Z-1.6961
G3 X0.5308 Y-12.3476 I-0.2181 J-0.9759
G1 X0.4067 Y-12.328 Z-1.6963
G3 X0.3454 Y-12.3203 Z-1.6964 I-0.156 J-0.9878
G1 X0.2203 Y-12.3084 Z-1.6965
G3 X0.1566 Y-12.3044 Z-1.6966 I-0.0947 J-0.9955
G1 X0.031 Y-12.3005 Z-1.6968
G3 X-0.031 I-0.031 J-0.9995
G1 X-0.1566 Y-12.3044 Z-1.697
G3 X-0.2203 Y-12.3084 Z-1.6971 I0.031 J-0.9995
G1 X-0.3454 Y-12.3203 Z-1.6972
G3 X-0.4067 Y-12.328 Z-1.6973 I0.0947 J-0.9955
G1 X-0.5308 Y-12.3476 Z-1.6975
G3 X-0.5928 Y-12.3595 I0.156 J-0.9878
G1 X-0.7155 Y-12.3869 Z-1.6977
G3 X-0.7767 Y-12.4026 Z-1.6978 I0.2181 J-0.9759
G1 X-0.8974 Y-12.4377 Z-1.6979
G3 X-0.9563 Y-12.4569 Z-1.698 I0.2793 J-0.9602
G1 X-1.0746 Y-12.4994 Z-1.6982
G3 X-1.1334 Y-12.5226 I0.3383 J-0.941
G1 X-1.2487 Y-12.5725 Z-1.6984
G3 X-1.3059 Y-12.5995 Z-1.6985 I0.3972 J-0.9178
G1 X-1.4179 Y-12.6566 Z-1.6986
G3 X-1.4722 Y-12.6865 Z-1.6987 I0.4544 J-0.8908
G1 X-1.5804 Y-12.7504 Z-1.6989
G3 X-1.6341 Y-12.7845 I0.5087 J-0.8609
G1 X-1.7381 Y-12.8552 Z-1.6991
G3 X-1.7884 Y-12.8918 Z-1.6992 I0.5625 J-0.8268
G1 X-1.8877 Y-12.9688 Z-1.6993
G3 X-1.9259 Y-13.0 Z-1.6994 I0.6129 J-0.7902
G1 X-50.5741 Z-1.7594
G3 X-50.612 Y-12.969 Z-1.7595 I-0.6511 J-0.759
G1 X-50.7112 Y-12.892 Z-1.7597
G3 X-50.7618 Y-12.8553 I-0.6132 J-0.79
G1 X-50.8657 Y-12.7846 Z-1.7599
G3 X-50.9198 Y-12.7502 Z-1.76 I-0.5626 J-0.8267
G1 X-51.028 Y-12.6863 Z-1.7601
G3 X-51.082 Y-12.6567 Z-1.7602 I-0.5085 J-0.8611
G1 X-51.1939 Y-12.5996 Z-1.7604
G3 X-51.2512 Y-12.5726 I-0.4545 J-0.8907
G1 X-51.3665 Y-12.5227 Z-1.7606
G3 X-51.4256 Y-12.4993 Z-1.7607 I-0.3972 J-0.9177
G1 X-51.5439 Y-12.4568 Z-1.7608
G3 X-51.6026 Y-12.4377 Z-1.7609 I-0.3381 J-0.9411
G1 X-51.7232 Y-12.4026 Z-1.7611
G3 X-51.7845 Y-12.3869 I-0.2794 J-0.9602
G1 X-51.9071 Y-12.3595 Z-1.7613
G3 X-51.9692 Y-12.3476 Z-1.7614 I-0.2181 J-0.9759
G1 X-52.0933 Y-12.328 Z-1.7615
G3 X-52.1546 Y-12.3203 Z-1.7616 I-0.156 J-0.9878
G1 X-52.2797 Y-12.3084 Z-1.7618
G3 X-52.3434 Y-12.3044 I-0.0947 J-0.9955
G1 X-52.469 Y-12.3005 Z-1.762
G3 X-52.531 Z-1.7621 I-0.031 J-0.9995
G1 X-52.6566 Y-12.3044 Z-1.7622
G3 X-52.7203 Y-12.3084 Z-1.7623 I0.031 J-0.9995
G1 X-52.8454 Y-12.3203 Z-1.7625
G3 X-52.9067 Y-12.328 I0.0947 J-0.9955
G1 X-53.0308 Y-12.3476 Z-1.7627
G3 X-53.0929 Y-12.3595 Z-1.7628 I0.156 J-0.9878
G1 X-53.2155 Y-12.3869 Z-1.7629
G3 X-53.2768 Y-12.4026 Z-1.763 I0.2181 J-0.9759
G1 X-53.3974 Y-12.4377 Z-1.7632
G3 X-53.4564 Y-12.4569 I0.2794 J-0.9602
G1 X-53.5746 Y-12.4994 Z-1.7634
G3 X-53.6331 Y-12.5225 Z-1.7635 I0.3384 J-0.941
G1 X-53.7485 Y-12.5724 Z-1.7636
G3 X-53.8061 Y-12.5996 Z-1.7637 I0.3969 J-0.9179
G1 X-53.918 Y-12.6567 Z-1.7639
G3 X-53.972 Y-12.6863 I0.4545 J-0.8907
G1 X-54.0802 Y-12.7502 Z-1.7641
G3 X-54.1343 Y-12.7846 Z-1.7642 I0.5085 J-0.8611
G1 X-54.2382 Y-12.8553 Z-1.7643
G3 X-54.2888 Y-12.892 Z-1.7644 I0.5626 J-0.8267
G1 X-54.388 Y-12.969 Z-1.7646
G3 X-54.4259 Y-13.0 I0.6132 J-0.79
G1 X-60.0 Z-1.7715
G1 Y-8.9259 Z-1.7765
G3 X-59.9688 Y-8.8877 Z-1.7766 I-0.759 J0.6511
G1 X-59.8918 Y-8.7884 Z-1.7767
G3 X-59.8552 Y-8.7381 Z-1.7768 I-0.7902 J0.6129
G1 X-59.7845 Y-8.6341 Z-1.777
G3 X-59.7504 Y-8.5804 Z-1.7771 I-0.8268 J0.5625
G1 X-59.6865 Y-8.4722 Z-1.7772
G3 X-59.6566 Y-8.4179 Z-1.7773 I-0.8609 J0.5087
G1 X-59.5995 Y-8.3059 Z-1.7774
G3 X-59.5725 Y-8.2487 Z-1.7775 I-0.8908 J0.4544
G1 X-59.5226 Y-8.1334 Z-1.7777
G3 X-59.4994 Y-8.0746 Z-1.7778 I-0.9178 J0.3972
G1 X-59.4569 Y-7.9563 Z-1.7779
G3 X-59.4377 Y-7.8974 Z-1.778 I-0.941 J0.3383
G1 X-59.4026 Y-7.7767 Z-1.7781
G3 X-59.3869 Y-7.7155 Z-1.7782 I-0.9602 J0.2793
G1 X-59.3595 Y-7.5928 Z-1.7784
G3 X-59.3476 Y-7.5308 I-0.9759 J0.2181
G1 X-59.328 Y-7.4067 Z-1.7786
G3 X-59.3203 Y-7.3454 Z-1.7787 I-0.9878 J0.156
G1 X-59.3084 Y-7.2203 Z-1.7788
G3 X-59.3044 Y-7.1566 Z-1.7789 I-0.9955 J0.0947
G1 X-59.3005 Y-7.031 Z-1.7791
G3 Y-6.969 I-0.9995 J0.031
G1 X-59.3044 Y-6.8434 Z-1.7793
G3 X-59.3084 Y-6.7797 Z-1.7794 I-0.9995 J-0.031
G1 X-59.3203 Y-6.6546 Z-1.7795
G3 X-59.328 Y-6.5933 Z-1.7796 I-0.9955 J-0.0947
G1 X-59.3476 Y-6.4692 Z-1.7798
G3 X-59.3595 Y-6.4072 I-0.9878 J-0.156
G1 X-59.3869 Y-6.2845 Z-1.78
G3 X-59.4026 Y-6.2233 Z-1.7801 I-0.9759 J-0.2181
G1 X-59.4377 Y-6.1026 Z-1.7802
G3 X-59.4569 Y-6.0437 Z-1.7803 I-0.9602 J-0.2793
G1 X-59.4994 Y-5.9254 Z-1.7805
G3 X-59.5226 Y-5.8666 I-0.941 J-0.3383
G1 X-59.5725 Y-5.7513 Z-1.7807
G3 X-59.5995 Y-5.6941 Z-1.7808 I-0.9178 J-0.3972
G1 X-59.6566 Y-5.5821 Z-1.7809
G3 X-59.6865 Y-5.5278 Z-1.781 I-0.8908 J-0.4544
G1 X-59.7504 Y-5.4196 Z-1.7812
G3 X-59.7845 Y-5.3659 I-0.8609 J-0.5087
G1 X-59.8552 Y-5.2619 Z-1.7814
G3 X-59.8918 Y-5.2116 Z-1.7815 I-0.8268 J-0.5625
G1 X-59.9688 Y-5.1123 Z-1.7816
G3 X-60.0 Y-5.0741 Z-1.7817 I-0.7902 J-0.6129
G1 Y4.5741 Z-1.7936
G3 X-59.9688 Y4.6123 Z-1.7937 I-0.759 J0.6511
G1 X-59.8918 Y4.7116 Z-1.7938
G3 X-59.8552 Y4.7619 Z-1.7939 I-0.7902 J0.6129
G1 X-59.7845 Y4.8659 Z-1.794
G3 X-59.7504 Y4.9196 Z-1.7941 I-0.8268 J0.5625
G1 X-59.6865 Y5.0278 Z-1.7943
G3 X-59.6566 Y5.0821 Z-1.7944 I-0.8609 J0.5087
G1 X-59.5995 Y5.1941 Z-1.7945
G3 X-59.5725 Y5.2513 Z-1.7946 I-0.8908 J0.4544
G1 X-59.5226 Y5.3666 Z-1.7947
G3 X-59.4994 Y5.4254 Z-1.7948 I-0.9178 J0.3972
G1 X-59.4569 Y5.5437 Z-1.795
G3 X-59.4377 Y5.6026 Z-1.7951 I-0.941 J0.3383
G1 X-59.4026 Y5.7233 Z-1.7952
G3 X-59.3869 Y5.7845 Z-1.7953 I-0.9602 J0.2793
G1 X-59.3595 Y5.9072 Z-1.7954
G3 X-59.3476 Y5.9692 Z-1.7955 I-0.9759 J0.2181
G1 X-59.328 Y6.0933 Z-1.7957
G3 X-59.3203 Y6.1546 Z-1.7958 I-0.9878 J0.156
G1 X-59.3084 Y6.2797 Z-1.7959
G3 X-59.3044 Y6.3434 Z-1.796 I-0.9955 J0.0947
G1 X-59.3005 Y6.469 Z-1.7961
G3 Y6.531 Z-1.7962 I-0.9995 J0.031
G1 X-59.3044 Y6.6566 Z-1.7964
G3 X-59.3084 Y6.7203 Z-1.7965 I-0.9995 J-0.031
G1 X-59.3203 Y6.8454 Z-1.7966
G3 X-59.328 Y6.9067 Z-1.7967 I-0.9955 J-0.0947
G1 X-59.3476 Y7.0308 Z-1.7968
G3 X-59.3595 Y7.0928 Z-1.7969 I-0.9878 J-0.156
G1 X-59.3869 Y7.2155 Z-1.7971
G3 X-59.4026 Y7.2767 Z-1.7972 I-0.9759 J-0.2181
G1 X-59.4377 Y7.3974 Z-1.7973
G3 X-59.4569 Y7.4563 Z-1.7974 I-0.9602 J-0.2793
G1 X-59.4994 Y7.5746 Z-1.7975
G3 X-59.5226 Y7.6334 Z-1.7976 I-0.941 J-0.3383
G1 X-59.5725 Y7.7487 Z-1.7978
G3 X-59.5995 Y7.8059 Z-1.7979 I-0.9178 J-0.3972
G1 X-59.6566 Y7.9179 Z-1.798
G3 X-59.6865 Y7.9722 Z-1.7981 I-0.8908 J-0.4544
G1 X-59.7504 Y8.0804 Z-1.7982
G3 X-59.7845 Y8.1341 Z-1.7983 I-0.8609 J-0.5087
G1 X-59.8552 Y8.2381 Z-1.7985
G3 X-59.8918 Y8.2884 I-0.8268 J-0.5625
G1 X-59.9688 Y8.3877 Z-1.7987
G3 X-60.0 Y8.4259 Z-1.7988 I-0.7902 J-0.6129
G1 Y18.0741 Z-1.8107
G3 X-59.969 Y18.112 I-0.759 J0.6511
G1 X-59.892 Y18.2112 Z-1.8109
G3 X-59.8553 Y18.2618 Z-1.811 I-0.79 J0.6132
G1 X-59.7846 Y18.3657 Z-1.8111
G3 X-59.7502 Y18.4198 Z-1.8112 I-0.8267 J0.5626
G1 X-59.6863 Y18.528 Z-1.8114
G3 X-59.6567 Y18.582 I-0.8611 J0.5085
G1 X-59.5996 Y18.6939 Z-1.8116
G3 X-59.5724 Y18.7515 Z-1.8117 I-0.8907 J0.4545
G1 X-59.5225 Y18.8669 Z-1.8118
G3 X-59.4994 Y18.9254 Z-1.8119 I-0.9179 J0.3969
G1 X-59.4569 Y19.0436 Z-1.8121
G3 X-59.4377 Y19.1026 I-0.941 J0.3384
G1 X-59.4026 Y19.2232 Z-1.8123
G3 X-59.3869 Y19.2845 Z-1.8124 I-0.9602 J0.2794
G1 X-59.3595 Y19.4071 Z-1.8125
G3 X-59.3476 Y19.4692 Z-1.8126 I-0.9759 J0.2181
G1 X-59.328 Y19.5933 Z-1.8128
G3 X-59.3203 Y19.6546 I-0.9878 J0.156
G1 X-59.3084 Y19.7797 Z-1.813
G3 X-59.3044 Y19.8434 Z-1.8131 I-0.9955 J0.0947
G1 X-59.3005 Y19.969 Z-1.8132
G3 Y20.031 Z-1.8133 I-0.9995 J0.031
G1 X-59.3044 Y20.1566 Z-1.8135
G3 X-59.3084 Y20.2203 I-0.9995 J-0.031
G1 X-59.3203 Y20.3454 Z-1.8137
G3 X-59.328 Y20.4067 Z-1.8138 I-0.9955 J-0.0947
G1 X-59.3476 Y20.5308 Z-1.8139
G3 X-59.3595 Y20.5929 Z-1.814 I-0.9878 J-0.156
G1 X-59.3869 Y20.7155 Z-1.8142
G3 X-59.4026 Y20.7768 I-0.9759 J-0.2181
G1 X-59.4377 Y20.8974 Z-1.8144
G3 X-59.4569 Y20.9564 Z-1.8145 I-0.9602 J-0.2794
G1 X-59.4994 Y21.0746 Z-1.8146
G3 X-59.5225 Y21.1331 Z-1.8147 I-0.941 J-0.3384
G1 X-59.5724 Y21.2485 Z-1.8148
G3 X-59.5996 Y21.3061 Z-1.8149 I-0.9179 J-0.3969
G1 X-59.6567 Y21.418 Z-1.8151
G3 X-59.6863 Y21.472 Z-1.8152 I-0.8907 J-0.4545
G1 X-59.7502 Y21.5802 Z-1.8153
G3 X-59.7846 Y21.6343 Z-1.8154 I-0.8611 J-0.5085
G1 X-59.8553 Y21.7382 Z-1.8155
G3 X-59.892 Y21.7888 Z-1.8156 I-0.8267 J-0.5626
G1 X-59.969 Y21.888 Z-1.8158
G3 X-60.0 Y21.9259 I-0.79 J-0.6132
G1 Y27.0 Z-1.8221
G1 X-54.4259 Z-1.829
G3 X-54.388 Y26.969 I0.6511 J0.759
G1 X-54.2888 Y26.892 Z-1.8292
G3 X-54.2382 Y26.8553 Z-1.8293 I0.6132 J0.79
G1 X-54.1343 Y26.7846 Z-1.8294
G3 X-54.0802 Y26.7502 Z-1.8295 I0.5626 J0.8267
G1 X-53.972 Y26.6863 Z-1.8297
G3 X-53.918 Y26.6567 I0.5085 J0.8611
G1 X-53.8061 Y26.5996 Z-1.8299
G3 X-53.7485 Y26.5724 Z-1.83 I0.4545 J0.8907
G1 X-53.6331 Y26.5225 Z-1.8301
G3 X-53.5746 Y26.4994 Z-1.8302 I0.3969 J0.9179
G1 X-53.4564 Y26.4569 Z-1.8304
G3 X-53.3974 Y26.4377 I0.3384 J0.941
G1 X-53.2768 Y26.4026 Z-1.8306
G3 X-53.2155 Y26.3869 Z-1.8307 I0.2794 J0.9602
G1 X-53.0929 Y26.3595 Z-1.8308
G3 X-53.0308 Y26.3476 Z-1.8309 I0.2181 J0.9759
G1 X-52.9067 Y26.328 Z-1.8311
G3 X-52.8454 Y26.3203 I0.156 J0.9878
G1 X-52.7203 Y26.3084 Z-1.8313
G3 X-52.6566 Y26.3044 Z-1.8314 I0.0947 J0.9955
G1 X-52.531 Y26.3005 Z-1.8315
G3 X-52.469 Z-1.8316 I0.031 J0.9995
G1 X-52.3434 Y26.3044 Z-1.8318
G3 X-52.2797 Y26.3084 I-0.031 J0.9995
G1 X-52.1546 Y26.3203 Z-1.832
G3 X-52.0933 Y26.328 Z-1.8321 I-0.0947 J0.9955
G1 X-51.9692 Y26.3476 Z-1.8322
G3 X-51.9071 Y26.3595 Z-1.8323 I-0.156 J0.9878
G1 X-51.7845 Y26.3869 Z-1.8325
G3 X-51.7232 Y26.4026 I-0.2181 J0.9759
G1 X-51.6026 Y26.4377 Z-1.8327
G3 X-51.5439 Y26.4568 Z-1.8328 I-0.2794 J0.9602
G1 X-51.4256 Y26.4993 Z-1.8329
G3 X-51.3665 Y26.5227 Z-1.833 I-0.3381 J0.9411
G1 X-51.2512 Y26.5726 Z-1.8332
G3 X-51.1939 Y26.5996 I-0.3972 J0.9177
G1 X-51.082 Y26.6567 Z-1.8334
G3 X-51.028 Y26.6863 Z-1.8335 I-0.4545 J0.8907
G1 X-50.9198 Y26.7502 Z-1.8336
G3 X-50.8657 Y26.7846 Z-1.8337 I-0.5085 J0.8611
G1 X-50.7618 Y26.8553 Z-1.8339
G3 X-50.7112 Y26.892 I-0.5626 J0.8267
G1 X-50.612 Y26.969 Z-1.8341
G3 X-50.5741 Y27.0 Z-1.8342 I-0.6132 J0.79
G1 X-1.9259 Z-1.8942
G3 X-1.8877 Y26.9688 Z-1.8943 I0.6511 J0.759
G1 X-1.7884 Y26.8918 Z-1.8944
G3 X-1.7381 Y26.8552 Z-1.8945 I0.6129 J0.7902
G1 X-1.6341 Y26.7845 Z-1.8947
G3 X-1.5804 Y26.7504 I0.5625 J0.8268
G1 X-1.4722 Y26.6865 Z-1.8949
G3 X-1.4179 Y26.6566 Z-1.895 I0.5087 J0.8609
G1 X-1.3059 Y26.5995 Z-1.8951
G3 X-1.2487 Y26.5725 Z-1.8952 I0.4544 J0.8908
G1 X-1.1334 Y26.5226 Z-1.8954
G3 X-1.0746 Y26.4994 I0.3972 J0.9178
G1 X-0.9563 Y26.4569 Z-1.8956
G3 X-0.8974 Y26.4377 Z-1.8957 I0.3383 J0.941
G1 X-0.7767 Y26.4026 Z-1.8958
G3 X-0.7155 Y26.3869 Z-1.8959 I0.2793 J0.9602
G1 X-0.5928 Y26.3595 Z-1.8961
G3 X-0.5308 Y26.3476 I0.2181 J0.9759
G1 X-0.4067 Y26.328 Z-1.8963
G3 X-0.3454 Y26.3203 Z-1.8964 I0.156 J0.9878
G1 X-0.2203 Y26.3084 Z-1.8965
G3 X-0.1566 Y26.3044 Z-1.8966 I0.0947 J0.9955
G1 X-0.031 Y26.3005 Z-1.8968
G3 X0.031 I0.031 J0.9995
G1 X0.1566 Y26.3044 Z-1.897
G3 X0.2203 Y26.3084 Z-1.8971 I-0.031 J0.9995
G1 X0.3454 Y26.3203 Z-1.8972
G3 X0.4067 Y26.328 Z-1.8973 I-0.0947 J0.9955
G1 X0.5308 Y26.3476 Z-1.8975
G3 X0.5928 Y26.3595 I-0.156 J0.9878
G1 X0.7155 Y26.3869 Z-1.8977
G3 X0.7767 Y26.4026 Z-1.8978 I-0.2181 J0.9759
G1 X0.8974 Y26.4377 Z-1.8979
G3 X0.9563 Y26.4569 Z-1.898 I-0.2793 J0.9602
G1 X1.0746 Y26.4994 Z-1.8982
G3 X1.1334 Y26.5226 I-0.3383 J0.941
G1 X1.2487 Y26.5725 Z-1.8984
G3 X1.3059 Y26.5995 Z-1.8985 I-0.3972 J0.9178
G1 X1.4179 Y26.6566 Z-1.8986
G3 X1.4722 Y26.6865 Z-1.8987 I-0.4544 J0.8908
G1 X1.5804 Y26.7504 Z-1.8989
G3 X1.6341 Y26.7845 I-0.5087 J0.8609
G1 X1.7381 Y26.8552 Z-1.8991
G3 X1.7884 Y26.8918 Z-1.8992 I-0.5625 J0.8268
G1 X1.8877 Y26.9688 Z-1.8993
G3 X1.9259 Y27.0 Z-1.8994 I-0.6129 J0.7902
G1 X50.5741 Z-1.9594
G3 X50.612 Y26.969 Z-1.9595 I0.6511 J0.759
G1 X50.7112 Y26.892 Z-1.9597
G3 X50.7618 Y26.8553 I0.6132 J0.79
G1 X50.8657 Y26.7846 Z-1.9599
G3 X50.9198 Y26.7502 Z-1.96 I0.5626 J0.8267
G1 X51.028 Y26.6863 Z-1.9601
G3 X51.082 Y26.6567 Z-1.9602 I0.5085 J0.8611
G1 X51.1939 Y26.5996 Z-1.9604
G3 X51.2512 Y26.5726 I0.4545 J0.8907
G1 X51.3665 Y26.5227 Z-1.9606
G3 X51.4256 Y26.4993 Z-1.9607 I0.3972 J0.9177
G1 X51.5439 Y26.4568 Z-1.9608
G3 X51.6026 Y26.4377 Z-1.9609 I0.3381 J0.9411
G1 X51.7232 Y26.4026 Z-1.9611
G3 X51.7845 Y26.3869 I0.2794 J0.9602
G1 X51.9071 Y26.3595 Z-1.9613
G3 X51.9692 Y26.3476 Z-1.9614 I0.2181 J0.9759
G1 X52.0933 Y26.328 Z-1.9615
G3 X52.1546 Y26.3203 Z-1.9616 I0.156 J0.9878
G1 X52.2797 Y26.3084 Z-1.9618
G3 X52.3434 Y26.3044 I0.0947 J0.9955
G1 X52.469 Y26.3005 Z-1.962
G3 X52.531 Z-1.9621 I0.031 J0.9995
G1 X52.6566 Y26.3044 Z-1.9622
G3 X52.7203 Y26.3084 Z-1.9623 I-0.031 J0.9995
G1 X52.8454 Y26.3203 Z-1.9625
G3 X52.9067 Y26.328 I-0.0947 J0.9955
G1 X53.0308 Y26.3476 Z-1.9627
G3 X53.0929 Y26.3595 Z-1.9628 I-0.156 J0.9878
G1 X53.2155 Y26.3869 Z-1.9629
G3 X53.2768 Y26.4026 Z-1.963 I-0.2181 J0.9759
