( Made using CamBam - http://www.cambam.co.uk )
( 210207Bottompanel 2/7/2021 5:10:22 PM )
( T2 : 2.0 )
( CUTVIEWER )
( FROM/0,0,5 )
( Select dummy tool to avoid warnings )
( TOOL/MILL,1,0,20.0,0 )
( STOCK/BLOCK,180.0,100.0,4.0,90.0,50.0,4.0 )
G21 G90 G91.1 G64 G40
G0 Z3.0
( T2 : 2.0 )
( Tool Taper coming soon )
( TOOL/MILL,2.0,0.0,0.0,0 )
T2 M6
( Ventilation_bar-pocket )
G17
M3 S1000
G0 X-48.1818 Y15.1709
G0 Z1.0
G1 F150.0 Z0.0
G1 F100.0 X-48.1709 Y15.1818 Z-0.0001
G1 X-48.1591 Y15.1922 Z-0.0002
G1 X-48.1465 Y15.2019
G1 X-48.1336 Y15.2107 Z-0.0003
G1 X-48.1204 Y15.2185 Z-0.0004
G1 X-48.1063 Y15.2257 Z-0.0005
G1 X-48.0917 Y15.232
G1 X-48.0772 Y15.2373 Z-0.0006
G1 X-48.0618 Y15.2417 Z-0.0007
G1 X-48.0468 Y15.2451 Z-0.0008
G1 X-48.0317 Y15.2475
G1 X-48.0154 Y15.249 Z-0.0009
G1 X-48.0 Y15.2495 Z-0.001
G1 X-47.9846 Y15.249 Z-0.0011
G1 X-47.9683 Y15.2475
G1 X-47.9532 Y15.2451 Z-0.0012
G1 X-47.9382 Y15.2417 Z-0.0013
G1 X-47.9228 Y15.2373 Z-0.0014
G1 X-47.9083 Y15.232
G1 X-47.8937 Y15.2257 Z-0.0015
G1 X-47.8796 Y15.2185 Z-0.0016
G1 X-47.8664 Y15.2107 Z-0.0017
G1 X-47.8535 Y15.2019 Z-0.0018
G1 X-47.8409 Y15.1922
G1 X-47.8291 Y15.1818 Z-0.0019
G1 X-47.8182 Y15.1709 Z-0.002
G1 X-47.8078 Y15.1591 Z-0.0021
G1 X-47.7981 Y15.1465
G1 X-47.7893 Y15.1336 Z-0.0022
G1 X-47.7815 Y15.1204 Z-0.0023
G1 X-47.7743 Y15.1063 Z-0.0024
G1 X-47.768 Y15.0917
G1 X-47.7627 Y15.0772 Z-0.0025
G1 X-47.7583 Y15.0618 Z-0.0026
G1 X-47.7549 Y15.0468 Z-0.0027
G1 X-47.7525 Y15.0317
G1 X-47.751 Y15.0154 Z-0.0028
G1 X-47.75 Y14.9841 Z-0.003
G1 Y-14.9841 Z-0.149
G1 X-47.751 Y-15.0154 Z-0.1492
G1 X-47.7525 Y-15.0317
G1 X-47.7549 Y-15.0468 Z-0.1493
G1 X-47.7583 Y-15.0618 Z-0.1494
G1 X-47.7627 Y-15.0772 Z-0.1495
G1 X-47.768 Y-15.0917
G1 X-47.7743 Y-15.1063 Z-0.1496
G1 X-47.7815 Y-15.1204 Z-0.1497
G1 X-47.7893 Y-15.1336 Z-0.1498
G1 X-47.7981 Y-15.1465
G1 X-47.8078 Y-15.1591 Z-0.1499
G1 X-47.8182 Y-15.1709 Z-0.15
G1 X-47.8291 Y-15.1818 Z-0.1501
G1 X-47.8409 Y-15.1922 Z-0.1502
G1 X-47.8535 Y-15.2019
G1 X-47.8664 Y-15.2107 Z-0.1503
G1 X-47.8796 Y-15.2185 Z-0.1504
G1 X-47.8937 Y-15.2257 Z-0.1505
G1 X-47.9083 Y-15.232
G1 X-47.9228 Y-15.2373 Z-0.1506
G1 X-47.9382 Y-15.2417 Z-0.1507
G1 X-47.9532 Y-15.2451 Z-0.1508
G1 X-47.9683 Y-15.2475
G1 X-47.9846 Y-15.249 Z-0.1509
G1 X-48.0 Y-15.2495 Z-0.151
G1 X-48.0154 Y-15.249 Z-0.1511
G1 X-48.0317 Y-15.2475
G1 X-48.0468 Y-15.2451 Z-0.1512
G1 X-48.0618 Y-15.2417 Z-0.1513
G1 X-48.0772 Y-15.2373 Z-0.1514
G1 X-48.0917 Y-15.232
G1 X-48.1063 Y-15.2257 Z-0.1515
G1 X-48.1204 Y-15.2185 Z-0.1516
G1 X-48.1336 Y-15.2107 Z-0.1517
G1 X-48.1465 Y-15.2019 Z-0.1518
G1 X-48.1591 Y-15.1922
G1 X-48.1709 Y-15.1818 Z-0.1519
G1 X-48.1818 Y-15.1709 Z-0.152
G1 X-48.1922 Y-15.1591 Z-0.1521
G1 X-48.2019 Y-15.1465
G1 X-48.2107 Y-15.1336 Z-0.1522
G1 X-48.2185 Y-15.1204 Z-0.1523
G1 X-48.2257 Y-15.1063 Z-0.1524
G1 X-48.232 Y-15.0917
G1 X-48.2373 Y-15.0772 Z-0.1525
G1 X-48.2417 Y-15.0618 Z-0.1526
G1 X-48.2451 Y-15.0468 Z-0.1527
G1 X-48.2475 Y-15.0317
G1 X-48.249 Y-15.0154 Z-0.1528
G1 X-48.25 Y-14.9841 Z-0.153
G1 Y14.9841 Z-0.299
G1 X-48.249 Y15.0154 Z-0.2992
G1 X-48.2475 Y15.0317
G1 X-48.2451 Y15.0468 Z-0.2993
G1 X-48.2417 Y15.0618 Z-0.2994
G1 X-48.2373 Y15.0772 Z-0.2995
G1 X-48.232 Y15.0917
G1 X-48.2257 Y15.1063 Z-0.2996
G1 X-48.2185 Y15.1204 Z-0.2997
G1 X-48.2107 Y15.1336 Z-0.2998
G1 X-48.2019 Y15.1465
G1 X-48.1922 Y15.1591 Z-0.2999
G1 X-48.1818 Y15.1709 Z-0.3
G1 X-48.1709 Y15.1818 Z-0.3001
G1 X-48.1591 Y15.1922 Z-0.3002
G1 X-48.1465 Y15.2019
G1 X-48.1336 Y15.2107 Z-0.3003
G1 X-48.1204 Y15.2185 Z-0.3004
G1 X-48.1063 Y15.2257 Z-0.3005
G1 X-48.0917 Y15.232
G1 X-48.0772 Y15.2373 Z-0.3006
G1 X-48.0618 Y15.2417 Z-0.3007
G1 X-48.0468 Y15.2451 Z-0.3008
G1 X-48.0317 Y15.2475
G1 X-48.0154 Y15.249 Z-0.3009
G1 X-48.0 Y15.2495 Z-0.301
G1 X-47.9846 Y15.249 Z-0.3011
G1 X-47.9683 Y15.2475
G1 X-47.9532 Y15.2451 Z-0.3012
G1 X-47.9382 Y15.2417 Z-0.3013
G1 X-47.9228 Y15.2373 Z-0.3014
G1 X-47.9083 Y15.232
G1 X-47.8937 Y15.2257 Z-0.3015
G1 X-47.8796 Y15.2185 Z-0.3016
G1 X-47.8664 Y15.2107 Z-0.3017
G1 X-47.8535 Y15.2019 Z-0.3018
G1 X-47.8409 Y15.1922
G1 X-47.8291 Y15.1818 Z-0.3019
G1 X-47.8182 Y15.1709 Z-0.302
G1 X-47.8078 Y15.1591 Z-0.3021
G1 X-47.7981 Y15.1465
G1 X-47.7893 Y15.1336 Z-0.3022
G1 X-47.7815 Y15.1204 Z-0.3023
G1 X-47.7743 Y15.1063 Z-0.3024
G1 X-47.768 Y15.0917
G1 X-47.7627 Y15.0772 Z-0.3025
G1 X-47.7583 Y15.0618 Z-0.3026
G1 X-47.7549 Y15.0468 Z-0.3027
G1 X-47.7525 Y15.0317
G1 X-47.751 Y15.0154 Z-0.3028
G1 X-47.75 Y14.9841 Z-0.303
G1 Y-14.9841 Z-0.449
G1 X-47.751 Y-15.0154 Z-0.4492
G1 X-47.7525 Y-15.0317
G1 X-47.7549 Y-15.0468 Z-0.4493
G1 X-47.7583 Y-15.0618 Z-0.4494
G1 X-47.7627 Y-15.0772 Z-0.4495
G1 X-47.768 Y-15.0917
G1 X-47.7743 Y-15.1063 Z-0.4496
G1 X-47.7815 Y-15.1204 Z-0.4497
G1 X-47.7893 Y-15.1336 Z-0.4498
G1 X-47.7981 Y-15.1465
G1 X-47.8078 Y-15.1591 Z-0.4499
G1 X-47.8182 Y-15.1709 Z-0.45
G1 X-47.8291 Y-15.1818 Z-0.4501
G1 X-47.8409 Y-15.1922 Z-0.4502
G1 X-47.8535 Y-15.2019
G1 X-47.8664 Y-15.2107 Z-0.4503
G1 X-47.8796 Y-15.2185 Z-0.4504
G1 X-47.8937 Y-15.2257 Z-0.4505
G1 X-47.9083 Y-15.232
G1 X-47.9228 Y-15.2373 Z-0.4506
G1 X-47.9382 Y-15.2417 Z-0.4507
G1 X-47.9532 Y-15.2451 Z-0.4508
G1 X-47.9683 Y-15.2475
G1 X-47.9846 Y-15.249 Z-0.4509
G1 X-48.0 Y-15.2495 Z-0.451
G1 X-48.0154 Y-15.249 Z-0.4511
G1 X-48.0317 Y-15.2475
G1 X-48.0468 Y-15.2451 Z-0.4512
G1 X-48.0618 Y-15.2417 Z-0.4513
G1 X-48.0772 Y-15.2373 Z-0.4514
G1 X-48.0917 Y-15.232
G1 X-48.1063 Y-15.2257 Z-0.4515
G1 X-48.1204 Y-15.2185 Z-0.4516
G1 X-48.1336 Y-15.2107 Z-0.4517
G1 X-48.1465 Y-15.2019 Z-0.4518
G1 X-48.1591 Y-15.1922
G1 X-48.1709 Y-15.1818 Z-0.4519
G1 X-48.1818 Y-15.1709 Z-0.452
G1 X-48.1922 Y-15.1591 Z-0.4521
G1 X-48.2019 Y-15.1465
G1 X-48.2107 Y-15.1336 Z-0.4522
G1 X-48.2185 Y-15.1204 Z-0.4523
G1 X-48.2257 Y-15.1063 Z-0.4524
G1 X-48.232 Y-15.0917
G1 X-48.2373 Y-15.0772 Z-0.4525
G1 X-48.2417 Y-15.0618 Z-0.4526
G1 X-48.2451 Y-15.0468 Z-0.4527
G1 X-48.2475 Y-15.0317
G1 X-48.249 Y-15.0154 Z-0.4528
G1 X-48.25 Y-14.9841 Z-0.453
G1 Y14.9841 Z-0.599
G1 X-48.249 Y15.0154 Z-0.5992
G1 X-48.2475 Y15.0317
G1 X-48.2451 Y15.0468 Z-0.5993
G1 X-48.2417 Y15.0618 Z-0.5994
G1 X-48.2373 Y15.0772 Z-0.5995
G1 X-48.232 Y15.0917
G1 X-48.2257 Y15.1063 Z-0.5996
G1 X-48.2185 Y15.1204 Z-0.5997
G1 X-48.2107 Y15.1336 Z-0.5998
G1 X-48.2019 Y15.1465
G1 X-48.1922 Y15.1591 Z-0.5999
G1 X-48.1818 Y15.1709 Z-0.6
G1 X-48.1709 Y15.1818 Z-0.6001
G1 X-48.1591 Y15.1922 Z-0.6002
G1 X-48.1465 Y15.2019
G1 X-48.1336 Y15.2107 Z-0.6003
G1 X-48.1204 Y15.2185 Z-0.6004
G1 X-48.1063 Y15.2257 Z-0.6005
G1 X-48.0917 Y15.232
G1 X-48.0772 Y15.2373 Z-0.6006
G1 X-48.0618 Y15.2417 Z-0.6007
G1 X-48.0468 Y15.2451 Z-0.6008
G1 X-48.0317 Y15.2475
G1 X-48.0154 Y15.249 Z-0.6009
G1 X-48.0 Y15.2495 Z-0.601
G1 X-47.9846 Y15.249 Z-0.6011
G1 X-47.9683 Y15.2475
G1 X-47.9532 Y15.2451 Z-0.6012
G1 X-47.9382 Y15.2417 Z-0.6013
G1 X-47.9228 Y15.2373 Z-0.6014
G1 X-47.9083 Y15.232
G1 X-47.8937 Y15.2257 Z-0.6015
G1 X-47.8796 Y15.2185 Z-0.6016
G1 X-47.8664 Y15.2107 Z-0.6017
G1 X-47.8535 Y15.2019 Z-0.6018
G1 X-47.8409 Y15.1922
G1 X-47.8291 Y15.1818 Z-0.6019
G1 X-47.8182 Y15.1709 Z-0.602
G1 X-47.8078 Y15.1591 Z-0.6021
G1 X-47.7981 Y15.1465
G1 X-47.7893 Y15.1336 Z-0.6022
G1 X-47.7815 Y15.1204 Z-0.6023
G1 X-47.7743 Y15.1063 Z-0.6024
G1 X-47.768 Y15.0917
G1 X-47.7627 Y15.0772 Z-0.6025
G1 X-47.7583 Y15.0618 Z-0.6026
G1 X-47.7549 Y15.0468 Z-0.6027
G1 X-47.7525 Y15.0317
G1 X-47.751 Y15.0154 Z-0.6028
G1 X-47.75 Y14.9841 Z-0.603
G1 Y-14.9841 Z-0.749
G1 X-47.751 Y-15.0154 Z-0.7492
G1 X-47.7525 Y-15.0317
G1 X-47.7549 Y-15.0468 Z-0.7493
G1 X-47.7583 Y-15.0618 Z-0.7494
G1 X-47.7627 Y-15.0772 Z-0.7495
G1 X-47.768 Y-15.0917
G1 X-47.7743 Y-15.1063 Z-0.7496
G1 X-47.7815 Y-15.1204 Z-0.7497
G1 X-47.7893 Y-15.1336 Z-0.7498
G1 X-47.7981 Y-15.1465
G1 X-47.8078 Y-15.1591 Z-0.7499
G1 X-47.8182 Y-15.1709 Z-0.75
G1 X-47.8291 Y-15.1818 Z-0.7501
G1 X-47.8409 Y-15.1922 Z-0.7502
G1 X-47.8535 Y-15.2019
G1 X-47.8664 Y-15.2107 Z-0.7503
G1 X-47.8796 Y-15.2185 Z-0.7504
G1 X-47.8937 Y-15.2257 Z-0.7505
G1 X-47.9083 Y-15.232
G1 X-47.9228 Y-15.2373 Z-0.7506
G1 X-47.9382 Y-15.2417 Z-0.7507
G1 X-47.9532 Y-15.2451 Z-0.7508
G1 X-47.9683 Y-15.2475
G1 X-47.9846 Y-15.249 Z-0.7509
G1 X-48.0 Y-15.2495 Z-0.751
G1 X-48.0154 Y-15.249 Z-0.7511
G1 X-48.0317 Y-15.2475
G1 X-48.0468 Y-15.2451 Z-0.7512
G1 X-48.0618 Y-15.2417 Z-0.7513
G1 X-48.0772 Y-15.2373 Z-0.7514
G1 X-48.0917 Y-15.232
G1 X-48.1063 Y-15.2257 Z-0.7515
G1 X-48.1204 Y-15.2185 Z-0.7516
G1 X-48.1336 Y-15.2107 Z-0.7517
G1 X-48.1465 Y-15.2019 Z-0.7518
G1 X-48.1591 Y-15.1922
G1 X-48.1709 Y-15.1818 Z-0.7519
G1 X-48.1818 Y-15.1709 Z-0.752
G1 X-48.1922 Y-15.1591 Z-0.7521
G1 X-48.2019 Y-15.1465
G1 X-48.2107 Y-15.1336 Z-0.7522
G1 X-48.2185 Y-15.1204 Z-0.7523
G1 X-48.2257 Y-15.1063 Z-0.7524
G1 X-48.232 Y-15.0917
G1 X-48.2373 Y-15.0772 Z-0.7525
G1 X-48.2417 Y-15.0618 Z-0.7526
G1 X-48.2451 Y-15.0468 Z-0.7527
G1 X-48.2475 Y-15.0317
G1 X-48.249 Y-15.0154 Z-0.7528
G1 X-48.25 Y-14.9841 Z-0.753
G1 Y14.9841 Z-0.899
G1 X-48.249 Y15.0154 Z-0.8992
G1 X-48.2475 Y15.0317
G1 X-48.2451 Y15.0468 Z-0.8993
G1 X-48.2417 Y15.0618 Z-0.8994
G1 X-48.2373 Y15.0772 Z-0.8995
G1 X-48.232 Y15.0917
G1 X-48.2257 Y15.1063 Z-0.8996
G1 X-48.2185 Y15.1204 Z-0.8997
G1 X-48.2107 Y15.1336 Z-0.8998
G1 X-48.2019 Y15.1465
G1 X-48.1922 Y15.1591 Z-0.8999
G1 X-48.1818 Y15.1709 Z-0.9
G1 X-48.1709 Y15.1818 Z-0.9001
G1 X-48.1591 Y15.1922 Z-0.9002
G1 X-48.1465 Y15.2019
G1 X-48.1336 Y15.2107 Z-0.9003
G1 X-48.1204 Y15.2185 Z-0.9004
G1 X-48.1063 Y15.2257 Z-0.9005
G1 X-48.0917 Y15.232
G1 X-48.0772 Y15.2373 Z-0.9006
G1 X-48.0618 Y15.2417 Z-0.9007
G1 X-48.0468 Y15.2451 Z-0.9008
G1 X-48.0317 Y15.2475
G1 X-48.0154 Y15.249 Z-0.9009
G1 X-48.0 Y15.2495 Z-0.901
G1 X-47.9846 Y15.249 Z-0.9011
G1 X-47.9683 Y15.2475
G1 X-47.9532 Y15.2451 Z-0.9012
G1 X-47.9382 Y15.2417 Z-0.9013
G1 X-47.9228 Y15.2373 Z-0.9014
G1 X-47.9083 Y15.232
G1 X-47.8937 Y15.2257 Z-0.9015
G1 X-47.8796 Y15.2185 Z-0.9016
G1 X-47.8664 Y15.2107 Z-0.9017
G1 X-47.8535 Y15.2019 Z-0.9018
G1 X-47.8409 Y15.1922
G1 X-47.8291 Y15.1818 Z-0.9019
G1 X-47.8182 Y15.1709 Z-0.902
G1 X-47.8078 Y15.1591 Z-0.9021
G1 X-47.7981 Y15.1465
G1 X-47.7893 Y15.1336 Z-0.9022
G1 X-47.7815 Y15.1204 Z-0.9023
G1 X-47.7743 Y15.1063 Z-0.9024
G1 X-47.768 Y15.0917
G1 X-47.7627 Y15.0772 Z-0.9025
G1 X-47.7583 Y15.0618 Z-0.9026
G1 X-47.7549 Y15.0468 Z-0.9027
G1 X-47.7525 Y15.0317
G1 X-47.751 Y15.0154 Z-0.9028
G1 X-47.75 Y14.9841 Z-0.903
G1 Y-14.9841 Z-1.049
G1 X-47.751 Y-15.0154 Z-1.0492
G1 X-47.7525 Y-15.0317
G1 X-47.7549 Y-15.0468 Z-1.0493
G1 X-47.7583 Y-15.0618 Z-1.0494
G1 X-47.7627 Y-15.0772 Z-1.0495
G1 X-47.768 Y-15.0917
G1 X-47.7743 Y-15.1063 Z-1.0496
G1 X-47.7815 Y-15.1204 Z-1.0497
G1 X-47.7893 Y-15.1336 Z-1.0498
G1 X-47.7981 Y-15.1465
G1 X-47.8078 Y-15.1591 Z-1.0499
G1 X-47.8182 Y-15.1709 Z-1.05
G1 X-47.8291 Y-15.1818 Z-1.0501
G1 X-47.8409 Y-15.1922 Z-1.0502
G1 X-47.8535 Y-15.2019
G1 X-47.8664 Y-15.2107 Z-1.0503
G1 X-47.8796 Y-15.2185 Z-1.0504
G1 X-47.8937 Y-15.2257 Z-1.0505
G1 X-47.9083 Y-15.232
G1 X-47.9228 Y-15.2373 Z-1.0506
G1 X-47.9382 Y-15.2417 Z-1.0507
G1 X-47.9532 Y-15.2451 Z-1.0508
G1 X-47.9683 Y-15.2475
G1 X-47.9846 Y-15.249 Z-1.0509
G1 X-48.0 Y-15.2495 Z-1.051
G1 X-48.0154 Y-15.249 Z-1.0511
G1 X-48.0317 Y-15.2475
G1 X-48.0468 Y-15.2451 Z-1.0512
G1 X-48.0618 Y-15.2417 Z-1.0513
G1 X-48.0772 Y-15.2373 Z-1.0514
G1 X-48.0917 Y-15.232
G1 X-48.1063 Y-15.2257 Z-1.0515
G1 X-48.1204 Y-15.2185 Z-1.0516
G1 X-48.1336 Y-15.2107 Z-1.0517
G1 X-48.1465 Y-15.2019 Z-1.0518
G1 X-48.1591 Y-15.1922
G1 X-48.1709 Y-15.1818 Z-1.0519
G1 X-48.1818 Y-15.1709 Z-1.052
G1 X-48.1922 Y-15.1591 Z-1.0521
G1 X-48.2019 Y-15.1465
G1 X-48.2107 Y-15.1336 Z-1.0522
G1 X-48.2185 Y-15.1204 Z-1.0523
G1 X-48.2257 Y-15.1063 Z-1.0524
G1 X-48.232 Y-15.0917
G1 X-48.2373 Y-15.0772 Z-1.0525
G1 X-48.2417 Y-15.0618 Z-1.0526
G1 X-48.2451 Y-15.0468 Z-1.0527
G1 X-48.2475 Y-15.0317
G1 X-48.249 Y-15.0154 Z-1.0528
G1 X-48.25 Y-14.9841 Z-1.053
G1 Y14.9841 Z-1.199
G1 X-48.249 Y15.0154 Z-1.1992
G1 X-48.2475 Y15.0317
G1 X-48.2451 Y15.0468 Z-1.1993
G1 X-48.2417 Y15.0618 Z-1.1994
G1 X-48.2373 Y15.0772 Z-1.1995
G1 X-48.232 Y15.0917
G1 X-48.2257 Y15.1063 Z-1.1996
G1 X-48.2185 Y15.1204 Z-1.1997
G1 X-48.2107 Y15.1336 Z-1.1998
G1 X-48.2019 Y15.1465
G1 X-48.1922 Y15.1591 Z-1.1999
G1 X-48.1818 Y15.1709 Z-1.2
G1 X-48.1709 Y15.1818 Z-1.2001
G1 X-48.1591 Y15.1922 Z-1.2002
G1 X-48.1465 Y15.2019
G1 X-48.1336 Y15.2107 Z-1.2003
G1 X-48.1204 Y15.2185 Z-1.2004
G1 X-48.1063 Y15.2257 Z-1.2005
G1 X-48.0917 Y15.232
G1 X-48.0772 Y15.2373 Z-1.2006
G1 X-48.0618 Y15.2417 Z-1.2007
G1 X-48.0468 Y15.2451 Z-1.2008
G1 X-48.0317 Y15.2475
G1 X-48.0154 Y15.249 Z-1.2009
G1 X-48.0 Y15.2495 Z-1.201
G1 X-47.9846 Y15.249 Z-1.2011
G1 X-47.9683 Y15.2475
G1 X-47.9532 Y15.2451 Z-1.2012
G1 X-47.9382 Y15.2417 Z-1.2013
G1 X-47.9228 Y15.2373 Z-1.2014
G1 X-47.9083 Y15.232
G1 X-47.8937 Y15.2257 Z-1.2015
G1 X-47.8796 Y15.2185 Z-1.2016
G1 X-47.8664 Y15.2107 Z-1.2017
G1 X-47.8535 Y15.2019 Z-1.2018
G1 X-47.8409 Y15.1922
G1 X-47.8291 Y15.1818 Z-1.2019
G1 X-47.8182 Y15.1709 Z-1.202
G1 X-47.8078 Y15.1591 Z-1.2021
G1 X-47.7981 Y15.1465
G1 X-47.7893 Y15.1336 Z-1.2022
G1 X-47.7815 Y15.1204 Z-1.2023
G1 X-47.7743 Y15.1063 Z-1.2024
G1 X-47.768 Y15.0917
G1 X-47.7627 Y15.0772 Z-1.2025
G1 X-47.7583 Y15.0618 Z-1.2026
G1 X-47.7549 Y15.0468 Z-1.2027
G1 X-47.7525 Y15.0317
G1 X-47.751 Y15.0154 Z-1.2028
G1 X-47.75 Y14.9841 Z-1.203
G1 Y-14.9841 Z-1.349
G1 X-47.751 Y-15.0154 Z-1.3492
G1 X-47.7525 Y-15.0317
G1 X-47.7549 Y-15.0468 Z-1.3493
G1 X-47.7583 Y-15.0618 Z-1.3494
G1 X-47.7627 Y-15.0772 Z-1.3495
G1 X-47.768 Y-15.0917
G1 X-47.7743 Y-15.1063 Z-1.3496
G1 X-47.7815 Y-15.1204 Z-1.3497
G1 X-47.7893 Y-15.1336 Z-1.3498
G1 X-47.7981 Y-15.1465
G1 X-47.8078 Y-15.1591 Z-1.3499
G1 X-47.8182 Y-15.1709 Z-1.35
G1 X-47.8291 Y-15.1818 Z-1.3501
G1 X-47.8409 Y-15.1922 Z-1.3502
G1 X-47.8535 Y-15.2019
G1 X-47.8664 Y-15.2107 Z-1.3503
G1 X-47.8796 Y-15.2185 Z-1.3504
G1 X-47.8937 Y-15.2257 Z-1.3505
G1 X-47.9083 Y-15.232
G1 X-47.9228 Y-15.2373 Z-1.3506
G1 X-47.9382 Y-15.2417 Z-1.3507
G1 X-47.9532 Y-15.2451 Z-1.3508
G1 X-47.9683 Y-15.2475
G1 X-47.9846 Y-15.249 Z-1.3509
G1 X-48.0 Y-15.2495 Z-1.351
G1 X-48.0154 Y-15.249 Z-1.3511
G1 X-48.0317 Y-15.2475
G1 X-48.0468 Y-15.2451 Z-1.3512
G1 X-48.0618 Y-15.2417 Z-1.3513
G1 X-48.0772 Y-15.2373 Z-1.3514
G1 X-48.0917 Y-15.232
G1 X-48.1063 Y-15.2257 Z-1.3515
G1 X-48.1204 Y-15.2185 Z-1.3516
G1 X-48.1336 Y-15.2107 Z-1.3517
G1 X-48.1465 Y-15.2019 Z-1.3518
G1 X-48.1591 Y-15.1922
G1 X-48.1709 Y-15.1818 Z-1.3519
G1 X-48.1818 Y-15.1709 Z-1.352
G1 X-48.1922 Y-15.1591 Z-1.3521
G1 X-48.2019 Y-15.1465
G1 X-48.2107 Y-15.1336 Z-1.3522
G1 X-48.2185 Y-15.1204 Z-1.3523
G1 X-48.2257 Y-15.1063 Z-1.3524
G1 X-48.232 Y-15.0917
G1 X-48.2373 Y-15.0772 Z-1.3525
G1 X-48.2417 Y-15.0618 Z-1.3526
G1 X-48.2451 Y-15.0468 Z-1.3527
G1 X-48.2475 Y-15.0317
G1 X-48.249 Y-15.0154 Z-1.3528
G1 X-48.25 Y-14.9841 Z-1.353
G1 Y14.9841 Z-1.499
G1 X-48.249 Y15.0154 Z-1.4992
G1 X-48.2475 Y15.0317
G1 X-48.2451 Y15.0468 Z-1.4993
G1 X-48.2417 Y15.0618 Z-1.4994
G1 X-48.2373 Y15.0772 Z-1.4995
G1 X-48.232 Y15.0917
G1 X-48.2257 Y15.1063 Z-1.4996
G1 X-48.2185 Y15.1204 Z-1.4997
G1 X-48.2107 Y15.1336 Z-1.4998
G1 X-48.2019 Y15.1465
G1 X-48.1922 Y15.1591 Z-1.4999
G1 X-48.1818 Y15.1709 Z-1.5
G1 X-48.1709 Y15.1818 Z-1.5001
G1 X-48.1591 Y15.1922 Z-1.5002
G1 X-48.1465 Y15.2019
G1 X-48.1336 Y15.2107 Z-1.5003
G1 X-48.1204 Y15.2185 Z-1.5004
G1 X-48.1063 Y15.2257 Z-1.5005
G1 X-48.0917 Y15.232
G1 X-48.0772 Y15.2373 Z-1.5006
G1 X-48.0618 Y15.2417 Z-1.5007
G1 X-48.0468 Y15.2451 Z-1.5008
G1 X-48.0317 Y15.2475
G1 X-48.0154 Y15.249 Z-1.5009
G1 X-48.0 Y15.2495 Z-1.501
G1 X-47.9846 Y15.249 Z-1.5011
G1 X-47.9683 Y15.2475
G1 X-47.9532 Y15.2451 Z-1.5012
G1 X-47.9382 Y15.2417 Z-1.5013
G1 X-47.9228 Y15.2373 Z-1.5014
G1 X-47.9083 Y15.232
G1 X-47.8937 Y15.2257 Z-1.5015
G1 X-47.8796 Y15.2185 Z-1.5016
G1 X-47.8664 Y15.2107 Z-1.5017
G1 X-47.8535 Y15.2019 Z-1.5018
G1 X-47.8409 Y15.1922
G1 X-47.8291 Y15.1818 Z-1.5019
G1 X-47.8182 Y15.1709 Z-1.502
G1 X-47.8078 Y15.1591 Z-1.5021
G1 X-47.7981 Y15.1465
G1 X-47.7893 Y15.1336 Z-1.5022
G1 X-47.7815 Y15.1204 Z-1.5023
G1 X-47.7743 Y15.1063 Z-1.5024
G1 X-47.768 Y15.0917
G1 X-47.7627 Y15.0772 Z-1.5025
G1 X-47.7583 Y15.0618 Z-1.5026
G1 X-47.7549 Y15.0468 Z-1.5027
G1 X-47.7525 Y15.0317
G1 X-47.751 Y15.0154 Z-1.5028
G1 X-47.75 Y14.9841 Z-1.503
G1 Y-14.9841 Z-1.649
G1 X-47.751 Y-15.0154 Z-1.6492
G1 X-47.7525 Y-15.0317
G1 X-47.7549 Y-15.0468 Z-1.6493
G1 X-47.7583 Y-15.0618 Z-1.6494
G1 X-47.7627 Y-15.0772 Z-1.6495
G1 X-47.768 Y-15.0917
G1 X-47.7743 Y-15.1063 Z-1.6496
G1 X-47.7815 Y-15.1204 Z-1.6497
G1 X-47.7893 Y-15.1336 Z-1.6498
G1 X-47.7981 Y-15.1465
G1 X-47.8078 Y-15.1591 Z-1.6499
G1 X-47.8182 Y-15.1709 Z-1.65
G1 X-47.8291 Y-15.1818 Z-1.6501
G1 X-47.8409 Y-15.1922 Z-1.6502
G1 X-47.8535 Y-15.2019
G1 X-47.8664 Y-15.2107 Z-1.6503
G1 X-47.8796 Y-15.2185 Z-1.6504
G1 X-47.8937 Y-15.2257 Z-1.6505
G1 X-47.9083 Y-15.232
G1 X-47.9228 Y-15.2373 Z-1.6506
G1 X-47.9382 Y-15.2417 Z-1.6507
G1 X-47.9532 Y-15.2451 Z-1.6508
G1 X-47.9683 Y-15.2475
G1 X-47.9846 Y-15.249 Z-1.6509
G1 X-48.0 Y-15.2495 Z-1.651
G1 X-48.0154 Y-15.249 Z-1.6511
G1 X-48.0317 Y-15.2475
G1 X-48.0468 Y-15.2451 Z-1.6512
G1 X-48.0618 Y-15.2417 Z-1.6513
G1 X-48.0772 Y-15.2373 Z-1.6514
G1 X-48.0917 Y-15.232
G1 X-48.1063 Y-15.2257 Z-1.6515
G1 X-48.1204 Y-15.2185 Z-1.6516
G1 X-48.1336 Y-15.2107 Z-1.6517
G1 X-48.1465 Y-15.2019 Z-1.6518
G1 X-48.1591 Y-15.1922
G1 X-48.1709 Y-15.1818 Z-1.6519
G1 X-48.1818 Y-15.1709 Z-1.652
G1 X-48.1922 Y-15.1591 Z-1.6521
G1 X-48.2019 Y-15.1465
G1 X-48.2107 Y-15.1336 Z-1.6522
G1 X-48.2185 Y-15.1204 Z-1.6523
G1 X-48.2257 Y-15.1063 Z-1.6524
G1 X-48.232 Y-15.0917
G1 X-48.2373 Y-15.0772 Z-1.6525
G1 X-48.2417 Y-15.0618 Z-1.6526
G1 X-48.2451 Y-15.0468 Z-1.6527
G1 X-48.2475 Y-15.0317
G1 X-48.249 Y-15.0154 Z-1.6528
G1 X-48.25 Y-14.9841 Z-1.653
G1 Y14.9841 Z-1.799
G1 X-48.249 Y15.0154 Z-1.7992
G1 X-48.2475 Y15.0317
G1 X-48.2451 Y15.0468 Z-1.7993
G1 X-48.2417 Y15.0618 Z-1.7994
G1 X-48.2373 Y15.0772 Z-1.7995
G1 X-48.232 Y15.0917
G1 X-48.2257 Y15.1063 Z-1.7996
G1 X-48.2185 Y15.1204 Z-1.7997
G1 X-48.2107 Y15.1336 Z-1.7998
G1 X-48.2019 Y15.1465
G1 X-48.1922 Y15.1591 Z-1.7999
G1 X-48.1818 Y15.1709 Z-1.8
G1 X-48.1709 Y15.1818 Z-1.8001
G1 X-48.1591 Y15.1922 Z-1.8002
G1 X-48.1465 Y15.2019
G1 X-48.1336 Y15.2107 Z-1.8003
G1 X-48.1204 Y15.2185 Z-1.8004
G1 X-48.1063 Y15.2257 Z-1.8005
G1 X-48.0917 Y15.232
G1 X-48.0772 Y15.2373 Z-1.8006
G1 X-48.0618 Y15.2417 Z-1.8007
G1 X-48.0468 Y15.2451 Z-1.8008
G1 X-48.0317 Y15.2475
G1 X-48.0154 Y15.249 Z-1.8009
G1 X-48.0 Y15.2495 Z-1.801
G1 X-47.9846 Y15.249 Z-1.8011
G1 X-47.9683 Y15.2475
G1 X-47.9532 Y15.2451 Z-1.8012
G1 X-47.9382 Y15.2417 Z-1.8013
G1 X-47.9228 Y15.2373 Z-1.8014
G1 X-47.9083 Y15.232
G1 X-47.8937 Y15.2257 Z-1.8015
G1 X-47.8796 Y15.2185 Z-1.8016
G1 X-47.8664 Y15.2107 Z-1.8017
G1 X-47.8535 Y15.2019 Z-1.8018
G1 X-47.8409 Y15.1922
G1 X-47.8291 Y15.1818 Z-1.8019
G1 X-47.8182 Y15.1709 Z-1.802
G1 X-47.8078 Y15.1591 Z-1.8021
G1 X-47.7981 Y15.1465
G1 X-47.7893 Y15.1336 Z-1.8022
G1 X-47.7815 Y15.1204 Z-1.8023
G1 X-47.7743 Y15.1063 Z-1.8024
G1 X-47.768 Y15.0917
G1 X-47.7627 Y15.0772 Z-1.8025
G1 X-47.7583 Y15.0618 Z-1.8026
G1 X-47.7549 Y15.0468 Z-1.8027
G1 X-47.7525 Y15.0317
G1 X-47.751 Y15.0154 Z-1.8028
G1 X-47.75 Y14.9841 Z-1.803
G1 Y-14.9841 Z-1.949
G1 X-47.751 Y-15.0154 Z-1.9492
G1 X-47.7525 Y-15.0317
G1 X-47.7549 Y-15.0468 Z-1.9493
G1 X-47.7583 Y-15.0618 Z-1.9494
G1 X-47.7627 Y-15.0772 Z-1.9495
G1 X-47.768 Y-15.0917
G1 X-47.7743 Y-15.1063 Z-1.9496
G1 X-47.7815 Y-15.1204 Z-1.9497
G1 X-47.7893 Y-15.1336 Z-1.9498
G1 X-47.7981 Y-15.1465
G1 X-47.8078 Y-15.1591 Z-1.9499
G1 X-47.8182 Y-15.1709 Z-1.95
G1 X-47.8291 Y-15.1818 Z-1.9501
G1 X-47.8409 Y-15.1922 Z-1.9502
G1 X-47.8535 Y-15.2019
G1 X-47.8664 Y-15.2107 Z-1.9503
G1 X-47.8796 Y-15.2185 Z-1.9504
G1 X-47.8937 Y-15.2257 Z-1.9505
G1 X-47.9083 Y-15.232
G1 X-47.9228 Y-15.2373 Z-1.9506
G1 X-47.9382 Y-15.2417 Z-1.9507
G1 X-47.9532 Y-15.2451 Z-1.9508
G1 X-47.9683 Y-15.2475
G1 X-47.9846 Y-15.249 Z-1.9509
G1 X-48.0 Y-15.2495 Z-1.951
G1 X-48.0154 Y-15.249 Z-1.9511
G1 X-48.0317 Y-15.2475
G1 X-48.0468 Y-15.2451 Z-1.9512
G1 X-48.0618 Y-15.2417 Z-1.9513
G1 X-48.0772 Y-15.2373 Z-1.9514
G1 X-48.0917 Y-15.232
G1 X-48.1063 Y-15.2257 Z-1.9515
G1 X-48.1204 Y-15.2185 Z-1.9516
G1 X-48.1336 Y-15.2107 Z-1.9517
G1 X-48.1465 Y-15.2019 Z-1.9518
G1 X-48.1591 Y-15.1922
G1 X-48.1709 Y-15.1818 Z-1.9519
G1 X-48.1818 Y-15.1709 Z-1.952
G1 X-48.1922 Y-15.1591 Z-1.9521
G1 X-48.2019 Y-15.1465
G1 X-48.2107 Y-15.1336 Z-1.9522
G1 X-48.2185 Y-15.1204 Z-1.9523
G1 X-48.2257 Y-15.1063 Z-1.9524
G1 X-48.232 Y-15.0917
G1 X-48.2373 Y-15.0772 Z-1.9525
G1 X-48.2417 Y-15.0618 Z-1.9526
G1 X-48.2451 Y-15.0468 Z-1.9527
G1 X-48.2475 Y-15.0317
G1 X-48.249 Y-15.0154 Z-1.9528
G1 X-48.25 Y-14.9841 Z-1.953
G1 Y14.9841 Z-2.099
G1 X-48.249 Y15.0154 Z-2.0992
G1 X-48.2475 Y15.0317
G1 X-48.2451 Y15.0468 Z-2.0993
G1 X-48.2417 Y15.0618 Z-2.0994
G1 X-48.2373 Y15.0772 Z-2.0995
G1 X-48.232 Y15.0917
G1 X-48.2257 Y15.1063 Z-2.0996
G1 X-48.2185 Y15.1204 Z-2.0997
G1 X-48.2107 Y15.1336 Z-2.0998
G1 X-48.2019 Y15.1465
G1 X-48.1922 Y15.1591 Z-2.0999
G1 X-48.1818 Y15.1709 Z-2.1
G1 X-48.1709 Y15.1818 Z-2.1001
G1 X-48.1591 Y15.1922 Z-2.1002
G1 X-48.1465 Y15.2019
G1 X-48.1336 Y15.2107 Z-2.1003
G1 X-48.1204 Y15.2185 Z-2.1004
G1 X-48.1063 Y15.2257 Z-2.1005
G1 X-48.0917 Y15.232
G1 X-48.0772 Y15.2373 Z-2.1006
G1 X-48.0618 Y15.2417 Z-2.1007
G1 X-48.0468 Y15.2451 Z-2.1008
G1 X-48.0317 Y15.2475
G1 X-48.0154 Y15.249 Z-2.1009
G1 X-48.0 Y15.2495 Z-2.101
G1 X-47.9846 Y15.249 Z-2.1011
G1 X-47.9683 Y15.2475
G1 X-47.9532 Y15.2451 Z-2.1012
G1 X-47.9382 Y15.2417 Z-2.1013
G1 X-47.9228 Y15.2373 Z-2.1014
G1 X-47.9083 Y15.232
G1 X-47.8937 Y15.2257 Z-2.1015
G1 X-47.8796 Y15.2185 Z-2.1016
G1 X-47.8664 Y15.2107 Z-2.1017
G1 X-47.8535 Y15.2019 Z-2.1018
G1 X-47.8409 Y15.1922
G1 X-47.8291 Y15.1818 Z-2.1019
G1 X-47.8182 Y15.1709 Z-2.102
G1 X-47.8078 Y15.1591 Z-2.1021
G1 X-47.7981 Y15.1465
G1 X-47.7893 Y15.1336 Z-2.1022
G1 X-47.7815 Y15.1204 Z-2.1023
G1 X-47.7743 Y15.1063 Z-2.1024
G1 X-47.768 Y15.0917
G1 X-47.7627 Y15.0772 Z-2.1025
G1 X-47.7583 Y15.0618 Z-2.1026
G1 X-47.7549 Y15.0468 Z-2.1027
G1 X-47.7525 Y15.0317
G1 X-47.751 Y15.0154 Z-2.1028
G1 X-47.75 Y14.9841 Z-2.103
G1 Y-14.9841 Z-2.249
G1 X-47.751 Y-15.0154 Z-2.2492
G1 X-47.7525 Y-15.0317
G1 X-47.7549 Y-15.0468 Z-2.2493
G1 X-47.7583 Y-15.0618 Z-2.2494
G1 X-47.7627 Y-15.0772 Z-2.2495
G1 X-47.768 Y-15.0917
G1 X-47.7743 Y-15.1063 Z-2.2496
G1 X-47.7815 Y-15.1204 Z-2.2497
G1 X-47.7893 Y-15.1336 Z-2.2498
G1 X-47.7981 Y-15.1465
G1 X-47.8078 Y-15.1591 Z-2.2499
G1 X-47.8182 Y-15.1709 Z-2.25
G1 X-47.8291 Y-15.1818 Z-2.2501
G1 X-47.8409 Y-15.1922 Z-2.2502
G1 X-47.8535 Y-15.2019
G1 X-47.8664 Y-15.2107 Z-2.2503
G1 X-47.8796 Y-15.2185 Z-2.2504
G1 X-47.8937 Y-15.2257 Z-2.2505
G1 X-47.9083 Y-15.232
G1 X-47.9228 Y-15.2373 Z-2.2506
G1 X-47.9382 Y-15.2417 Z-2.2507
G1 X-47.9532 Y-15.2451 Z-2.2508
G1 X-47.9683 Y-15.2475
G1 X-47.9846 Y-15.249 Z-2.2509
G1 X-48.0 Y-15.2495 Z-2.251
G1 X-48.0154 Y-15.249 Z-2.2511
G1 X-48.0317 Y-15.2475
G1 X-48.0468 Y-15.2451 Z-2.2512
G1 X-48.0618 Y-15.2417 Z-2.2513
G1 X-48.0772 Y-15.2373 Z-2.2514
G1 X-48.0917 Y-15.232
G1 X-48.1063 Y-15.2257 Z-2.2515
G1 X-48.1204 Y-15.2185 Z-2.2516
G1 X-48.1336 Y-15.2107 Z-2.2517
G1 X-48.1465 Y-15.2019 Z-2.2518
G1 X-48.1591 Y-15.1922
G1 X-48.1709 Y-15.1818 Z-2.2519
G1 X-48.1818 Y-15.1709 Z-2.252
G1 X-48.1922 Y-15.1591 Z-2.2521
G1 X-48.2019 Y-15.1465
G1 X-48.2107 Y-15.1336 Z-2.2522
G1 X-48.2185 Y-15.1204 Z-2.2523
G1 X-48.2257 Y-15.1063 Z-2.2524
G1 X-48.232 Y-15.0917
G1 X-48.2373 Y-15.0772 Z-2.2525
G1 X-48.2417 Y-15.0618 Z-2.2526
G1 X-48.2451 Y-15.0468 Z-2.2527
G1 X-48.2475 Y-15.0317
G1 X-48.249 Y-15.0154 Z-2.2528
G1 X-48.25 Y-14.9841 Z-2.253
G1 Y14.9841 Z-2.399
G1 X-48.249 Y15.0154 Z-2.3992
G1 X-48.2475 Y15.0317
G1 X-48.2451 Y15.0468 Z-2.3993
G1 X-48.2417 Y15.0618 Z-2.3994
G1 X-48.2373 Y15.0772 Z-2.3995
G1 X-48.232 Y15.0917
G1 X-48.2257 Y15.1063 Z-2.3996
G1 X-48.2185 Y15.1204 Z-2.3997
G1 X-48.2107 Y15.1336 Z-2.3998
G1 X-48.2019 Y15.1465
G1 X-48.1922 Y15.1591 Z-2.3999
G1 X-48.1818 Y15.1709 Z-2.4
G1 X-48.1709 Y15.1818 Z-2.4001
G1 X-48.1591 Y15.1922 Z-2.4002
G1 X-48.1465 Y15.2019
G1 X-48.1336 Y15.2107 Z-2.4003
G1 X-48.1204 Y15.2185 Z-2.4004
G1 X-48.1063 Y15.2257 Z-2.4005
G1 X-48.0917 Y15.232
G1 X-48.0772 Y15.2373 Z-2.4006
G1 X-48.0618 Y15.2417 Z-2.4007
G1 X-48.0468 Y15.2451 Z-2.4008
G1 X-48.0317 Y15.2475
G1 X-48.0154 Y15.249 Z-2.4009
G1 X-48.0 Y15.2495 Z-2.401
G1 X-47.9846 Y15.249 Z-2.4011
G1 X-47.9683 Y15.2475
G1 X-47.9532 Y15.2451 Z-2.4012
G1 X-47.9382 Y15.2417 Z-2.4013
G1 X-47.9228 Y15.2373 Z-2.4014
G1 X-47.9083 Y15.232
G1 X-47.8937 Y15.2257 Z-2.4015
G1 X-47.8796 Y15.2185 Z-2.4016
G1 X-47.8664 Y15.2107 Z-2.4017
G1 X-47.8535 Y15.2019 Z-2.4018
G1 X-47.8409 Y15.1922
G1 X-47.8291 Y15.1818 Z-2.4019
G1 X-47.8182 Y15.1709 Z-2.402
G1 X-47.8078 Y15.1591 Z-2.4021
G1 X-47.7981 Y15.1465
G1 X-47.7893 Y15.1336 Z-2.4022
G1 X-47.7815 Y15.1204 Z-2.4023
G1 X-47.7743 Y15.1063 Z-2.4024
G1 X-47.768 Y15.0917
G1 X-47.7627 Y15.0772 Z-2.4025
G1 X-47.7583 Y15.0618 Z-2.4026
G1 X-47.7549 Y15.0468 Z-2.4027
G1 X-47.7525 Y15.0317
G1 X-47.751 Y15.0154 Z-2.4028
G1 X-47.75 Y14.9841 Z-2.403
G1 Y-14.9841 Z-2.549
G1 X-47.751 Y-15.0154 Z-2.5492
G1 X-47.7525 Y-15.0317
G1 X-47.7549 Y-15.0468 Z-2.5493
G1 X-47.7583 Y-15.0618 Z-2.5494
G1 X-47.7627 Y-15.0772 Z-2.5495
G1 X-47.768 Y-15.0917
G1 X-47.7743 Y-15.1063 Z-2.5496
G1 X-47.7815 Y-15.1204 Z-2.5497
G1 X-47.7893 Y-15.1336 Z-2.5498
G1 X-47.7981 Y-15.1465
G1 X-47.8078 Y-15.1591 Z-2.5499
G1 X-47.8182 Y-15.1709 Z-2.55
G1 X-47.8291 Y-15.1818 Z-2.5501
G1 X-47.8409 Y-15.1922 Z-2.5502
G1 X-47.8535 Y-15.2019
G1 X-47.8664 Y-15.2107 Z-2.5503
G1 X-47.8796 Y-15.2185 Z-2.5504
G1 X-47.8937 Y-15.2257 Z-2.5505
G1 X-47.9083 Y-15.232
G1 X-47.9228 Y-15.2373 Z-2.5506
G1 X-47.9382 Y-15.2417 Z-2.5507
G1 X-47.9532 Y-15.2451 Z-2.5508
G1 X-47.9683 Y-15.2475
G1 X-47.9846 Y-15.249 Z-2.5509
G1 X-48.0 Y-15.2495 Z-2.551
G1 X-48.0154 Y-15.249 Z-2.5511
G1 X-48.0317 Y-15.2475
G1 X-48.0468 Y-15.2451 Z-2.5512
G1 X-48.0618 Y-15.2417 Z-2.5513
G1 X-48.0772 Y-15.2373 Z-2.5514
G1 X-48.0917 Y-15.232
G1 X-48.1063 Y-15.2257 Z-2.5515
G1 X-48.1204 Y-15.2185 Z-2.5516
G1 X-48.1336 Y-15.2107 Z-2.5517
G1 X-48.1465 Y-15.2019 Z-2.5518
G1 X-48.1591 Y-15.1922
G1 X-48.1709 Y-15.1818 Z-2.5519
G1 X-48.1818 Y-15.1709 Z-2.552
G1 X-48.1922 Y-15.1591 Z-2.5521
G1 X-48.2019 Y-15.1465
G1 X-48.2107 Y-15.1336 Z-2.5522
G1 X-48.2185 Y-15.1204 Z-2.5523
G1 X-48.2257 Y-15.1063 Z-2.5524
G1 X-48.232 Y-15.0917
G1 X-48.2373 Y-15.0772 Z-2.5525
G1 X-48.2417 Y-15.0618 Z-2.5526
G1 X-48.2451 Y-15.0468 Z-2.5527
G1 X-48.2475 Y-15.0317
G1 X-48.249 Y-15.0154 Z-2.5528
G1 X-48.25 Y-14.9841 Z-2.553
G1 Y14.9841 Z-2.699
G1 X-48.249 Y15.0154 Z-2.6992
G1 X-48.2475 Y15.0317
G1 X-48.2451 Y15.0468 Z-2.6993
G1 X-48.2417 Y15.0618 Z-2.6994
G1 X-48.2373 Y15.0772 Z-2.6995
G1 X-48.232 Y15.0917
G1 X-48.2257 Y15.1063 Z-2.6996
G1 X-48.2185 Y15.1204 Z-2.6997
G1 X-48.2107 Y15.1336 Z-2.6998
G1 X-48.2019 Y15.1465
G1 X-48.1922 Y15.1591 Z-2.6999
G1 X-48.1818 Y15.1709 Z-2.7
G1 X-48.1709 Y15.1818 Z-2.7001
G1 X-48.1591 Y15.1922 Z-2.7002
G1 X-48.1465 Y15.2019
G1 X-48.1336 Y15.2107 Z-2.7003
G1 X-48.1204 Y15.2185 Z-2.7004
G1 X-48.1063 Y15.2257 Z-2.7005
G1 X-48.0917 Y15.232
G1 X-48.0772 Y15.2373 Z-2.7006
G1 X-48.0618 Y15.2417 Z-2.7007
G1 X-48.0468 Y15.2451 Z-2.7008
G1 X-48.0317 Y15.2475
G1 X-48.0154 Y15.249 Z-2.7009
G1 X-48.0 Y15.2495 Z-2.701
G1 X-47.9846 Y15.249 Z-2.7011
G1 X-47.9683 Y15.2475
G1 X-47.9532 Y15.2451 Z-2.7012
G1 X-47.9382 Y15.2417 Z-2.7013
G1 X-47.9228 Y15.2373 Z-2.7014
G1 X-47.9083 Y15.232
G1 X-47.8937 Y15.2257 Z-2.7015
G1 X-47.8796 Y15.2185 Z-2.7016
G1 X-47.8664 Y15.2107 Z-2.7017
G1 X-47.8535 Y15.2019 Z-2.7018
G1 X-47.8409 Y15.1922
G1 X-47.8291 Y15.1818 Z-2.7019
G1 X-47.8182 Y15.1709 Z-2.702
G1 X-47.8078 Y15.1591 Z-2.7021
G1 X-47.7981 Y15.1465
G1 X-47.7893 Y15.1336 Z-2.7022
G1 X-47.7815 Y15.1204 Z-2.7023
G1 X-47.7743 Y15.1063 Z-2.7024
G1 X-47.768 Y15.0917
G1 X-47.7627 Y15.0772 Z-2.7025
G1 X-47.7583 Y15.0618 Z-2.7026
G1 X-47.7549 Y15.0468 Z-2.7027
G1 X-47.7525 Y15.0317
G1 X-47.751 Y15.0154 Z-2.7028
G1 X-47.75 Y14.9841 Z-2.703
G1 Y-14.9841 Z-2.849
G1 X-47.751 Y-15.0154 Z-2.8492
G1 X-47.7525 Y-15.0317
G1 X-47.7549 Y-15.0468 Z-2.8493
G1 X-47.7583 Y-15.0618 Z-2.8494
G1 X-47.7627 Y-15.0772 Z-2.8495
G1 X-47.768 Y-15.0917
G1 X-47.7743 Y-15.1063 Z-2.8496
G1 X-47.7815 Y-15.1204 Z-2.8497
G1 X-47.7893 Y-15.1336 Z-2.8498
G1 X-47.7981 Y-15.1465
G1 X-47.8078 Y-15.1591 Z-2.8499
G1 X-47.8182 Y-15.1709 Z-2.85
G1 X-47.8291 Y-15.1818 Z-2.8501
G1 X-47.8409 Y-15.1922 Z-2.8502
G1 X-47.8535 Y-15.2019
G1 X-47.8664 Y-15.2107 Z-2.8503
G1 X-47.8796 Y-15.2185 Z-2.8504
G1 X-47.8937 Y-15.2257 Z-2.8505
G1 X-47.9083 Y-15.232
G1 X-47.9228 Y-15.2373 Z-2.8506
G1 X-47.9382 Y-15.2417 Z-2.8507
G1 X-47.9532 Y-15.2451 Z-2.8508
G1 X-47.9683 Y-15.2475
G1 X-47.9846 Y-15.249 Z-2.8509
G1 X-48.0 Y-15.2495 Z-2.851
G1 X-48.0154 Y-15.249 Z-2.8511
G1 X-48.0317 Y-15.2475
G1 X-48.0468 Y-15.2451 Z-2.8512
G1 X-48.0618 Y-15.2417 Z-2.8513
G1 X-48.0772 Y-15.2373 Z-2.8514
G1 X-48.0917 Y-15.232
G1 X-48.1063 Y-15.2257 Z-2.8515
G1 X-48.1204 Y-15.2185 Z-2.8516
G1 X-48.1336 Y-15.2107 Z-2.8517
G1 X-48.1465 Y-15.2019 Z-2.8518
G1 X-48.1591 Y-15.1922
G1 X-48.1709 Y-15.1818 Z-2.8519
G1 X-48.1818 Y-15.1709 Z-2.852
G1 X-48.1922 Y-15.1591 Z-2.8521
G1 X-48.2019 Y-15.1465
G1 X-48.2107 Y-15.1336 Z-2.8522
G1 X-48.2185 Y-15.1204 Z-2.8523
G1 X-48.2257 Y-15.1063 Z-2.8524
G1 X-48.232 Y-15.0917
G1 X-48.2373 Y-15.0772 Z-2.8525
G1 X-48.2417 Y-15.0618 Z-2.8526
G1 X-48.2451 Y-15.0468 Z-2.8527
G1 X-48.2475 Y-15.0317
G1 X-48.249 Y-15.0154 Z-2.8528
G1 X-48.25 Y-14.9841 Z-2.853
G1 Y14.9841 Z-2.999
G1 X-48.249 Y15.0154 Z-2.9992
G1 X-48.2475 Y15.0317
G1 X-48.2451 Y15.0468 Z-2.9993
G1 X-48.2417 Y15.0618 Z-2.9994
G1 X-48.2373 Y15.0772 Z-2.9995
G1 X-48.232 Y15.0917
G1 X-48.2257 Y15.1063 Z-2.9996
G1 X-48.2185 Y15.1204 Z-2.9997
G1 X-48.2107 Y15.1336 Z-2.9998
G1 X-48.2019 Y15.1465
G1 X-48.1922 Y15.1591 Z-2.9999
G1 X-48.1818 Y15.1709 Z-3.0
G1 X-48.1709 Y15.1818 Z-3.0001
G1 X-48.1591 Y15.1922 Z-3.0002
G1 X-48.1465 Y15.2019
G1 X-48.1336 Y15.2107 Z-3.0003
G1 X-48.1204 Y15.2185 Z-3.0004
G1 X-48.1063 Y15.2257 Z-3.0005
G1 X-48.0917 Y15.232
G1 X-48.0772 Y15.2373 Z-3.0006
G1 X-48.0618 Y15.2417 Z-3.0007
G1 X-48.0468 Y15.2451 Z-3.0008
G1 X-48.0317 Y15.2475
G1 X-48.0154 Y15.249 Z-3.0009
G1 X-48.0 Y15.2495 Z-3.001
G1 X-47.9846 Y15.249 Z-3.0011
G1 X-47.9683 Y15.2475
G1 X-47.9532 Y15.2451 Z-3.0012
G1 X-47.9382 Y15.2417 Z-3.0013
G1 X-47.9228 Y15.2373 Z-3.0014
G1 X-47.9083 Y15.232
G1 X-47.8937 Y15.2257 Z-3.0015
G1 X-47.8796 Y15.2185 Z-3.0016
G1 X-47.8664 Y15.2107 Z-3.0017
G1 X-47.8535 Y15.2019 Z-3.0018
G1 X-47.8409 Y15.1922
G1 X-47.8291 Y15.1818 Z-3.0019
G1 X-47.8182 Y15.1709 Z-3.002
G1 X-47.8078 Y15.1591 Z-3.0021
G1 X-47.7981 Y15.1465
G1 X-47.7893 Y15.1336 Z-3.0022
G1 X-47.7815 Y15.1204 Z-3.0023
G1 X-47.7743 Y15.1063 Z-3.0024
G1 X-47.768 Y15.0917
G1 X-47.7627 Y15.0772 Z-3.0025
G1 X-47.7583 Y15.0618 Z-3.0026
G1 X-47.7549 Y15.0468 Z-3.0027
G1 X-47.7525 Y15.0317
G1 X-47.751 Y15.0154 Z-3.0028
G1 X-47.75 Y14.9841 Z-3.003
G1 Y-14.9841 Z-3.149
G1 X-47.751 Y-15.0154 Z-3.1492
G1 X-47.7525 Y-15.0317
G1 X-47.7549 Y-15.0468 Z-3.1493
G1 X-47.7583 Y-15.0618 Z-3.1494
G1 X-47.7627 Y-15.0772 Z-3.1495
G1 X-47.768 Y-15.0917
G1 X-47.7743 Y-15.1063 Z-3.1496
G1 X-47.7815 Y-15.1204 Z-3.1497
G1 X-47.7893 Y-15.1336 Z-3.1498
G1 X-47.7981 Y-15.1465
G1 X-47.8078 Y-15.1591 Z-3.1499
G1 X-47.8182 Y-15.1709 Z-3.15
G1 X-47.8291 Y-15.1818 Z-3.1501
G1 X-47.8409 Y-15.1922 Z-3.1502
G1 X-47.8535 Y-15.2019
G1 X-47.8664 Y-15.2107 Z-3.1503
G1 X-47.8796 Y-15.2185 Z-3.1504
G1 X-47.8937 Y-15.2257 Z-3.1505
G1 X-47.9083 Y-15.232
G1 X-47.9228 Y-15.2373 Z-3.1506
G1 X-47.9382 Y-15.2417 Z-3.1507
G1 X-47.9532 Y-15.2451 Z-3.1508
G1 X-47.9683 Y-15.2475
G1 X-47.9846 Y-15.249 Z-3.1509
G1 X-48.0 Y-15.2495 Z-3.151
G1 X-48.0154 Y-15.249 Z-3.1511
G1 X-48.0317 Y-15.2475
G1 X-48.0468 Y-15.2451 Z-3.1512
G1 X-48.0618 Y-15.2417 Z-3.1513
G1 X-48.0772 Y-15.2373 Z-3.1514
G1 X-48.0917 Y-15.232
G1 X-48.1063 Y-15.2257 Z-3.1515
G1 X-48.1204 Y-15.2185 Z-3.1516
G1 X-48.1336 Y-15.2107 Z-3.1517
G1 X-48.1465 Y-15.2019 Z-3.1518
G1 X-48.1591 Y-15.1922
G1 X-48.1709 Y-15.1818 Z-3.1519
G1 X-48.1818 Y-15.1709 Z-3.152
G1 X-48.1922 Y-15.1591 Z-3.1521
G1 X-48.2019 Y-15.1465
G1 X-48.2107 Y-15.1336 Z-3.1522
G1 X-48.2185 Y-15.1204 Z-3.1523
G1 X-48.2257 Y-15.1063 Z-3.1524
G1 X-48.232 Y-15.0917
G1 X-48.2373 Y-15.0772 Z-3.1525
G1 X-48.2417 Y-15.0618 Z-3.1526
G1 X-48.2451 Y-15.0468 Z-3.1527
G1 X-48.2475 Y-15.0317
G1 X-48.249 Y-15.0154 Z-3.1528
G1 X-48.25 Y-14.9841 Z-3.153
G1 Y14.9841 Z-3.299
G1 X-48.249 Y15.0154 Z-3.2992
G1 X-48.2475 Y15.0317
G1 X-48.2451 Y15.0468 Z-3.2993
G1 X-48.2417 Y15.0618 Z-3.2994
G1 X-48.2373 Y15.0772 Z-3.2995
G1 X-48.232 Y15.0917
G1 X-48.2257 Y15.1063 Z-3.2996
G1 X-48.2185 Y15.1204 Z-3.2997
G1 X-48.2107 Y15.1336 Z-3.2998
G1 X-48.2019 Y15.1465
G1 X-48.1922 Y15.1591 Z-3.2999
G1 X-48.1818 Y15.1709 Z-3.3
G1 X-48.1709 Y15.1818 Z-3.3001
G1 X-48.1591 Y15.1922 Z-3.3002
G1 X-48.1465 Y15.2019
G1 X-48.1336 Y15.2107 Z-3.3003
G1 X-48.1204 Y15.2185 Z-3.3004
G1 X-48.1063 Y15.2257 Z-3.3005
G1 X-48.0917 Y15.232
G1 X-48.0772 Y15.2373 Z-3.3006
G1 X-48.0618 Y15.2417 Z-3.3007
G1 X-48.0468 Y15.2451 Z-3.3008
G1 X-48.0317 Y15.2475
G1 X-48.0154 Y15.249 Z-3.3009
G1 X-48.0 Y15.2495 Z-3.301
G1 X-47.9846 Y15.249 Z-3.3011
G1 X-47.9683 Y15.2475
G1 X-47.9532 Y15.2451 Z-3.3012
G1 X-47.9382 Y15.2417 Z-3.3013
G1 X-47.9228 Y15.2373 Z-3.3014
G1 X-47.9083 Y15.232
G1 X-47.8937 Y15.2257 Z-3.3015
G1 X-47.8796 Y15.2185 Z-3.3016
G1 X-47.8664 Y15.2107 Z-3.3017
G1 X-47.8535 Y15.2019 Z-3.3018
G1 X-47.8409 Y15.1922
G1 X-47.8291 Y15.1818 Z-3.3019
G1 X-47.8182 Y15.1709 Z-3.302
G1 X-47.8078 Y15.1591 Z-3.3021
G1 X-47.7981 Y15.1465
G1 X-47.7893 Y15.1336 Z-3.3022
G1 X-47.7815 Y15.1204 Z-3.3023
G1 X-47.7743 Y15.1063 Z-3.3024
G1 X-47.768 Y15.0917
G1 X-47.7627 Y15.0772 Z-3.3025
G1 X-47.7583 Y15.0618 Z-3.3026
G1 X-47.7549 Y15.0468 Z-3.3027
G1 X-47.7525 Y15.0317
G1 X-47.751 Y15.0154 Z-3.3028
G1 X-47.75 Y14.9841 Z-3.303
G1 Y-14.9841 Z-3.449
G1 X-47.751 Y-15.0154 Z-3.4492
G1 X-47.7525 Y-15.0317
G1 X-47.7549 Y-15.0468 Z-3.4493
G1 X-47.7583 Y-15.0618 Z-3.4494
G1 X-47.7627 Y-15.0772 Z-3.4495
G1 X-47.768 Y-15.0917
G1 X-47.7743 Y-15.1063 Z-3.4496
G1 X-47.7815 Y-15.1204 Z-3.4497
G1 X-47.7893 Y-15.1336 Z-3.4498
G1 X-47.7981 Y-15.1465
G1 X-47.8078 Y-15.1591 Z-3.4499
G1 X-47.8182 Y-15.1709 Z-3.45
G1 X-47.8291 Y-15.1818 Z-3.4501
G1 X-47.8409 Y-15.1922 Z-3.4502
G1 X-47.8535 Y-15.2019
G1 X-47.8664 Y-15.2107 Z-3.4503
G1 X-47.8796 Y-15.2185 Z-3.4504
G1 X-47.8937 Y-15.2257 Z-3.4505
G1 X-47.9083 Y-15.232
G1 X-47.9228 Y-15.2373 Z-3.4506
G1 X-47.9382 Y-15.2417 Z-3.4507
G1 X-47.9532 Y-15.2451 Z-3.4508
G1 X-47.9683 Y-15.2475
G1 X-47.9846 Y-15.249 Z-3.4509
G1 X-48.0 Y-15.2495 Z-3.451
G1 X-48.0154 Y-15.249 Z-3.4511
G1 X-48.0317 Y-15.2475
G1 X-48.0468 Y-15.2451 Z-3.4512
G1 X-48.0618 Y-15.2417 Z-3.4513
G1 X-48.0772 Y-15.2373 Z-3.4514
G1 X-48.0917 Y-15.232
G1 X-48.1063 Y-15.2257 Z-3.4515
G1 X-48.1204 Y-15.2185 Z-3.4516
G1 X-48.1336 Y-15.2107 Z-3.4517
G1 X-48.1465 Y-15.2019 Z-3.4518
G1 X-48.1591 Y-15.1922
G1 X-48.1709 Y-15.1818 Z-3.4519
G1 X-48.1818 Y-15.1709 Z-3.452
G1 X-48.1922 Y-15.1591 Z-3.4521
G1 X-48.2019 Y-15.1465
G1 X-48.2107 Y-15.1336 Z-3.4522
G1 X-48.2185 Y-15.1204 Z-3.4523
G1 X-48.2257 Y-15.1063 Z-3.4524
G1 X-48.232 Y-15.0917
G1 X-48.2373 Y-15.0772 Z-3.4525
G1 X-48.2417 Y-15.0618 Z-3.4526
G1 X-48.2451 Y-15.0468 Z-3.4527
G1 X-48.2475 Y-15.0317
G1 X-48.249 Y-15.0154 Z-3.4528
G1 X-48.25 Y-14.9841 Z-3.453
G1 Y14.9841 Z-3.599
G1 X-48.249 Y15.0154 Z-3.5992
G1 X-48.2475 Y15.0317
G1 X-48.2451 Y15.0468 Z-3.5993
G1 X-48.2417 Y15.0618 Z-3.5994
G1 X-48.2373 Y15.0772 Z-3.5995
G1 X-48.232 Y15.0917
G1 X-48.2257 Y15.1063 Z-3.5996
G1 X-48.2185 Y15.1204 Z-3.5997
G1 X-48.2107 Y15.1336 Z-3.5998
G1 X-48.2019 Y15.1465
G1 X-48.1922 Y15.1591 Z-3.5999
G1 X-48.1818 Y15.1709 Z-3.6
G1 X-48.1709 Y15.1818 Z-3.6001
G1 X-48.1591 Y15.1922 Z-3.6002
G1 X-48.1465 Y15.2019
G1 X-48.1336 Y15.2107 Z-3.6003
G1 X-48.1204 Y15.2185 Z-3.6004
G1 X-48.1063 Y15.2257 Z-3.6005
G1 X-48.0917 Y15.232
G1 X-48.0772 Y15.2373 Z-3.6006
G1 X-48.0618 Y15.2417 Z-3.6007
G1 X-48.0468 Y15.2451 Z-3.6008
G1 X-48.0317 Y15.2475
G1 X-48.0154 Y15.249 Z-3.6009
G1 X-48.0 Y15.2495 Z-3.601
G1 X-47.9846 Y15.249 Z-3.6011
G1 X-47.9683 Y15.2475
G1 X-47.9532 Y15.2451 Z-3.6012
G1 X-47.9382 Y15.2417 Z-3.6013
G1 X-47.9228 Y15.2373 Z-3.6014
G1 X-47.9083 Y15.232
G1 X-47.8937 Y15.2257 Z-3.6015
G1 X-47.8796 Y15.2185 Z-3.6016
G1 X-47.8664 Y15.2107 Z-3.6017
G1 X-47.8535 Y15.2019 Z-3.6018
G1 X-47.8409 Y15.1922
G1 X-47.8291 Y15.1818 Z-3.6019
G1 X-47.8182 Y15.1709 Z-3.602
G1 X-47.8078 Y15.1591 Z-3.6021
G1 X-47.7981 Y15.1465
G1 X-47.7893 Y15.1336 Z-3.6022
G1 X-47.7815 Y15.1204 Z-3.6023
G1 X-47.7743 Y15.1063 Z-3.6024
G1 X-47.768 Y15.0917
G1 X-47.7627 Y15.0772 Z-3.6025
G1 X-47.7583 Y15.0618 Z-3.6026
G1 X-47.7549 Y15.0468 Z-3.6027
G1 X-47.7525 Y15.0317
G1 X-47.751 Y15.0154 Z-3.6028
G1 X-47.75 Y14.9841 Z-3.603
G1 Y-14.9841 Z-3.749
G1 X-47.751 Y-15.0154 Z-3.7492
G1 X-47.7525 Y-15.0317
G1 X-47.7549 Y-15.0468 Z-3.7493
G1 X-47.7583 Y-15.0618 Z-3.7494
G1 X-47.7627 Y-15.0772 Z-3.7495
G1 X-47.768 Y-15.0917
G1 X-47.7743 Y-15.1063 Z-3.7496
G1 X-47.7815 Y-15.1204 Z-3.7497
G1 X-47.7893 Y-15.1336 Z-3.7498
G1 X-47.7981 Y-15.1465
G1 X-47.8078 Y-15.1591 Z-3.7499
G1 X-47.8182 Y-15.1709 Z-3.75
G1 X-47.8291 Y-15.1818 Z-3.7501
G1 X-47.8409 Y-15.1922 Z-3.7502
G1 X-47.8535 Y-15.2019
G1 X-47.8664 Y-15.2107 Z-3.7503
G1 X-47.8796 Y-15.2185 Z-3.7504
G1 X-47.8937 Y-15.2257 Z-3.7505
G1 X-47.9083 Y-15.232
G1 X-47.9228 Y-15.2373 Z-3.7506
G1 X-47.9382 Y-15.2417 Z-3.7507
G1 X-47.9532 Y-15.2451 Z-3.7508
G1 X-47.9683 Y-15.2475
G1 X-47.9846 Y-15.249 Z-3.7509
G1 X-48.0 Y-15.2495 Z-3.751
G1 X-48.0154 Y-15.249 Z-3.7511
G1 X-48.0317 Y-15.2475
G1 X-48.0468 Y-15.2451 Z-3.7512
G1 X-48.0618 Y-15.2417 Z-3.7513
G1 X-48.0772 Y-15.2373 Z-3.7514
G1 X-48.0917 Y-15.232
G1 X-48.1063 Y-15.2257 Z-3.7515
G1 X-48.1204 Y-15.2185 Z-3.7516
G1 X-48.1336 Y-15.2107 Z-3.7517
G1 X-48.1465 Y-15.2019 Z-3.7518
G1 X-48.1591 Y-15.1922
G1 X-48.1709 Y-15.1818 Z-3.7519
G1 X-48.1818 Y-15.1709 Z-3.752
G1 X-48.1922 Y-15.1591 Z-3.7521
G1 X-48.2019 Y-15.1465
G1 X-48.2107 Y-15.1336 Z-3.7522
G1 X-48.2185 Y-15.1204 Z-3.7523
G1 X-48.2257 Y-15.1063 Z-3.7524
G1 X-48.232 Y-15.0917
G1 X-48.2373 Y-15.0772 Z-3.7525
G1 X-48.2417 Y-15.0618 Z-3.7526
G1 X-48.2451 Y-15.0468 Z-3.7527
G1 X-48.2475 Y-15.0317
G1 X-48.249 Y-15.0154 Z-3.7528
G1 X-48.25 Y-14.9841 Z-3.753
G1 Y14.9841 Z-3.899
G1 X-48.249 Y15.0154 Z-3.8992
G1 X-48.2475 Y15.0317
G1 X-48.2451 Y15.0468 Z-3.8993
G1 X-48.2417 Y15.0618 Z-3.8994
G1 X-48.2373 Y15.0772 Z-3.8995
G1 X-48.232 Y15.0917
G1 X-48.2257 Y15.1063 Z-3.8996
G1 X-48.2185 Y15.1204 Z-3.8997
G1 X-48.2107 Y15.1336 Z-3.8998
G1 X-48.2019 Y15.1465
G1 X-48.1922 Y15.1591 Z-3.8999
G1 X-48.1818 Y15.1709 Z-3.9
G1 X-48.1709 Y15.1818 Z-3.9001
G1 X-48.1591 Y15.1922 Z-3.9002
G1 X-48.1465 Y15.2019
G1 X-48.1336 Y15.2107 Z-3.9003
G1 X-48.1204 Y15.2185 Z-3.9004
G1 X-48.1063 Y15.2257 Z-3.9005
G1 X-48.0917 Y15.232
G1 X-48.0772 Y15.2373 Z-3.9006
G1 X-48.0618 Y15.2417 Z-3.9007
G1 X-48.0468 Y15.2451 Z-3.9008
G1 X-48.0317 Y15.2475
G1 X-48.0154 Y15.249 Z-3.9009
G1 X-48.0 Y15.2495 Z-3.901
G1 X-47.9846 Y15.249 Z-3.9011
G1 X-47.9683 Y15.2475
G1 X-47.9532 Y15.2451 Z-3.9012
G1 X-47.9382 Y15.2417 Z-3.9013
G1 X-47.9228 Y15.2373 Z-3.9014
G1 X-47.9083 Y15.232
G1 X-47.8937 Y15.2257 Z-3.9015
G1 X-47.8796 Y15.2185 Z-3.9016
G1 X-47.8664 Y15.2107 Z-3.9017
G1 X-47.8535 Y15.2019 Z-3.9018
G1 X-47.8409 Y15.1922
G1 X-47.8291 Y15.1818 Z-3.9019
G1 X-47.8182 Y15.1709 Z-3.902
G1 X-47.8078 Y15.1591 Z-3.9021
G1 X-47.7981 Y15.1465
G1 X-47.7893 Y15.1336 Z-3.9022
G1 X-47.7815 Y15.1204 Z-3.9023
G1 X-47.7743 Y15.1063 Z-3.9024
G1 X-47.768 Y15.0917
G1 X-47.7627 Y15.0772 Z-3.9025
G1 X-47.7583 Y15.0618 Z-3.9026
G1 X-47.7549 Y15.0468 Z-3.9027
G1 X-47.7525 Y15.0317
G1 X-47.751 Y15.0154 Z-3.9028
G1 X-47.75 Y14.9841 Z-3.903
G1 Y-14.9841 Z-4.049
G1 X-47.751 Y-15.0154 Z-4.0492
G1 X-47.7525 Y-15.0317
G1 X-47.7549 Y-15.0468 Z-4.0493
G1 X-47.7583 Y-15.0618 Z-4.0494
G1 X-47.7627 Y-15.0772 Z-4.0495
G1 X-47.768 Y-15.0917
G1 X-47.7743 Y-15.1063 Z-4.0496
G1 X-47.7815 Y-15.1204 Z-4.0497
G1 X-47.7893 Y-15.1336 Z-4.0498
G1 X-47.7981 Y-15.1465
G1 X-47.8078 Y-15.1591 Z-4.0499
G1 X-47.8182 Y-15.1709 Z-4.05
G1 X-47.8291 Y-15.1818 Z-4.0501
G1 X-47.8409 Y-15.1922 Z-4.0502
G1 X-47.8535 Y-15.2019
G1 X-47.8664 Y-15.2107 Z-4.0503
G1 X-47.8796 Y-15.2185 Z-4.0504
G1 X-47.8937 Y-15.2257 Z-4.0505
G1 X-47.9083 Y-15.232
G1 X-47.9228 Y-15.2373 Z-4.0506
G1 X-47.9382 Y-15.2417 Z-4.0507
G1 X-47.9532 Y-15.2451 Z-4.0508
G1 X-47.9683 Y-15.2475
G1 X-47.9846 Y-15.249 Z-4.0509
G1 X-48.0 Y-15.2495 Z-4.051
G1 X-48.0154 Y-15.249 Z-4.0511
G1 X-48.0317 Y-15.2475
G1 X-48.0468 Y-15.2451 Z-4.0512
G1 X-48.0618 Y-15.2417 Z-4.0513
G1 X-48.0772 Y-15.2373 Z-4.0514
G1 X-48.0917 Y-15.232
G1 X-48.1063 Y-15.2257 Z-4.0515
G1 X-48.1204 Y-15.2185 Z-4.0516
G1 X-48.1336 Y-15.2107 Z-4.0517
G1 X-48.1465 Y-15.2019 Z-4.0518
G1 X-48.1591 Y-15.1922
G1 X-48.1709 Y-15.1818 Z-4.0519
G1 X-48.1818 Y-15.1709 Z-4.052
G1 X-48.1922 Y-15.1591 Z-4.0521
G1 X-48.2019 Y-15.1465
G1 X-48.2107 Y-15.1336 Z-4.0522
G1 X-48.2185 Y-15.1204 Z-4.0523
G1 X-48.2257 Y-15.1063 Z-4.0524
G1 X-48.232 Y-15.0917
G1 X-48.2373 Y-15.0772 Z-4.0525
G1 X-48.2417 Y-15.0618 Z-4.0526
G1 X-48.2451 Y-15.0468 Z-4.0527
G1 X-48.2475 Y-15.0317
G1 X-48.249 Y-15.0154 Z-4.0528
G1 X-48.25 Y-14.9841 Z-4.053
G1 Y14.9841 Z-4.199
G1 X-48.249 Y15.0154 Z-4.1992
G1 X-48.2475 Y15.0317
G1 X-48.2451 Y15.0468 Z-4.1993
G1 X-48.2417 Y15.0618 Z-4.1994
G1 X-48.2373 Y15.0772 Z-4.1995
G1 X-48.232 Y15.0917
G1 X-48.2257 Y15.1063 Z-4.1996
G1 X-48.2185 Y15.1204 Z-4.1997
G1 X-48.2107 Y15.1336 Z-4.1998
G1 X-48.2019 Y15.1465
G1 X-48.1922 Y15.1591 Z-4.1999
G1 X-48.1818 Y15.1709 Z-4.2
G1 X-48.1709 Y15.1818
G1 X-48.1591 Y15.1922
G1 X-48.1465 Y15.2019
G1 X-48.1336 Y15.2107
G1 X-48.1204 Y15.2185
G1 X-48.1063 Y15.2257
G1 X-48.0917 Y15.232
G1 X-48.0772 Y15.2373
G1 X-48.0618 Y15.2417
G1 X-48.0468 Y15.2451
G1 X-48.0317 Y15.2475
G1 X-48.0154 Y15.249
G1 X-48.0 Y15.2495
G1 X-47.9846 Y15.249
G1 X-47.9683 Y15.2475
G1 X-47.9532 Y15.2451
G1 X-47.9382 Y15.2417
G1 X-47.9228 Y15.2373
G1 X-47.9083 Y15.232
G1 X-47.8937 Y15.2257
G1 X-47.8796 Y15.2185
G1 X-47.8664 Y15.2107
G1 X-47.8535 Y15.2019
G1 X-47.8409 Y15.1922
G1 X-47.8291 Y15.1818
G1 X-47.8182 Y15.1709
G1 X-47.8078 Y15.1591
G1 X-47.7981 Y15.1465
G1 X-47.7893 Y15.1336
G1 X-47.7815 Y15.1204
G1 X-47.7743 Y15.1063
G1 X-47.768 Y15.0917
G1 X-47.7627 Y15.0772
G1 X-47.7583 Y15.0618
G1 X-47.7549 Y15.0468
G1 X-47.7525 Y15.0317
G1 X-47.751 Y15.0154
G1 X-47.75 Y14.9841
G1 Y-14.9841
G1 X-47.751 Y-15.0154
G1 X-47.7525 Y-15.0317
G1 X-47.7549 Y-15.0468
G1 X-47.7583 Y-15.0618
G1 X-47.7627 Y-15.0772
G1 X-47.768 Y-15.0917
G1 X-47.7743 Y-15.1063
G1 X-47.7815 Y-15.1204
G1 X-47.7893 Y-15.1336
G1 X-47.7981 Y-15.1465
G1 X-47.8078 Y-15.1591
G1 X-47.8182 Y-15.1709
G1 X-47.8291 Y-15.1818
G1 X-47.8409 Y-15.1922
G1 X-47.8535 Y-15.2019
G1 X-47.8664 Y-15.2107
G1 X-47.8796 Y-15.2185
G1 X-47.8937 Y-15.2257
G1 X-47.9083 Y-15.232
G1 X-47.9228 Y-15.2373
G1 X-47.9382 Y-15.2417
G1 X-47.9532 Y-15.2451
G1 X-47.9683 Y-15.2475
G1 X-47.9846 Y-15.249
G1 X-48.0 Y-15.2495
G1 X-48.0154 Y-15.249
G1 X-48.0317 Y-15.2475
G1 X-48.0468 Y-15.2451
G1 X-48.0618 Y-15.2417
G1 X-48.0772 Y-15.2373
G1 X-48.0917 Y-15.232
G1 X-48.1063 Y-15.2257
G1 X-48.1204 Y-15.2185
G1 X-48.1336 Y-15.2107
G1 X-48.1465 Y-15.2019
G1 X-48.1591 Y-15.1922
G1 X-48.1709 Y-15.1818
G1 X-48.1818 Y-15.1709
G1 X-48.1922 Y-15.1591
G1 X-48.2019 Y-15.1465
G1 X-48.2107 Y-15.1336
G1 X-48.2185 Y-15.1204
G1 X-48.2257 Y-15.1063
G1 X-48.232 Y-15.0917
G1 X-48.2373 Y-15.0772
G1 X-48.2417 Y-15.0618
G1 X-48.2451 Y-15.0468
G1 X-48.2475 Y-15.0317
G1 X-48.249 Y-15.0154
G1 X-48.25 Y-14.9841
G1 Y14.9841
G1 X-48.249 Y15.0154
G1 X-48.2475 Y15.0317
G1 X-48.2451 Y15.0468
G1 X-48.2417 Y15.0618
G1 X-48.2373 Y15.0772
G1 X-48.232 Y15.0917
G1 X-48.2257 Y15.1063
G1 X-48.2185 Y15.1204
G1 X-48.2107 Y15.1336
G1 X-48.2019 Y15.1465
G1 X-48.1922 Y15.1591
G1 X-48.1818 Y15.1709
G0 Z3.0
G0 X-32.25 Y14.9841
G0 Z1.0
G1 F150.0 Z0.0
G1 F100.0 X-32.249 Y15.0154 Z-0.0002
G1 X-32.2475 Y15.0317
G1 X-32.2451 Y15.0468 Z-0.0003
G1 X-32.2417 Y15.0618 Z-0.0004
G1 X-32.2373 Y15.0772 Z-0.0005
G1 X-32.232 Y15.0917
G1 X-32.2257 Y15.1063 Z-0.0006
G1 X-32.2185 Y15.1204 Z-0.0007
G1 X-32.2107 Y15.1336 Z-0.0008
G1 X-32.2019 Y15.1465
G1 X-32.1922 Y15.1591 Z-0.0009
G1 X-32.1818 Y15.1709 Z-0.001
G1 X-32.1709 Y15.1818 Z-0.0011
G1 X-32.1591 Y15.1922
G1 X-32.1465 Y15.2019 Z-0.0012
G1 X-32.1336 Y15.2107 Z-0.0013
G1 X-32.1204 Y15.2185 Z-0.0014
G1 X-32.1063 Y15.2257 Z-0.0015
G1 X-32.0917 Y15.232
G1 X-32.0772 Y15.2373 Z-0.0016
G1 X-32.0618 Y15.2417 Z-0.0017
G1 X-32.0468 Y15.2451 Z-0.0018
G1 X-32.0317 Y15.2475
G1 X-32.0154 Y15.249 Z-0.0019
G1 X-32.0 Y15.2495 Z-0.002
G1 X-31.9846 Y15.249 Z-0.0021
G1 X-31.9683 Y15.2475
G1 X-31.9532 Y15.2451 Z-0.0022
G1 X-31.9382 Y15.2417 Z-0.0023
G1 X-31.9228 Y15.2373 Z-0.0024
G1 X-31.9083 Y15.232
G1 X-31.8937 Y15.2257 Z-0.0025
G1 X-31.8796 Y15.2185 Z-0.0026
G1 X-31.8664 Y15.2107 Z-0.0027
G1 X-31.8535 Y15.2019
G1 X-31.8409 Y15.1922 Z-0.0028
G1 X-31.8291 Y15.1818 Z-0.0029
G1 X-31.8182 Y15.1709 Z-0.003
G1 X-31.8078 Y15.1591 Z-0.0031
G1 X-31.7981 Y15.1465
G1 X-31.7893 Y15.1336 Z-0.0032
G1 X-31.7815 Y15.1204 Z-0.0033
G1 X-31.7743 Y15.1063 Z-0.0034
G1 X-31.768 Y15.0917
G1 X-31.7627 Y15.0772 Z-0.0035
G1 X-31.7583 Y15.0618 Z-0.0036
G1 X-31.7549 Y15.0468 Z-0.0037
G1 X-31.7525 Y15.0317
G1 X-31.751 Y15.0154 Z-0.0038
G1 X-31.75 Y14.9841 Z-0.004
G1 Y-14.9841 Z-0.15
G1 X-31.751 Y-15.0154 Z-0.1502
G1 X-31.7525 Y-15.0317
G1 X-31.7549 Y-15.0468 Z-0.1503
G1 X-31.7583 Y-15.0618 Z-0.1504
G1 X-31.7627 Y-15.0772 Z-0.1505
G1 X-31.768 Y-15.0917
G1 X-31.7743 Y-15.1063 Z-0.1506
G1 X-31.7815 Y-15.1204 Z-0.1507
G1 X-31.7893 Y-15.1336 Z-0.1508
G1 X-31.7981 Y-15.1465
G1 X-31.8078 Y-15.1591 Z-0.1509
G1 X-31.8182 Y-15.1709 Z-0.151
G1 X-31.8291 Y-15.1818 Z-0.1511
G1 X-31.8409 Y-15.1922
G1 X-31.8535 Y-15.2019 Z-0.1512
G1 X-31.8664 Y-15.2107 Z-0.1513
G1 X-31.8796 Y-15.2185 Z-0.1514
G1 X-31.8937 Y-15.2257 Z-0.1515
G1 X-31.9083 Y-15.232
G1 X-31.9228 Y-15.2373 Z-0.1516
G1 X-31.9382 Y-15.2417 Z-0.1517
G1 X-31.9532 Y-15.2451 Z-0.1518
G1 X-31.9683 Y-15.2475
G1 X-31.9846 Y-15.249 Z-0.1519
G1 X-32.0 Y-15.2495 Z-0.152
G1 X-32.0154 Y-15.249 Z-0.1521
G1 X-32.0317 Y-15.2475
G1 X-32.0468 Y-15.2451 Z-0.1522
G1 X-32.0618 Y-15.2417 Z-0.1523
G1 X-32.0772 Y-15.2373 Z-0.1524
G1 X-32.0917 Y-15.232
G1 X-32.1063 Y-15.2257 Z-0.1525
G1 X-32.1204 Y-15.2185 Z-0.1526
G1 X-32.1336 Y-15.2107 Z-0.1527
G1 X-32.1465 Y-15.2019
G1 X-32.1591 Y-15.1922 Z-0.1528
G1 X-32.1709 Y-15.1818 Z-0.1529
G1 X-32.1818 Y-15.1709 Z-0.153
G1 X-32.1922 Y-15.1591 Z-0.1531
G1 X-32.2019 Y-15.1465
G1 X-32.2107 Y-15.1336 Z-0.1532
G1 X-32.2185 Y-15.1204 Z-0.1533
G1 X-32.2257 Y-15.1063 Z-0.1534
G1 X-32.232 Y-15.0917
G1 X-32.2373 Y-15.0772 Z-0.1535
G1 X-32.2417 Y-15.0618 Z-0.1536
G1 X-32.2451 Y-15.0468 Z-0.1537
G1 X-32.2475 Y-15.0317
G1 X-32.249 Y-15.0154 Z-0.1538
G1 X-32.25 Y-14.9841 Z-0.154
G1 Y14.9841 Z-0.3
G1 X-32.249 Y15.0154 Z-0.3002
G1 X-32.2475 Y15.0317
G1 X-32.2451 Y15.0468 Z-0.3003
G1 X-32.2417 Y15.0618 Z-0.3004
G1 X-32.2373 Y15.0772 Z-0.3005
G1 X-32.232 Y15.0917
G1 X-32.2257 Y15.1063 Z-0.3006
G1 X-32.2185 Y15.1204 Z-0.3007
G1 X-32.2107 Y15.1336 Z-0.3008
G1 X-32.2019 Y15.1465
G1 X-32.1922 Y15.1591 Z-0.3009
G1 X-32.1818 Y15.1709 Z-0.301
G1 X-32.1709 Y15.1818 Z-0.3011
G1 X-32.1591 Y15.1922
G1 X-32.1465 Y15.2019 Z-0.3012
G1 X-32.1336 Y15.2107 Z-0.3013
G1 X-32.1204 Y15.2185 Z-0.3014
G1 X-32.1063 Y15.2257 Z-0.3015
G1 X-32.0917 Y15.232
G1 X-32.0772 Y15.2373 Z-0.3016
G1 X-32.0618 Y15.2417 Z-0.3017
G1 X-32.0468 Y15.2451 Z-0.3018
G1 X-32.0317 Y15.2475
G1 X-32.0154 Y15.249 Z-0.3019
G1 X-32.0 Y15.2495 Z-0.302
G1 X-31.9846 Y15.249 Z-0.3021
G1 X-31.9683 Y15.2475
G1 X-31.9532 Y15.2451 Z-0.3022
G1 X-31.9382 Y15.2417 Z-0.3023
G1 X-31.9228 Y15.2373 Z-0.3024
G1 X-31.9083 Y15.232
G1 X-31.8937 Y15.2257 Z-0.3025
G1 X-31.8796 Y15.2185 Z-0.3026
G1 X-31.8664 Y15.2107 Z-0.3027
G1 X-31.8535 Y15.2019
G1 X-31.8409 Y15.1922 Z-0.3028
G1 X-31.8291 Y15.1818 Z-0.3029
G1 X-31.8182 Y15.1709 Z-0.303
G1 X-31.8078 Y15.1591 Z-0.3031
G1 X-31.7981 Y15.1465
G1 X-31.7893 Y15.1336 Z-0.3032
G1 X-31.7815 Y15.1204 Z-0.3033
G1 X-31.7743 Y15.1063 Z-0.3034
G1 X-31.768 Y15.0917
G1 X-31.7627 Y15.0772 Z-0.3035
G1 X-31.7583 Y15.0618 Z-0.3036
G1 X-31.7549 Y15.0468 Z-0.3037
G1 X-31.7525 Y15.0317
G1 X-31.751 Y15.0154 Z-0.3038
G1 X-31.75 Y14.9841 Z-0.304
G1 Y-14.9841 Z-0.45
G1 X-31.751 Y-15.0154 Z-0.4502
G1 X-31.7525 Y-15.0317
G1 X-31.7549 Y-15.0468 Z-0.4503
G1 X-31.7583 Y-15.0618 Z-0.4504
G1 X-31.7627 Y-15.0772 Z-0.4505
G1 X-31.768 Y-15.0917
G1 X-31.7743 Y-15.1063 Z-0.4506
G1 X-31.7815 Y-15.1204 Z-0.4507
G1 X-31.7893 Y-15.1336 Z-0.4508
G1 X-31.7981 Y-15.1465
G1 X-31.8078 Y-15.1591 Z-0.4509
G1 X-31.8182 Y-15.1709 Z-0.451
G1 X-31.8291 Y-15.1818 Z-0.4511
G1 X-31.8409 Y-15.1922
G1 X-31.8535 Y-15.2019 Z-0.4512
G1 X-31.8664 Y-15.2107 Z-0.4513
G1 X-31.8796 Y-15.2185 Z-0.4514
G1 X-31.8937 Y-15.2257 Z-0.4515
G1 X-31.9083 Y-15.232
G1 X-31.9228 Y-15.2373 Z-0.4516
G1 X-31.9382 Y-15.2417 Z-0.4517
G1 X-31.9532 Y-15.2451 Z-0.4518
G1 X-31.9683 Y-15.2475
G1 X-31.9846 Y-15.249 Z-0.4519
G1 X-32.0 Y-15.2495 Z-0.452
G1 X-32.0154 Y-15.249 Z-0.4521
G1 X-32.0317 Y-15.2475
G1 X-32.0468 Y-15.2451 Z-0.4522
G1 X-32.0618 Y-15.2417 Z-0.4523
G1 X-32.0772 Y-15.2373 Z-0.4524
G1 X-32.0917 Y-15.232
G1 X-32.1063 Y-15.2257 Z-0.4525
G1 X-32.1204 Y-15.2185 Z-0.4526
G1 X-32.1336 Y-15.2107 Z-0.4527
G1 X-32.1465 Y-15.2019
G1 X-32.1591 Y-15.1922 Z-0.4528
G1 X-32.1709 Y-15.1818 Z-0.4529
G1 X-32.1818 Y-15.1709 Z-0.453
G1 X-32.1922 Y-15.1591 Z-0.4531
G1 X-32.2019 Y-15.1465
G1 X-32.2107 Y-15.1336 Z-0.4532
G1 X-32.2185 Y-15.1204 Z-0.4533
G1 X-32.2257 Y-15.1063 Z-0.4534
G1 X-32.232 Y-15.0917
G1 X-32.2373 Y-15.0772 Z-0.4535
G1 X-32.2417 Y-15.0618 Z-0.4536
G1 X-32.2451 Y-15.0468 Z-0.4537
G1 X-32.2475 Y-15.0317
G1 X-32.249 Y-15.0154 Z-0.4538
G1 X-32.25 Y-14.9841 Z-0.454
G1 Y14.9841 Z-0.6
G1 X-32.249 Y15.0154 Z-0.6002
G1 X-32.2475 Y15.0317
G1 X-32.2451 Y15.0468 Z-0.6003
G1 X-32.2417 Y15.0618 Z-0.6004
G1 X-32.2373 Y15.0772 Z-0.6005
G1 X-32.232 Y15.0917
G1 X-32.2257 Y15.1063 Z-0.6006
G1 X-32.2185 Y15.1204 Z-0.6007
G1 X-32.2107 Y15.1336 Z-0.6008
G1 X-32.2019 Y15.1465
G1 X-32.1922 Y15.1591 Z-0.6009
G1 X-32.1818 Y15.1709 Z-0.601
G1 X-32.1709 Y15.1818 Z-0.6011
G1 X-32.1591 Y15.1922
G1 X-32.1465 Y15.2019 Z-0.6012
G1 X-32.1336 Y15.2107 Z-0.6013
G1 X-32.1204 Y15.2185 Z-0.6014
G1 X-32.1063 Y15.2257 Z-0.6015
G1 X-32.0917 Y15.232
G1 X-32.0772 Y15.2373 Z-0.6016
G1 X-32.0618 Y15.2417 Z-0.6017
G1 X-32.0468 Y15.2451 Z-0.6018
G1 X-32.0317 Y15.2475
G1 X-32.0154 Y15.249 Z-0.6019
G1 X-32.0 Y15.2495 Z-0.602
G1 X-31.9846 Y15.249 Z-0.6021
G1 X-31.9683 Y15.2475
G1 X-31.9532 Y15.2451 Z-0.6022
G1 X-31.9382 Y15.2417 Z-0.6023
G1 X-31.9228 Y15.2373 Z-0.6024
G1 X-31.9083 Y15.232
G1 X-31.8937 Y15.2257 Z-0.6025
G1 X-31.8796 Y15.2185 Z-0.6026
G1 X-31.8664 Y15.2107 Z-0.6027
G1 X-31.8535 Y15.2019
G1 X-31.8409 Y15.1922 Z-0.6028
G1 X-31.8291 Y15.1818 Z-0.6029
G1 X-31.8182 Y15.1709 Z-0.603
G1 X-31.8078 Y15.1591 Z-0.6031
G1 X-31.7981 Y15.1465
G1 X-31.7893 Y15.1336 Z-0.6032
G1 X-31.7815 Y15.1204 Z-0.6033
G1 X-31.7743 Y15.1063 Z-0.6034
G1 X-31.768 Y15.0917
G1 X-31.7627 Y15.0772 Z-0.6035
G1 X-31.7583 Y15.0618 Z-0.6036
G1 X-31.7549 Y15.0468 Z-0.6037
G1 X-31.7525 Y15.0317
G1 X-31.751 Y15.0154 Z-0.6038
G1 X-31.75 Y14.9841 Z-0.604
G1 Y-14.9841 Z-0.75
G1 X-31.751 Y-15.0154 Z-0.7502
G1 X-31.7525 Y-15.0317
G1 X-31.7549 Y-15.0468 Z-0.7503
G1 X-31.7583 Y-15.0618 Z-0.7504
G1 X-31.7627 Y-15.0772 Z-0.7505
G1 X-31.768 Y-15.0917
G1 X-31.7743 Y-15.1063 Z-0.7506
G1 X-31.7815 Y-15.1204 Z-0.7507
G1 X-31.7893 Y-15.1336 Z-0.7508
G1 X-31.7981 Y-15.1465
G1 X-31.8078 Y-15.1591 Z-0.7509
G1 X-31.8182 Y-15.1709 Z-0.751
G1 X-31.8291 Y-15.1818 Z-0.7511
G1 X-31.8409 Y-15.1922
G1 X-31.8535 Y-15.2019 Z-0.7512
G1 X-31.8664 Y-15.2107 Z-0.7513
G1 X-31.8796 Y-15.2185 Z-0.7514
G1 X-31.8937 Y-15.2257 Z-0.7515
G1 X-31.9083 Y-15.232
G1 X-31.9228 Y-15.2373 Z-0.7516
G1 X-31.9382 Y-15.2417 Z-0.7517
G1 X-31.9532 Y-15.2451 Z-0.7518
G1 X-31.9683 Y-15.2475
G1 X-31.9846 Y-15.249 Z-0.7519
G1 X-32.0 Y-15.2495 Z-0.752
G1 X-32.0154 Y-15.249 Z-0.7521
G1 X-32.0317 Y-15.2475
G1 X-32.0468 Y-15.2451 Z-0.7522
G1 X-32.0618 Y-15.2417 Z-0.7523
G1 X-32.0772 Y-15.2373 Z-0.7524
G1 X-32.0917 Y-15.232
G1 X-32.1063 Y-15.2257 Z-0.7525
G1 X-32.1204 Y-15.2185 Z-0.7526
G1 X-32.1336 Y-15.2107 Z-0.7527
G1 X-32.1465 Y-15.2019
G1 X-32.1591 Y-15.1922 Z-0.7528
G1 X-32.1709 Y-15.1818 Z-0.7529
G1 X-32.1818 Y-15.1709 Z-0.753
G1 X-32.1922 Y-15.1591 Z-0.7531
G1 X-32.2019 Y-15.1465
G1 X-32.2107 Y-15.1336 Z-0.7532
G1 X-32.2185 Y-15.1204 Z-0.7533
G1 X-32.2257 Y-15.1063 Z-0.7534
G1 X-32.232 Y-15.0917
G1 X-32.2373 Y-15.0772 Z-0.7535
G1 X-32.2417 Y-15.0618 Z-0.7536
G1 X-32.2451 Y-15.0468 Z-0.7537
G1 X-32.2475 Y-15.0317
G1 X-32.249 Y-15.0154 Z-0.7538
G1 X-32.25 Y-14.9841 Z-0.754
G1 Y14.9841 Z-0.9
G1 X-32.249 Y15.0154 Z-0.9002
G1 X-32.2475 Y15.0317
G1 X-32.2451 Y15.0468 Z-0.9003
G1 X-32.2417 Y15.0618 Z-0.9004
G1 X-32.2373 Y15.0772 Z-0.9005
G1 X-32.232 Y15.0917
G1 X-32.2257 Y15.1063 Z-0.9006
G1 X-32.2185 Y15.1204 Z-0.9007
G1 X-32.2107 Y15.1336 Z-0.9008
G1 X-32.2019 Y15.1465
G1 X-32.1922 Y15.1591 Z-0.9009
G1 X-32.1818 Y15.1709 Z-0.901
G1 X-32.1709 Y15.1818 Z-0.9011
G1 X-32.1591 Y15.1922
G1 X-32.1465 Y15.2019 Z-0.9012
G1 X-32.1336 Y15.2107 Z-0.9013
G1 X-32.1204 Y15.2185 Z-0.9014
G1 X-32.1063 Y15.2257 Z-0.9015
G1 X-32.0917 Y15.232
G1 X-32.0772 Y15.2373 Z-0.9016
G1 X-32.0618 Y15.2417 Z-0.9017
G1 X-32.0468 Y15.2451 Z-0.9018
G1 X-32.0317 Y15.2475
G1 X-32.0154 Y15.249 Z-0.9019
G1 X-32.0 Y15.2495 Z-0.902
G1 X-31.9846 Y15.249 Z-0.9021
G1 X-31.9683 Y15.2475
G1 X-31.9532 Y15.2451 Z-0.9022
G1 X-31.9382 Y15.2417 Z-0.9023
G1 X-31.9228 Y15.2373 Z-0.9024
G1 X-31.9083 Y15.232
G1 X-31.8937 Y15.2257 Z-0.9025
G1 X-31.8796 Y15.2185 Z-0.9026
G1 X-31.8664 Y15.2107 Z-0.9027
G1 X-31.8535 Y15.2019
G1 X-31.8409 Y15.1922 Z-0.9028
G1 X-31.8291 Y15.1818 Z-0.9029
G1 X-31.8182 Y15.1709 Z-0.903
G1 X-31.8078 Y15.1591 Z-0.9031
G1 X-31.7981 Y15.1465
G1 X-31.7893 Y15.1336 Z-0.9032
G1 X-31.7815 Y15.1204 Z-0.9033
G1 X-31.7743 Y15.1063 Z-0.9034
G1 X-31.768 Y15.0917
G1 X-31.7627 Y15.0772 Z-0.9035
G1 X-31.7583 Y15.0618 Z-0.9036
G1 X-31.7549 Y15.0468 Z-0.9037
G1 X-31.7525 Y15.0317
G1 X-31.751 Y15.0154 Z-0.9038
G1 X-31.75 Y14.9841 Z-0.904
G1 Y-14.9841 Z-1.05
G1 X-31.751 Y-15.0154 Z-1.0502
G1 X-31.7525 Y-15.0317
G1 X-31.7549 Y-15.0468 Z-1.0503
G1 X-31.7583 Y-15.0618 Z-1.0504
G1 X-31.7627 Y-15.0772 Z-1.0505
G1 X-31.768 Y-15.0917
G1 X-31.7743 Y-15.1063 Z-1.0506
G1 X-31.7815 Y-15.1204 Z-1.0507
G1 X-31.7893 Y-15.1336 Z-1.0508
G1 X-31.7981 Y-15.1465
G1 X-31.8078 Y-15.1591 Z-1.0509
G1 X-31.8182 Y-15.1709 Z-1.051
G1 X-31.8291 Y-15.1818 Z-1.0511
G1 X-31.8409 Y-15.1922
G1 X-31.8535 Y-15.2019 Z-1.0512
G1 X-31.8664 Y-15.2107 Z-1.0513
G1 X-31.8796 Y-15.2185 Z-1.0514
G1 X-31.8937 Y-15.2257 Z-1.0515
G1 X-31.9083 Y-15.232
G1 X-31.9228 Y-15.2373 Z-1.0516
G1 X-31.9382 Y-15.2417 Z-1.0517
G1 X-31.9532 Y-15.2451 Z-1.0518
G1 X-31.9683 Y-15.2475
G1 X-31.9846 Y-15.249 Z-1.0519
G1 X-32.0 Y-15.2495 Z-1.052
G1 X-32.0154 Y-15.249 Z-1.0521
G1 X-32.0317 Y-15.2475
G1 X-32.0468 Y-15.2451 Z-1.0522
G1 X-32.0618 Y-15.2417 Z-1.0523
G1 X-32.0772 Y-15.2373 Z-1.0524
G1 X-32.0917 Y-15.232
G1 X-32.1063 Y-15.2257 Z-1.0525
G1 X-32.1204 Y-15.2185 Z-1.0526
G1 X-32.1336 Y-15.2107 Z-1.0527
G1 X-32.1465 Y-15.2019
G1 X-32.1591 Y-15.1922 Z-1.0528
G1 X-32.1709 Y-15.1818 Z-1.0529
G1 X-32.1818 Y-15.1709 Z-1.053
G1 X-32.1922 Y-15.1591 Z-1.0531
G1 X-32.2019 Y-15.1465
G1 X-32.2107 Y-15.1336 Z-1.0532
G1 X-32.2185 Y-15.1204 Z-1.0533
G1 X-32.2257 Y-15.1063 Z-1.0534
G1 X-32.232 Y-15.0917
G1 X-32.2373 Y-15.0772 Z-1.0535
G1 X-32.2417 Y-15.0618 Z-1.0536
G1 X-32.2451 Y-15.0468 Z-1.0537
G1 X-32.2475 Y-15.0317
G1 X-32.249 Y-15.0154 Z-1.0538
G1 X-32.25 Y-14.9841 Z-1.054
G1 Y14.9841 Z-1.2
G1 X-32.249 Y15.0154 Z-1.2002
G1 X-32.2475 Y15.0317
G1 X-32.2451 Y15.0468 Z-1.2003
G1 X-32.2417 Y15.0618 Z-1.2004
G1 X-32.2373 Y15.0772 Z-1.2005
G1 X-32.232 Y15.0917
G1 X-32.2257 Y15.1063 Z-1.2006
G1 X-32.2185 Y15.1204 Z-1.2007
G1 X-32.2107 Y15.1336 Z-1.2008
G1 X-32.2019 Y15.1465
G1 X-32.1922 Y15.1591 Z-1.2009
G1 X-32.1818 Y15.1709 Z-1.201
G1 X-32.1709 Y15.1818 Z-1.2011
G1 X-32.1591 Y15.1922
G1 X-32.1465 Y15.2019 Z-1.2012
G1 X-32.1336 Y15.2107 Z-1.2013
G1 X-32.1204 Y15.2185 Z-1.2014
G1 X-32.1063 Y15.2257 Z-1.2015
G1 X-32.0917 Y15.232
G1 X-32.0772 Y15.2373 Z-1.2016
G1 X-32.0618 Y15.2417 Z-1.2017
G1 X-32.0468 Y15.2451 Z-1.2018
G1 X-32.0317 Y15.2475
G1 X-32.0154 Y15.249 Z-1.2019
G1 X-32.0 Y15.2495 Z-1.202
G1 X-31.9846 Y15.249 Z-1.2021
G1 X-31.9683 Y15.2475
G1 X-31.9532 Y15.2451 Z-1.2022
G1 X-31.9382 Y15.2417 Z-1.2023
G1 X-31.9228 Y15.2373 Z-1.2024
G1 X-31.9083 Y15.232
G1 X-31.8937 Y15.2257 Z-1.2025
G1 X-31.8796 Y15.2185 Z-1.2026
G1 X-31.8664 Y15.2107 Z-1.2027
G1 X-31.8535 Y15.2019
G1 X-31.8409 Y15.1922 Z-1.2028
G1 X-31.8291 Y15.1818 Z-1.2029
G1 X-31.8182 Y15.1709 Z-1.203
G1 X-31.8078 Y15.1591 Z-1.2031
G1 X-31.7981 Y15.1465
G1 X-31.7893 Y15.1336 Z-1.2032
G1 X-31.7815 Y15.1204 Z-1.2033
G1 X-31.7743 Y15.1063 Z-1.2034
G1 X-31.768 Y15.0917
G1 X-31.7627 Y15.0772 Z-1.2035
G1 X-31.7583 Y15.0618 Z-1.2036
G1 X-31.7549 Y15.0468 Z-1.2037
G1 X-31.7525 Y15.0317
G1 X-31.751 Y15.0154 Z-1.2038
G1 X-31.75 Y14.9841 Z-1.204
G1 Y-14.9841 Z-1.35
G1 X-31.751 Y-15.0154 Z-1.3502
G1 X-31.7525 Y-15.0317
G1 X-31.7549 Y-15.0468 Z-1.3503
G1 X-31.7583 Y-15.0618 Z-1.3504
G1 X-31.7627 Y-15.0772 Z-1.3505
G1 X-31.768 Y-15.0917
G1 X-31.7743 Y-15.1063 Z-1.3506
G1 X-31.7815 Y-15.1204 Z-1.3507
G1 X-31.7893 Y-15.1336 Z-1.3508
G1 X-31.7981 Y-15.1465
G1 X-31.8078 Y-15.1591 Z-1.3509
G1 X-31.8182 Y-15.1709 Z-1.351
G1 X-31.8291 Y-15.1818 Z-1.3511
G1 X-31.8409 Y-15.1922
G1 X-31.8535 Y-15.2019 Z-1.3512
G1 X-31.8664 Y-15.2107 Z-1.3513
G1 X-31.8796 Y-15.2185 Z-1.3514
G1 X-31.8937 Y-15.2257 Z-1.3515
G1 X-31.9083 Y-15.232
G1 X-31.9228 Y-15.2373 Z-1.3516
G1 X-31.9382 Y-15.2417 Z-1.3517
G1 X-31.9532 Y-15.2451 Z-1.3518
G1 X-31.9683 Y-15.2475
G1 X-31.9846 Y-15.249 Z-1.3519
G1 X-32.0 Y-15.2495 Z-1.352
G1 X-32.0154 Y-15.249 Z-1.3521
G1 X-32.0317 Y-15.2475
G1 X-32.0468 Y-15.2451 Z-1.3522
G1 X-32.0618 Y-15.2417 Z-1.3523
G1 X-32.0772 Y-15.2373 Z-1.3524
G1 X-32.0917 Y-15.232
G1 X-32.1063 Y-15.2257 Z-1.3525
G1 X-32.1204 Y-15.2185 Z-1.3526
G1 X-32.1336 Y-15.2107 Z-1.3527
G1 X-32.1465 Y-15.2019
G1 X-32.1591 Y-15.1922 Z-1.3528
G1 X-32.1709 Y-15.1818 Z-1.3529
G1 X-32.1818 Y-15.1709 Z-1.353
G1 X-32.1922 Y-15.1591 Z-1.3531
G1 X-32.2019 Y-15.1465
G1 X-32.2107 Y-15.1336 Z-1.3532
G1 X-32.2185 Y-15.1204 Z-1.3533
G1 X-32.2257 Y-15.1063 Z-1.3534
G1 X-32.232 Y-15.0917
G1 X-32.2373 Y-15.0772 Z-1.3535
G1 X-32.2417 Y-15.0618 Z-1.3536
G1 X-32.2451 Y-15.0468 Z-1.3537
G1 X-32.2475 Y-15.0317
G1 X-32.249 Y-15.0154 Z-1.3538
G1 X-32.25 Y-14.9841 Z-1.354
G1 Y14.9841 Z-1.5
G1 X-32.249 Y15.0154 Z-1.5002
G1 X-32.2475 Y15.0317
G1 X-32.2451 Y15.0468 Z-1.5003
G1 X-32.2417 Y15.0618 Z-1.5004
G1 X-32.2373 Y15.0772 Z-1.5005
G1 X-32.232 Y15.0917
G1 X-32.2257 Y15.1063 Z-1.5006
G1 X-32.2185 Y15.1204 Z-1.5007
G1 X-32.2107 Y15.1336 Z-1.5008
G1 X-32.2019 Y15.1465
G1 X-32.1922 Y15.1591 Z-1.5009
G1 X-32.1818 Y15.1709 Z-1.501
G1 X-32.1709 Y15.1818 Z-1.5011
G1 X-32.1591 Y15.1922
G1 X-32.1465 Y15.2019 Z-1.5012
G1 X-32.1336 Y15.2107 Z-1.5013
G1 X-32.1204 Y15.2185 Z-1.5014
G1 X-32.1063 Y15.2257 Z-1.5015
G1 X-32.0917 Y15.232
G1 X-32.0772 Y15.2373 Z-1.5016
G1 X-32.0618 Y15.2417 Z-1.5017
G1 X-32.0468 Y15.2451 Z-1.5018
G1 X-32.0317 Y15.2475
G1 X-32.0154 Y15.249 Z-1.5019
G1 X-32.0 Y15.2495 Z-1.502
G1 X-31.9846 Y15.249 Z-1.5021
G1 X-31.9683 Y15.2475
G1 X-31.9532 Y15.2451 Z-1.5022
G1 X-31.9382 Y15.2417 Z-1.5023
G1 X-31.9228 Y15.2373 Z-1.5024
G1 X-31.9083 Y15.232
G1 X-31.8937 Y15.2257 Z-1.5025
G1 X-31.8796 Y15.2185 Z-1.5026
G1 X-31.8664 Y15.2107 Z-1.5027
G1 X-31.8535 Y15.2019
G1 X-31.8409 Y15.1922 Z-1.5028
G1 X-31.8291 Y15.1818 Z-1.5029
G1 X-31.8182 Y15.1709 Z-1.503
G1 X-31.8078 Y15.1591 Z-1.5031
G1 X-31.7981 Y15.1465
G1 X-31.7893 Y15.1336 Z-1.5032
G1 X-31.7815 Y15.1204 Z-1.5033
G1 X-31.7743 Y15.1063 Z-1.5034
G1 X-31.768 Y15.0917
G1 X-31.7627 Y15.0772 Z-1.5035
G1 X-31.7583 Y15.0618 Z-1.5036
G1 X-31.7549 Y15.0468 Z-1.5037
G1 X-31.7525 Y15.0317
G1 X-31.751 Y15.0154 Z-1.5038
G1 X-31.75 Y14.9841 Z-1.504
G1 Y-14.9841 Z-1.65
G1 X-31.751 Y-15.0154 Z-1.6502
G1 X-31.7525 Y-15.0317
G1 X-31.7549 Y-15.0468 Z-1.6503
G1 X-31.7583 Y-15.0618 Z-1.6504
G1 X-31.7627 Y-15.0772 Z-1.6505
G1 X-31.768 Y-15.0917
G1 X-31.7743 Y-15.1063 Z-1.6506
G1 X-31.7815 Y-15.1204 Z-1.6507
G1 X-31.7893 Y-15.1336 Z-1.6508
G1 X-31.7981 Y-15.1465
G1 X-31.8078 Y-15.1591 Z-1.6509
G1 X-31.8182 Y-15.1709 Z-1.651
G1 X-31.8291 Y-15.1818 Z-1.6511
G1 X-31.8409 Y-15.1922
G1 X-31.8535 Y-15.2019 Z-1.6512
G1 X-31.8664 Y-15.2107 Z-1.6513
G1 X-31.8796 Y-15.2185 Z-1.6514
G1 X-31.8937 Y-15.2257 Z-1.6515
G1 X-31.9083 Y-15.232
G1 X-31.9228 Y-15.2373 Z-1.6516
G1 X-31.9382 Y-15.2417 Z-1.6517
G1 X-31.9532 Y-15.2451 Z-1.6518
G1 X-31.9683 Y-15.2475
G1 X-31.9846 Y-15.249 Z-1.6519
G1 X-32.0 Y-15.2495 Z-1.652
G1 X-32.0154 Y-15.249 Z-1.6521
G1 X-32.0317 Y-15.2475
G1 X-32.0468 Y-15.2451 Z-1.6522
G1 X-32.0618 Y-15.2417 Z-1.6523
G1 X-32.0772 Y-15.2373 Z-1.6524
G1 X-32.0917 Y-15.232
G1 X-32.1063 Y-15.2257 Z-1.6525
G1 X-32.1204 Y-15.2185 Z-1.6526
G1 X-32.1336 Y-15.2107 Z-1.6527
G1 X-32.1465 Y-15.2019
G1 X-32.1591 Y-15.1922 Z-1.6528
G1 X-32.1709 Y-15.1818 Z-1.6529
G1 X-32.1818 Y-15.1709 Z-1.653
G1 X-32.1922 Y-15.1591 Z-1.6531
G1 X-32.2019 Y-15.1465
G1 X-32.2107 Y-15.1336 Z-1.6532
G1 X-32.2185 Y-15.1204 Z-1.6533
G1 X-32.2257 Y-15.1063 Z-1.6534
G1 X-32.232 Y-15.0917
G1 X-32.2373 Y-15.0772 Z-1.6535
G1 X-32.2417 Y-15.0618 Z-1.6536
G1 X-32.2451 Y-15.0468 Z-1.6537
G1 X-32.2475 Y-15.0317
G1 X-32.249 Y-15.0154 Z-1.6538
G1 X-32.25 Y-14.9841 Z-1.654
G1 Y14.9841 Z-1.8
G1 X-32.249 Y15.0154 Z-1.8002
G1 X-32.2475 Y15.0317
G1 X-32.2451 Y15.0468 Z-1.8003
G1 X-32.2417 Y15.0618 Z-1.8004
G1 X-32.2373 Y15.0772 Z-1.8005
G1 X-32.232 Y15.0917
G1 X-32.2257 Y15.1063 Z-1.8006
G1 X-32.2185 Y15.1204 Z-1.8007
G1 X-32.2107 Y15.1336 Z-1.8008
G1 X-32.2019 Y15.1465
G1 X-32.1922 Y15.1591 Z-1.8009
G1 X-32.1818 Y15.1709 Z-1.801
G1 X-32.1709 Y15.1818 Z-1.8011
G1 X-32.1591 Y15.1922
G1 X-32.1465 Y15.2019 Z-1.8012
G1 X-32.1336 Y15.2107 Z-1.8013
G1 X-32.1204 Y15.2185 Z-1.8014
G1 X-32.1063 Y15.2257 Z-1.8015
G1 X-32.0917 Y15.232
G1 X-32.0772 Y15.2373 Z-1.8016
G1 X-32.0618 Y15.2417 Z-1.8017
G1 X-32.0468 Y15.2451 Z-1.8018
G1 X-32.0317 Y15.2475
G1 X-32.0154 Y15.249 Z-1.8019
G1 X-32.0 Y15.2495 Z-1.802
G1 X-31.9846 Y15.249 Z-1.8021
G1 X-31.9683 Y15.2475
G1 X-31.9532 Y15.2451 Z-1.8022
G1 X-31.9382 Y15.2417 Z-1.8023
G1 X-31.9228 Y15.2373 Z-1.8024
G1 X-31.9083 Y15.232
G1 X-31.8937 Y15.2257 Z-1.8025
G1 X-31.8796 Y15.2185 Z-1.8026
G1 X-31.8664 Y15.2107 Z-1.8027
G1 X-31.8535 Y15.2019
G1 X-31.8409 Y15.1922 Z-1.8028
G1 X-31.8291 Y15.1818 Z-1.8029
G1 X-31.8182 Y15.1709 Z-1.803
G1 X-31.8078 Y15.1591 Z-1.8031
G1 X-31.7981 Y15.1465
G1 X-31.7893 Y15.1336 Z-1.8032
G1 X-31.7815 Y15.1204 Z-1.8033
G1 X-31.7743 Y15.1063 Z-1.8034
G1 X-31.768 Y15.0917
G1 X-31.7627 Y15.0772 Z-1.8035
G1 X-31.7583 Y15.0618 Z-1.8036
G1 X-31.7549 Y15.0468 Z-1.8037
G1 X-31.7525 Y15.0317
G1 X-31.751 Y15.0154 Z-1.8038
G1 X-31.75 Y14.9841 Z-1.804
G1 Y-14.9841 Z-1.95
G1 X-31.751 Y-15.0154 Z-1.9502
G1 X-31.7525 Y-15.0317
G1 X-31.7549 Y-15.0468 Z-1.9503
G1 X-31.7583 Y-15.0618 Z-1.9504
G1 X-31.7627 Y-15.0772 Z-1.9505
G1 X-31.768 Y-15.0917
G1 X-31.7743 Y-15.1063 Z-1.9506
G1 X-31.7815 Y-15.1204 Z-1.9507
G1 X-31.7893 Y-15.1336 Z-1.9508
G1 X-31.7981 Y-15.1465
G1 X-31.8078 Y-15.1591 Z-1.9509
G1 X-31.8182 Y-15.1709 Z-1.951
G1 X-31.8291 Y-15.1818 Z-1.9511
G1 X-31.8409 Y-15.1922
G1 X-31.8535 Y-15.2019 Z-1.9512
G1 X-31.8664 Y-15.2107 Z-1.9513
G1 X-31.8796 Y-15.2185 Z-1.9514
G1 X-31.8937 Y-15.2257 Z-1.9515
G1 X-31.9083 Y-15.232
G1 X-31.9228 Y-15.2373 Z-1.9516
G1 X-31.9382 Y-15.2417 Z-1.9517
G1 X-31.9532 Y-15.2451 Z-1.9518
G1 X-31.9683 Y-15.2475
G1 X-31.9846 Y-15.249 Z-1.9519
G1 X-32.0 Y-15.2495 Z-1.952
G1 X-32.0154 Y-15.249 Z-1.9521
G1 X-32.0317 Y-15.2475
G1 X-32.0468 Y-15.2451 Z-1.9522
G1 X-32.0618 Y-15.2417 Z-1.9523
G1 X-32.0772 Y-15.2373 Z-1.9524
G1 X-32.0917 Y-15.232
G1 X-32.1063 Y-15.2257 Z-1.9525
G1 X-32.1204 Y-15.2185 Z-1.9526
G1 X-32.1336 Y-15.2107 Z-1.9527
G1 X-32.1465 Y-15.2019
G1 X-32.1591 Y-15.1922 Z-1.9528
G1 X-32.1709 Y-15.1818 Z-1.9529
G1 X-32.1818 Y-15.1709 Z-1.953
G1 X-32.1922 Y-15.1591 Z-1.9531
G1 X-32.2019 Y-15.1465
G1 X-32.2107 Y-15.1336 Z-1.9532
G1 X-32.2185 Y-15.1204 Z-1.9533
G1 X-32.2257 Y-15.1063 Z-1.9534
G1 X-32.232 Y-15.0917
G1 X-32.2373 Y-15.0772 Z-1.9535
G1 X-32.2417 Y-15.0618 Z-1.9536
G1 X-32.2451 Y-15.0468 Z-1.9537
G1 X-32.2475 Y-15.0317
G1 X-32.249 Y-15.0154 Z-1.9538
G1 X-32.25 Y-14.9841 Z-1.954
G1 Y14.9841 Z-2.1
G1 X-32.249 Y15.0154 Z-2.1002
G1 X-32.2475 Y15.0317
G1 X-32.2451 Y15.0468 Z-2.1003
G1 X-32.2417 Y15.0618 Z-2.1004
G1 X-32.2373 Y15.0772 Z-2.1005
G1 X-32.232 Y15.0917
G1 X-32.2257 Y15.1063 Z-2.1006
G1 X-32.2185 Y15.1204 Z-2.1007
G1 X-32.2107 Y15.1336 Z-2.1008
G1 X-32.2019 Y15.1465
G1 X-32.1922 Y15.1591 Z-2.1009
G1 X-32.1818 Y15.1709 Z-2.101
G1 X-32.1709 Y15.1818 Z-2.1011
G1 X-32.1591 Y15.1922
G1 X-32.1465 Y15.2019 Z-2.1012
G1 X-32.1336 Y15.2107 Z-2.1013
G1 X-32.1204 Y15.2185 Z-2.1014
G1 X-32.1063 Y15.2257 Z-2.1015
G1 X-32.0917 Y15.232
G1 X-32.0772 Y15.2373 Z-2.1016
G1 X-32.0618 Y15.2417 Z-2.1017
G1 X-32.0468 Y15.2451 Z-2.1018
G1 X-32.0317 Y15.2475
G1 X-32.0154 Y15.249 Z-2.1019
G1 X-32.0 Y15.2495 Z-2.102
G1 X-31.9846 Y15.249 Z-2.1021
G1 X-31.9683 Y15.2475
G1 X-31.9532 Y15.2451 Z-2.1022
G1 X-31.9382 Y15.2417 Z-2.1023
G1 X-31.9228 Y15.2373 Z-2.1024
G1 X-31.9083 Y15.232
G1 X-31.8937 Y15.2257 Z-2.1025
G1 X-31.8796 Y15.2185 Z-2.1026
G1 X-31.8664 Y15.2107 Z-2.1027
G1 X-31.8535 Y15.2019
G1 X-31.8409 Y15.1922 Z-2.1028
G1 X-31.8291 Y15.1818 Z-2.1029
G1 X-31.8182 Y15.1709 Z-2.103
G1 X-31.8078 Y15.1591 Z-2.1031
G1 X-31.7981 Y15.1465
G1 X-31.7893 Y15.1336 Z-2.1032
G1 X-31.7815 Y15.1204 Z-2.1033
G1 X-31.7743 Y15.1063 Z-2.1034
G1 X-31.768 Y15.0917
G1 X-31.7627 Y15.0772 Z-2.1035
G1 X-31.7583 Y15.0618 Z-2.1036
G1 X-31.7549 Y15.0468 Z-2.1037
G1 X-31.7525 Y15.0317
G1 X-31.751 Y15.0154 Z-2.1038
G1 X-31.75 Y14.9841 Z-2.104
G1 Y-14.9841 Z-2.25
G1 X-31.751 Y-15.0154 Z-2.2502
G1 X-31.7525 Y-15.0317
G1 X-31.7549 Y-15.0468 Z-2.2503
G1 X-31.7583 Y-15.0618 Z-2.2504
G1 X-31.7627 Y-15.0772 Z-2.2505
G1 X-31.768 Y-15.0917
G1 X-31.7743 Y-15.1063 Z-2.2506
G1 X-31.7815 Y-15.1204 Z-2.2507
G1 X-31.7893 Y-15.1336 Z-2.2508
G1 X-31.7981 Y-15.1465
G1 X-31.8078 Y-15.1591 Z-2.2509
G1 X-31.8182 Y-15.1709 Z-2.251
G1 X-31.8291 Y-15.1818 Z-2.2511
G1 X-31.8409 Y-15.1922
G1 X-31.8535 Y-15.2019 Z-2.2512
G1 X-31.8664 Y-15.2107 Z-2.2513
G1 X-31.8796 Y-15.2185 Z-2.2514
G1 X-31.8937 Y-15.2257 Z-2.2515
G1 X-31.9083 Y-15.232
G1 X-31.9228 Y-15.2373 Z-2.2516
G1 X-31.9382 Y-15.2417 Z-2.2517
G1 X-31.9532 Y-15.2451 Z-2.2518
G1 X-31.9683 Y-15.2475
G1 X-31.9846 Y-15.249 Z-2.2519
G1 X-32.0 Y-15.2495 Z-2.252
G1 X-32.0154 Y-15.249 Z-2.2521
G1 X-32.0317 Y-15.2475
G1 X-32.0468 Y-15.2451 Z-2.2522
G1 X-32.0618 Y-15.2417 Z-2.2523
G1 X-32.0772 Y-15.2373 Z-2.2524
G1 X-32.0917 Y-15.232
G1 X-32.1063 Y-15.2257 Z-2.2525
G1 X-32.1204 Y-15.2185 Z-2.2526
G1 X-32.1336 Y-15.2107 Z-2.2527
G1 X-32.1465 Y-15.2019
G1 X-32.1591 Y-15.1922 Z-2.2528
G1 X-32.1709 Y-15.1818 Z-2.2529
G1 X-32.1818 Y-15.1709 Z-2.253
G1 X-32.1922 Y-15.1591 Z-2.2531
G1 X-32.2019 Y-15.1465
G1 X-32.2107 Y-15.1336 Z-2.2532
G1 X-32.2185 Y-15.1204 Z-2.2533
G1 X-32.2257 Y-15.1063 Z-2.2534
G1 X-32.232 Y-15.0917
G1 X-32.2373 Y-15.0772 Z-2.2535
G1 X-32.2417 Y-15.0618 Z-2.2536
G1 X-32.2451 Y-15.0468 Z-2.2537
G1 X-32.2475 Y-15.0317
G1 X-32.249 Y-15.0154 Z-2.2538
G1 X-32.25 Y-14.9841 Z-2.254
G1 Y14.9841 Z-2.4
G1 X-32.249 Y15.0154 Z-2.4002
G1 X-32.2475 Y15.0317
G1 X-32.2451 Y15.0468 Z-2.4003
G1 X-32.2417 Y15.0618 Z-2.4004
G1 X-32.2373 Y15.0772 Z-2.4005
G1 X-32.232 Y15.0917
G1 X-32.2257 Y15.1063 Z-2.4006
G1 X-32.2185 Y15.1204 Z-2.4007
G1 X-32.2107 Y15.1336 Z-2.4008
G1 X-32.2019 Y15.1465
G1 X-32.1922 Y15.1591 Z-2.4009
G1 X-32.1818 Y15.1709 Z-2.401
G1 X-32.1709 Y15.1818 Z-2.4011
G1 X-32.1591 Y15.1922
G1 X-32.1465 Y15.2019 Z-2.4012
G1 X-32.1336 Y15.2107 Z-2.4013
G1 X-32.1204 Y15.2185 Z-2.4014
G1 X-32.1063 Y15.2257 Z-2.4015
G1 X-32.0917 Y15.232
G1 X-32.0772 Y15.2373 Z-2.4016
G1 X-32.0618 Y15.2417 Z-2.4017
G1 X-32.0468 Y15.2451 Z-2.4018
G1 X-32.0317 Y15.2475
G1 X-32.0154 Y15.249 Z-2.4019
G1 X-32.0 Y15.2495 Z-2.402
G1 X-31.9846 Y15.249 Z-2.4021
G1 X-31.9683 Y15.2475
G1 X-31.9532 Y15.2451 Z-2.4022
G1 X-31.9382 Y15.2417 Z-2.4023
G1 X-31.9228 Y15.2373 Z-2.4024
G1 X-31.9083 Y15.232
G1 X-31.8937 Y15.2257 Z-2.4025
G1 X-31.8796 Y15.2185 Z-2.4026
G1 X-31.8664 Y15.2107 Z-2.4027
G1 X-31.8535 Y15.2019
G1 X-31.8409 Y15.1922 Z-2.4028
G1 X-31.8291 Y15.1818 Z-2.4029
G1 X-31.8182 Y15.1709 Z-2.403
G1 X-31.8078 Y15.1591 Z-2.4031
G1 X-31.7981 Y15.1465
G1 X-31.7893 Y15.1336 Z-2.4032
G1 X-31.7815 Y15.1204 Z-2.4033
G1 X-31.7743 Y15.1063 Z-2.4034
G1 X-31.768 Y15.0917
G1 X-31.7627 Y15.0772 Z-2.4035
G1 X-31.7583 Y15.0618 Z-2.4036
G1 X-31.7549 Y15.0468 Z-2.4037
G1 X-31.7525 Y15.0317
G1 X-31.751 Y15.0154 Z-2.4038
G1 X-31.75 Y14.9841 Z-2.404
G1 Y-14.9841 Z-2.55
G1 X-31.751 Y-15.0154 Z-2.5502
G1 X-31.7525 Y-15.0317
G1 X-31.7549 Y-15.0468 Z-2.5503
G1 X-31.7583 Y-15.0618 Z-2.5504
G1 X-31.7627 Y-15.0772 Z-2.5505
G1 X-31.768 Y-15.0917
G1 X-31.7743 Y-15.1063 Z-2.5506
G1 X-31.7815 Y-15.1204 Z-2.5507
G1 X-31.7893 Y-15.1336 Z-2.5508
G1 X-31.7981 Y-15.1465
G1 X-31.8078 Y-15.1591 Z-2.5509
G1 X-31.8182 Y-15.1709 Z-2.551
G1 X-31.8291 Y-15.1818 Z-2.5511
G1 X-31.8409 Y-15.1922
G1 X-31.8535 Y-15.2019 Z-2.5512
G1 X-31.8664 Y-15.2107 Z-2.5513
G1 X-31.8796 Y-15.2185 Z-2.5514
G1 X-31.8937 Y-15.2257 Z-2.5515
G1 X-31.9083 Y-15.232
G1 X-31.9228 Y-15.2373 Z-2.5516
G1 X-31.9382 Y-15.2417 Z-2.5517
G1 X-31.9532 Y-15.2451 Z-2.5518
G1 X-31.9683 Y-15.2475
G1 X-31.9846 Y-15.249 Z-2.5519
G1 X-32.0 Y-15.2495 Z-2.552
G1 X-32.0154 Y-15.249 Z-2.5521
G1 X-32.0317 Y-15.2475
G1 X-32.0468 Y-15.2451 Z-2.5522
G1 X-32.0618 Y-15.2417 Z-2.5523
G1 X-32.0772 Y-15.2373 Z-2.5524
G1 X-32.0917 Y-15.232
G1 X-32.1063 Y-15.2257 Z-2.5525
G1 X-32.1204 Y-15.2185 Z-2.5526
G1 X-32.1336 Y-15.2107 Z-2.5527
G1 X-32.1465 Y-15.2019
G1 X-32.1591 Y-15.1922 Z-2.5528
G1 X-32.1709 Y-15.1818 Z-2.5529
G1 X-32.1818 Y-15.1709 Z-2.553
G1 X-32.1922 Y-15.1591 Z-2.5531
G1 X-32.2019 Y-15.1465
G1 X-32.2107 Y-15.1336 Z-2.5532
G1 X-32.2185 Y-15.1204 Z-2.5533
G1 X-32.2257 Y-15.1063 Z-2.5534
G1 X-32.232 Y-15.0917
G1 X-32.2373 Y-15.0772 Z-2.5535
G1 X-32.2417 Y-15.0618 Z-2.5536
G1 X-32.2451 Y-15.0468 Z-2.5537
G1 X-32.2475 Y-15.0317
G1 X-32.249 Y-15.0154 Z-2.5538
G1 X-32.25 Y-14.9841 Z-2.554
G1 Y14.9841 Z-2.7
G1 X-32.249 Y15.0154 Z-2.7002
G1 X-32.2475 Y15.0317
G1 X-32.2451 Y15.0468 Z-2.7003
G1 X-32.2417 Y15.0618 Z-2.7004
G1 X-32.2373 Y15.0772 Z-2.7005
G1 X-32.232 Y15.0917
G1 X-32.2257 Y15.1063 Z-2.7006
G1 X-32.2185 Y15.1204 Z-2.7007
G1 X-32.2107 Y15.1336 Z-2.7008
G1 X-32.2019 Y15.1465
G1 X-32.1922 Y15.1591 Z-2.7009
G1 X-32.1818 Y15.1709 Z-2.701
G1 X-32.1709 Y15.1818 Z-2.7011
G1 X-32.1591 Y15.1922
G1 X-32.1465 Y15.2019 Z-2.7012
G1 X-32.1336 Y15.2107 Z-2.7013
G1 X-32.1204 Y15.2185 Z-2.7014
G1 X-32.1063 Y15.2257 Z-2.7015
G1 X-32.0917 Y15.232
G1 X-32.0772 Y15.2373 Z-2.7016
G1 X-32.0618 Y15.2417 Z-2.7017
G1 X-32.0468 Y15.2451 Z-2.7018
G1 X-32.0317 Y15.2475
G1 X-32.0154 Y15.249 Z-2.7019
G1 X-32.0 Y15.2495 Z-2.702
G1 X-31.9846 Y15.249 Z-2.7021
G1 X-31.9683 Y15.2475
G1 X-31.9532 Y15.2451 Z-2.7022
G1 X-31.9382 Y15.2417 Z-2.7023
G1 X-31.9228 Y15.2373 Z-2.7024
G1 X-31.9083 Y15.232
G1 X-31.8937 Y15.2257 Z-2.7025
G1 X-31.8796 Y15.2185 Z-2.7026
G1 X-31.8664 Y15.2107 Z-2.7027
G1 X-31.8535 Y15.2019
G1 X-31.8409 Y15.1922 Z-2.7028
G1 X-31.8291 Y15.1818 Z-2.7029
G1 X-31.8182 Y15.1709 Z-2.703
G1 X-31.8078 Y15.1591 Z-2.7031
G1 X-31.7981 Y15.1465
G1 X-31.7893 Y15.1336 Z-2.7032
G1 X-31.7815 Y15.1204 Z-2.7033
G1 X-31.7743 Y15.1063 Z-2.7034
G1 X-31.768 Y15.0917
G1 X-31.7627 Y15.0772 Z-2.7035
G1 X-31.7583 Y15.0618 Z-2.7036
G1 X-31.7549 Y15.0468 Z-2.7037
G1 X-31.7525 Y15.0317
G1 X-31.751 Y15.0154 Z-2.7038
G1 X-31.75 Y14.9841 Z-2.704
G1 Y-14.9841 Z-2.85
G1 X-31.751 Y-15.0154 Z-2.8502
G1 X-31.7525 Y-15.0317
G1 X-31.7549 Y-15.0468 Z-2.8503
G1 X-31.7583 Y-15.0618 Z-2.8504
G1 X-31.7627 Y-15.0772 Z-2.8505
G1 X-31.768 Y-15.0917
G1 X-31.7743 Y-15.1063 Z-2.8506
G1 X-31.7815 Y-15.1204 Z-2.8507
G1 X-31.7893 Y-15.1336 Z-2.8508
G1 X-31.7981 Y-15.1465
G1 X-31.8078 Y-15.1591 Z-2.8509
G1 X-31.8182 Y-15.1709 Z-2.851
G1 X-31.8291 Y-15.1818 Z-2.8511
G1 X-31.8409 Y-15.1922
G1 X-31.8535 Y-15.2019 Z-2.8512
G1 X-31.8664 Y-15.2107 Z-2.8513
G1 X-31.8796 Y-15.2185 Z-2.8514
G1 X-31.8937 Y-15.2257 Z-2.8515
G1 X-31.9083 Y-15.232
G1 X-31.9228 Y-15.2373 Z-2.8516
G1 X-31.9382 Y-15.2417 Z-2.8517
G1 X-31.9532 Y-15.2451 Z-2.8518
G1 X-31.9683 Y-15.2475
G1 X-31.9846 Y-15.249 Z-2.8519
G1 X-32.0 Y-15.2495 Z-2.852
G1 X-32.0154 Y-15.249 Z-2.8521
G1 X-32.0317 Y-15.2475
G1 X-32.0468 Y-15.2451 Z-2.8522
G1 X-32.0618 Y-15.2417 Z-2.8523
G1 X-32.0772 Y-15.2373 Z-2.8524
G1 X-32.0917 Y-15.232
G1 X-32.1063 Y-15.2257 Z-2.8525
G1 X-32.1204 Y-15.2185 Z-2.8526
G1 X-32.1336 Y-15.2107 Z-2.8527
G1 X-32.1465 Y-15.2019
G1 X-32.1591 Y-15.1922 Z-2.8528
G1 X-32.1709 Y-15.1818 Z-2.8529
G1 X-32.1818 Y-15.1709 Z-2.853
G1 X-32.1922 Y-15.1591 Z-2.8531
G1 X-32.2019 Y-15.1465
G1 X-32.2107 Y-15.1336 Z-2.8532
G1 X-32.2185 Y-15.1204 Z-2.8533
G1 X-32.2257 Y-15.1063 Z-2.8534
G1 X-32.232 Y-15.0917
G1 X-32.2373 Y-15.0772 Z-2.8535
G1 X-32.2417 Y-15.0618 Z-2.8536
G1 X-32.2451 Y-15.0468 Z-2.8537
G1 X-32.2475 Y-15.0317
G1 X-32.249 Y-15.0154 Z-2.8538
G1 X-32.25 Y-14.9841 Z-2.854
G1 Y14.9841 Z-3.0
G1 X-32.249 Y15.0154 Z-3.0002
G1 X-32.2475 Y15.0317
G1 X-32.2451 Y15.0468 Z-3.0003
G1 X-32.2417 Y15.0618 Z-3.0004
G1 X-32.2373 Y15.0772 Z-3.0005
G1 X-32.232 Y15.0917
G1 X-32.2257 Y15.1063 Z-3.0006
G1 X-32.2185 Y15.1204 Z-3.0007
G1 X-32.2107 Y15.1336 Z-3.0008
G1 X-32.2019 Y15.1465
G1 X-32.1922 Y15.1591 Z-3.0009
G1 X-32.1818 Y15.1709 Z-3.001
G1 X-32.1709 Y15.1818 Z-3.0011
G1 X-32.1591 Y15.1922
G1 X-32.1465 Y15.2019 Z-3.0012
G1 X-32.1336 Y15.2107 Z-3.0013
G1 X-32.1204 Y15.2185 Z-3.0014
G1 X-32.1063 Y15.2257 Z-3.0015
G1 X-32.0917 Y15.232
G1 X-32.0772 Y15.2373 Z-3.0016
G1 X-32.0618 Y15.2417 Z-3.0017
G1 X-32.0468 Y15.2451 Z-3.0018
G1 X-32.0317 Y15.2475
G1 X-32.0154 Y15.249 Z-3.0019
G1 X-32.0 Y15.2495 Z-3.002
G1 X-31.9846 Y15.249 Z-3.0021
G1 X-31.9683 Y15.2475
G1 X-31.9532 Y15.2451 Z-3.0022
G1 X-31.9382 Y15.2417 Z-3.0023
G1 X-31.9228 Y15.2373 Z-3.0024
G1 X-31.9083 Y15.232
G1 X-31.8937 Y15.2257 Z-3.0025
G1 X-31.8796 Y15.2185 Z-3.0026
G1 X-31.8664 Y15.2107 Z-3.0027
G1 X-31.8535 Y15.2019
G1 X-31.8409 Y15.1922 Z-3.0028
G1 X-31.8291 Y15.1818 Z-3.0029
G1 X-31.8182 Y15.1709 Z-3.003
G1 X-31.8078 Y15.1591 Z-3.0031
G1 X-31.7981 Y15.1465
G1 X-31.7893 Y15.1336 Z-3.0032
G1 X-31.7815 Y15.1204 Z-3.0033
G1 X-31.7743 Y15.1063 Z-3.0034
G1 X-31.768 Y15.0917
G1 X-31.7627 Y15.0772 Z-3.0035
G1 X-31.7583 Y15.0618 Z-3.0036
G1 X-31.7549 Y15.0468 Z-3.0037
G1 X-31.7525 Y15.0317
G1 X-31.751 Y15.0154 Z-3.0038
G1 X-31.75 Y14.9841 Z-3.004
G1 Y-14.9841 Z-3.15
G1 X-31.751 Y-15.0154 Z-3.1502
G1 X-31.7525 Y-15.0317
G1 X-31.7549 Y-15.0468 Z-3.1503
G1 X-31.7583 Y-15.0618 Z-3.1504
G1 X-31.7627 Y-15.0772 Z-3.1505
G1 X-31.768 Y-15.0917
G1 X-31.7743 Y-15.1063 Z-3.1506
G1 X-31.7815 Y-15.1204 Z-3.1507
G1 X-31.7893 Y-15.1336 Z-3.1508
G1 X-31.7981 Y-15.1465
G1 X-31.8078 Y-15.1591 Z-3.1509
G1 X-31.8182 Y-15.1709 Z-3.151
G1 X-31.8291 Y-15.1818 Z-3.1511
G1 X-31.8409 Y-15.1922
G1 X-31.8535 Y-15.2019 Z-3.1512
G1 X-31.8664 Y-15.2107 Z-3.1513
G1 X-31.8796 Y-15.2185 Z-3.1514
G1 X-31.8937 Y-15.2257 Z-3.1515
G1 X-31.9083 Y-15.232
G1 X-31.9228 Y-15.2373 Z-3.1516
G1 X-31.9382 Y-15.2417 Z-3.1517
G1 X-31.9532 Y-15.2451 Z-3.1518
G1 X-31.9683 Y-15.2475
G1 X-31.9846 Y-15.249 Z-3.1519
G1 X-32.0 Y-15.2495 Z-3.152
G1 X-32.0154 Y-15.249 Z-3.1521
G1 X-32.0317 Y-15.2475
G1 X-32.0468 Y-15.2451 Z-3.1522
G1 X-32.0618 Y-15.2417 Z-3.1523
G1 X-32.0772 Y-15.2373 Z-3.1524
G1 X-32.0917 Y-15.232
G1 X-32.1063 Y-15.2257 Z-3.1525
G1 X-32.1204 Y-15.2185 Z-3.1526
G1 X-32.1336 Y-15.2107 Z-3.1527
G1 X-32.1465 Y-15.2019
G1 X-32.1591 Y-15.1922 Z-3.1528
G1 X-32.1709 Y-15.1818 Z-3.1529
G1 X-32.1818 Y-15.1709 Z-3.153
G1 X-32.1922 Y-15.1591 Z-3.1531
G1 X-32.2019 Y-15.1465
G1 X-32.2107 Y-15.1336 Z-3.1532
G1 X-32.2185 Y-15.1204 Z-3.1533
G1 X-32.2257 Y-15.1063 Z-3.1534
G1 X-32.232 Y-15.0917
G1 X-32.2373 Y-15.0772 Z-3.1535
G1 X-32.2417 Y-15.0618 Z-3.1536
G1 X-32.2451 Y-15.0468 Z-3.1537
G1 X-32.2475 Y-15.0317
G1 X-32.249 Y-15.0154 Z-3.1538
G1 X-32.25 Y-14.9841 Z-3.154
G1 Y14.9841 Z-3.3
G1 X-32.249 Y15.0154 Z-3.3002
G1 X-32.2475 Y15.0317
G1 X-32.2451 Y15.0468 Z-3.3003
G1 X-32.2417 Y15.0618 Z-3.3004
G1 X-32.2373 Y15.0772 Z-3.3005
G1 X-32.232 Y15.0917
G1 X-32.2257 Y15.1063 Z-3.3006
G1 X-32.2185 Y15.1204 Z-3.3007
G1 X-32.2107 Y15.1336 Z-3.3008
G1 X-32.2019 Y15.1465
G1 X-32.1922 Y15.1591 Z-3.3009
G1 X-32.1818 Y15.1709 Z-3.301
G1 X-32.1709 Y15.1818 Z-3.3011
G1 X-32.1591 Y15.1922
G1 X-32.1465 Y15.2019 Z-3.3012
G1 X-32.1336 Y15.2107 Z-3.3013
G1 X-32.1204 Y15.2185 Z-3.3014
G1 X-32.1063 Y15.2257 Z-3.3015
G1 X-32.0917 Y15.232
G1 X-32.0772 Y15.2373 Z-3.3016
G1 X-32.0618 Y15.2417 Z-3.3017
G1 X-32.0468 Y15.2451 Z-3.3018
G1 X-32.0317 Y15.2475
G1 X-32.0154 Y15.249 Z-3.3019
G1 X-32.0 Y15.2495 Z-3.302
G1 X-31.9846 Y15.249 Z-3.3021
G1 X-31.9683 Y15.2475
G1 X-31.9532 Y15.2451 Z-3.3022
G1 X-31.9382 Y15.2417 Z-3.3023
G1 X-31.9228 Y15.2373 Z-3.3024
G1 X-31.9083 Y15.232
G1 X-31.8937 Y15.2257 Z-3.3025
G1 X-31.8796 Y15.2185 Z-3.3026
G1 X-31.8664 Y15.2107 Z-3.3027
G1 X-31.8535 Y15.2019
G1 X-31.8409 Y15.1922 Z-3.3028
G1 X-31.8291 Y15.1818 Z-3.3029
G1 X-31.8182 Y15.1709 Z-3.303
G1 X-31.8078 Y15.1591 Z-3.3031
G1 X-31.7981 Y15.1465
G1 X-31.7893 Y15.1336 Z-3.3032
G1 X-31.7815 Y15.1204 Z-3.3033
G1 X-31.7743 Y15.1063 Z-3.3034
G1 X-31.768 Y15.0917
G1 X-31.7627 Y15.0772 Z-3.3035
G1 X-31.7583 Y15.0618 Z-3.3036
G1 X-31.7549 Y15.0468 Z-3.3037
G1 X-31.7525 Y15.0317
G1 X-31.751 Y15.0154 Z-3.3038
G1 X-31.75 Y14.9841 Z-3.304
G1 Y-14.9841 Z-3.45
G1 X-31.751 Y-15.0154 Z-3.4502
G1 X-31.7525 Y-15.0317
G1 X-31.7549 Y-15.0468 Z-3.4503
G1 X-31.7583 Y-15.0618 Z-3.4504
G1 X-31.7627 Y-15.0772 Z-3.4505
G1 X-31.768 Y-15.0917
G1 X-31.7743 Y-15.1063 Z-3.4506
G1 X-31.7815 Y-15.1204 Z-3.4507
G1 X-31.7893 Y-15.1336 Z-3.4508
G1 X-31.7981 Y-15.1465
G1 X-31.8078 Y-15.1591 Z-3.4509
G1 X-31.8182 Y-15.1709 Z-3.451
G1 X-31.8291 Y-15.1818 Z-3.4511
G1 X-31.8409 Y-15.1922
G1 X-31.8535 Y-15.2019 Z-3.4512
G1 X-31.8664 Y-15.2107 Z-3.4513
G1 X-31.8796 Y-15.2185 Z-3.4514
G1 X-31.8937 Y-15.2257 Z-3.4515
G1 X-31.9083 Y-15.232
G1 X-31.9228 Y-15.2373 Z-3.4516
G1 X-31.9382 Y-15.2417 Z-3.4517
G1 X-31.9532 Y-15.2451 Z-3.4518
G1 X-31.9683 Y-15.2475
G1 X-31.9846 Y-15.249 Z-3.4519
G1 X-32.0 Y-15.2495 Z-3.452
G1 X-32.0154 Y-15.249 Z-3.4521
G1 X-32.0317 Y-15.2475
G1 X-32.0468 Y-15.2451 Z-3.4522
G1 X-32.0618 Y-15.2417 Z-3.4523
G1 X-32.0772 Y-15.2373 Z-3.4524
G1 X-32.0917 Y-15.232
G1 X-32.1063 Y-15.2257 Z-3.4525
G1 X-32.1204 Y-15.2185 Z-3.4526
G1 X-32.1336 Y-15.2107 Z-3.4527
G1 X-32.1465 Y-15.2019
G1 X-32.1591 Y-15.1922 Z-3.4528
G1 X-32.1709 Y-15.1818 Z-3.4529
G1 X-32.1818 Y-15.1709 Z-3.453
G1 X-32.1922 Y-15.1591 Z-3.4531
G1 X-32.2019 Y-15.1465
G1 X-32.2107 Y-15.1336 Z-3.4532
G1 X-32.2185 Y-15.1204 Z-3.4533
G1 X-32.2257 Y-15.1063 Z-3.4534
G1 X-32.232 Y-15.0917
G1 X-32.2373 Y-15.0772 Z-3.4535
G1 X-32.2417 Y-15.0618 Z-3.4536
G1 X-32.2451 Y-15.0468 Z-3.4537
G1 X-32.2475 Y-15.0317
G1 X-32.249 Y-15.0154 Z-3.4538
G1 X-32.25 Y-14.9841 Z-3.454
G1 Y14.9841 Z-3.6
G1 X-32.249 Y15.0154 Z-3.6002
G1 X-32.2475 Y15.0317
G1 X-32.2451 Y15.0468 Z-3.6003
G1 X-32.2417 Y15.0618 Z-3.6004
G1 X-32.2373 Y15.0772 Z-3.6005
G1 X-32.232 Y15.0917
G1 X-32.2257 Y15.1063 Z-3.6006
G1 X-32.2185 Y15.1204 Z-3.6007
G1 X-32.2107 Y15.1336 Z-3.6008
G1 X-32.2019 Y15.1465
G1 X-32.1922 Y15.1591 Z-3.6009
G1 X-32.1818 Y15.1709 Z-3.601
G1 X-32.1709 Y15.1818 Z-3.6011
G1 X-32.1591 Y15.1922
G1 X-32.1465 Y15.2019 Z-3.6012
G1 X-32.1336 Y15.2107 Z-3.6013
G1 X-32.1204 Y15.2185 Z-3.6014
G1 X-32.1063 Y15.2257 Z-3.6015
G1 X-32.0917 Y15.232
G1 X-32.0772 Y15.2373 Z-3.6016
G1 X-32.0618 Y15.2417 Z-3.6017
G1 X-32.0468 Y15.2451 Z-3.6018
G1 X-32.0317 Y15.2475
G1 X-32.0154 Y15.249 Z-3.6019
G1 X-32.0 Y15.2495 Z-3.602
G1 X-31.9846 Y15.249 Z-3.6021
G1 X-31.9683 Y15.2475
G1 X-31.9532 Y15.2451 Z-3.6022
G1 X-31.9382 Y15.2417 Z-3.6023
G1 X-31.9228 Y15.2373 Z-3.6024
G1 X-31.9083 Y15.232
G1 X-31.8937 Y15.2257 Z-3.6025
G1 X-31.8796 Y15.2185 Z-3.6026
G1 X-31.8664 Y15.2107 Z-3.6027
G1 X-31.8535 Y15.2019
G1 X-31.8409 Y15.1922 Z-3.6028
G1 X-31.8291 Y15.1818 Z-3.6029
G1 X-31.8182 Y15.1709 Z-3.603
G1 X-31.8078 Y15.1591 Z-3.6031
G1 X-31.7981 Y15.1465
G1 X-31.7893 Y15.1336 Z-3.6032
G1 X-31.7815 Y15.1204 Z-3.6033
G1 X-31.7743 Y15.1063 Z-3.6034
G1 X-31.768 Y15.0917
G1 X-31.7627 Y15.0772 Z-3.6035
G1 X-31.7583 Y15.0618 Z-3.6036
G1 X-31.7549 Y15.0468 Z-3.6037
G1 X-31.7525 Y15.0317
G1 X-31.751 Y15.0154 Z-3.6038
G1 X-31.75 Y14.9841 Z-3.604
G1 Y-14.9841 Z-3.75
G1 X-31.751 Y-15.0154 Z-3.7502
G1 X-31.7525 Y-15.0317
G1 X-31.7549 Y-15.0468 Z-3.7503
G1 X-31.7583 Y-15.0618 Z-3.7504
G1 X-31.7627 Y-15.0772 Z-3.7505
G1 X-31.768 Y-15.0917
G1 X-31.7743 Y-15.1063 Z-3.7506
G1 X-31.7815 Y-15.1204 Z-3.7507
G1 X-31.7893 Y-15.1336 Z-3.7508
G1 X-31.7981 Y-15.1465
G1 X-31.8078 Y-15.1591 Z-3.7509
G1 X-31.8182 Y-15.1709 Z-3.751
G1 X-31.8291 Y-15.1818 Z-3.7511
G1 X-31.8409 Y-15.1922
G1 X-31.8535 Y-15.2019 Z-3.7512
G1 X-31.8664 Y-15.2107 Z-3.7513
G1 X-31.8796 Y-15.2185 Z-3.7514
G1 X-31.8937 Y-15.2257 Z-3.7515
G1 X-31.9083 Y-15.232
G1 X-31.9228 Y-15.2373 Z-3.7516
G1 X-31.9382 Y-15.2417 Z-3.7517
G1 X-31.9532 Y-15.2451 Z-3.7518
G1 X-31.9683 Y-15.2475
G1 X-31.9846 Y-15.249 Z-3.7519
G1 X-32.0 Y-15.2495 Z-3.752
G1 X-32.0154 Y-15.249 Z-3.7521
G1 X-32.0317 Y-15.2475
G1 X-32.0468 Y-15.2451 Z-3.7522
G1 X-32.0618 Y-15.2417 Z-3.7523
G1 X-32.0772 Y-15.2373 Z-3.7524
G1 X-32.0917 Y-15.232
G1 X-32.1063 Y-15.2257 Z-3.7525
G1 X-32.1204 Y-15.2185 Z-3.7526
G1 X-32.1336 Y-15.2107 Z-3.7527
G1 X-32.1465 Y-15.2019
G1 X-32.1591 Y-15.1922 Z-3.7528
G1 X-32.1709 Y-15.1818 Z-3.7529
G1 X-32.1818 Y-15.1709 Z-3.753
G1 X-32.1922 Y-15.1591 Z-3.7531
G1 X-32.2019 Y-15.1465
G1 X-32.2107 Y-15.1336 Z-3.7532
G1 X-32.2185 Y-15.1204 Z-3.7533
G1 X-32.2257 Y-15.1063 Z-3.7534
G1 X-32.232 Y-15.0917
G1 X-32.2373 Y-15.0772 Z-3.7535
G1 X-32.2417 Y-15.0618 Z-3.7536
G1 X-32.2451 Y-15.0468 Z-3.7537
G1 X-32.2475 Y-15.0317
G1 X-32.249 Y-15.0154 Z-3.7538
G1 X-32.25 Y-14.9841 Z-3.754
G1 Y14.9841 Z-3.9
G1 X-32.249 Y15.0154 Z-3.9002
G1 X-32.2475 Y15.0317
G1 X-32.2451 Y15.0468 Z-3.9003
G1 X-32.2417 Y15.0618 Z-3.9004
G1 X-32.2373 Y15.0772 Z-3.9005
G1 X-32.232 Y15.0917
G1 X-32.2257 Y15.1063 Z-3.9006
G1 X-32.2185 Y15.1204 Z-3.9007
G1 X-32.2107 Y15.1336 Z-3.9008
G1 X-32.2019 Y15.1465
G1 X-32.1922 Y15.1591 Z-3.9009
G1 X-32.1818 Y15.1709 Z-3.901
G1 X-32.1709 Y15.1818 Z-3.9011
G1 X-32.1591 Y15.1922
G1 X-32.1465 Y15.2019 Z-3.9012
G1 X-32.1336 Y15.2107 Z-3.9013
G1 X-32.1204 Y15.2185 Z-3.9014
G1 X-32.1063 Y15.2257 Z-3.9015
G1 X-32.0917 Y15.232
G1 X-32.0772 Y15.2373 Z-3.9016
G1 X-32.0618 Y15.2417 Z-3.9017
G1 X-32.0468 Y15.2451 Z-3.9018
G1 X-32.0317 Y15.2475
G1 X-32.0154 Y15.249 Z-3.9019
G1 X-32.0 Y15.2495 Z-3.902
G1 X-31.9846 Y15.249 Z-3.9021
G1 X-31.9683 Y15.2475
G1 X-31.9532 Y15.2451 Z-3.9022
G1 X-31.9382 Y15.2417 Z-3.9023
G1 X-31.9228 Y15.2373 Z-3.9024
G1 X-31.9083 Y15.232
G1 X-31.8937 Y15.2257 Z-3.9025
G1 X-31.8796 Y15.2185 Z-3.9026
G1 X-31.8664 Y15.2107 Z-3.9027
G1 X-31.8535 Y15.2019
G1 X-31.8409 Y15.1922 Z-3.9028
G1 X-31.8291 Y15.1818 Z-3.9029
G1 X-31.8182 Y15.1709 Z-3.903
G1 X-31.8078 Y15.1591 Z-3.9031
G1 X-31.7981 Y15.1465
G1 X-31.7893 Y15.1336 Z-3.9032
G1 X-31.7815 Y15.1204 Z-3.9033
G1 X-31.7743 Y15.1063 Z-3.9034
G1 X-31.768 Y15.0917
G1 X-31.7627 Y15.0772 Z-3.9035
G1 X-31.7583 Y15.0618 Z-3.9036
G1 X-31.7549 Y15.0468 Z-3.9037
G1 X-31.7525 Y15.0317
G1 X-31.751 Y15.0154 Z-3.9038
G1 X-31.75 Y14.9841 Z-3.904
G1 Y-14.9841 Z-4.05
G1 X-31.751 Y-15.0154 Z-4.0502
G1 X-31.7525 Y-15.0317
G1 X-31.7549 Y-15.0468 Z-4.0503
G1 X-31.7583 Y-15.0618 Z-4.0504
G1 X-31.7627 Y-15.0772 Z-4.0505
G1 X-31.768 Y-15.0917
G1 X-31.7743 Y-15.1063 Z-4.0506
G1 X-31.7815 Y-15.1204 Z-4.0507
G1 X-31.7893 Y-15.1336 Z-4.0508
G1 X-31.7981 Y-15.1465
G1 X-31.8078 Y-15.1591 Z-4.0509
G1 X-31.8182 Y-15.1709 Z-4.051
G1 X-31.8291 Y-15.1818 Z-4.0511
G1 X-31.8409 Y-15.1922
G1 X-31.8535 Y-15.2019 Z-4.0512
G1 X-31.8664 Y-15.2107 Z-4.0513
G1 X-31.8796 Y-15.2185 Z-4.0514
G1 X-31.8937 Y-15.2257 Z-4.0515
G1 X-31.9083 Y-15.232
G1 X-31.9228 Y-15.2373 Z-4.0516
G1 X-31.9382 Y-15.2417 Z-4.0517
G1 X-31.9532 Y-15.2451 Z-4.0518
G1 X-31.9683 Y-15.2475
G1 X-31.9846 Y-15.249 Z-4.0519
G1 X-32.0 Y-15.2495 Z-4.052
G1 X-32.0154 Y-15.249 Z-4.0521
G1 X-32.0317 Y-15.2475
G1 X-32.0468 Y-15.2451 Z-4.0522
G1 X-32.0618 Y-15.2417 Z-4.0523
G1 X-32.0772 Y-15.2373 Z-4.0524
G1 X-32.0917 Y-15.232
G1 X-32.1063 Y-15.2257 Z-4.0525
G1 X-32.1204 Y-15.2185 Z-4.0526
G1 X-32.1336 Y-15.2107 Z-4.0527
G1 X-32.1465 Y-15.2019
G1 X-32.1591 Y-15.1922 Z-4.0528
G1 X-32.1709 Y-15.1818 Z-4.0529
G1 X-32.1818 Y-15.1709 Z-4.053
G1 X-32.1922 Y-15.1591 Z-4.0531
G1 X-32.2019 Y-15.1465
G1 X-32.2107 Y-15.1336 Z-4.0532
G1 X-32.2185 Y-15.1204 Z-4.0533
G1 X-32.2257 Y-15.1063 Z-4.0534
G1 X-32.232 Y-15.0917
G1 X-32.2373 Y-15.0772 Z-4.0535
G1 X-32.2417 Y-15.0618 Z-4.0536
G1 X-32.2451 Y-15.0468 Z-4.0537
G1 X-32.2475 Y-15.0317
G1 X-32.249 Y-15.0154 Z-4.0538
G1 X-32.25 Y-14.9841 Z-4.054
G1 Y14.9841 Z-4.2
G1 X-32.249 Y15.0154
G1 X-32.2475 Y15.0317
G1 X-32.2451 Y15.0468
G1 X-32.2417 Y15.0618
G1 X-32.2373 Y15.0772
G1 X-32.232 Y15.0917
G1 X-32.2257 Y15.1063
G1 X-32.2185 Y15.1204
G1 X-32.2107 Y15.1336
G1 X-32.2019 Y15.1465
G1 X-32.1922 Y15.1591
G1 X-32.1818 Y15.1709
G1 X-32.1709 Y15.1818
G1 X-32.1591 Y15.1922
G1 X-32.1465 Y15.2019
G1 X-32.1336 Y15.2107
G1 X-32.1204 Y15.2185
G1 X-32.1063 Y15.2257
G1 X-32.0917 Y15.232
G1 X-32.0772 Y15.2373
G1 X-32.0618 Y15.2417
G1 X-32.0468 Y15.2451
G1 X-32.0317 Y15.2475
G1 X-32.0154 Y15.249
G1 X-32.0 Y15.2495
G1 X-31.9846 Y15.249
G1 X-31.9683 Y15.2475
G1 X-31.9532 Y15.2451
G1 X-31.9382 Y15.2417
G1 X-31.9228 Y15.2373
G1 X-31.9083 Y15.232
G1 X-31.8937 Y15.2257
G1 X-31.8796 Y15.2185
G1 X-31.8664 Y15.2107
G1 X-31.8535 Y15.2019
G1 X-31.8409 Y15.1922
G1 X-31.8291 Y15.1818
G1 X-31.8182 Y15.1709
G1 X-31.8078 Y15.1591
G1 X-31.7981 Y15.1465
G1 X-31.7893 Y15.1336
G1 X-31.7815 Y15.1204
G1 X-31.7743 Y15.1063
G1 X-31.768 Y15.0917
G1 X-31.7627 Y15.0772
G1 X-31.7583 Y15.0618
G1 X-31.7549 Y15.0468
G1 X-31.7525 Y15.0317
G1 X-31.751 Y15.0154
G1 X-31.75 Y14.9841
G1 Y-14.9841
G1 X-31.751 Y-15.0154
G1 X-31.7525 Y-15.0317
G1 X-31.7549 Y-15.0468
G1 X-31.7583 Y-15.0618
G1 X-31.7627 Y-15.0772
G1 X-31.768 Y-15.0917
G1 X-31.7743 Y-15.1063
G1 X-31.7815 Y-15.1204
G1 X-31.7893 Y-15.1336
G1 X-31.7981 Y-15.1465
G1 X-31.8078 Y-15.1591
G1 X-31.8182 Y-15.1709
G1 X-31.8291 Y-15.1818
G1 X-31.8409 Y-15.1922
G1 X-31.8535 Y-15.2019
G1 X-31.8664 Y-15.2107
G1 X-31.8796 Y-15.2185
G1 X-31.8937 Y-15.2257
G1 X-31.9083 Y-15.232
G1 X-31.9228 Y-15.2373
G1 X-31.9382 Y-15.2417
G1 X-31.9532 Y-15.2451
G1 X-31.9683 Y-15.2475
G1 X-31.9846 Y-15.249
G1 X-32.0 Y-15.2495
G1 X-32.0154 Y-15.249
G1 X-32.0317 Y-15.2475
G1 X-32.0468 Y-15.2451
G1 X-32.0618 Y-15.2417
G1 X-32.0772 Y-15.2373
G1 X-32.0917 Y-15.232
G1 X-32.1063 Y-15.2257
G1 X-32.1204 Y-15.2185
G1 X-32.1336 Y-15.2107
G1 X-32.1465 Y-15.2019
G1 X-32.1591 Y-15.1922
G1 X-32.1709 Y-15.1818
G1 X-32.1818 Y-15.1709
G1 X-32.1922 Y-15.1591
G1 X-32.2019 Y-15.1465
G1 X-32.2107 Y-15.1336
G1 X-32.2185 Y-15.1204
G1 X-32.2257 Y-15.1063
G1 X-32.232 Y-15.0917
G1 X-32.2373 Y-15.0772
G1 X-32.2417 Y-15.0618
G1 X-32.2451 Y-15.0468
G1 X-32.2475 Y-15.0317
G1 X-32.249 Y-15.0154
G1 X-32.25 Y-14.9841
G1 Y14.9841
G0 Z3.0
G0 X-16.25
G0 Z1.0
G1 F150.0 Z0.0
G1 F100.0 X-16.249 Y15.0154 Z-0.0002
G1 X-16.2475 Y15.0317
G1 X-16.2451 Y15.0468 Z-0.0003
G1 X-16.2417 Y15.0618 Z-0.0004
G1 X-16.2373 Y15.0772 Z-0.0005
G1 X-16.232 Y15.0917
G1 X-16.2257 Y15.1063 Z-0.0006
G1 X-16.2185 Y15.1204 Z-0.0007
G1 X-16.2107 Y15.1336 Z-0.0008
G1 X-16.2019 Y15.1465
G1 X-16.1922 Y15.1591 Z-0.0009
G1 X-16.1818 Y15.1709 Z-0.001
G1 X-16.1709 Y15.1818 Z-0.0011
G1 X-16.1591 Y15.1922
G1 X-16.1465 Y15.2019 Z-0.0012
G1 X-16.1336 Y15.2107 Z-0.0013
G1 X-16.1204 Y15.2185 Z-0.0014
G1 X-16.1063 Y15.2257 Z-0.0015
G1 X-16.0917 Y15.232
G1 X-16.0772 Y15.2373 Z-0.0016
G1 X-16.0618 Y15.2417 Z-0.0017
G1 X-16.0468 Y15.2451 Z-0.0018
G1 X-16.0317 Y15.2475
G1 X-16.0154 Y15.249 Z-0.0019
G1 X-16.0 Y15.2495 Z-0.002
G1 X-15.9846 Y15.249 Z-0.0021
G1 X-15.9683 Y15.2475
G1 X-15.9532 Y15.2451 Z-0.0022
G1 X-15.9382 Y15.2417 Z-0.0023
G1 X-15.9228 Y15.2373 Z-0.0024
G1 X-15.9083 Y15.232
G1 X-15.8937 Y15.2257 Z-0.0025
G1 X-15.8796 Y15.2185 Z-0.0026
G1 X-15.8664 Y15.2107 Z-0.0027
G1 X-15.8535 Y15.2019
G1 X-15.8409 Y15.1922 Z-0.0028
G1 X-15.8291 Y15.1818 Z-0.0029
G1 X-15.8182 Y15.1709 Z-0.003
G1 X-15.8078 Y15.1591 Z-0.0031
G1 X-15.7981 Y15.1465
G1 X-15.7893 Y15.1336 Z-0.0032
G1 X-15.7815 Y15.1204 Z-0.0033
G1 X-15.7743 Y15.1063 Z-0.0034
G1 X-15.768 Y15.0917
G1 X-15.7627 Y15.0772 Z-0.0035
G1 X-15.7583 Y15.0618 Z-0.0036
G1 X-15.7549 Y15.0468 Z-0.0037
G1 X-15.7525 Y15.0317
G1 X-15.751 Y15.0154 Z-0.0038
G1 X-15.75 Y14.9841 Z-0.004
G1 Y-14.9841 Z-0.15
G1 X-15.751 Y-15.0154 Z-0.1502
G1 X-15.7525 Y-15.0317
G1 X-15.7549 Y-15.0468 Z-0.1503
G1 X-15.7583 Y-15.0618 Z-0.1504
G1 X-15.7627 Y-15.0772 Z-0.1505
G1 X-15.768 Y-15.0917
G1 X-15.7743 Y-15.1063 Z-0.1506
G1 X-15.7815 Y-15.1204 Z-0.1507
G1 X-15.7893 Y-15.1336 Z-0.1508
G1 X-15.7981 Y-15.1465
G1 X-15.8078 Y-15.1591 Z-0.1509
G1 X-15.8182 Y-15.1709 Z-0.151
G1 X-15.8291 Y-15.1818 Z-0.1511
G1 X-15.8409 Y-15.1922
G1 X-15.8535 Y-15.2019 Z-0.1512
G1 X-15.8664 Y-15.2107 Z-0.1513
G1 X-15.8796 Y-15.2185 Z-0.1514
G1 X-15.8937 Y-15.2257 Z-0.1515
G1 X-15.9083 Y-15.232
G1 X-15.9228 Y-15.2373 Z-0.1516
G1 X-15.9382 Y-15.2417 Z-0.1517
G1 X-15.9532 Y-15.2451 Z-0.1518
G1 X-15.9683 Y-15.2475
G1 X-15.9846 Y-15.249 Z-0.1519
G1 X-16.0 Y-15.2495 Z-0.152
G1 X-16.0154 Y-15.249 Z-0.1521
G1 X-16.0317 Y-15.2475
G1 X-16.0468 Y-15.2451 Z-0.1522
G1 X-16.0618 Y-15.2417 Z-0.1523
G1 X-16.0772 Y-15.2373 Z-0.1524
G1 X-16.0917 Y-15.232
G1 X-16.1063 Y-15.2257 Z-0.1525
G1 X-16.1204 Y-15.2185 Z-0.1526
G1 X-16.1336 Y-15.2107 Z-0.1527
G1 X-16.1465 Y-15.2019
G1 X-16.1591 Y-15.1922 Z-0.1528
G1 X-16.1709 Y-15.1818 Z-0.1529
G1 X-16.1818 Y-15.1709 Z-0.153
G1 X-16.1922 Y-15.1591 Z-0.1531
G1 X-16.2019 Y-15.1465
G1 X-16.2107 Y-15.1336 Z-0.1532
G1 X-16.2185 Y-15.1204 Z-0.1533
G1 X-16.2257 Y-15.1063 Z-0.1534
G1 X-16.232 Y-15.0917
G1 X-16.2373 Y-15.0772 Z-0.1535
G1 X-16.2417 Y-15.0618 Z-0.1536
G1 X-16.2451 Y-15.0468 Z-0.1537
G1 X-16.2475 Y-15.0317
G1 X-16.249 Y-15.0154 Z-0.1538
G1 X-16.25 Y-14.9841 Z-0.154
G1 Y14.9841 Z-0.3
G1 X-16.249 Y15.0154 Z-0.3002
G1 X-16.2475 Y15.0317
G1 X-16.2451 Y15.0468 Z-0.3003
G1 X-16.2417 Y15.0618 Z-0.3004
G1 X-16.2373 Y15.0772 Z-0.3005
G1 X-16.232 Y15.0917
G1 X-16.2257 Y15.1063 Z-0.3006
G1 X-16.2185 Y15.1204 Z-0.3007
G1 X-16.2107 Y15.1336 Z-0.3008
G1 X-16.2019 Y15.1465
G1 X-16.1922 Y15.1591 Z-0.3009
G1 X-16.1818 Y15.1709 Z-0.301
G1 X-16.1709 Y15.1818 Z-0.3011
G1 X-16.1591 Y15.1922
G1 X-16.1465 Y15.2019 Z-0.3012
G1 X-16.1336 Y15.2107 Z-0.3013
G1 X-16.1204 Y15.2185 Z-0.3014
G1 X-16.1063 Y15.2257 Z-0.3015
G1 X-16.0917 Y15.232
G1 X-16.0772 Y15.2373 Z-0.3016
G1 X-16.0618 Y15.2417 Z-0.3017
G1 X-16.0468 Y15.2451 Z-0.3018
G1 X-16.0317 Y15.2475
G1 X-16.0154 Y15.249 Z-0.3019
G1 X-16.0 Y15.2495 Z-0.302
G1 X-15.9846 Y15.249 Z-0.3021
G1 X-15.9683 Y15.2475
G1 X-15.9532 Y15.2451 Z-0.3022
G1 X-15.9382 Y15.2417 Z-0.3023
G1 X-15.9228 Y15.2373 Z-0.3024
G1 X-15.9083 Y15.232
G1 X-15.8937 Y15.2257 Z-0.3025
G1 X-15.8796 Y15.2185 Z-0.3026
G1 X-15.8664 Y15.2107 Z-0.3027
G1 X-15.8535 Y15.2019
G1 X-15.8409 Y15.1922 Z-0.3028
G1 X-15.8291 Y15.1818 Z-0.3029
G1 X-15.8182 Y15.1709 Z-0.303
G1 X-15.8078 Y15.1591 Z-0.3031
G1 X-15.7981 Y15.1465
G1 X-15.7893 Y15.1336 Z-0.3032
G1 X-15.7815 Y15.1204 Z-0.3033
G1 X-15.7743 Y15.1063 Z-0.3034
G1 X-15.768 Y15.0917
G1 X-15.7627 Y15.0772 Z-0.3035
G1 X-15.7583 Y15.0618 Z-0.3036
G1 X-15.7549 Y15.0468 Z-0.3037
G1 X-15.7525 Y15.0317
G1 X-15.751 Y15.0154 Z-0.3038
G1 X-15.75 Y14.9841 Z-0.304
G1 Y-14.9841 Z-0.45
G1 X-15.751 Y-15.0154 Z-0.4502
G1 X-15.7525 Y-15.0317
G1 X-15.7549 Y-15.0468 Z-0.4503
G1 X-15.7583 Y-15.0618 Z-0.4504
G1 X-15.7627 Y-15.0772 Z-0.4505
G1 X-15.768 Y-15.0917
G1 X-15.7743 Y-15.1063 Z-0.4506
G1 X-15.7815 Y-15.1204 Z-0.4507
G1 X-15.7893 Y-15.1336 Z-0.4508
G1 X-15.7981 Y-15.1465
G1 X-15.8078 Y-15.1591 Z-0.4509
G1 X-15.8182 Y-15.1709 Z-0.451
G1 X-15.8291 Y-15.1818 Z-0.4511
G1 X-15.8409 Y-15.1922
G1 X-15.8535 Y-15.2019 Z-0.4512
G1 X-15.8664 Y-15.2107 Z-0.4513
G1 X-15.8796 Y-15.2185 Z-0.4514
G1 X-15.8937 Y-15.2257 Z-0.4515
G1 X-15.9083 Y-15.232
G1 X-15.9228 Y-15.2373 Z-0.4516
G1 X-15.9382 Y-15.2417 Z-0.4517
G1 X-15.9532 Y-15.2451 Z-0.4518
G1 X-15.9683 Y-15.2475
G1 X-15.9846 Y-15.249 Z-0.4519
G1 X-16.0 Y-15.2495 Z-0.452
G1 X-16.0154 Y-15.249 Z-0.4521
G1 X-16.0317 Y-15.2475
G1 X-16.0468 Y-15.2451 Z-0.4522
G1 X-16.0618 Y-15.2417 Z-0.4523
G1 X-16.0772 Y-15.2373 Z-0.4524
G1 X-16.0917 Y-15.232
G1 X-16.1063 Y-15.2257 Z-0.4525
G1 X-16.1204 Y-15.2185 Z-0.4526
G1 X-16.1336 Y-15.2107 Z-0.4527
G1 X-16.1465 Y-15.2019
G1 X-16.1591 Y-15.1922 Z-0.4528
G1 X-16.1709 Y-15.1818 Z-0.4529
G1 X-16.1818 Y-15.1709 Z-0.453
G1 X-16.1922 Y-15.1591 Z-0.4531
G1 X-16.2019 Y-15.1465
G1 X-16.2107 Y-15.1336 Z-0.4532
G1 X-16.2185 Y-15.1204 Z-0.4533
G1 X-16.2257 Y-15.1063 Z-0.4534
G1 X-16.232 Y-15.0917
G1 X-16.2373 Y-15.0772 Z-0.4535
G1 X-16.2417 Y-15.0618 Z-0.4536
G1 X-16.2451 Y-15.0468 Z-0.4537
G1 X-16.2475 Y-15.0317
G1 X-16.249 Y-15.0154 Z-0.4538
G1 X-16.25 Y-14.9841 Z-0.454
G1 Y14.9841 Z-0.6
G1 X-16.249 Y15.0154 Z-0.6002
G1 X-16.2475 Y15.0317
G1 X-16.2451 Y15.0468 Z-0.6003
G1 X-16.2417 Y15.0618 Z-0.6004
G1 X-16.2373 Y15.0772 Z-0.6005
G1 X-16.232 Y15.0917
G1 X-16.2257 Y15.1063 Z-0.6006
G1 X-16.2185 Y15.1204 Z-0.6007
G1 X-16.2107 Y15.1336 Z-0.6008
G1 X-16.2019 Y15.1465
G1 X-16.1922 Y15.1591 Z-0.6009
G1 X-16.1818 Y15.1709 Z-0.601
G1 X-16.1709 Y15.1818 Z-0.6011
G1 X-16.1591 Y15.1922
G1 X-16.1465 Y15.2019 Z-0.6012
G1 X-16.1336 Y15.2107 Z-0.6013
G1 X-16.1204 Y15.2185 Z-0.6014
G1 X-16.1063 Y15.2257 Z-0.6015
G1 X-16.0917 Y15.232
G1 X-16.0772 Y15.2373 Z-0.6016
G1 X-16.0618 Y15.2417 Z-0.6017
G1 X-16.0468 Y15.2451 Z-0.6018
G1 X-16.0317 Y15.2475
G1 X-16.0154 Y15.249 Z-0.6019
G1 X-16.0 Y15.2495 Z-0.602
G1 X-15.9846 Y15.249 Z-0.6021
G1 X-15.9683 Y15.2475
G1 X-15.9532 Y15.2451 Z-0.6022
G1 X-15.9382 Y15.2417 Z-0.6023
G1 X-15.9228 Y15.2373 Z-0.6024
G1 X-15.9083 Y15.232
G1 X-15.8937 Y15.2257 Z-0.6025
G1 X-15.8796 Y15.2185 Z-0.6026
G1 X-15.8664 Y15.2107 Z-0.6027
G1 X-15.8535 Y15.2019
G1 X-15.8409 Y15.1922 Z-0.6028
G1 X-15.8291 Y15.1818 Z-0.6029
G1 X-15.8182 Y15.1709 Z-0.603
G1 X-15.8078 Y15.1591 Z-0.6031
G1 X-15.7981 Y15.1465
G1 X-15.7893 Y15.1336 Z-0.6032
G1 X-15.7815 Y15.1204 Z-0.6033
G1 X-15.7743 Y15.1063 Z-0.6034
G1 X-15.768 Y15.0917
G1 X-15.7627 Y15.0772 Z-0.6035
G1 X-15.7583 Y15.0618 Z-0.6036
G1 X-15.7549 Y15.0468 Z-0.6037
G1 X-15.7525 Y15.0317
G1 X-15.751 Y15.0154 Z-0.6038
G1 X-15.75 Y14.9841 Z-0.604
G1 Y-14.9841 Z-0.75
G1 X-15.751 Y-15.0154 Z-0.7502
G1 X-15.7525 Y-15.0317
G1 X-15.7549 Y-15.0468 Z-0.7503
G1 X-15.7583 Y-15.0618 Z-0.7504
G1 X-15.7627 Y-15.0772 Z-0.7505
G1 X-15.768 Y-15.0917
G1 X-15.7743 Y-15.1063 Z-0.7506
G1 X-15.7815 Y-15.1204 Z-0.7507
G1 X-15.7893 Y-15.1336 Z-0.7508
G1 X-15.7981 Y-15.1465
G1 X-15.8078 Y-15.1591 Z-0.7509
G1 X-15.8182 Y-15.1709 Z-0.751
G1 X-15.8291 Y-15.1818 Z-0.7511
G1 X-15.8409 Y-15.1922
G1 X-15.8535 Y-15.2019 Z-0.7512
G1 X-15.8664 Y-15.2107 Z-0.7513
G1 X-15.8796 Y-15.2185 Z-0.7514
G1 X-15.8937 Y-15.2257 Z-0.7515
G1 X-15.9083 Y-15.232
G1 X-15.9228 Y-15.2373 Z-0.7516
G1 X-15.9382 Y-15.2417 Z-0.7517
G1 X-15.9532 Y-15.2451 Z-0.7518
G1 X-15.9683 Y-15.2475
G1 X-15.9846 Y-15.249 Z-0.7519
G1 X-16.0 Y-15.2495 Z-0.752
G1 X-16.0154 Y-15.249 Z-0.7521
G1 X-16.0317 Y-15.2475
G1 X-16.0468 Y-15.2451 Z-0.7522
G1 X-16.0618 Y-15.2417 Z-0.7523
G1 X-16.0772 Y-15.2373 Z-0.7524
G1 X-16.0917 Y-15.232
G1 X-16.1063 Y-15.2257 Z-0.7525
G1 X-16.1204 Y-15.2185 Z-0.7526
G1 X-16.1336 Y-15.2107 Z-0.7527
G1 X-16.1465 Y-15.2019
G1 X-16.1591 Y-15.1922 Z-0.7528
G1 X-16.1709 Y-15.1818 Z-0.7529
G1 X-16.1818 Y-15.1709 Z-0.753
G1 X-16.1922 Y-15.1591 Z-0.7531
G1 X-16.2019 Y-15.1465
G1 X-16.2107 Y-15.1336 Z-0.7532
G1 X-16.2185 Y-15.1204 Z-0.7533
G1 X-16.2257 Y-15.1063 Z-0.7534
G1 X-16.232 Y-15.0917
G1 X-16.2373 Y-15.0772 Z-0.7535
G1 X-16.2417 Y-15.0618 Z-0.7536
G1 X-16.2451 Y-15.0468 Z-0.7537
G1 X-16.2475 Y-15.0317
G1 X-16.249 Y-15.0154 Z-0.7538
G1 X-16.25 Y-14.9841 Z-0.754
G1 Y14.9841 Z-0.9
G1 X-16.249 Y15.0154 Z-0.9002
G1 X-16.2475 Y15.0317
G1 X-16.2451 Y15.0468 Z-0.9003
G1 X-16.2417 Y15.0618 Z-0.9004
G1 X-16.2373 Y15.0772 Z-0.9005
G1 X-16.232 Y15.0917
G1 X-16.2257 Y15.1063 Z-0.9006
G1 X-16.2185 Y15.1204 Z-0.9007
G1 X-16.2107 Y15.1336 Z-0.9008
G1 X-16.2019 Y15.1465
G1 X-16.1922 Y15.1591 Z-0.9009
G1 X-16.1818 Y15.1709 Z-0.901
G1 X-16.1709 Y15.1818 Z-0.9011
G1 X-16.1591 Y15.1922
G1 X-16.1465 Y15.2019 Z-0.9012
G1 X-16.1336 Y15.2107 Z-0.9013
G1 X-16.1204 Y15.2185 Z-0.9014
G1 X-16.1063 Y15.2257 Z-0.9015
G1 X-16.0917 Y15.232
G1 X-16.0772 Y15.2373 Z-0.9016
G1 X-16.0618 Y15.2417 Z-0.9017
G1 X-16.0468 Y15.2451 Z-0.9018
G1 X-16.0317 Y15.2475
G1 X-16.0154 Y15.249 Z-0.9019
G1 X-16.0 Y15.2495 Z-0.902
G1 X-15.9846 Y15.249 Z-0.9021
G1 X-15.9683 Y15.2475
G1 X-15.9532 Y15.2451 Z-0.9022
G1 X-15.9382 Y15.2417 Z-0.9023
G1 X-15.9228 Y15.2373 Z-0.9024
G1 X-15.9083 Y15.232
G1 X-15.8937 Y15.2257 Z-0.9025
G1 X-15.8796 Y15.2185 Z-0.9026
G1 X-15.8664 Y15.2107 Z-0.9027
G1 X-15.8535 Y15.2019
G1 X-15.8409 Y15.1922 Z-0.9028
G1 X-15.8291 Y15.1818 Z-0.9029
G1 X-15.8182 Y15.1709 Z-0.903
G1 X-15.8078 Y15.1591 Z-0.9031
G1 X-15.7981 Y15.1465
G1 X-15.7893 Y15.1336 Z-0.9032
G1 X-15.7815 Y15.1204 Z-0.9033
G1 X-15.7743 Y15.1063 Z-0.9034
G1 X-15.768 Y15.0917
G1 X-15.7627 Y15.0772 Z-0.9035
G1 X-15.7583 Y15.0618 Z-0.9036
G1 X-15.7549 Y15.0468 Z-0.9037
G1 X-15.7525 Y15.0317
G1 X-15.751 Y15.0154 Z-0.9038
G1 X-15.75 Y14.9841 Z-0.904
G1 Y-14.9841 Z-1.05
G1 X-15.751 Y-15.0154 Z-1.0502
G1 X-15.7525 Y-15.0317
G1 X-15.7549 Y-15.0468 Z-1.0503
G1 X-15.7583 Y-15.0618 Z-1.0504
G1 X-15.7627 Y-15.0772 Z-1.0505
G1 X-15.768 Y-15.0917
G1 X-15.7743 Y-15.1063 Z-1.0506
G1 X-15.7815 Y-15.1204 Z-1.0507
G1 X-15.7893 Y-15.1336 Z-1.0508
G1 X-15.7981 Y-15.1465
G1 X-15.8078 Y-15.1591 Z-1.0509
G1 X-15.8182 Y-15.1709 Z-1.051
G1 X-15.8291 Y-15.1818 Z-1.0511
G1 X-15.8409 Y-15.1922
G1 X-15.8535 Y-15.2019 Z-1.0512
G1 X-15.8664 Y-15.2107 Z-1.0513
G1 X-15.8796 Y-15.2185 Z-1.0514
G1 X-15.8937 Y-15.2257 Z-1.0515
G1 X-15.9083 Y-15.232
G1 X-15.9228 Y-15.2373 Z-1.0516
G1 X-15.9382 Y-15.2417 Z-1.0517
G1 X-15.9532 Y-15.2451 Z-1.0518
G1 X-15.9683 Y-15.2475
G1 X-15.9846 Y-15.249 Z-1.0519
G1 X-16.0 Y-15.2495 Z-1.052
G1 X-16.0154 Y-15.249 Z-1.0521
G1 X-16.0317 Y-15.2475
G1 X-16.0468 Y-15.2451 Z-1.0522
G1 X-16.0618 Y-15.2417 Z-1.0523
G1 X-16.0772 Y-15.2373 Z-1.0524
G1 X-16.0917 Y-15.232
G1 X-16.1063 Y-15.2257 Z-1.0525
G1 X-16.1204 Y-15.2185 Z-1.0526
G1 X-16.1336 Y-15.2107 Z-1.0527
G1 X-16.1465 Y-15.2019
G1 X-16.1591 Y-15.1922 Z-1.0528
G1 X-16.1709 Y-15.1818 Z-1.0529
G1 X-16.1818 Y-15.1709 Z-1.053
G1 X-16.1922 Y-15.1591 Z-1.0531
G1 X-16.2019 Y-15.1465
G1 X-16.2107 Y-15.1336 Z-1.0532
G1 X-16.2185 Y-15.1204 Z-1.0533
G1 X-16.2257 Y-15.1063 Z-1.0534
G1 X-16.232 Y-15.0917
G1 X-16.2373 Y-15.0772 Z-1.0535
G1 X-16.2417 Y-15.0618 Z-1.0536
G1 X-16.2451 Y-15.0468 Z-1.0537
G1 X-16.2475 Y-15.0317
G1 X-16.249 Y-15.0154 Z-1.0538
G1 X-16.25 Y-14.9841 Z-1.054
G1 Y14.9841 Z-1.2
G1 X-16.249 Y15.0154 Z-1.2002
G1 X-16.2475 Y15.0317
G1 X-16.2451 Y15.0468 Z-1.2003
G1 X-16.2417 Y15.0618 Z-1.2004
G1 X-16.2373 Y15.0772 Z-1.2005
G1 X-16.232 Y15.0917
G1 X-16.2257 Y15.1063 Z-1.2006
G1 X-16.2185 Y15.1204 Z-1.2007
G1 X-16.2107 Y15.1336 Z-1.2008
G1 X-16.2019 Y15.1465
G1 X-16.1922 Y15.1591 Z-1.2009
G1 X-16.1818 Y15.1709 Z-1.201
G1 X-16.1709 Y15.1818 Z-1.2011
G1 X-16.1591 Y15.1922
G1 X-16.1465 Y15.2019 Z-1.2012
G1 X-16.1336 Y15.2107 Z-1.2013
G1 X-16.1204 Y15.2185 Z-1.2014
G1 X-16.1063 Y15.2257 Z-1.2015
G1 X-16.0917 Y15.232
G1 X-16.0772 Y15.2373 Z-1.2016
G1 X-16.0618 Y15.2417 Z-1.2017
G1 X-16.0468 Y15.2451 Z-1.2018
G1 X-16.0317 Y15.2475
G1 X-16.0154 Y15.249 Z-1.2019
G1 X-16.0 Y15.2495 Z-1.202
G1 X-15.9846 Y15.249 Z-1.2021
G1 X-15.9683 Y15.2475
G1 X-15.9532 Y15.2451 Z-1.2022
G1 X-15.9382 Y15.2417 Z-1.2023
G1 X-15.9228 Y15.2373 Z-1.2024
G1 X-15.9083 Y15.232
G1 X-15.8937 Y15.2257 Z-1.2025
G1 X-15.8796 Y15.2185 Z-1.2026
