( Made using CamBam - http://www.cambam.co.uk )
( 210207Toppanel_alt1 2/7/2021 5:08:25 PM )
( T2 : 2.0 )
( T3 : 3.0 )
( CUTVIEWER )
( FROM/0,0,5 )
( Select dummy tool to avoid warnings )
( TOOL/MILL,1,0,20.0,0 )
( STOCK/BLOCK,180.0,100.0,4.0,90.0,50.0,4.0 )
G21 G90 G91.1 G64 G40
G0 Z3.0
( T2 : 2.0 )
( Tool Taper coming soon )
( TOOL/MILL,2.0,0.0,0.0,0 )
T2 M6
( Wall_trail_pocket )
G17
M3 S2300
G0 X81.0 Y-39.3267
G0 Z1.0
G1 F150.0 Z0.0
G1 F100.0 Y-39.5 Z-0.0002
G1 X-81.0 Z-0.15
G1 Y-39.3267 Z-0.1501
G3 X-80.0 Y-39.4984 Z-0.1511 I1.0 J2.8267
G1 X80.0 Z-0.2991
G3 X81.0 Y-39.3267 Z-0.3 I0.0 J2.9984
G1 F150.0 X80.8666 Y-38.9496
G3 F100.0 X81.4 Y-38.689 I-0.8666 J2.4496
G1 Y-39.9
G1 X-81.4
G1 Y-38.689
G3 X-80.0 Y-39.0984 I1.4 J2.189
G1 X80.0
G3 X80.8666 Y-38.9496 I0.0 J2.5984
G1 F150.0 X80.5998 Y-38.1954
G3 F100.0 X81.7984 Y-36.5 I-0.5998 J1.6954
G1 Y38.5
G3 X80.0 Y40.2984 I-1.7984 J0.0
G1 X-80.0
G3 X-81.7984 Y38.5 I0.0 J-1.7984
G1 Y-36.5
G3 X-80.0 Y-38.2984 I1.7984 J0.0
G1 X80.0
G3 X80.5998 Y-38.1954 I0.0 J1.7984
G1 F150.0 X80.3335 Y-37.4427
G3 F100.0 X81.0 Y-36.5 I-0.3335 J0.9427
G1 Y38.5
G3 X80.0 Y39.5 I-1.0 J0.0
G1 X-80.0
G3 X-81.0 Y38.5 I0.0 J-1.0
G1 Y-36.5
G3 X-80.0 Y-37.5 I1.0 J0.0
G1 X80.0
G3 X80.3335 Y-37.4427 I0.0 J1.0
G0 Z3.0
G0 X82.2
G0 Z1.0
G1 F150.0 Z0.0
G1 F100.0 Y-40.7 Z-0.002
G1 X-82.2 Z-0.1023
G1 Y40.7 Z-0.152
G1 X82.2 Z-0.2523
G1 Y-37.4427 Z-0.3
G1 F150.0 X83.0
G1 F100.0 Y-41.5
G1 X-83.0
G1 Y41.5
G1 X83.0
G1 Y-37.4427
G0 Z3.0
G0 X81.0 Y-39.3267
G0 Z0.7
G1 F150.0 Z-0.3
G1 F100.0 Y-39.5 Z-0.3002
G1 X-81.0 Z-0.45
G1 Y-39.3267 Z-0.4501
G3 X-80.0 Y-39.4984 Z-0.4511 I1.0 J2.8267
G1 X80.0 Z-0.5991
G3 X81.0 Y-39.3267 Z-0.6 I0.0 J2.9984
G1 F150.0 X80.8666 Y-38.9496
G3 F100.0 X81.4 Y-38.689 I-0.8666 J2.4496
G1 Y-39.9
G1 X-81.4
G1 Y-38.689
G3 X-80.0 Y-39.0984 I1.4 J2.189
G1 X80.0
G3 X80.8666 Y-38.9496 I0.0 J2.5984
G1 F150.0 X80.5998 Y-38.1954
G3 F100.0 X81.7984 Y-36.5 I-0.5998 J1.6954
G1 Y38.5
G3 X80.0 Y40.2984 I-1.7984 J0.0
G1 X-80.0
G3 X-81.7984 Y38.5 I0.0 J-1.7984
G1 Y-36.5
G3 X-80.0 Y-38.2984 I1.7984 J0.0
G1 X80.0
G3 X80.5998 Y-38.1954 I0.0 J1.7984
G1 F150.0 X80.3335 Y-37.4427
G3 F100.0 X81.0 Y-36.5 I-0.3335 J0.9427
G1 Y38.5
G3 X80.0 Y39.5 I-1.0 J0.0
G1 X-80.0
G3 X-81.0 Y38.5 I0.0 J-1.0
G1 Y-36.5
G3 X-80.0 Y-37.5 I1.0 J0.0
G1 X80.0
G3 X80.3335 Y-37.4427 I0.0 J1.0
G0 Z3.0
G0 X82.2
G0 Z0.7
G1 F150.0 Z-0.3
G1 F100.0 Y-40.7 Z-0.302
G1 X-82.2 Z-0.4023
G1 Y40.7 Z-0.452
G1 X82.2 Z-0.5523
G1 Y-37.4427 Z-0.6
G1 F150.0 X83.0
G1 F100.0 Y-41.5
G1 X-83.0
G1 Y41.5
G1 X83.0
G1 Y-37.4427
G0 Z3.0
G0 X81.0 Y-39.3267
G0 Z0.4
G1 F150.0 Z-0.6
G1 F100.0 Y-39.5 Z-0.6002
G1 X-81.0 Z-0.75
G1 Y-39.3267 Z-0.7501
G3 X-80.0 Y-39.4984 Z-0.7511 I1.0 J2.8267
G1 X80.0 Z-0.8991
G3 X81.0 Y-39.3267 Z-0.9 I0.0 J2.9984
G1 F150.0 X80.8666 Y-38.9496
G3 F100.0 X81.4 Y-38.689 I-0.8666 J2.4496
G1 Y-39.9
G1 X-81.4
G1 Y-38.689
G3 X-80.0 Y-39.0984 I1.4 J2.189
G1 X80.0
G3 X80.8666 Y-38.9496 I0.0 J2.5984
G1 F150.0 X80.5998 Y-38.1954
G3 F100.0 X81.7984 Y-36.5 I-0.5998 J1.6954
G1 Y38.5
G3 X80.0 Y40.2984 I-1.7984 J0.0
G1 X-80.0
G3 X-81.7984 Y38.5 I0.0 J-1.7984
G1 Y-36.5
G3 X-80.0 Y-38.2984 I1.7984 J0.0
G1 X80.0
G3 X80.5998 Y-38.1954 I0.0 J1.7984
G1 F150.0 X80.3335 Y-37.4427
G3 F100.0 X81.0 Y-36.5 I-0.3335 J0.9427
G1 Y38.5
G3 X80.0 Y39.5 I-1.0 J0.0
G1 X-80.0
G3 X-81.0 Y38.5 I0.0 J-1.0
G1 Y-36.5
G3 X-80.0 Y-37.5 I1.0 J0.0
G1 X80.0
G3 X80.3335 Y-37.4427 I0.0 J1.0
G0 Z3.0
G0 X82.2
G0 Z0.4
G1 F150.0 Z-0.6
G1 F100.0 Y-40.7 Z-0.602
G1 X-82.2 Z-0.7023
G1 Y40.7 Z-0.752
G1 X82.2 Z-0.8523
G1 Y-37.4427 Z-0.9
G1 F150.0 X83.0
G1 F100.0 Y-41.5
G1 X-83.0
G1 Y41.5
G1 X83.0
G1 Y-37.4427
G0 Z3.0
G0 X81.0 Y-39.3267
G1 F150.0 Z-0.9
G1 F100.0 Y-39.5 Z-0.9002
G1 X-81.0 Z-1.05
G1 Y-39.3267 Z-1.0501
G3 X-80.0 Y-39.4984 Z-1.0511 I1.0 J2.8267
G1 X80.0 Z-1.1991
G3 X81.0 Y-39.3267 Z-1.2 I0.0 J2.9984
G1 F150.0 X80.8666 Y-38.9496
G3 F100.0 X81.4 Y-38.689 I-0.8666 J2.4496
G1 Y-39.9
G1 X-81.4
G1 Y-38.689
G3 X-80.0 Y-39.0984 I1.4 J2.189
G1 X80.0
G3 X80.8666 Y-38.9496 I0.0 J2.5984
G1 F150.0 X80.5998 Y-38.1954
G3 F100.0 X81.7984 Y-36.5 I-0.5998 J1.6954
G1 Y38.5
G3 X80.0 Y40.2984 I-1.7984 J0.0
G1 X-80.0
G3 X-81.7984 Y38.5 I0.0 J-1.7984
G1 Y-36.5
G3 X-80.0 Y-38.2984 I1.7984 J0.0
G1 X80.0
G3 X80.5998 Y-38.1954 I0.0 J1.7984
G1 F150.0 X80.3335 Y-37.4427
G3 F100.0 X81.0 Y-36.5 I-0.3335 J0.9427
G1 Y38.5
G3 X80.0 Y39.5 I-1.0 J0.0
G1 X-80.0
G3 X-81.0 Y38.5 I0.0 J-1.0
G1 Y-36.5
G3 X-80.0 Y-37.5 I1.0 J0.0
G1 X80.0
G3 X80.3335 Y-37.4427 I0.0 J1.0
G0 Z3.0
G0 X82.2
G1 F150.0 Z-0.9
G1 F100.0 Y-40.7 Z-0.902
G1 X-82.2 Z-1.0023
G1 Y40.7 Z-1.052
G1 X82.2 Z-1.1523
G1 Y-37.4427 Z-1.2
G1 F150.0 X83.0
G1 F100.0 Y-41.5
G1 X-83.0
G1 Y41.5
G1 X83.0
G1 Y-37.4427
G0 Z3.0
G0 X81.0 Y-39.3267
G0 Z-0.2
G1 F150.0 Z-1.2
G1 F100.0 Y-39.5 Z-1.2002
G1 X-81.0 Z-1.35
G1 Y-39.3267 Z-1.3501
G3 X-80.0 Y-39.4984 Z-1.3511 I1.0 J2.8267
G1 X80.0 Z-1.4991
G3 X81.0 Y-39.3267 Z-1.5 I0.0 J2.9984
G1 F150.0 X80.8666 Y-38.9496
G3 F100.0 X81.4 Y-38.689 I-0.8666 J2.4496
G1 Y-39.9
G1 X-81.4
G1 Y-38.689
G3 X-80.0 Y-39.0984 I1.4 J2.189
G1 X80.0
G3 X80.8666 Y-38.9496 I0.0 J2.5984
G1 F150.0 X80.5998 Y-38.1954
G3 F100.0 X81.7984 Y-36.5 I-0.5998 J1.6954
G1 Y38.5
G3 X80.0 Y40.2984 I-1.7984 J0.0
G1 X-80.0
G3 X-81.7984 Y38.5 I0.0 J-1.7984
G1 Y-36.5
G3 X-80.0 Y-38.2984 I1.7984 J0.0
G1 X80.0
G3 X80.5998 Y-38.1954 I0.0 J1.7984
G1 F150.0 X80.3335 Y-37.4427
G3 F100.0 X81.0 Y-36.5 I-0.3335 J0.9427
G1 Y38.5
G3 X80.0 Y39.5 I-1.0 J0.0
G1 X-80.0
G3 X-81.0 Y38.5 I0.0 J-1.0
G1 Y-36.5
G3 X-80.0 Y-37.5 I1.0 J0.0
G1 X80.0
G3 X80.3335 Y-37.4427 I0.0 J1.0
G0 Z3.0
G0 X82.2
G0 Z-0.2
G1 F150.0 Z-1.2
G1 F100.0 Y-40.7 Z-1.202
G1 X-82.2 Z-1.3023
G1 Y40.7 Z-1.352
G1 X82.2 Z-1.4523
G1 Y-37.4427 Z-1.5
G1 F150.0 X83.0
G1 F100.0 Y-41.5
G1 X-83.0
G1 Y41.5
G1 X83.0
G1 Y-37.4427
G0 Z3.0
G0 X81.0 Y-39.3267
G0 Z-0.5
G1 F150.0 Z-1.5
G1 F100.0 Y-39.5 Z-1.5002
G1 X-81.0 Z-1.65
G1 Y-39.3267 Z-1.6501
G3 X-80.0 Y-39.4984 Z-1.6511 I1.0 J2.8267
G1 X80.0 Z-1.7991
G3 X81.0 Y-39.3267 Z-1.8 I0.0 J2.9984
G1 F150.0 X80.8666 Y-38.9496
G3 F100.0 X81.4 Y-38.689 I-0.8666 J2.4496
G1 Y-39.9
G1 X-81.4
G1 Y-38.689
G3 X-80.0 Y-39.0984 I1.4 J2.189
G1 X80.0
G3 X80.8666 Y-38.9496 I0.0 J2.5984
G1 F150.0 X80.5998 Y-38.1954
G3 F100.0 X81.7984 Y-36.5 I-0.5998 J1.6954
G1 Y38.5
G3 X80.0 Y40.2984 I-1.7984 J0.0
G1 X-80.0
G3 X-81.7984 Y38.5 I0.0 J-1.7984
G1 Y-36.5
G3 X-80.0 Y-38.2984 I1.7984 J0.0
G1 X80.0
G3 X80.5998 Y-38.1954 I0.0 J1.7984
G1 F150.0 X80.3335 Y-37.4427
G3 F100.0 X81.0 Y-36.5 I-0.3335 J0.9427
G1 Y38.5
G3 X80.0 Y39.5 I-1.0 J0.0
G1 X-80.0
G3 X-81.0 Y38.5 I0.0 J-1.0
G1 Y-36.5
G3 X-80.0 Y-37.5 I1.0 J0.0
G1 X80.0
G3 X80.3335 Y-37.4427 I0.0 J1.0
G0 Z3.0
G0 X82.2
G0 Z-0.5
G1 F150.0 Z-1.5
G1 F100.0 Y-40.7 Z-1.502
G1 X-82.2 Z-1.6023
G1 Y40.7 Z-1.652
G1 X82.2 Z-1.7523
G1 Y-37.4427 Z-1.8
G1 F150.0 X83.0
G1 F100.0 Y-41.5
G1 X-83.0
G1 Y41.5
G1 X83.0
G1 Y-37.4427
G0 Z3.0
G0 X81.0 Y-39.3267
G0 Z-0.8
G1 F150.0 Z-1.8
G1 F100.0 Y-39.5 Z-1.8001
G1 X-81.0 Z-1.85
G1 Y-39.3267
G3 X-80.0 Y-39.4984 Z-1.8504 I1.0 J2.8267
G1 X80.0 Z-1.8997
G3 X81.0 Y-39.3267 Z-1.9 I0.0 J2.9984
G1 F150.0 X80.8666 Y-38.9496
G3 F100.0 X81.4 Y-38.689 I-0.8666 J2.4496
G1 Y-39.9
G1 X-81.4
G1 Y-38.689
G3 X-80.0 Y-39.0984 I1.4 J2.189
G1 X80.0
G3 X80.8666 Y-38.9496 I0.0 J2.5984
G1 F150.0 X80.5998 Y-38.1954
G3 F100.0 X81.7984 Y-36.5 I-0.5998 J1.6954
G1 Y38.5
G3 X80.0 Y40.2984 I-1.7984 J0.0
G1 X-80.0
G3 X-81.7984 Y38.5 I0.0 J-1.7984
G1 Y-36.5
G3 X-80.0 Y-38.2984 I1.7984 J0.0
G1 X80.0
G3 X80.5998 Y-38.1954 I0.0 J1.7984
G1 F150.0 X80.3335 Y-37.4427
G3 F100.0 X81.0 Y-36.5 I-0.3335 J0.9427
G1 Y38.5
G3 X80.0 Y39.5 I-1.0 J0.0
G1 X-80.0
G3 X-81.0 Y38.5 I0.0 J-1.0
G1 Y-36.5
G3 X-80.0 Y-37.5 I1.0 J0.0
G1 X80.0
G3 X80.3335 Y-37.4427 I0.0 J1.0
G0 Z3.0
G0 X82.2
G0 Z-0.8
G1 F150.0 Z-1.8
G1 F100.0 Y-40.7 Z-1.8007
G1 X-82.2 Z-1.8341
G1 Y40.7 Z-1.8507
G1 X82.2 Z-1.8841
G1 Y-37.4427 Z-1.9
G1 F150.0 X83.0
G1 F100.0 Y-41.5
G1 X-83.0
G1 Y41.5
G1 X83.0
G1 Y-37.4427
G0 Z3.0
G0 X81.0 Y-39.3267
G0 Z-0.9
G1 F150.0 Z-1.9
G1 F100.0 Y-39.5 Z-1.9001
G1 X-81.0 Z-1.95
G1 Y-39.3267
G3 X-80.0 Y-39.4984 Z-1.9504 I1.0 J2.8267
G1 X80.0 Z-1.9997
G3 X81.0 Y-39.3267 Z-2.0 I0.0 J2.9984
G1 Y-39.5
G1 X-81.0
G1 Y-39.3267
G3 X-80.0 Y-39.4984 I1.0 J2.8267
G1 X80.0
G3 X81.0 Y-39.3267 I0.0 J2.9984
G1 F150.0 X80.8666 Y-38.9496
G3 F100.0 X81.4 Y-38.689 I-0.8666 J2.4496
G1 Y-39.9
G1 X-81.4
G1 Y-38.689
G3 X-80.0 Y-39.0984 I1.4 J2.189
G1 X80.0
G3 X80.8666 Y-38.9496 I0.0 J2.5984
G1 F150.0 X80.5998 Y-38.1954
G3 F100.0 X81.7984 Y-36.5 I-0.5998 J1.6954
G1 Y38.5
G3 X80.0 Y40.2984 I-1.7984 J0.0
G1 X-80.0
G3 X-81.7984 Y38.5 I0.0 J-1.7984
G1 Y-36.5
G3 X-80.0 Y-38.2984 I1.7984 J0.0
G1 X80.0
G3 X80.5998 Y-38.1954 I0.0 J1.7984
G1 F150.0 X80.3335 Y-37.4427
G3 F100.0 X81.0 Y-36.5 I-0.3335 J0.9427
G1 Y38.5
G3 X80.0 Y39.5 I-1.0 J0.0
G1 X-80.0
G3 X-81.0 Y38.5 I0.0 J-1.0
G1 Y-36.5
G3 X-80.0 Y-37.5 I1.0 J0.0
G1 X80.0
G3 X80.3335 Y-37.4427 I0.0 J1.0
G0 Z3.0
G0 X82.2
G0 Z-0.9
G1 F150.0 Z-1.9
G1 F100.0 Y-40.7 Z-1.9007
G1 X-82.2 Z-1.9341
G1 Y40.7 Z-1.9507
G1 X82.2 Z-1.9841
G1 Y-37.4427 Z-2.0
G1 Y-40.7
G1 X-82.2
G1 Y40.7
G1 X82.2
G1 Y-37.4427
G1 F150.0 X83.0
G1 F100.0 Y-41.5
G1 X-83.0
G1 Y41.5
G1 X83.0
G1 Y-37.4427
( Profile1 )
G0 Z3.0
( T3 : 3.0 )
( Tool Taper coming soon )
( TOOL/MILL,3.0,0.0,0.0,0 )
T3 M6
M3 S2300
G0 X84.0 Y44.0
G0 Z1.0
G1 F150.0 Z0.0
G1 F100.0 X-84.0 Z-0.0978
G3 X-85.5 Y42.5 Z-0.0992 I0.0 J-1.5
G1 Y-42.5 Z-0.1486
G3 X-84.0 Y-44.0 Z-0.15 I1.5 J0.0
G1 X84.0 Z-0.2478
G3 X85.5 Y-42.5 Z-0.2492 I0.0 J1.5
G1 Y42.5 Z-0.2986
G3 X84.0 Y44.0 Z-0.3 I-1.5 J0.0
G1 X-84.0 Z-0.3978
G3 X-85.5 Y42.5 Z-0.3992 I0.0 J-1.5
G1 Y-42.5 Z-0.4486
G3 X-84.0 Y-44.0 Z-0.45 I1.5 J0.0
G1 X84.0 Z-0.5478
G3 X85.5 Y-42.5 Z-0.5492 I0.0 J1.5
G1 Y42.5 Z-0.5986
G3 X84.0 Y44.0 Z-0.6 I-1.5 J0.0
G1 X-84.0 Z-0.6978
G3 X-85.5 Y42.5 Z-0.6992 I0.0 J-1.5
G1 Y-42.5 Z-0.7486
G3 X-84.0 Y-44.0 Z-0.75 I1.5 J0.0
G1 X84.0 Z-0.8478
G3 X85.5 Y-42.5 Z-0.8492 I0.0 J1.5
G1 Y42.5 Z-0.8986
G3 X84.0 Y44.0 Z-0.9 I-1.5 J0.0
G1 X-84.0 Z-0.9978
G3 X-85.5 Y42.5 Z-0.9992 I0.0 J-1.5
G1 Y-42.5 Z-1.0486
G3 X-84.0 Y-44.0 Z-1.05 I1.5 J0.0
G1 X84.0 Z-1.1478
G3 X85.5 Y-42.5 Z-1.1492 I0.0 J1.5
G1 Y42.5 Z-1.1986
G3 X84.0 Y44.0 Z-1.2 I-1.5 J0.0
G1 X-84.0 Z-1.2978
G3 X-85.5 Y42.5 Z-1.2992 I0.0 J-1.5
G1 Y-42.5 Z-1.3486
G3 X-84.0 Y-44.0 Z-1.35 I1.5 J0.0
G1 X84.0 Z-1.4478
G3 X85.5 Y-42.5 Z-1.4492 I0.0 J1.5
G1 Y42.5 Z-1.4986
G3 X84.0 Y44.0 Z-1.5 I-1.5 J0.0
G1 X-84.0 Z-1.5978
G3 X-85.5 Y42.5 Z-1.5992 I0.0 J-1.5
G1 Y-42.5 Z-1.6486
G3 X-84.0 Y-44.0 Z-1.65 I1.5 J0.0
G1 X84.0 Z-1.7478
G3 X85.5 Y-42.5 Z-1.7492 I0.0 J1.5
G1 Y42.5 Z-1.7986
G3 X84.0 Y44.0 Z-1.8 I-1.5 J0.0
G1 X-84.0 Z-1.8978
G3 X-85.5 Y42.5 Z-1.8992 I0.0 J-1.5
G1 Y-42.5 Z-1.9486
G3 X-84.0 Y-44.0 Z-1.95 I1.5 J0.0
G1 X84.0 Z-2.0478
G3 X85.5 Y-42.5 Z-2.0492 I0.0 J1.5
G1 Y42.5 Z-2.0986
G3 X84.0 Y44.0 Z-2.1 I-1.5 J0.0
G1 X-84.0 Z-2.1978
G3 X-85.5 Y42.5 Z-2.1992 I0.0 J-1.5
G1 Y-42.5 Z-2.2486
G3 X-84.0 Y-44.0 Z-2.25 I1.5 J0.0
G1 X84.0 Z-2.3478
G3 X85.5 Y-42.5 Z-2.3492 I0.0 J1.5
G1 Y42.5 Z-2.3986
G3 X84.0 Y44.0 Z-2.4 I-1.5 J0.0
G1 X-84.0 Z-2.4978
G3 X-85.5 Y42.5 Z-2.4992 I0.0 J-1.5
G1 Y-42.5 Z-2.5486
G3 X-84.0 Y-44.0 Z-2.55 I1.5 J0.0
G1 X84.0 Z-2.6478
G3 X85.5 Y-42.5 Z-2.6492 I0.0 J1.5
G1 Y42.5 Z-2.6986
G3 X84.0 Y44.0 Z-2.7 I-1.5 J0.0
G1 X-84.0 Z-2.7978
G3 X-85.5 Y42.5 Z-2.7992 I0.0 J-1.5
G1 Y-42.5 Z-2.8486
G3 X-84.0 Y-44.0 Z-2.85 I1.5 J0.0
G1 X84.0 Z-2.9478
G3 X85.5 Y-42.5 Z-2.9492 I0.0 J1.5
G1 Y42.5 Z-2.9986
G3 X84.0 Y44.0 Z-3.0 I-1.5 J0.0
G1 X-84.0 Z-3.0978
G3 X-85.5 Y42.5 Z-3.0992 I0.0 J-1.5
G1 Y-42.5 Z-3.1486
G3 X-84.0 Y-44.0 Z-3.15 I1.5 J0.0
G1 X84.0 Z-3.2478
G3 X85.5 Y-42.5 Z-3.2492 I0.0 J1.5
G1 Y42.5 Z-3.2986
G3 X84.0 Y44.0 Z-3.3 I-1.5 J0.0
G1 X-84.0 Z-3.3978
G3 X-85.5 Y42.5 Z-3.3992 I0.0 J-1.5
G1 Y-42.5 Z-3.4486
G3 X-84.0 Y-44.0 Z-3.45 I1.5 J0.0
G1 X84.0 Z-3.5478
G3 X85.5 Y-42.5 Z-3.5492 I0.0 J1.5
G1 Y42.5 Z-3.5986
G3 X84.0 Y44.0 Z-3.6 I-1.5 J0.0
G1 X-84.0 Z-3.6978
G3 X-85.5 Y42.5 Z-3.6992 I0.0 J-1.5
G1 Y-42.5 Z-3.7486
G3 X-84.0 Y-44.0 Z-3.75 I1.5 J0.0
G1 X84.0 Z-3.8478
G3 X85.5 Y-42.5 Z-3.8492 I0.0 J1.5
G1 Y42.5 Z-3.8986
G3 X84.0 Y44.0 Z-3.9 I-1.5 J0.0
G1 X-84.0 Z-3.9978
G3 X-85.5 Y42.5 Z-3.9992 I0.0 J-1.5
G1 Y-42.5 Z-4.0486
G3 X-84.0 Y-44.0 Z-4.05 I1.5 J0.0
G1 X84.0 Z-4.1478
G3 X85.5 Y-42.5 Z-4.1492 I0.0 J1.5
G1 Y42.5 Z-4.1986
G3 X84.0 Y44.0 Z-4.2 I-1.5 J0.0
G1 X-84.0
G3 X-85.5 Y42.5 I0.0 J-1.5
G1 Y-42.5
G3 X-84.0 Y-44.0 I1.5 J0.0
G1 X84.0
G3 X85.5 Y-42.5 I0.0 J1.5
G1 Y42.5
G3 X84.0 Y44.0 I-1.5 J0.0
G0 Z3.0
M5
M30
