( Made using CamBam - http://www.cambam.co.uk )
( 210207LeftSideanel 2/7/2021 5:24:01 PM )
( T2 : 2.0 )
( CUTVIEWER )
( FROM/0,0,5 )
( Select dummy tool to avoid warnings )
( TOOL/MILL,1,0,20.0,0 )
( STOCK/BLOCK,100.0,100.0,4.0,90.0,50.0,4.0 )
G21 G90 G91.1 G64 G40
G0 Z3.0
( T2 : 2.0 )
( Tool Taper coming soon )
( TOOL/MILL,2.0,0.0,0.0,0 )
T2 M6
( RightWallTrail )
G17
M3 S2300
G0 X-1.8 Y40.3
G0 Z1.0
G1 F150.0 Z0.0
G1 F100.0 X-73.2 Z-0.1492
G1 Y40.7 Z-0.15
G1 X-1.8 Z-0.2992
G1 Y40.3 Z-0.3
G1 F150.0 Y39.5
G1 F100.0 X-74.0
G1 Y41.5
G1 X-1.0
G1 Y39.5
G1 X-1.8
G1 F150.0 Y40.3
G1 F100.0 X-73.2 Z-0.4492
G1 Y40.7 Z-0.45
G1 X-1.8 Z-0.5992
G1 Y40.3 Z-0.6
G1 F150.0 Y39.5
G1 F100.0 X-74.0
G1 Y41.5
G1 X-1.0
G1 Y39.5
G1 X-1.8
G1 F150.0 Y40.3
G1 F100.0 X-73.2 Z-0.7492
G1 Y40.7 Z-0.75
G1 X-1.8 Z-0.8992
G1 Y40.3 Z-0.9
G1 F150.0 Y39.5
G1 F100.0 X-74.0
G1 Y41.5
G1 X-1.0
G1 Y39.5
G1 X-1.8
G1 F150.0 Y40.3
G1 F100.0 X-73.2 Z-1.0492
G1 Y40.7 Z-1.05
G1 X-1.8 Z-1.1992
G1 Y40.3 Z-1.2
G1 F150.0 Y39.5
G1 F100.0 X-74.0
G1 Y41.5
G1 X-1.0
G1 Y39.5
G1 X-1.8
G1 F150.0 Y40.3
G1 F100.0 X-73.2 Z-1.3492
G1 Y40.7 Z-1.35
G1 X-1.8 Z-1.4992
G1 Y40.3 Z-1.5
G1 F150.0 Y39.5
G1 F100.0 X-74.0
G1 Y41.5
G1 X-1.0
G1 Y39.5
G1 X-1.8
G1 F150.0 Y40.3
G1 F100.0 X-73.2 Z-1.6492
G1 Y40.7 Z-1.65
G1 X-1.8 Z-1.7992
G1 Y40.3 Z-1.8
G1 F150.0 Y39.5
G1 F100.0 X-74.0
G1 Y41.5
G1 X-1.0
G1 Y39.5
G1 X-1.8
G1 F150.0 Y40.3
G1 F100.0 X-73.2 Z-1.8497
G1 Y40.7 Z-1.85
G1 X-1.8 Z-1.8997
G1 Y40.3 Z-1.9
G1 F150.0 Y39.5
G1 F100.0 X-74.0
G1 Y41.5
G1 X-1.0
G1 Y39.5
G1 X-1.8
G1 F150.0 Y40.3
G1 F100.0 X-73.2 Z-1.9497
G1 Y40.7 Z-1.95
G1 X-1.8 Z-1.9997
G1 Y40.3 Z-2.0
G1 X-73.2
G1 Y40.7
G1 X-1.8
G1 Y40.3
G1 F150.0 Y39.5
G1 F100.0 X-74.0
G1 Y41.5
G1 X-1.0
G1 Y39.5
G1 X-1.8
( LeftWallTrail )
S1000
G0 Z3.0
G0 X-3.0 Y-39.5
G0 Z1.0
G1 F150.0 Z0.0
G1 F100.0 X-72.0 Z-0.3
G1 X-3.0
G0 Z3.0
G0 X-72.4
G0 Z1.0
G1 F150.0 Z0.0
G1 F100.0 Y-39.1 Z-0.0008
G1 X-2.6 Z-0.1492
G1 Y-39.9 Z-0.1508
G1 X-72.4 Z-0.2992
G1 Y-39.5 Z-0.3
G1 F150.0 X-73.2
G1 F100.0 Y-38.3
G1 X-1.8
G1 Y-40.7
G1 X-73.2
G1 Y-39.5
G1 F150.0 X-74.0
G1 F100.0 Y-37.5
G1 X-1.0
G1 Y-41.5
G1 X-74.0
G1 Y-39.5
G0 Z3.0
G0 X-3.0
G0 Z0.7
G1 F150.0 Z-0.3
G1 F100.0 X-72.0 Z-0.6
G1 X-3.0
G0 Z3.0
G0 X-72.4
G0 Z0.7
G1 F150.0 Z-0.3
G1 F100.0 Y-39.1 Z-0.3008
G1 X-2.6 Z-0.4492
G1 Y-39.9 Z-0.4508
G1 X-72.4 Z-0.5992
G1 Y-39.5 Z-0.6
G1 F150.0 X-73.2
G1 F100.0 Y-38.3
G1 X-1.8
G1 Y-40.7
G1 X-73.2
G1 Y-39.5
G1 F150.0 X-74.0
G1 F100.0 Y-37.5
G1 X-1.0
G1 Y-41.5
G1 X-74.0
G1 Y-39.5
G0 Z3.0
G0 X-3.0
G0 Z0.4
G1 F150.0 Z-0.6
G1 F100.0 X-72.0 Z-0.9
G1 X-3.0
G0 Z3.0
G0 X-72.4
G0 Z0.4
G1 F150.0 Z-0.6
G1 F100.0 Y-39.1 Z-0.6008
G1 X-2.6 Z-0.7492
G1 Y-39.9 Z-0.7508
G1 X-72.4 Z-0.8992
G1 Y-39.5 Z-0.9
G1 F150.0 X-73.2
G1 F100.0 Y-38.3
G1 X-1.8
G1 Y-40.7
G1 X-73.2
G1 Y-39.5
G1 F150.0 X-74.0
G1 F100.0 Y-37.5
G1 X-1.0
G1 Y-41.5
G1 X-74.0
G1 Y-39.5
G0 Z3.0
G0 X-3.0
G1 F150.0 Z-0.9
G1 F100.0 X-72.0 Z-1.2
G1 X-3.0
G0 Z3.0
G0 X-72.4
G1 F150.0 Z-0.9
G1 F100.0 Y-39.1 Z-0.9008
G1 X-2.6 Z-1.0492
G1 Y-39.9 Z-1.0508
G1 X-72.4 Z-1.1992
G1 Y-39.5 Z-1.2
G1 F150.0 X-73.2
G1 F100.0 Y-38.3
G1 X-1.8
G1 Y-40.7
G1 X-73.2
G1 Y-39.5
G1 F150.0 X-74.0
G1 F100.0 Y-37.5
G1 X-1.0
G1 Y-41.5
G1 X-74.0
G1 Y-39.5
G0 Z3.0
G0 X-3.0
G0 Z-0.2
G1 F150.0 Z-1.2
G1 F100.0 X-72.0 Z-1.5
G1 X-3.0
G0 Z3.0
G0 X-72.4
G0 Z-0.2
G1 F150.0 Z-1.2
G1 F100.0 Y-39.1 Z-1.2008
G1 X-2.6 Z-1.3492
G1 Y-39.9 Z-1.3508
G1 X-72.4 Z-1.4992
G1 Y-39.5 Z-1.5
G1 F150.0 X-73.2
G1 F100.0 Y-38.3
G1 X-1.8
G1 Y-40.7
G1 X-73.2
G1 Y-39.5
G1 F150.0 X-74.0
G1 F100.0 Y-37.5
G1 X-1.0
G1 Y-41.5
G1 X-74.0
G1 Y-39.5
G0 Z3.0
G0 X-3.0
G0 Z-0.5
G1 F150.0 Z-1.5
G1 F100.0 X-72.0 Z-1.8
G1 X-3.0
G0 Z3.0
G0 X-72.4
G0 Z-0.5
G1 F150.0 Z-1.5
G1 F100.0 Y-39.1 Z-1.5008
G1 X-2.6 Z-1.6492
G1 Y-39.9 Z-1.6508
G1 X-72.4 Z-1.7992
G1 Y-39.5 Z-1.8
G1 F150.0 X-73.2
G1 F100.0 Y-38.3
G1 X-1.8
G1 Y-40.7
G1 X-73.2
G1 Y-39.5
G1 F150.0 X-74.0
G1 F100.0 Y-37.5
G1 X-1.0
G1 Y-41.5
G1 X-74.0
G1 Y-39.5
G0 Z3.0
G0 X-3.0
G0 Z-0.8
G1 F150.0 Z-1.8
G1 F100.0 X-72.0 Z-1.9
G1 X-3.0
G0 Z3.0
G0 X-72.4
G0 Z-0.8
G1 F150.0 Z-1.8
G1 F100.0 Y-39.1 Z-1.8003
G1 X-2.6 Z-1.8497
G1 Y-39.9 Z-1.8503
G1 X-72.4 Z-1.8997
G1 Y-39.5 Z-1.9
G1 F150.0 X-73.2
G1 F100.0 Y-38.3
G1 X-1.8
G1 Y-40.7
G1 X-73.2
G1 Y-39.5
G1 F150.0 X-74.0
G1 F100.0 Y-37.5
G1 X-1.0
G1 Y-41.5
G1 X-74.0
G1 Y-39.5
G0 Z3.0
G0 X-3.0
G0 Z-0.9
G1 F150.0 Z-1.9
G1 F100.0 X-72.0 Z-2.0
G1 X-3.0
G0 Z3.0
G0 X-72.4
G0 Z-0.9
G1 F150.0 Z-1.9
G1 F100.0 Y-39.1 Z-1.9003
G1 X-2.6 Z-1.9497
G1 Y-39.9 Z-1.9503
G1 X-72.4 Z-1.9997
G1 Y-39.5 Z-2.0
G1 Y-39.1
G1 X-2.6
G1 Y-39.9
G1 X-72.4
G1 Y-39.5
G1 F150.0 X-73.2
G1 F100.0 Y-38.3
G1 X-1.8
G1 Y-40.7
G1 X-73.2
G1 Y-39.5
G1 F150.0 X-74.0
G1 F100.0 Y-37.5
G1 X-1.0
G1 Y-41.5
G1 X-74.0
G1 Y-39.5
( PanelCutout )
S1000
G0 Z3.0
G0 X0.0 Y43.5
G0 Z1.0
G1 F150.0 Z0.0
G1 F100.0 X-75.0 Z-0.069
G3 X-76.0 Y42.5 Z-0.0704 I0.0 J-1.0
G1 Y-42.5 Z-0.1486
G3 X-75.0 Y-43.5 Z-0.15 I1.0 J0.0
G1 X0.0 Z-0.219
G3 X1.0 Y-42.5 Z-0.2204 I0.0 J1.0
G1 Y42.5 Z-0.2986
G3 X0.0 Y43.5 Z-0.3 I-1.0 J0.0
G1 X-75.0 Z-0.369
G3 X-76.0 Y42.5 Z-0.3704 I0.0 J-1.0
G1 Y-42.5 Z-0.4486
G3 X-75.0 Y-43.5 Z-0.45 I1.0 J0.0
G1 X0.0 Z-0.519
G3 X1.0 Y-42.5 Z-0.5204 I0.0 J1.0
G1 Y42.5 Z-0.5986
G3 X0.0 Y43.5 Z-0.6 I-1.0 J0.0
G1 X-75.0 Z-0.669
G3 X-76.0 Y42.5 Z-0.6704 I0.0 J-1.0
G1 Y-42.5 Z-0.7486
G3 X-75.0 Y-43.5 Z-0.75 I1.0 J0.0
G1 X0.0 Z-0.819
G3 X1.0 Y-42.5 Z-0.8204 I0.0 J1.0
G1 Y42.5 Z-0.8986
G3 X0.0 Y43.5 Z-0.9 I-1.0 J0.0
G1 X-75.0 Z-0.969
G3 X-76.0 Y42.5 Z-0.9704 I0.0 J-1.0
G1 Y-42.5 Z-1.0486
G3 X-75.0 Y-43.5 Z-1.05 I1.0 J0.0
G1 X0.0 Z-1.119
G3 X1.0 Y-42.5 Z-1.1204 I0.0 J1.0
G1 Y42.5 Z-1.1986
G3 X0.0 Y43.5 Z-1.2 I-1.0 J0.0
G1 X-75.0 Z-1.269
G3 X-76.0 Y42.5 Z-1.2704 I0.0 J-1.0
G1 Y-42.5 Z-1.3486
G3 X-75.0 Y-43.5 Z-1.35 I1.0 J0.0
G1 X0.0 Z-1.419
G3 X1.0 Y-42.5 Z-1.4204 I0.0 J1.0
G1 Y42.5 Z-1.4986
G3 X0.0 Y43.5 Z-1.5 I-1.0 J0.0
G1 X-75.0 Z-1.569
G3 X-76.0 Y42.5 Z-1.5704 I0.0 J-1.0
G1 Y-42.5 Z-1.6486
G3 X-75.0 Y-43.5 Z-1.65 I1.0 J0.0
G1 X0.0 Z-1.719
G3 X1.0 Y-42.5 Z-1.7204 I0.0 J1.0
G1 Y42.5 Z-1.7986
G3 X0.0 Y43.5 Z-1.8 I-1.0 J0.0
G1 X-75.0 Z-1.869
G3 X-76.0 Y42.5 Z-1.8704 I0.0 J-1.0
G1 Y-42.5 Z-1.9486
G3 X-75.0 Y-43.5 Z-1.95 I1.0 J0.0
G1 X0.0 Z-2.019
G3 X1.0 Y-42.5 Z-2.0204 I0.0 J1.0
G1 Y42.5 Z-2.0986
G3 X0.0 Y43.5 Z-2.1 I-1.0 J0.0
G1 X-75.0 Z-2.169
G3 X-76.0 Y42.5 Z-2.1704 I0.0 J-1.0
G1 Y-42.5 Z-2.2486
G3 X-75.0 Y-43.5 Z-2.25 I1.0 J0.0
G1 X0.0 Z-2.319
G3 X1.0 Y-42.5 Z-2.3204 I0.0 J1.0
G1 Y42.5 Z-2.3986
G3 X0.0 Y43.5 Z-2.4 I-1.0 J0.0
G1 X-75.0 Z-2.469
G3 X-76.0 Y42.5 Z-2.4704 I0.0 J-1.0
G1 Y-42.5 Z-2.5486
G3 X-75.0 Y-43.5 Z-2.55 I1.0 J0.0
G1 X0.0 Z-2.619
G3 X1.0 Y-42.5 Z-2.6204 I0.0 J1.0
G1 Y42.5 Z-2.6986
G3 X0.0 Y43.5 Z-2.7 I-1.0 J0.0
G1 X-75.0 Z-2.769
G3 X-76.0 Y42.5 Z-2.7704 I0.0 J-1.0
G1 Y-42.5 Z-2.8486
G3 X-75.0 Y-43.5 Z-2.85 I1.0 J0.0
G1 X0.0 Z-2.919
G3 X1.0 Y-42.5 Z-2.9204 I0.0 J1.0
G1 Y42.5 Z-2.9986
G3 X0.0 Y43.5 Z-3.0 I-1.0 J0.0
G1 X-75.0 Z-3.069
G3 X-76.0 Y42.5 Z-3.0704 I0.0 J-1.0
G1 Y-42.5 Z-3.1486
G3 X-75.0 Y-43.5 Z-3.15 I1.0 J0.0
G1 X0.0 Z-3.219
G3 X1.0 Y-42.5 Z-3.2204 I0.0 J1.0
G1 Y42.5 Z-3.2986
G3 X0.0 Y43.5 Z-3.3 I-1.0 J0.0
G1 X-75.0 Z-3.369
G3 X-76.0 Y42.5 Z-3.3704 I0.0 J-1.0
G1 Y-42.5 Z-3.4486
G3 X-75.0 Y-43.5 Z-3.45 I1.0 J0.0
G1 X0.0 Z-3.519
G3 X1.0 Y-42.5 Z-3.5204 I0.0 J1.0
G1 Y42.5 Z-3.5986
G3 X0.0 Y43.5 Z-3.6 I-1.0 J0.0
G1 X-75.0 Z-3.669
G3 X-76.0 Y42.5 Z-3.6704 I0.0 J-1.0
G1 Y-42.5 Z-3.7486
G3 X-75.0 Y-43.5 Z-3.75 I1.0 J0.0
G1 X0.0 Z-3.819
G3 X1.0 Y-42.5 Z-3.8204 I0.0 J1.0
G1 Y42.5 Z-3.8986
G3 X0.0 Y43.5 Z-3.9 I-1.0 J0.0
G1 X-75.0 Z-3.969
G3 X-76.0 Y42.5 Z-3.9704 I0.0 J-1.0
G1 Y-42.5 Z-4.0486
G3 X-75.0 Y-43.5 Z-4.05 I1.0 J0.0
G1 X0.0 Z-4.119
G3 X1.0 Y-42.5 Z-4.1204 I0.0 J1.0
G1 Y42.5 Z-4.1986
G3 X0.0 Y43.5 Z-4.2 I-1.0 J0.0
G1 X-75.0
G3 X-76.0 Y42.5 I0.0 J-1.0
G1 Y-42.5
G3 X-75.0 Y-43.5 I1.0 J0.0
G1 X0.0
G3 X1.0 Y-42.5 I0.0 J1.0
G1 Y42.5
G3 X0.0 Y43.5 I-1.0 J0.0
G0 Z3.0
M5
M30
