( Made using CamBam - http://www.cambam.co.uk )
( 210211_Frontpanel 2/12/2021 2:08:47 PM )
( Post processor: Mach3 )
( T2 : 2.0 )
G21 G90 G64 G40
G91.1
G0 Z3.0
( T2 : 2.0 )
T2 M6
( M3 )
G17
M3 S1000
G0 X-75.6945 Y31.1173
G0 Z1.0
G1 F300.0 Z0.0
G1 F800.0 X-75.7126 Y31.105 Z-0.003
G1 X-75.7316 Y31.0937 Z-0.006
G1 X-75.7513 Y31.0837 Z-0.009
G1 X-75.7713 Y31.075 Z-0.012
G1 X-75.7919 Y31.0676 Z-0.015
G1 X-75.8133 Y31.0614 Z-0.018
G1 X-75.8347 Y31.0566 Z-0.021
G1 X-75.8559 Y31.0533 Z-0.024
G1 X-75.8778 Y31.0512 Z-0.027
G1 X-75.9 Y31.0505 Z-0.03
G1 X-75.9222 Y31.0512 Z-0.033
G1 X-75.9441 Y31.0533 Z-0.036
G1 X-75.9653 Y31.0566 Z-0.039
G1 X-75.9867 Y31.0614 Z-0.042
G1 X-76.0081 Y31.0676 Z-0.045
G1 X-76.0287 Y31.075 Z-0.048
G1 X-76.0487 Y31.0837 Z-0.051
G1 X-76.0684 Y31.0937 Z-0.054
G1 X-76.0874 Y31.105 Z-0.057
G1 X-76.1055 Y31.1173 Z-0.06
G1 X-76.1226 Y31.1305 Z-0.063
G1 X-76.1391 Y31.1451 Z-0.066
G1 X-76.1549 Y31.1609 Z-0.069
G1 X-76.1695 Y31.1774 Z-0.072
G1 X-76.1827 Y31.1945 Z-0.075
G1 X-76.195 Y31.2126 Z-0.078
G1 X-76.2063 Y31.2316 Z-0.081
G1 X-76.2163 Y31.2513 Z-0.084
G1 X-76.225 Y31.2713 Z-0.087
G1 X-76.2324 Y31.2919 Z-0.09
G1 X-76.2386 Y31.3133 Z-0.093
G1 X-76.2434 Y31.3347 Z-0.096
G1 X-76.2467 Y31.3559 Z-0.099
G1 X-76.2488 Y31.3778 Z-0.102
G1 X-76.2495 Y31.4 Z-0.105
G1 X-76.2488 Y31.4222 Z-0.108
G1 X-76.2467 Y31.4441 Z-0.111
G1 X-76.2434 Y31.4653 Z-0.114
G1 X-76.2386 Y31.4867 Z-0.117
G1 X-76.2324 Y31.5081 Z-0.12
G1 X-76.225 Y31.5287 Z-0.123
G1 X-76.2163 Y31.5487 Z-0.126
G1 X-76.2063 Y31.5684 Z-0.129
G1 X-76.195 Y31.5874 Z-0.132
G1 X-76.1827 Y31.6055 Z-0.135
G1 X-76.1695 Y31.6226 Z-0.138
G1 X-76.1549 Y31.6391 Z-0.141
G1 X-76.1391 Y31.6549 Z-0.144
G1 X-76.1226 Y31.6695 Z-0.147
G1 X-76.1055 Y31.6827 Z-0.15
G1 X-76.0874 Y31.695 Z-0.153
G1 X-76.0684 Y31.7063 Z-0.156
G1 X-76.0487 Y31.7163 Z-0.159
G1 X-76.0287 Y31.725 Z-0.162
G1 X-76.0081 Y31.7324 Z-0.165
G1 X-75.9867 Y31.7386 Z-0.168
G1 X-75.9653 Y31.7434 Z-0.171
G1 X-75.9441 Y31.7467 Z-0.174
G1 X-75.9222 Y31.7488 Z-0.177
G1 X-75.9 Y31.7495 Z-0.18
G1 X-75.8778 Y31.7488 Z-0.183
G1 X-75.8559 Y31.7467 Z-0.186
G1 X-75.8347 Y31.7434 Z-0.189
G1 X-75.8133 Y31.7386 Z-0.192
G1 X-75.7919 Y31.7324 Z-0.195
G1 X-75.7713 Y31.725 Z-0.198
G1 X-75.7513 Y31.7163 Z-0.201
G1 X-75.7316 Y31.7063 Z-0.204
G1 X-75.7126 Y31.695 Z-0.207
G1 X-75.6945 Y31.6827 Z-0.21
G1 X-75.6774 Y31.6695 Z-0.213
G1 X-75.6609 Y31.6549 Z-0.216
G1 X-75.6451 Y31.6391 Z-0.219
G1 X-75.6305 Y31.6226 Z-0.222
G1 X-75.6173 Y31.6055 Z-0.225
G1 X-75.605 Y31.5874 Z-0.228
G1 X-75.5937 Y31.5684 Z-0.231
G1 X-75.5837 Y31.5487 Z-0.234
G1 X-75.575 Y31.5287 Z-0.237
G1 X-75.5676 Y31.5081 Z-0.24
G1 X-75.5614 Y31.4867 Z-0.243
G1 X-75.5566 Y31.4653 Z-0.246
G1 X-75.5533 Y31.4441 Z-0.249
G1 X-75.5512 Y31.4222 Z-0.252
G1 X-75.5505 Y31.4 Z-0.255
G1 X-75.5512 Y31.3778 Z-0.258
G1 X-75.5533 Y31.3559 Z-0.261
G1 X-75.5566 Y31.3347 Z-0.264
G1 X-75.5614 Y31.3133 Z-0.267
G1 X-75.5676 Y31.2919 Z-0.27
G1 X-75.575 Y31.2713 Z-0.273
G1 X-75.5837 Y31.2513 Z-0.276
G1 X-75.5937 Y31.2316 Z-0.279
G1 X-75.605 Y31.2126 Z-0.282
G1 X-75.6173 Y31.1945 Z-0.285
G1 X-75.6305 Y31.1774 Z-0.288
G1 X-75.6451 Y31.1609 Z-0.291
G1 X-75.6609 Y31.1451 Z-0.294
G1 X-75.6774 Y31.1305 Z-0.297
G1 X-75.6945 Y31.1173 Z-0.3
G1 X-75.7126 Y31.105
G1 X-75.7316 Y31.0937
G1 X-75.7513 Y31.0837
G1 X-75.7713 Y31.075
G1 X-75.7919 Y31.0676
G1 X-75.8133 Y31.0614
G1 X-75.8347 Y31.0566
G1 X-75.8559 Y31.0533
G1 X-75.8778 Y31.0512
G1 X-75.9 Y31.0505
G1 X-75.9222 Y31.0512
G1 X-75.9441 Y31.0533
G1 X-75.9653 Y31.0566
G1 X-75.9867 Y31.0614
G1 X-76.0081 Y31.0676
G1 X-76.0287 Y31.075
G1 X-76.0487 Y31.0837
G1 X-76.0684 Y31.0937
G1 X-76.0874 Y31.105
G1 X-76.1055 Y31.1173
G1 X-76.1226 Y31.1305
G1 X-76.1391 Y31.1451
G1 X-76.1549 Y31.1609
G1 X-76.1695 Y31.1774
G1 X-76.1827 Y31.1945
G1 X-76.195 Y31.2126
G1 X-76.2063 Y31.2316
G1 X-76.2163 Y31.2513
G1 X-76.225 Y31.2713
G1 X-76.2324 Y31.2919
G1 X-76.2386 Y31.3133
G1 X-76.2434 Y31.3347
G1 X-76.2467 Y31.3559
G1 X-76.2488 Y31.3778
G1 X-76.2495 Y31.4
G1 X-76.2488 Y31.4222
G1 X-76.2467 Y31.4441
G1 X-76.2434 Y31.4653
G1 X-76.2386 Y31.4867
G1 X-76.2324 Y31.5081
G1 X-76.225 Y31.5287
G1 X-76.2163 Y31.5487
G1 X-76.2063 Y31.5684
G1 X-76.195 Y31.5874
G1 X-76.1827 Y31.6055
G1 X-76.1695 Y31.6226
G1 X-76.1549 Y31.6391
G1 X-76.1391 Y31.6549
G1 X-76.1226 Y31.6695
G1 X-76.1055 Y31.6827
G1 X-76.0874 Y31.695
G1 X-76.0684 Y31.7063
G1 X-76.0487 Y31.7163
G1 X-76.0287 Y31.725
G1 X-76.0081 Y31.7324
G1 X-75.9867 Y31.7386
G1 X-75.9653 Y31.7434
G1 X-75.9441 Y31.7467
G1 X-75.9222 Y31.7488
G1 X-75.9 Y31.7495
G1 X-75.8778 Y31.7488
G1 X-75.8559 Y31.7467
G1 X-75.8347 Y31.7434
G1 X-75.8133 Y31.7386
G1 X-75.7919 Y31.7324
G1 X-75.7713 Y31.725
G1 X-75.7513 Y31.7163
G1 X-75.7316 Y31.7063
G1 X-75.7126 Y31.695
G1 X-75.6945 Y31.6827
G1 X-75.6774 Y31.6695
G1 X-75.6609 Y31.6549
G1 X-75.6451 Y31.6391
G1 X-75.6305 Y31.6226
G1 X-75.6173 Y31.6055
G1 X-75.605 Y31.5874
G1 X-75.5937 Y31.5684
G1 X-75.5837 Y31.5487
G1 X-75.575 Y31.5287
G1 X-75.5676 Y31.5081
G1 X-75.5614 Y31.4867
G1 X-75.5566 Y31.4653
G1 X-75.5533 Y31.4441
G1 X-75.5512 Y31.4222
G1 X-75.5505 Y31.4
G1 X-75.5512 Y31.3778
G1 X-75.5533 Y31.3559
G1 X-75.5566 Y31.3347
G1 X-75.5614 Y31.3133
G1 X-75.5676 Y31.2919
G1 X-75.575 Y31.2713
G1 X-75.5837 Y31.2513
G1 X-75.5937 Y31.2316
G1 X-75.605 Y31.2126
G1 X-75.6173 Y31.1945
G1 X-75.6305 Y31.1774
G1 X-75.6451 Y31.1609
G1 X-75.6609 Y31.1451
G1 X-75.6774 Y31.1305
G1 X-75.6945 Y31.1173
G0 Z3.0
G0 X-73.0487 Y25.8163
G0 Z1.0
G1 F300.0 Z0.0
G1 F800.0 X-73.0287 Y25.825 Z-0.003
G1 X-73.0081 Y25.8324 Z-0.006
G1 X-72.9867 Y25.8386 Z-0.009
G1 X-72.9653 Y25.8434 Z-0.012
G1 X-72.9441 Y25.8467 Z-0.015
G1 X-72.9222 Y25.8488 Z-0.018
G1 X-72.9 Y25.8495 Z-0.021
G1 X-72.8778 Y25.8488 Z-0.024
G1 X-72.8559 Y25.8467 Z-0.027
G1 X-72.8347 Y25.8434 Z-0.03
G1 X-72.8133 Y25.8386 Z-0.033
G1 X-72.7919 Y25.8324 Z-0.036
G1 X-72.7713 Y25.825 Z-0.039
G1 X-72.7513 Y25.8163 Z-0.042
G1 X-72.7316 Y25.8063 Z-0.045
G1 X-72.7126 Y25.795 Z-0.048
G1 X-72.6945 Y25.7827 Z-0.051
G1 X-72.6774 Y25.7695 Z-0.054
G1 X-72.6609 Y25.7549 Z-0.057
G1 X-72.6451 Y25.7391 Z-0.06
G1 X-72.6305 Y25.7226 Z-0.063
G1 X-72.6173 Y25.7055 Z-0.066
G1 X-72.605 Y25.6874 Z-0.069
G1 X-72.5937 Y25.6684 Z-0.072
G1 X-72.5837 Y25.6487 Z-0.075
G1 X-72.575 Y25.6287 Z-0.078
G1 X-72.5676 Y25.6081 Z-0.081
G1 X-72.5614 Y25.5867 Z-0.084
G1 X-72.5566 Y25.5653 Z-0.087
G1 X-72.5533 Y25.5441 Z-0.09
G1 X-72.5512 Y25.5222 Z-0.093
G1 X-72.5505 Y25.5 Z-0.096
G1 X-72.5512 Y25.4778 Z-0.099
G1 X-72.5533 Y25.4559 Z-0.102
G1 X-72.5566 Y25.4347 Z-0.105
G1 X-72.5614 Y25.4133 Z-0.108
G1 X-72.5676 Y25.3919 Z-0.111
G1 X-72.575 Y25.3713 Z-0.114
G1 X-72.5837 Y25.3513 Z-0.117
G1 X-72.5937 Y25.3316 Z-0.12
G1 X-72.605 Y25.3126 Z-0.123
G1 X-72.6173 Y25.2945 Z-0.126
G1 X-72.6305 Y25.2774 Z-0.129
G1 X-72.6451 Y25.2609 Z-0.132
G1 X-72.6609 Y25.2451 Z-0.135
G1 X-72.6774 Y25.2305 Z-0.138
G1 X-72.6945 Y25.2173 Z-0.141
G1 X-72.7126 Y25.205 Z-0.144
G1 X-72.7316 Y25.1937 Z-0.147
G1 X-72.7513 Y25.1837 Z-0.15
G1 X-72.7713 Y25.175 Z-0.153
G1 X-72.7919 Y25.1676 Z-0.156
G1 X-72.8133 Y25.1614 Z-0.159
G1 X-72.8347 Y25.1566 Z-0.162
G1 X-72.8559 Y25.1533 Z-0.165
G1 X-72.8778 Y25.1512 Z-0.168
G1 X-72.9 Y25.1505 Z-0.171
G1 X-72.9222 Y25.1512 Z-0.174
G1 X-72.9441 Y25.1533 Z-0.177
G1 X-72.9653 Y25.1566 Z-0.18
G1 X-72.9867 Y25.1614 Z-0.183
G1 X-73.0081 Y25.1676 Z-0.186
G1 X-73.0287 Y25.175 Z-0.189
G1 X-73.0487 Y25.1837 Z-0.192
G1 X-73.0684 Y25.1937 Z-0.195
G1 X-73.0874 Y25.205 Z-0.198
G1 X-73.1055 Y25.2173 Z-0.201
G1 X-73.1226 Y25.2305 Z-0.204
G1 X-73.1391 Y25.2451 Z-0.207
G1 X-73.1549 Y25.2609 Z-0.21
G1 X-73.1695 Y25.2774 Z-0.213
G1 X-73.1827 Y25.2945 Z-0.216
G1 X-73.195 Y25.3126 Z-0.219
G1 X-73.2063 Y25.3316 Z-0.222
G1 X-73.2163 Y25.3513 Z-0.225
G1 X-73.225 Y25.3713 Z-0.228
G1 X-73.2324 Y25.3919 Z-0.231
G1 X-73.2386 Y25.4133 Z-0.234
G1 X-73.2434 Y25.4347 Z-0.237
G1 X-73.2467 Y25.4559 Z-0.24
G1 X-73.2488 Y25.4778 Z-0.243
G1 X-73.2495 Y25.5 Z-0.246
G1 X-73.2488 Y25.5222 Z-0.249
G1 X-73.2467 Y25.5441 Z-0.252
G1 X-73.2434 Y25.5653 Z-0.255
G1 X-73.2386 Y25.5867 Z-0.258
G1 X-73.2324 Y25.6081 Z-0.261
G1 X-73.225 Y25.6287 Z-0.264
G1 X-73.2163 Y25.6487 Z-0.267
G1 X-73.2063 Y25.6684 Z-0.27
G1 X-73.195 Y25.6874 Z-0.273
G1 X-73.1827 Y25.7055 Z-0.276
G1 X-73.1695 Y25.7226 Z-0.279
G1 X-73.1549 Y25.7391 Z-0.282
G1 X-73.1391 Y25.7549 Z-0.285
G1 X-73.1226 Y25.7695 Z-0.288
G1 X-73.1055 Y25.7827 Z-0.291
G1 X-73.0874 Y25.795 Z-0.294
G1 X-73.0684 Y25.8063 Z-0.297
G1 X-73.0487 Y25.8163 Z-0.3
G1 X-73.0287 Y25.825
G1 X-73.0081 Y25.8324
G1 X-72.9867 Y25.8386
G1 X-72.9653 Y25.8434
G1 X-72.9441 Y25.8467
G1 X-72.9222 Y25.8488
G1 X-72.9 Y25.8495
G1 X-72.8778 Y25.8488
G1 X-72.8559 Y25.8467
G1 X-72.8347 Y25.8434
G1 X-72.8133 Y25.8386
G1 X-72.7919 Y25.8324
G1 X-72.7713 Y25.825
G1 X-72.7513 Y25.8163
G1 X-72.7316 Y25.8063
G1 X-72.7126 Y25.795
G1 X-72.6945 Y25.7827
G1 X-72.6774 Y25.7695
G1 X-72.6609 Y25.7549
G1 X-72.6451 Y25.7391
G1 X-72.6305 Y25.7226
G1 X-72.6173 Y25.7055
G1 X-72.605 Y25.6874
G1 X-72.5937 Y25.6684
G1 X-72.5837 Y25.6487
G1 X-72.575 Y25.6287
G1 X-72.5676 Y25.6081
G1 X-72.5614 Y25.5867
G1 X-72.5566 Y25.5653
G1 X-72.5533 Y25.5441
G1 X-72.5512 Y25.5222
G1 X-72.5505 Y25.5
G1 X-72.5512 Y25.4778
G1 X-72.5533 Y25.4559
G1 X-72.5566 Y25.4347
G1 X-72.5614 Y25.4133
G1 X-72.5676 Y25.3919
G1 X-72.575 Y25.3713
G1 X-72.5837 Y25.3513
G1 X-72.5937 Y25.3316
G1 X-72.605 Y25.3126
G1 X-72.6173 Y25.2945
G1 X-72.6305 Y25.2774
G1 X-72.6451 Y25.2609
G1 X-72.6609 Y25.2451
G1 X-72.6774 Y25.2305
G1 X-72.6945 Y25.2173
G1 X-72.7126 Y25.205
G1 X-72.7316 Y25.1937
G1 X-72.7513 Y25.1837
G1 X-72.7713 Y25.175
G1 X-72.7919 Y25.1676
G1 X-72.8133 Y25.1614
G1 X-72.8347 Y25.1566
G1 X-72.8559 Y25.1533
G1 X-72.8778 Y25.1512
G1 X-72.9 Y25.1505
G1 X-72.9222 Y25.1512
G1 X-72.9441 Y25.1533
G1 X-72.9653 Y25.1566
G1 X-72.9867 Y25.1614
G1 X-73.0081 Y25.1676
G1 X-73.0287 Y25.175
G1 X-73.0487 Y25.1837
G1 X-73.0684 Y25.1937
G1 X-73.0874 Y25.205
G1 X-73.1055 Y25.2173
G1 X-73.1226 Y25.2305
G1 X-73.1391 Y25.2451
G1 X-73.1549 Y25.2609
G1 X-73.1695 Y25.2774
G1 X-73.1827 Y25.2945
G1 X-73.195 Y25.3126
G1 X-73.2063 Y25.3316
G1 X-73.2163 Y25.3513
G1 X-73.225 Y25.3713
G1 X-73.2324 Y25.3919
G1 X-73.2386 Y25.4133
G1 X-73.2434 Y25.4347
G1 X-73.2467 Y25.4559
G1 X-73.2488 Y25.4778
G1 X-73.2495 Y25.5
G1 X-73.2488 Y25.5222
G1 X-73.2467 Y25.5441
G1 X-73.2434 Y25.5653
G1 X-73.2386 Y25.5867
G1 X-73.2324 Y25.6081
G1 X-73.225 Y25.6287
G1 X-73.2163 Y25.6487
G1 X-73.2063 Y25.6684
G1 X-73.195 Y25.6874
G1 X-73.1827 Y25.7055
G1 X-73.1695 Y25.7226
G1 X-73.1549 Y25.7391
G1 X-73.1391 Y25.7549
G1 X-73.1226 Y25.7695
G1 X-73.1055 Y25.7827
G1 X-73.0874 Y25.795
G1 X-73.0684 Y25.8063
G1 X-73.0487 Y25.8163
G0 Z3.0
G0 X-66.7055 Y17.2827
G0 Z1.0
G1 F300.0 Z0.0
G1 F800.0 X-66.6874 Y17.295 Z-0.003
G1 X-66.6684 Y17.3063 Z-0.006
G1 X-66.6487 Y17.3163 Z-0.009
G1 X-66.6287 Y17.325 Z-0.012
G1 X-66.6081 Y17.3324 Z-0.015
G1 X-66.5867 Y17.3386 Z-0.018
G1 X-66.5653 Y17.3434 Z-0.021
G1 X-66.5441 Y17.3467 Z-0.024
G1 X-66.5222 Y17.3488 Z-0.027
G1 X-66.5 Y17.3495 Z-0.03
G1 X-66.4778 Y17.3488 Z-0.033
G1 X-66.4559 Y17.3467 Z-0.036
G1 X-66.4347 Y17.3434 Z-0.039
G1 X-66.4133 Y17.3386 Z-0.042
G1 X-66.3919 Y17.3324 Z-0.045
G1 X-66.3713 Y17.325 Z-0.048
G1 X-66.3513 Y17.3163 Z-0.051
G1 X-66.3316 Y17.3063 Z-0.054
G1 X-66.3126 Y17.295 Z-0.057
G1 X-66.2945 Y17.2827 Z-0.06
G1 X-66.2774 Y17.2695 Z-0.063
G1 X-66.2609 Y17.2549 Z-0.066
G1 X-66.2451 Y17.2391 Z-0.069
G1 X-66.2305 Y17.2226 Z-0.072
G1 X-66.2173 Y17.2055 Z-0.075
G1 X-66.205 Y17.1874 Z-0.078
G1 X-66.1937 Y17.1684 Z-0.081
G1 X-66.1837 Y17.1487 Z-0.084
G1 X-66.175 Y17.1287 Z-0.087
G1 X-66.1676 Y17.1081 Z-0.09
G1 X-66.1614 Y17.0867 Z-0.093
G1 X-66.1566 Y17.0653 Z-0.096
G1 X-66.1533 Y17.0441 Z-0.099
G1 X-66.1512 Y17.0222 Z-0.102
G1 X-66.1505 Y17.0 Z-0.105
G1 X-66.1512 Y16.9778 Z-0.108
G1 X-66.1533 Y16.9559 Z-0.111
G1 X-66.1566 Y16.9347 Z-0.114
G1 X-66.1614 Y16.9133 Z-0.117
G1 X-66.1676 Y16.8919 Z-0.12
G1 X-66.175 Y16.8713 Z-0.123
G1 X-66.1837 Y16.8513 Z-0.126
G1 X-66.1937 Y16.8316 Z-0.129
G1 X-66.205 Y16.8126 Z-0.132
G1 X-66.2173 Y16.7945 Z-0.135
G1 X-66.2305 Y16.7774 Z-0.138
G1 X-66.2451 Y16.7609 Z-0.141
G1 X-66.2609 Y16.7451 Z-0.144
G1 X-66.2774 Y16.7305 Z-0.147
G1 X-66.2945 Y16.7173 Z-0.15
G1 X-66.3126 Y16.705 Z-0.153
G1 X-66.3316 Y16.6937 Z-0.156
G1 X-66.3513 Y16.6837 Z-0.159
G1 X-66.3713 Y16.675 Z-0.162
G1 X-66.3919 Y16.6676 Z-0.165
G1 X-66.4133 Y16.6614 Z-0.168
G1 X-66.4347 Y16.6566 Z-0.171
G1 X-66.4559 Y16.6533 Z-0.174
G1 X-66.4778 Y16.6512 Z-0.177
G1 X-66.5 Y16.6505 Z-0.18
G1 X-66.5222 Y16.6512 Z-0.183
G1 X-66.5441 Y16.6533 Z-0.186
G1 X-66.5653 Y16.6566 Z-0.189
G1 X-66.5867 Y16.6614 Z-0.192
G1 X-66.6081 Y16.6676 Z-0.195
G1 X-66.6287 Y16.675 Z-0.198
G1 X-66.6487 Y16.6837 Z-0.201
G1 X-66.6684 Y16.6937 Z-0.204
G1 X-66.6874 Y16.705 Z-0.207
G1 X-66.7055 Y16.7173 Z-0.21
G1 X-66.7226 Y16.7305 Z-0.213
G1 X-66.7391 Y16.7451 Z-0.216
G1 X-66.7549 Y16.7609 Z-0.219
G1 X-66.7695 Y16.7774 Z-0.222
G1 X-66.7827 Y16.7945 Z-0.225
G1 X-66.795 Y16.8126 Z-0.228
G1 X-66.8063 Y16.8316 Z-0.231
G1 X-66.8163 Y16.8513 Z-0.234
G1 X-66.825 Y16.8713 Z-0.237
G1 X-66.8324 Y16.8919 Z-0.24
G1 X-66.8386 Y16.9133 Z-0.243
G1 X-66.8434 Y16.9347 Z-0.246
G1 X-66.8467 Y16.9559 Z-0.249
G1 X-66.8488 Y16.9778 Z-0.252
G1 X-66.8495 Y17.0 Z-0.255
G1 X-66.8488 Y17.0222 Z-0.258
G1 X-66.8467 Y17.0441 Z-0.261
G1 X-66.8434 Y17.0653 Z-0.264
G1 X-66.8386 Y17.0867 Z-0.267
G1 X-66.8324 Y17.1081 Z-0.27
G1 X-66.825 Y17.1287 Z-0.273
G1 X-66.8163 Y17.1487 Z-0.276
G1 X-66.8063 Y17.1684 Z-0.279
G1 X-66.795 Y17.1874 Z-0.282
G1 X-66.7827 Y17.2055 Z-0.285
G1 X-66.7695 Y17.2226 Z-0.288
G1 X-66.7549 Y17.2391 Z-0.291
G1 X-66.7391 Y17.2549 Z-0.294
G1 X-66.7226 Y17.2695 Z-0.297
G1 X-66.7055 Y17.2827 Z-0.3
G1 X-66.6874 Y17.295
G1 X-66.6684 Y17.3063
G1 X-66.6487 Y17.3163
G1 X-66.6287 Y17.325
G1 X-66.6081 Y17.3324
G1 X-66.5867 Y17.3386
G1 X-66.5653 Y17.3434
G1 X-66.5441 Y17.3467
G1 X-66.5222 Y17.3488
G1 X-66.5 Y17.3495
G1 X-66.4778 Y17.3488
G1 X-66.4559 Y17.3467
G1 X-66.4347 Y17.3434
G1 X-66.4133 Y17.3386
G1 X-66.3919 Y17.3324
G1 X-66.3713 Y17.325
G1 X-66.3513 Y17.3163
G1 X-66.3316 Y17.3063
G1 X-66.3126 Y17.295
G1 X-66.2945 Y17.2827
G1 X-66.2774 Y17.2695
G1 X-66.2609 Y17.2549
G1 X-66.2451 Y17.2391
G1 X-66.2305 Y17.2226
G1 X-66.2173 Y17.2055
G1 X-66.205 Y17.1874
G1 X-66.1937 Y17.1684
G1 X-66.1837 Y17.1487
G1 X-66.175 Y17.1287
G1 X-66.1676 Y17.1081
G1 X-66.1614 Y17.0867
G1 X-66.1566 Y17.0653
G1 X-66.1533 Y17.0441
G1 X-66.1512 Y17.0222
G1 X-66.1505 Y17.0
G1 X-66.1512 Y16.9778
G1 X-66.1533 Y16.9559
G1 X-66.1566 Y16.9347
G1 X-66.1614 Y16.9133
G1 X-66.1676 Y16.8919
G1 X-66.175 Y16.8713
G1 X-66.1837 Y16.8513
G1 X-66.1937 Y16.8316
G1 X-66.205 Y16.8126
G1 X-66.2173 Y16.7945
G1 X-66.2305 Y16.7774
G1 X-66.2451 Y16.7609
G1 X-66.2609 Y16.7451
G1 X-66.2774 Y16.7305
G1 X-66.2945 Y16.7173
G1 X-66.3126 Y16.705
G1 X-66.3316 Y16.6937
G1 X-66.3513 Y16.6837
G1 X-66.3713 Y16.675
G1 X-66.3919 Y16.6676
G1 X-66.4133 Y16.6614
G1 X-66.4347 Y16.6566
G1 X-66.4559 Y16.6533
G1 X-66.4778 Y16.6512
G1 X-66.5 Y16.6505
G1 X-66.5222 Y16.6512
G1 X-66.5441 Y16.6533
G1 X-66.5653 Y16.6566
G1 X-66.5867 Y16.6614
G1 X-66.6081 Y16.6676
G1 X-66.6287 Y16.675
G1 X-66.6487 Y16.6837
G1 X-66.6684 Y16.6937
G1 X-66.6874 Y16.705
G1 X-66.7055 Y16.7173
G1 X-66.7226 Y16.7305
G1 X-66.7391 Y16.7451
G1 X-66.7549 Y16.7609
G1 X-66.7695 Y16.7774
G1 X-66.7827 Y16.7945
G1 X-66.795 Y16.8126
G1 X-66.8063 Y16.8316
G1 X-66.8163 Y16.8513
G1 X-66.825 Y16.8713
G1 X-66.8324 Y16.8919
G1 X-66.8386 Y16.9133
G1 X-66.8434 Y16.9347
G1 X-66.8467 Y16.9559
G1 X-66.8488 Y16.9778
G1 X-66.8495 Y17.0
G1 X-66.8488 Y17.0222
G1 X-66.8467 Y17.0441
G1 X-66.8434 Y17.0653
G1 X-66.8386 Y17.0867
G1 X-66.8324 Y17.1081
G1 X-66.825 Y17.1287
G1 X-66.8163 Y17.1487
G1 X-66.8063 Y17.1684
G1 X-66.795 Y17.1874
G1 X-66.7827 Y17.2055
G1 X-66.7695 Y17.2226
G1 X-66.7549 Y17.2391
G1 X-66.7391 Y17.2549
G1 X-66.7226 Y17.2695
G1 X-66.7055 Y17.2827
G0 Z3.0
G0 X-66.5 Y-2.6505
G0 Z1.0
G1 F300.0 Z0.0
G1 F800.0 X-66.478 Y-2.6512 Z-0.003
G1 X-66.4562 Y-2.6532 Z-0.006
G1 X-66.4345 Y-2.6567 Z-0.009
G1 X-66.4131 Y-2.6615 Z-0.012
G1 X-66.3919 Y-2.6676 Z-0.015
G1 X-66.3714 Y-2.675 Z-0.018
G1 X-66.3512 Y-2.6837 Z-0.021
G1 X-66.3315 Y-2.6938 Z-0.024
G1 X-66.3128 Y-2.7048 Z-0.027
G1 X-66.2947 Y-2.7171 Z-0.03
G1 X-66.2773 Y-2.7306 Z-0.033
G1 X-66.2607 Y-2.7453 Z-0.036
G1 X-66.2451 Y-2.7609 Z-0.039
G1 X-66.2306 Y-2.7773 Z-0.042
G1 X-66.2174 Y-2.7944 Z-0.045
G1 X-66.205 Y-2.8126 Z-0.048
G1 X-66.1937 Y-2.8317 Z-0.051
G1 X-66.1837 Y-2.8513 Z-0.054
G1 X-66.1751 Y-2.8713 Z-0.057
G1 X-66.1676 Y-2.8921 Z-0.06
G1 X-66.1614 Y-2.9133 Z-0.063
G1 X-66.1566 Y-2.9347 Z-0.066
G1 X-66.1533 Y-2.9559 Z-0.069
G1 X-66.1512 Y-2.9778 Z-0.072
G1 X-66.1505 Y-3.0 Z-0.075
G1 X-66.1512 Y-3.0222 Z-0.078
G1 X-66.1533 Y-3.0441 Z-0.081
G1 X-66.1566 Y-3.0653 Z-0.084
G1 X-66.1614 Y-3.0867 Z-0.087
G1 X-66.1676 Y-3.1079 Z-0.09
G1 X-66.1751 Y-3.1287 Z-0.093
G1 X-66.1837 Y-3.1487 Z-0.096
G1 X-66.1937 Y-3.1683 Z-0.099
G1 X-66.205 Y-3.1874 Z-0.102
G1 X-66.2174 Y-3.2056 Z-0.105
G1 X-66.2306 Y-3.2227 Z-0.108
G1 X-66.2451 Y-3.2391 Z-0.111
G1 X-66.2607 Y-3.2547 Z-0.114
G1 X-66.2773 Y-3.2694 Z-0.117
G1 X-66.2947 Y-3.2829 Z-0.12
G1 X-66.3128 Y-3.2952 Z-0.123
G1 X-66.3315 Y-3.3062 Z-0.126
G1 X-66.3512 Y-3.3163 Z-0.129
G1 X-66.3714 Y-3.325 Z-0.132
G1 X-66.3919 Y-3.3324 Z-0.135
G1 X-66.4131 Y-3.3385 Z-0.138
G1 X-66.4345 Y-3.3433 Z-0.141
G1 X-66.4562 Y-3.3467 Z-0.144
G1 X-66.4781 Y-3.3488 Z-0.147
G1 X-66.5 Y-3.3495 Z-0.15
G1 X-66.5219 Y-3.3488 Z-0.153
G1 X-66.5438 Y-3.3467 Z-0.156
G1 X-66.5655 Y-3.3433 Z-0.159
G1 X-66.5869 Y-3.3385 Z-0.162
G1 X-66.6081 Y-3.3324 Z-0.165
G1 X-66.6286 Y-3.325 Z-0.168
G1 X-66.6488 Y-3.3163 Z-0.171
G1 X-66.6685 Y-3.3062 Z-0.174
G1 X-66.6872 Y-3.2952 Z-0.177
G1 X-66.7053 Y-3.2829 Z-0.18
G1 X-66.7227 Y-3.2694 Z-0.183
G1 X-66.7393 Y-3.2547 Z-0.186
G1 X-66.7549 Y-3.2391 Z-0.189
G1 X-66.7694 Y-3.2227 Z-0.192
G1 X-66.7826 Y-3.2056 Z-0.195
G1 X-66.795 Y-3.1874 Z-0.198
G1 X-66.8063 Y-3.1683 Z-0.201
G1 X-66.8163 Y-3.1487 Z-0.204
G1 X-66.8249 Y-3.1287 Z-0.207
G1 X-66.8324 Y-3.1079 Z-0.21
G1 X-66.8386 Y-3.0867 Z-0.213
G1 X-66.8434 Y-3.0653 Z-0.216
G1 X-66.8467 Y-3.0441 Z-0.219
G1 X-66.8488 Y-3.0222 Z-0.222
G1 X-66.8495 Y-3.0 Z-0.225
G1 X-66.8488 Y-2.9778 Z-0.228
G1 X-66.8467 Y-2.9559 Z-0.231
G1 X-66.8434 Y-2.9347 Z-0.234
G1 X-66.8386 Y-2.9133 Z-0.237
G1 X-66.8324 Y-2.8921 Z-0.24
G1 X-66.8249 Y-2.8713 Z-0.243
G1 X-66.8163 Y-2.8513 Z-0.246
G1 X-66.8063 Y-2.8317 Z-0.249
G1 X-66.795 Y-2.8126 Z-0.252
G1 X-66.7826 Y-2.7944 Z-0.255
G1 X-66.7694 Y-2.7773 Z-0.258
G1 X-66.7549 Y-2.7609 Z-0.261
G1 X-66.7393 Y-2.7453 Z-0.264
G1 X-66.7227 Y-2.7306 Z-0.267
G1 X-66.7053 Y-2.7171 Z-0.27
G1 X-66.6872 Y-2.7048 Z-0.273
G1 X-66.6685 Y-2.6938 Z-0.276
G1 X-66.6488 Y-2.6837 Z-0.279
G1 X-66.6286 Y-2.675 Z-0.282
G1 X-66.6081 Y-2.6676 Z-0.285
G1 X-66.5869 Y-2.6615 Z-0.288
G1 X-66.5655 Y-2.6567 Z-0.291
G1 X-66.5438 Y-2.6532 Z-0.294
G1 X-66.522 Y-2.6512 Z-0.297
G1 X-66.5 Y-2.6505 Z-0.3
G1 X-66.478 Y-2.6512
G1 X-66.4562 Y-2.6532
G1 X-66.4345 Y-2.6567
G1 X-66.4131 Y-2.6615
G1 X-66.3919 Y-2.6676
G1 X-66.3714 Y-2.675
G1 X-66.3512 Y-2.6837
G1 X-66.3315 Y-2.6938
G1 X-66.3128 Y-2.7048
G1 X-66.2947 Y-2.7171
G1 X-66.2773 Y-2.7306
G1 X-66.2607 Y-2.7453
G1 X-66.2451 Y-2.7609
G1 X-66.2306 Y-2.7773
G1 X-66.2174 Y-2.7944
G1 X-66.205 Y-2.8126
G1 X-66.1937 Y-2.8317
G1 X-66.1837 Y-2.8513
G1 X-66.1751 Y-2.8713
G1 X-66.1676 Y-2.8921
G1 X-66.1614 Y-2.9133
G1 X-66.1566 Y-2.9347
G1 X-66.1533 Y-2.9559
G1 X-66.1512 Y-2.9778
G1 X-66.1505 Y-3.0
G1 X-66.1512 Y-3.0222
G1 X-66.1533 Y-3.0441
G1 X-66.1566 Y-3.0653
G1 X-66.1614 Y-3.0867
G1 X-66.1676 Y-3.1079
G1 X-66.1751 Y-3.1287
G1 X-66.1837 Y-3.1487
G1 X-66.1937 Y-3.1683
G1 X-66.205 Y-3.1874
G1 X-66.2174 Y-3.2056
G1 X-66.2306 Y-3.2227
G1 X-66.2451 Y-3.2391
G1 X-66.2607 Y-3.2547
G1 X-66.2773 Y-3.2694
G1 X-66.2947 Y-3.2829
G1 X-66.3128 Y-3.2952
G1 X-66.3315 Y-3.3062
G1 X-66.3512 Y-3.3163
G1 X-66.3714 Y-3.325
G1 X-66.3919 Y-3.3324
G1 X-66.4131 Y-3.3385
G1 X-66.4345 Y-3.3433
G1 X-66.4562 Y-3.3467
G1 X-66.4781 Y-3.3488
G1 X-66.5 Y-3.3495
G1 X-66.5219 Y-3.3488
G1 X-66.5438 Y-3.3467
G1 X-66.5655 Y-3.3433
G1 X-66.5869 Y-3.3385
G1 X-66.6081 Y-3.3324
G1 X-66.6286 Y-3.325
G1 X-66.6488 Y-3.3163
G1 X-66.6685 Y-3.3062
G1 X-66.6872 Y-3.2952
G1 X-66.7053 Y-3.2829
G1 X-66.7227 Y-3.2694
G1 X-66.7393 Y-3.2547
G1 X-66.7549 Y-3.2391
G1 X-66.7694 Y-3.2227
G1 X-66.7826 Y-3.2056
G1 X-66.795 Y-3.1874
G1 X-66.8063 Y-3.1683
G1 X-66.8163 Y-3.1487
G1 X-66.8249 Y-3.1287
G1 X-66.8324 Y-3.1079
G1 X-66.8386 Y-3.0867
G1 X-66.8434 Y-3.0653
G1 X-66.8467 Y-3.0441
G1 X-66.8488 Y-3.0222
G1 X-66.8495 Y-3.0
G1 X-66.8488 Y-2.9778
G1 X-66.8467 Y-2.9559
G1 X-66.8434 Y-2.9347
G1 X-66.8386 Y-2.9133
G1 X-66.8324 Y-2.8921
G1 X-66.8249 Y-2.8713
G1 X-66.8163 Y-2.8513
G1 X-66.8063 Y-2.8317
G1 X-66.795 Y-2.8126
G1 X-66.7826 Y-2.7944
G1 X-66.7694 Y-2.7773
G1 X-66.7549 Y-2.7609
G1 X-66.7393 Y-2.7453
G1 X-66.7227 Y-2.7306
G1 X-66.7053 Y-2.7171
G1 X-66.6872 Y-2.7048
G1 X-66.6685 Y-2.6938
G1 X-66.6488 Y-2.6837
G1 X-66.6286 Y-2.675
G1 X-66.6081 Y-2.6676
G1 X-66.5869 Y-2.6615
G1 X-66.5655 Y-2.6567
G1 X-66.5438 Y-2.6532
G1 X-66.522 Y-2.6512
G1 X-66.5 Y-2.6505
G0 Z3.0
G0 X-72.6945 Y-11.2173
G0 Z1.0
G1 F300.0 Z0.0
G1 F800.0 X-72.6774 Y-11.2305 Z-0.003
G1 X-72.6609 Y-11.2451 Z-0.006
G1 X-72.6451 Y-11.2609 Z-0.009
G1 X-72.6305 Y-11.2774 Z-0.012
G1 X-72.6173 Y-11.2945 Z-0.015
G1 X-72.605 Y-11.3126 Z-0.018
G1 X-72.5937 Y-11.3316 Z-0.021
G1 X-72.5837 Y-11.3513 Z-0.024
G1 X-72.575 Y-11.3713 Z-0.027
G1 X-72.5676 Y-11.3919 Z-0.03
G1 X-72.5614 Y-11.4133 Z-0.033
G1 X-72.5566 Y-11.4347 Z-0.036
G1 X-72.5533 Y-11.4559 Z-0.039
G1 X-72.5512 Y-11.4778 Z-0.042
G1 X-72.5505 Y-11.5 Z-0.045
G1 X-72.5512 Y-11.5222 Z-0.048
G1 X-72.5533 Y-11.5441 Z-0.051
G1 X-72.5566 Y-11.5653 Z-0.054
G1 X-72.5614 Y-11.5867 Z-0.057
G1 X-72.5676 Y-11.6081 Z-0.06
G1 X-72.575 Y-11.6287 Z-0.063
G1 X-72.5837 Y-11.6487 Z-0.066
G1 X-72.5937 Y-11.6684 Z-0.069
G1 X-72.605 Y-11.6874 Z-0.072
G1 X-72.6173 Y-11.7055 Z-0.075
G1 X-72.6305 Y-11.7226 Z-0.078
G1 X-72.6451 Y-11.7391 Z-0.081
G1 X-72.6609 Y-11.7549 Z-0.084
G1 X-72.6774 Y-11.7695 Z-0.087
G1 X-72.6945 Y-11.7827 Z-0.09
G1 X-72.7126 Y-11.795 Z-0.093
G1 X-72.7316 Y-11.8063 Z-0.096
G1 X-72.7513 Y-11.8163 Z-0.099
G1 X-72.7713 Y-11.825 Z-0.102
G1 X-72.7919 Y-11.8324 Z-0.105
G1 X-72.8133 Y-11.8386 Z-0.108
G1 X-72.8347 Y-11.8434 Z-0.111
G1 X-72.8559 Y-11.8467 Z-0.114
G1 X-72.8778 Y-11.8488 Z-0.117
G1 X-72.9 Y-11.8495 Z-0.12
G1 X-72.9222 Y-11.8488 Z-0.123
G1 X-72.9441 Y-11.8467 Z-0.126
G1 X-72.9653 Y-11.8434 Z-0.129
G1 X-72.9867 Y-11.8386 Z-0.132
G1 X-73.0081 Y-11.8324 Z-0.135
G1 X-73.0287 Y-11.825 Z-0.138
G1 X-73.0487 Y-11.8163 Z-0.141
G1 X-73.0684 Y-11.8063 Z-0.144
G1 X-73.0874 Y-11.795 Z-0.147
G1 X-73.1055 Y-11.7827 Z-0.15
G1 X-73.1226 Y-11.7695 Z-0.153
G1 X-73.1391 Y-11.7549 Z-0.156
G1 X-73.1549 Y-11.7391 Z-0.159
G1 X-73.1695 Y-11.7226 Z-0.162
G1 X-73.1827 Y-11.7055 Z-0.165
G1 X-73.195 Y-11.6874 Z-0.168
G1 X-73.2063 Y-11.6684 Z-0.171
G1 X-73.2163 Y-11.6487 Z-0.174
G1 X-73.225 Y-11.6287 Z-0.177
G1 X-73.2324 Y-11.6081 Z-0.18
G1 X-73.2386 Y-11.5867 Z-0.183
G1 X-73.2434 Y-11.5653 Z-0.186
G1 X-73.2467 Y-11.5441 Z-0.189
G1 X-73.2488 Y-11.5222 Z-0.192
G1 X-73.2495 Y-11.5 Z-0.195
G1 X-73.2488 Y-11.4778 Z-0.198
G1 X-73.2467 Y-11.4559 Z-0.201
G1 X-73.2434 Y-11.4347 Z-0.204
G1 X-73.2386 Y-11.4133 Z-0.207
G1 X-73.2324 Y-11.3919 Z-0.21
G1 X-73.225 Y-11.3713 Z-0.213
G1 X-73.2163 Y-11.3513 Z-0.216
G1 X-73.2063 Y-11.3316 Z-0.219
G1 X-73.195 Y-11.3126 Z-0.222
G1 X-73.1827 Y-11.2945 Z-0.225
G1 X-73.1695 Y-11.2774 Z-0.228
G1 X-73.1549 Y-11.2609 Z-0.231
G1 X-73.1391 Y-11.2451 Z-0.234
G1 X-73.1226 Y-11.2305 Z-0.237
G1 X-73.1055 Y-11.2173 Z-0.24
G1 X-73.0874 Y-11.205 Z-0.243
G1 X-73.0684 Y-11.1937 Z-0.246
G1 X-73.0487 Y-11.1837 Z-0.249
G1 X-73.0287 Y-11.175 Z-0.252
G1 X-73.0081 Y-11.1676 Z-0.255
G1 X-72.9867 Y-11.1614 Z-0.258
G1 X-72.9653 Y-11.1566 Z-0.261
G1 X-72.9441 Y-11.1533 Z-0.264
G1 X-72.9222 Y-11.1512 Z-0.267
G1 X-72.9 Y-11.1505 Z-0.27
G1 X-72.8778 Y-11.1512 Z-0.273
G1 X-72.8559 Y-11.1533 Z-0.276
G1 X-72.8347 Y-11.1566 Z-0.279
G1 X-72.8133 Y-11.1614 Z-0.282
G1 X-72.7919 Y-11.1676 Z-0.285
G1 X-72.7713 Y-11.175 Z-0.288
G1 X-72.7513 Y-11.1837 Z-0.291
G1 X-72.7316 Y-11.1937 Z-0.294
G1 X-72.7126 Y-11.205 Z-0.297
G1 X-72.6945 Y-11.2173 Z-0.3
G1 X-72.6774 Y-11.2305
G1 X-72.6609 Y-11.2451
G1 X-72.6451 Y-11.2609
G1 X-72.6305 Y-11.2774
G1 X-72.6173 Y-11.2945
G1 X-72.605 Y-11.3126
G1 X-72.5937 Y-11.3316
G1 X-72.5837 Y-11.3513
G1 X-72.575 Y-11.3713
G1 X-72.5676 Y-11.3919
G1 X-72.5614 Y-11.4133
G1 X-72.5566 Y-11.4347
G1 X-72.5533 Y-11.4559
G1 X-72.5512 Y-11.4778
G1 X-72.5505 Y-11.5
G1 X-72.5512 Y-11.5222
G1 X-72.5533 Y-11.5441
G1 X-72.5566 Y-11.5653
G1 X-72.5614 Y-11.5867
G1 X-72.5676 Y-11.6081
G1 X-72.575 Y-11.6287
G1 X-72.5837 Y-11.6487
G1 X-72.5937 Y-11.6684
G1 X-72.605 Y-11.6874
G1 X-72.6173 Y-11.7055
G1 X-72.6305 Y-11.7226
G1 X-72.6451 Y-11.7391
G1 X-72.6609 Y-11.7549
G1 X-72.6774 Y-11.7695
G1 X-72.6945 Y-11.7827
G1 X-72.7126 Y-11.795
G1 X-72.7316 Y-11.8063
G1 X-72.7513 Y-11.8163
G1 X-72.7713 Y-11.825
G1 X-72.7919 Y-11.8324
G1 X-72.8133 Y-11.8386
G1 X-72.8347 Y-11.8434
G1 X-72.8559 Y-11.8467
G1 X-72.8778 Y-11.8488
G1 X-72.9 Y-11.8495
G1 X-72.9222 Y-11.8488
G1 X-72.9441 Y-11.8467
G1 X-72.9653 Y-11.8434
G1 X-72.9867 Y-11.8386
G1 X-73.0081 Y-11.8324
G1 X-73.0287 Y-11.825
G1 X-73.0487 Y-11.8163
G1 X-73.0684 Y-11.8063
G1 X-73.0874 Y-11.795
G1 X-73.1055 Y-11.7827
G1 X-73.1226 Y-11.7695
G1 X-73.1391 Y-11.7549
G1 X-73.1549 Y-11.7391
G1 X-73.1695 Y-11.7226
G1 X-73.1827 Y-11.7055
G1 X-73.195 Y-11.6874
G1 X-73.2063 Y-11.6684
G1 X-73.2163 Y-11.6487
G1 X-73.225 Y-11.6287
G1 X-73.2324 Y-11.6081
G1 X-73.2386 Y-11.5867
G1 X-73.2434 Y-11.5653
G1 X-73.2467 Y-11.5441
G1 X-73.2488 Y-11.5222
G1 X-73.2495 Y-11.5
G1 X-73.2488 Y-11.4778
G1 X-73.2467 Y-11.4559
G1 X-73.2434 Y-11.4347
G1 X-73.2386 Y-11.4133
G1 X-73.2324 Y-11.3919
G1 X-73.225 Y-11.3713
G1 X-73.2163 Y-11.3513
G1 X-73.2063 Y-11.3316
G1 X-73.195 Y-11.3126
G1 X-73.1827 Y-11.2945
G1 X-73.1695 Y-11.2774
G1 X-73.1549 Y-11.2609
G1 X-73.1391 Y-11.2451
G1 X-73.1226 Y-11.2305
G1 X-73.1055 Y-11.2173
G1 X-73.0874 Y-11.205
G1 X-73.0684 Y-11.1937
G1 X-73.0487 Y-11.1837
G1 X-73.0287 Y-11.175
G1 X-73.0081 Y-11.1676
G1 X-72.9867 Y-11.1614
G1 X-72.9653 Y-11.1566
G1 X-72.9441 Y-11.1533
G1 X-72.9222 Y-11.1512
G1 X-72.9 Y-11.1505
G1 X-72.8778 Y-11.1512
G1 X-72.8559 Y-11.1533
G1 X-72.8347 Y-11.1566
G1 X-72.8133 Y-11.1614
G1 X-72.7919 Y-11.1676
G1 X-72.7713 Y-11.175
G1 X-72.7513 Y-11.1837
G1 X-72.7316 Y-11.1937
G1 X-72.7126 Y-11.205
G1 X-72.6945 Y-11.2173
G0 Z3.0
G0 X-75.8431 Y-31.0553
G0 Z1.0
G1 F300.0 Z0.0
G1 F800.0 X-75.8347 Y-31.0566 Z-0.0012
G1 X-75.8133 Y-31.0614 Z-0.0042
G1 X-75.7919 Y-31.0676 Z-0.0072
G1 X-75.7713 Y-31.075 Z-0.0102
G1 X-75.7513 Y-31.0837 Z-0.0132
G1 X-75.7316 Y-31.0937 Z-0.0162
G1 X-75.7126 Y-31.105 Z-0.0192
G1 X-75.6945 Y-31.1173 Z-0.0222
G1 X-75.6774 Y-31.1305 Z-0.0251
G1 X-75.6609 Y-31.1451 Z-0.0282
G1 X-75.6451 Y-31.1609 Z-0.0312
G1 X-75.6305 Y-31.1774 Z-0.0342
G1 X-75.6173 Y-31.1945 Z-0.0372
G1 X-75.605 Y-31.2126 Z-0.0402
G1 X-75.5937 Y-31.2316 Z-0.0432
G1 X-75.5837 Y-31.2513 Z-0.0462
G1 X-75.575 Y-31.2713 Z-0.0492
G1 X-75.5676 Y-31.2919 Z-0.0522
G1 X-75.5614 Y-31.3133 Z-0.0552
G1 X-75.5566 Y-31.3347 Z-0.0582
G1 X-75.5533 Y-31.3559 Z-0.0611
G1 X-75.5512 Y-31.3778 Z-0.0641
G1 X-75.5505 Y-31.4 Z-0.0672
G1 X-75.5512 Y-31.4222 Z-0.0702
G1 X-75.5533 Y-31.4441 Z-0.0732
G1 X-75.5566 Y-31.4653 Z-0.0762
G1 X-75.5614 Y-31.4867 Z-0.0792
G1 X-75.5676 Y-31.5081 Z-0.0822
G1 X-75.575 Y-31.5287 Z-0.0852
G1 X-75.5837 Y-31.5487 Z-0.0882
G1 X-75.5937 Y-31.5684 Z-0.0912
G1 X-75.605 Y-31.5874 Z-0.0942
G1 X-75.6173 Y-31.6055 Z-0.0972
G1 X-75.6305 Y-31.6226 Z-0.1001
G1 X-75.6451 Y-31.6391 Z-0.1032
G1 X-75.6609 Y-31.6549 Z-0.1062
G1 X-75.6774 Y-31.6695 Z-0.1092
G1 X-75.6945 Y-31.6827 Z-0.1122
G1 X-75.7126 Y-31.695 Z-0.1152
G1 X-75.7316 Y-31.7063 Z-0.1182
G1 X-75.7513 Y-31.7163 Z-0.1212
G1 X-75.7713 Y-31.725 Z-0.1242
G1 X-75.7919 Y-31.7324 Z-0.1272
G1 X-75.8133 Y-31.7386 Z-0.1302
G1 X-75.8347 Y-31.7434 Z-0.1332
G1 X-75.8559 Y-31.7467 Z-0.1361
G1 X-75.8778 Y-31.7488 Z-0.1391
G1 X-75.9 Y-31.7495 Z-0.1422
G1 X-75.9222 Y-31.7488 Z-0.1452
G1 X-75.9441 Y-31.7467 Z-0.1482
G1 X-75.9653 Y-31.7434 Z-0.1512
G1 X-75.9867 Y-31.7386 Z-0.1542
G1 X-76.0081 Y-31.7324 Z-0.1572
G1 X-76.0287 Y-31.725 Z-0.1602
G1 X-76.0487 Y-31.7163 Z-0.1632
G1 X-76.0684 Y-31.7063 Z-0.1662
G1 X-76.0874 Y-31.695 Z-0.1692
G1 X-76.1055 Y-31.6827 Z-0.1722
G1 X-76.1226 Y-31.6695 Z-0.1751
G1 X-76.1391 Y-31.6549 Z-0.1782
G1 X-76.1549 Y-31.6391 Z-0.1812
G1 X-76.1695 Y-31.6226 Z-0.1842
G1 X-76.1827 Y-31.6055 Z-0.1872
G1 X-76.195 Y-31.5874 Z-0.1902
G1 X-76.2063 Y-31.5684 Z-0.1932
G1 X-76.2163 Y-31.5487 Z-0.1962
G1 X-76.225 Y-31.5287 Z-0.1992
G1 X-76.2324 Y-31.5081 Z-0.2022
G1 X-76.2386 Y-31.4867 Z-0.2052
G1 X-76.2434 Y-31.4653 Z-0.2082
G1 X-76.2467 Y-31.4441 Z-0.2111
G1 X-76.2488 Y-31.4222 Z-0.2141
G1 X-76.2495 Y-31.4 Z-0.2172
G1 X-76.2488 Y-31.3778 Z-0.2202
G1 X-76.2467 Y-31.3559 Z-0.2232
G1 X-76.2434 Y-31.3347 Z-0.2262
G1 X-76.2386 Y-31.3133 Z-0.2292
G1 X-76.2324 Y-31.2919 Z-0.2322
G1 X-76.225 Y-31.2713 Z-0.2352
G1 X-76.2163 Y-31.2513 Z-0.2382
G1 X-76.2063 Y-31.2316 Z-0.2412
G1 X-76.195 Y-31.2126 Z-0.2442
G1 X-76.1827 Y-31.1945 Z-0.2472
G1 X-76.1695 Y-31.1774 Z-0.2501
G1 X-76.1549 Y-31.1609 Z-0.2532
G1 X-76.1391 Y-31.1451 Z-0.2562
G1 X-76.1226 Y-31.1305 Z-0.2592
G1 X-76.1055 Y-31.1173 Z-0.2622
G1 X-76.0874 Y-31.105 Z-0.2652
G1 X-76.0684 Y-31.0937 Z-0.2682
G1 X-76.0487 Y-31.0837 Z-0.2712
G1 X-76.0287 Y-31.075 Z-0.2742
G1 X-76.0081 Y-31.0676 Z-0.2772
G1 X-75.9867 Y-31.0614 Z-0.2802
G1 X-75.9653 Y-31.0566 Z-0.2832
G1 X-75.9441 Y-31.0533 Z-0.2861
G1 X-75.9222 Y-31.0512 Z-0.2891
G1 X-75.9 Y-31.0505 Z-0.2922
G1 X-75.8778 Y-31.0512 Z-0.2952
G1 X-75.8559 Y-31.0533 Z-0.2982
G1 X-75.8431 Y-31.0553 Z-0.3
G1 X-75.8347 Y-31.0566
G1 X-75.8133 Y-31.0614
G1 X-75.7919 Y-31.0676
G1 X-75.7713 Y-31.075
G1 X-75.7513 Y-31.0837
G1 X-75.7316 Y-31.0937
G1 X-75.7126 Y-31.105
G1 X-75.6945 Y-31.1173
G1 X-75.6774 Y-31.1305
G1 X-75.6609 Y-31.1451
G1 X-75.6451 Y-31.1609
G1 X-75.6305 Y-31.1774
G1 X-75.6173 Y-31.1945
G1 X-75.605 Y-31.2126
G1 X-75.5937 Y-31.2316
G1 X-75.5837 Y-31.2513
G1 X-75.575 Y-31.2713
G1 X-75.5676 Y-31.2919
G1 X-75.5614 Y-31.3133
G1 X-75.5566 Y-31.3347
G1 X-75.5533 Y-31.3559
G1 X-75.5512 Y-31.3778
G1 X-75.5505 Y-31.4
G1 X-75.5512 Y-31.4222
G1 X-75.5533 Y-31.4441
G1 X-75.5566 Y-31.4653
G1 X-75.5614 Y-31.4867
G1 X-75.5676 Y-31.5081
G1 X-75.575 Y-31.5287
G1 X-75.5837 Y-31.5487
G1 X-75.5937 Y-31.5684
G1 X-75.605 Y-31.5874
G1 X-75.6173 Y-31.6055
G1 X-75.6305 Y-31.6226
G1 X-75.6451 Y-31.6391
G1 X-75.6609 Y-31.6549
G1 X-75.6774 Y-31.6695
G1 X-75.6945 Y-31.6827
G1 X-75.7126 Y-31.695
G1 X-75.7316 Y-31.7063
G1 X-75.7513 Y-31.7163
G1 X-75.7713 Y-31.725
G1 X-75.7919 Y-31.7324
G1 X-75.8133 Y-31.7386
G1 X-75.8347 Y-31.7434
G1 X-75.8559 Y-31.7467
G1 X-75.8778 Y-31.7488
G1 X-75.9 Y-31.7495
G1 X-75.9222 Y-31.7488
G1 X-75.9441 Y-31.7467
G1 X-75.9653 Y-31.7434
G1 X-75.9867 Y-31.7386
G1 X-76.0081 Y-31.7324
G1 X-76.0287 Y-31.725
G1 X-76.0487 Y-31.7163
G1 X-76.0684 Y-31.7063
G1 X-76.0874 Y-31.695
G1 X-76.1055 Y-31.6827
G1 X-76.1226 Y-31.6695
G1 X-76.1391 Y-31.6549
G1 X-76.1549 Y-31.6391
G1 X-76.1695 Y-31.6226
G1 X-76.1827 Y-31.6055
G1 X-76.195 Y-31.5874
G1 X-76.2063 Y-31.5684
G1 X-76.2163 Y-31.5487
G1 X-76.225 Y-31.5287
G1 X-76.2324 Y-31.5081
G1 X-76.2386 Y-31.4867
G1 X-76.2434 Y-31.4653
G1 X-76.2467 Y-31.4441
G1 X-76.2488 Y-31.4222
G1 X-76.2495 Y-31.4
G1 X-76.2488 Y-31.3778
G1 X-76.2467 Y-31.3559
G1 X-76.2434 Y-31.3347
G1 X-76.2386 Y-31.3133
G1 X-76.2324 Y-31.2919
G1 X-76.225 Y-31.2713
G1 X-76.2163 Y-31.2513
G1 X-76.2063 Y-31.2316
G1 X-76.195 Y-31.2126
G1 X-76.1827 Y-31.1945
G1 X-76.1695 Y-31.1774
G1 X-76.1549 Y-31.1609
G1 X-76.1391 Y-31.1451
G1 X-76.1226 Y-31.1305
G1 X-76.1055 Y-31.1173
G1 X-76.0874 Y-31.105
G1 X-76.0684 Y-31.0937
G1 X-76.0487 Y-31.0837
G1 X-76.0287 Y-31.075
G1 X-76.0081 Y-31.0676
G1 X-75.9867 Y-31.0614
G1 X-75.9653 Y-31.0566
G1 X-75.9441 Y-31.0533
G1 X-75.9222 Y-31.0512
G1 X-75.9 Y-31.0505
G1 X-75.8778 Y-31.0512
G1 X-75.8559 Y-31.0533
G1 X-75.8431 Y-31.0553
G0 Z3.0
G0 X-40.8488 Y-28.0222
G0 Z1.0
G1 F300.0 Z0.0
G1 F800.0 X-40.8495 Y-28.0 Z-0.003
G1 X-40.8488 Y-27.9778 Z-0.0061
G1 X-40.8467 Y-27.9559 Z-0.0091
G1 X-40.8434 Y-27.9347 Z-0.012
G1 X-40.8386 Y-27.9133 Z-0.015
G1 X-40.8324 Y-27.8919 Z-0.018
G1 X-40.825 Y-27.8713 Z-0.021
G1 X-40.8163 Y-27.8513 Z-0.024
G1 X-40.8063 Y-27.8316 Z-0.027
G1 X-40.795 Y-27.8126 Z-0.0301
G1 X-40.7827 Y-27.7945 Z-0.033
G1 X-40.7695 Y-27.7774 Z-0.036
G1 X-40.7549 Y-27.7609 Z-0.039
G1 X-40.7391 Y-27.7451 Z-0.0421
G1 X-40.7226 Y-27.7305 Z-0.0451
G1 X-40.7055 Y-27.7173 Z-0.048
G1 X-40.6874 Y-27.705 Z-0.051
G1 X-40.6684 Y-27.6937 Z-0.054
G1 X-40.6487 Y-27.6837 Z-0.057
G1 X-40.6287 Y-27.675 Z-0.06
G1 X-40.6081 Y-27.6676 Z-0.063
G1 X-40.5867 Y-27.6614 Z-0.0661
G1 X-40.5653 Y-27.6566 Z-0.0691
G1 X-40.5441 Y-27.6533 Z-0.072
G1 X-40.5222 Y-27.6512 Z-0.075
G1 X-40.5 Y-27.6505 Z-0.078
G1 X-40.4778 Y-27.6512 Z-0.0811
G1 X-40.4559 Y-27.6533 Z-0.0841
G1 X-40.4347 Y-27.6566 Z-0.087
G1 X-40.4133 Y-27.6614 Z-0.09
G1 X-40.3919 Y-27.6676 Z-0.093
G1 X-40.3713 Y-27.675 Z-0.096
G1 X-40.3513 Y-27.6837 Z-0.099
G1 X-40.3316 Y-27.6937 Z-0.102
G1 X-40.3126 Y-27.705 Z-0.1051
G1 X-40.2945 Y-27.7173 Z-0.108
G1 X-40.2774 Y-27.7305 Z-0.111
G1 X-40.2609 Y-27.7451 Z-0.114
G1 X-40.2451 Y-27.7609 Z-0.1171
G1 X-40.2305 Y-27.7774 Z-0.1201
G1 X-40.2173 Y-27.7945 Z-0.123
G1 X-40.205 Y-27.8126 Z-0.126
G1 X-40.1937 Y-27.8316 Z-0.129
G1 X-40.1837 Y-27.8513 Z-0.132
G1 X-40.175 Y-27.8713 Z-0.135
G1 X-40.1676 Y-27.8919 Z-0.138
G1 X-40.1614 Y-27.9133 Z-0.1411
G1 X-40.1566 Y-27.9347 Z-0.1441
G1 X-40.1533 Y-27.9559 Z-0.147
G1 X-40.1512 Y-27.9778 Z-0.15
G1 X-40.1505 Y-28.0 Z-0.153
G1 X-40.1512 Y-28.0222 Z-0.1561
G1 X-40.1533 Y-28.0441 Z-0.1591
G1 X-40.1566 Y-28.0653 Z-0.162
G1 X-40.1614 Y-28.0867 Z-0.165
G1 X-40.1676 Y-28.1081 Z-0.168
G1 X-40.175 Y-28.1287 Z-0.171
G1 X-40.1837 Y-28.1487 Z-0.174
G1 X-40.1937 Y-28.1684 Z-0.177
G1 X-40.205 Y-28.1874 Z-0.1801
G1 X-40.2173 Y-28.2055 Z-0.183
G1 X-40.2305 Y-28.2226 Z-0.186
G1 X-40.2451 Y-28.2391 Z-0.189
G1 X-40.2609 Y-28.2549 Z-0.1921
G1 X-40.2774 Y-28.2695 Z-0.1951
G1 X-40.2945 Y-28.2827 Z-0.198
G1 X-40.3126 Y-28.295 Z-0.201
G1 X-40.3316 Y-28.3063 Z-0.204
G1 X-40.3513 Y-28.3163 Z-0.207
G1 X-40.3713 Y-28.325 Z-0.21
G1 X-40.3919 Y-28.3324 Z-0.213
G1 X-40.4133 Y-28.3386 Z-0.2161
G1 X-40.4347 Y-28.3434 Z-0.2191
G1 X-40.4559 Y-28.3467 Z-0.222
G1 X-40.4778 Y-28.3488 Z-0.225
G1 X-40.5 Y-28.3495 Z-0.228
G1 X-40.5222 Y-28.3488 Z-0.2311
G1 X-40.5441 Y-28.3467 Z-0.2341
G1 X-40.5653 Y-28.3434 Z-0.237
G1 X-40.5867 Y-28.3386 Z-0.24
G1 X-40.6081 Y-28.3324 Z-0.243
G1 X-40.6287 Y-28.325 Z-0.246
G1 X-40.6487 Y-28.3163 Z-0.249
G1 X-40.6684 Y-28.3063 Z-0.252
G1 X-40.6874 Y-28.295 Z-0.2551
G1 X-40.7055 Y-28.2827 Z-0.258
G1 X-40.7226 Y-28.2695 Z-0.261
G1 X-40.7391 Y-28.2549 Z-0.264
G1 X-40.7549 Y-28.2391 Z-0.2671
G1 X-40.7695 Y-28.2226 Z-0.2701
G1 X-40.7827 Y-28.2055 Z-0.273
G1 X-40.795 Y-28.1874 Z-0.276
G1 X-40.8063 Y-28.1684 Z-0.279
G1 X-40.8163 Y-28.1487 Z-0.282
G1 X-40.825 Y-28.1287 Z-0.285
G1 X-40.8324 Y-28.1081 Z-0.288
G1 X-40.8386 Y-28.0867 Z-0.2911
G1 X-40.8434 Y-28.0653 Z-0.2941
G1 X-40.8467 Y-28.0441 Z-0.297
G1 X-40.8488 Y-28.0222 Z-0.3
G1 X-40.8495 Y-28.0
G1 X-40.8488 Y-27.9778
G1 X-40.8467 Y-27.9559
G1 X-40.8434 Y-27.9347
G1 X-40.8386 Y-27.9133
G1 X-40.8324 Y-27.8919
G1 X-40.825 Y-27.8713
G1 X-40.8163 Y-27.8513
G1 X-40.8063 Y-27.8316
G1 X-40.795 Y-27.8126
G1 X-40.7827 Y-27.7945
G1 X-40.7695 Y-27.7774
G1 X-40.7549 Y-27.7609
G1 X-40.7391 Y-27.7451
G1 X-40.7226 Y-27.7305
G1 X-40.7055 Y-27.7173
G1 X-40.6874 Y-27.705
G1 X-40.6684 Y-27.6937
G1 X-40.6487 Y-27.6837
G1 X-40.6287 Y-27.675
G1 X-40.6081 Y-27.6676
G1 X-40.5867 Y-27.6614
G1 X-40.5653 Y-27.6566
G1 X-40.5441 Y-27.6533
G1 X-40.5222 Y-27.6512
G1 X-40.5 Y-27.6505
G1 X-40.4778 Y-27.6512
G1 X-40.4559 Y-27.6533
G1 X-40.4347 Y-27.6566
G1 X-40.4133 Y-27.6614
G1 X-40.3919 Y-27.6676
G1 X-40.3713 Y-27.675
G1 X-40.3513 Y-27.6837
G1 X-40.3316 Y-27.6937
G1 X-40.3126 Y-27.705
G1 X-40.2945 Y-27.7173
G1 X-40.2774 Y-27.7305
G1 X-40.2609 Y-27.7451
G1 X-40.2451 Y-27.7609
G1 X-40.2305 Y-27.7774
G1 X-40.2173 Y-27.7945
G1 X-40.205 Y-27.8126
G1 X-40.1937 Y-27.8316
G1 X-40.1837 Y-27.8513
G1 X-40.175 Y-27.8713
G1 X-40.1676 Y-27.8919
G1 X-40.1614 Y-27.9133
G1 X-40.1566 Y-27.9347
G1 X-40.1533 Y-27.9559
G1 X-40.1512 Y-27.9778
G1 X-40.1505 Y-28.0
G1 X-40.1512 Y-28.0222
G1 X-40.1533 Y-28.0441
G1 X-40.1566 Y-28.0653
G1 X-40.1614 Y-28.0867
G1 X-40.1676 Y-28.1081
G1 X-40.175 Y-28.1287
G1 X-40.1837 Y-28.1487
G1 X-40.1937 Y-28.1684
G1 X-40.205 Y-28.1874
G1 X-40.2173 Y-28.2055
G1 X-40.2305 Y-28.2226
G1 X-40.2451 Y-28.2391
G1 X-40.2609 Y-28.2549
G1 X-40.2774 Y-28.2695
G1 X-40.2945 Y-28.2827
G1 X-40.3126 Y-28.295
G1 X-40.3316 Y-28.3063
G1 X-40.3513 Y-28.3163
G1 X-40.3713 Y-28.325
G1 X-40.3919 Y-28.3324
G1 X-40.4133 Y-28.3386
G1 X-40.4347 Y-28.3434
G1 X-40.4559 Y-28.3467
G1 X-40.4778 Y-28.3488
G1 X-40.5 Y-28.3495
G1 X-40.5222 Y-28.3488
G1 X-40.5441 Y-28.3467
G1 X-40.5653 Y-28.3434
G1 X-40.5867 Y-28.3386
G1 X-40.6081 Y-28.3324
G1 X-40.6287 Y-28.325
G1 X-40.6487 Y-28.3163
G1 X-40.6684 Y-28.3063
G1 X-40.6874 Y-28.295
G1 X-40.7055 Y-28.2827
G1 X-40.7226 Y-28.2695
G1 X-40.7391 Y-28.2549
G1 X-40.7549 Y-28.2391
G1 X-40.7695 Y-28.2226
G1 X-40.7827 Y-28.2055
G1 X-40.795 Y-28.1874
G1 X-40.8063 Y-28.1684
G1 X-40.8163 Y-28.1487
G1 X-40.825 Y-28.1287
G1 X-40.8324 Y-28.1081
G1 X-40.8386 Y-28.0867
G1 X-40.8434 Y-28.0653
G1 X-40.8467 Y-28.0441
G1 X-40.8488 Y-28.0222
G0 Z3.0
G0 X-13.8495 Y-28.0
G0 Z1.0
G1 F300.0 Z0.0
G1 F800.0 X-13.8488 Y-27.9778 Z-0.003
G1 X-13.8467 Y-27.9559 Z-0.006
G1 X-13.8434 Y-27.9347 Z-0.009
G1 X-13.8386 Y-27.9133 Z-0.012
G1 X-13.8324 Y-27.8919 Z-0.015
G1 X-13.825 Y-27.8713 Z-0.018
G1 X-13.8163 Y-27.8513 Z-0.021
G1 X-13.8063 Y-27.8316 Z-0.024
G1 X-13.795 Y-27.8126 Z-0.027
G1 X-13.7827 Y-27.7945 Z-0.03
G1 X-13.7695 Y-27.7774 Z-0.033
G1 X-13.7549 Y-27.7609 Z-0.036
G1 X-13.7391 Y-27.7451 Z-0.039
G1 X-13.7226 Y-27.7305 Z-0.042
G1 X-13.7055 Y-27.7173 Z-0.045
G1 X-13.6874 Y-27.705 Z-0.048
G1 X-13.6684 Y-27.6937 Z-0.051
G1 X-13.6487 Y-27.6837 Z-0.054
G1 X-13.6287 Y-27.675 Z-0.057
G1 X-13.6081 Y-27.6676 Z-0.06
G1 X-13.5867 Y-27.6614 Z-0.063
G1 X-13.5653 Y-27.6566 Z-0.066
G1 X-13.5441 Y-27.6533 Z-0.069
G1 X-13.5222 Y-27.6512 Z-0.072
G1 X-13.5 Y-27.6505 Z-0.075
G1 X-13.4778 Y-27.6512 Z-0.078
G1 X-13.4559 Y-27.6533 Z-0.081
G1 X-13.4347 Y-27.6566 Z-0.084
G1 X-13.4133 Y-27.6614 Z-0.087
G1 X-13.3919 Y-27.6676 Z-0.09
G1 X-13.3713 Y-27.675 Z-0.093
G1 X-13.3513 Y-27.6837 Z-0.096
G1 X-13.3316 Y-27.6937 Z-0.099
G1 X-13.3126 Y-27.705 Z-0.102
G1 X-13.2945 Y-27.7173 Z-0.105
G1 X-13.2774 Y-27.7305 Z-0.108
G1 X-13.2609 Y-27.7451 Z-0.111
G1 X-13.2451 Y-27.7609 Z-0.114
G1 X-13.2305 Y-27.7774 Z-0.117
G1 X-13.2173 Y-27.7945 Z-0.12
G1 X-13.205 Y-27.8126 Z-0.123
G1 X-13.1937 Y-27.8316 Z-0.126
G1 X-13.1837 Y-27.8513 Z-0.129
G1 X-13.175 Y-27.8713 Z-0.132
G1 X-13.1676 Y-27.8919 Z-0.135
G1 X-13.1614 Y-27.9133 Z-0.138
G1 X-13.1566 Y-27.9347 Z-0.141
G1 X-13.1533 Y-27.9559 Z-0.144
G1 X-13.1512 Y-27.9778 Z-0.147
G1 X-13.1505 Y-28.0 Z-0.15
G1 X-13.1512 Y-28.0222 Z-0.153
G1 X-13.1533 Y-28.0441 Z-0.156
G1 X-13.1566 Y-28.0653 Z-0.159
G1 X-13.1614 Y-28.0867 Z-0.162
G1 X-13.1676 Y-28.1081 Z-0.165
G1 X-13.175 Y-28.1287 Z-0.168
G1 X-13.1837 Y-28.1487 Z-0.171
G1 X-13.1937 Y-28.1684 Z-0.174
G1 X-13.205 Y-28.1874 Z-0.177
G1 X-13.2173 Y-28.2055 Z-0.18
G1 X-13.2305 Y-28.2226 Z-0.183
G1 X-13.2451 Y-28.2391 Z-0.186
G1 X-13.2609 Y-28.2549 Z-0.189
G1 X-13.2774 Y-28.2695 Z-0.192
G1 X-13.2945 Y-28.2827 Z-0.195
G1 X-13.3126 Y-28.295 Z-0.198
G1 X-13.3316 Y-28.3063 Z-0.201
G1 X-13.3513 Y-28.3163 Z-0.204
G1 X-13.3713 Y-28.325 Z-0.207
G1 X-13.3919 Y-28.3324 Z-0.21
G1 X-13.4133 Y-28.3386 Z-0.213
G1 X-13.4347 Y-28.3434 Z-0.216
G1 X-13.4559 Y-28.3467 Z-0.219
G1 X-13.4778 Y-28.3488 Z-0.222
G1 X-13.5 Y-28.3495 Z-0.225
G1 X-13.5222 Y-28.3488 Z-0.228
G1 X-13.5441 Y-28.3467 Z-0.231
G1 X-13.5653 Y-28.3434 Z-0.234
G1 X-13.5867 Y-28.3386 Z-0.237
G1 X-13.6081 Y-28.3324 Z-0.24
G1 X-13.6287 Y-28.325 Z-0.243
G1 X-13.6487 Y-28.3163 Z-0.246
G1 X-13.6684 Y-28.3063 Z-0.249
G1 X-13.6874 Y-28.295 Z-0.252
G1 X-13.7055 Y-28.2827 Z-0.255
G1 X-13.7226 Y-28.2695 Z-0.258
G1 X-13.7391 Y-28.2549 Z-0.261
G1 X-13.7549 Y-28.2391 Z-0.264
G1 X-13.7695 Y-28.2226 Z-0.267
G1 X-13.7827 Y-28.2055 Z-0.27
G1 X-13.795 Y-28.1874 Z-0.273
G1 X-13.8063 Y-28.1684 Z-0.276
G1 X-13.8163 Y-28.1487 Z-0.279
G1 X-13.825 Y-28.1287 Z-0.282
G1 X-13.8324 Y-28.1081 Z-0.285
G1 X-13.8386 Y-28.0867 Z-0.288
G1 X-13.8434 Y-28.0653 Z-0.291
G1 X-13.8467 Y-28.0441 Z-0.294
G1 X-13.8488 Y-28.0222 Z-0.297
G1 X-13.8495 Y-28.0 Z-0.3
G1 X-13.8488 Y-27.9778
G1 X-13.8467 Y-27.9559
G1 X-13.8434 Y-27.9347
G1 X-13.8386 Y-27.9133
G1 X-13.8324 Y-27.8919
G1 X-13.825 Y-27.8713
G1 X-13.8163 Y-27.8513
G1 X-13.8063 Y-27.8316
G1 X-13.795 Y-27.8126
G1 X-13.7827 Y-27.7945
G1 X-13.7695 Y-27.7774
G1 X-13.7549 Y-27.7609
G1 X-13.7391 Y-27.7451
G1 X-13.7226 Y-27.7305
G1 X-13.7055 Y-27.7173
G1 X-13.6874 Y-27.705
G1 X-13.6684 Y-27.6937
G1 X-13.6487 Y-27.6837
G1 X-13.6287 Y-27.675
G1 X-13.6081 Y-27.6676
G1 X-13.5867 Y-27.6614
G1 X-13.5653 Y-27.6566
G1 X-13.5441 Y-27.6533
G1 X-13.5222 Y-27.6512
G1 X-13.5 Y-27.6505
G1 X-13.4778 Y-27.6512
G1 X-13.4559 Y-27.6533
G1 X-13.4347 Y-27.6566
G1 X-13.4133 Y-27.6614
G1 X-13.3919 Y-27.6676
G1 X-13.3713 Y-27.675
G1 X-13.3513 Y-27.6837
G1 X-13.3316 Y-27.6937
G1 X-13.3126 Y-27.705
G1 X-13.2945 Y-27.7173
G1 X-13.2774 Y-27.7305
G1 X-13.2609 Y-27.7451
G1 X-13.2451 Y-27.7609
G1 X-13.2305 Y-27.7774
G1 X-13.2173 Y-27.7945
G1 X-13.205 Y-27.8126
G1 X-13.1937 Y-27.8316
G1 X-13.1837 Y-27.8513
G1 X-13.175 Y-27.8713
G1 X-13.1676 Y-27.8919
G1 X-13.1614 Y-27.9133
G1 X-13.1566 Y-27.9347
G1 X-13.1533 Y-27.9559
G1 X-13.1512 Y-27.9778
G1 X-13.1505 Y-28.0
G1 X-13.1512 Y-28.0222
G1 X-13.1533 Y-28.0441
G1 X-13.1566 Y-28.0653
G1 X-13.1614 Y-28.0867
G1 X-13.1676 Y-28.1081
G1 X-13.175 Y-28.1287
G1 X-13.1837 Y-28.1487
G1 X-13.1937 Y-28.1684
G1 X-13.205 Y-28.1874
G1 X-13.2173 Y-28.2055
G1 X-13.2305 Y-28.2226
G1 X-13.2451 Y-28.2391
G1 X-13.2609 Y-28.2549
G1 X-13.2774 Y-28.2695
G1 X-13.2945 Y-28.2827
G1 X-13.3126 Y-28.295
G1 X-13.3316 Y-28.3063
G1 X-13.3513 Y-28.3163
G1 X-13.3713 Y-28.325
G1 X-13.3919 Y-28.3324
G1 X-13.4133 Y-28.3386
G1 X-13.4347 Y-28.3434
G1 X-13.4559 Y-28.3467
G1 X-13.4778 Y-28.3488
G1 X-13.5 Y-28.3495
G1 X-13.5222 Y-28.3488
G1 X-13.5441 Y-28.3467
G1 X-13.5653 Y-28.3434
G1 X-13.5867 Y-28.3386
G1 X-13.6081 Y-28.3324
G1 X-13.6287 Y-28.325
G1 X-13.6487 Y-28.3163
G1 X-13.6684 Y-28.3063
G1 X-13.6874 Y-28.295
G1 X-13.7055 Y-28.2827
G1 X-13.7226 Y-28.2695
G1 X-13.7391 Y-28.2549
G1 X-13.7549 Y-28.2391
G1 X-13.7695 Y-28.2226
G1 X-13.7827 Y-28.2055
G1 X-13.795 Y-28.1874
G1 X-13.8063 Y-28.1684
G1 X-13.8163 Y-28.1487
G1 X-13.825 Y-28.1287
G1 X-13.8324 Y-28.1081
G1 X-13.8386 Y-28.0867
G1 X-13.8434 Y-28.0653
G1 X-13.8467 Y-28.0441
G1 X-13.8488 Y-28.0222
G1 X-13.8495 Y-28.0
G0 Z3.0
G0 X13.6505
G0 Z1.0
G1 F300.0 Z0.0
G1 F800.0 X13.6512 Y-27.9778 Z-0.003
G1 X13.6533 Y-27.9559 Z-0.006
G1 X13.6566 Y-27.9347 Z-0.009
G1 X13.6614 Y-27.9133 Z-0.012
G1 X13.6676 Y-27.8919 Z-0.015
G1 X13.675 Y-27.8713 Z-0.018
G1 X13.6837 Y-27.8513 Z-0.021
G1 X13.6937 Y-27.8316 Z-0.024
G1 X13.705 Y-27.8126 Z-0.027
G1 X13.7173 Y-27.7945 Z-0.03
G1 X13.7305 Y-27.7774 Z-0.033
G1 X13.7451 Y-27.7609 Z-0.036
G1 X13.7609 Y-27.7451 Z-0.039
G1 X13.7774 Y-27.7305 Z-0.042
G1 X13.7945 Y-27.7173 Z-0.045
G1 X13.8126 Y-27.705 Z-0.048
G1 X13.8316 Y-27.6937 Z-0.051
G1 X13.8513 Y-27.6837 Z-0.054
G1 X13.8713 Y-27.675 Z-0.057
G1 X13.8919 Y-27.6676 Z-0.06
G1 X13.9133 Y-27.6614 Z-0.063
G1 X13.9347 Y-27.6566 Z-0.066
G1 X13.9559 Y-27.6533 Z-0.069
G1 X13.9778 Y-27.6512 Z-0.072
G1 X14.0 Y-27.6505 Z-0.075
G1 X14.0222 Y-27.6512 Z-0.078
G1 X14.0441 Y-27.6533 Z-0.081
G1 X14.0653 Y-27.6566 Z-0.084
G1 X14.0867 Y-27.6614 Z-0.087
G1 X14.1081 Y-27.6676 Z-0.09
G1 X14.1287 Y-27.675 Z-0.093
G1 X14.1487 Y-27.6837 Z-0.096
G1 X14.1684 Y-27.6937 Z-0.099
G1 X14.1874 Y-27.705 Z-0.102
G1 X14.2055 Y-27.7173 Z-0.105
G1 X14.2226 Y-27.7305 Z-0.108
G1 X14.2391 Y-27.7451 Z-0.111
G1 X14.2549 Y-27.7609 Z-0.114
G1 X14.2695 Y-27.7774 Z-0.117
G1 X14.2827 Y-27.7945 Z-0.12
G1 X14.295 Y-27.8126 Z-0.123
G1 X14.3063 Y-27.8316 Z-0.126
G1 X14.3163 Y-27.8513 Z-0.129
G1 X14.325 Y-27.8713 Z-0.132
G1 X14.3324 Y-27.8919 Z-0.135
G1 X14.3386 Y-27.9133 Z-0.138
G1 X14.3434 Y-27.9347 Z-0.141
G1 X14.3467 Y-27.9559 Z-0.144
G1 X14.3488 Y-27.9778 Z-0.147
G1 X14.3495 Y-28.0 Z-0.15
G1 X14.3488 Y-28.0222 Z-0.153
G1 X14.3467 Y-28.0441 Z-0.156
G1 X14.3434 Y-28.0653 Z-0.159
G1 X14.3386 Y-28.0867 Z-0.162
G1 X14.3324 Y-28.1081 Z-0.165
G1 X14.325 Y-28.1287 Z-0.168
G1 X14.3163 Y-28.1487 Z-0.171
G1 X14.3063 Y-28.1684 Z-0.174
G1 X14.295 Y-28.1874 Z-0.177
G1 X14.2827 Y-28.2055 Z-0.18
G1 X14.2695 Y-28.2226 Z-0.183
G1 X14.2549 Y-28.2391 Z-0.186
G1 X14.2391 Y-28.2549 Z-0.189
G1 X14.2226 Y-28.2695 Z-0.192
G1 X14.2055 Y-28.2827 Z-0.195
G1 X14.1874 Y-28.295 Z-0.198
G1 X14.1684 Y-28.3063 Z-0.201
G1 X14.1487 Y-28.3163 Z-0.204
G1 X14.1287 Y-28.325 Z-0.207
G1 X14.1081 Y-28.3324 Z-0.21
G1 X14.0867 Y-28.3386 Z-0.213
G1 X14.0653 Y-28.3434 Z-0.216
G1 X14.0441 Y-28.3467 Z-0.219
G1 X14.0222 Y-28.3488 Z-0.222
G1 X14.0 Y-28.3495 Z-0.225
G1 X13.9778 Y-28.3488 Z-0.228
G1 X13.9559 Y-28.3467 Z-0.231
G1 X13.9347 Y-28.3434 Z-0.234
G1 X13.9133 Y-28.3386 Z-0.237
G1 X13.8919 Y-28.3324 Z-0.24
G1 X13.8713 Y-28.325 Z-0.243
G1 X13.8513 Y-28.3163 Z-0.246
G1 X13.8316 Y-28.3063 Z-0.249
G1 X13.8126 Y-28.295 Z-0.252
G1 X13.7945 Y-28.2827 Z-0.255
G1 X13.7774 Y-28.2695 Z-0.258
G1 X13.7609 Y-28.2549 Z-0.261
G1 X13.7451 Y-28.2391 Z-0.264
G1 X13.7305 Y-28.2226 Z-0.267
G1 X13.7173 Y-28.2055 Z-0.27
G1 X13.705 Y-28.1874 Z-0.273
G1 X13.6937 Y-28.1684 Z-0.276
G1 X13.6837 Y-28.1487 Z-0.279
G1 X13.675 Y-28.1287 Z-0.282
G1 X13.6676 Y-28.1081 Z-0.285
G1 X13.6614 Y-28.0867 Z-0.288
G1 X13.6566 Y-28.0653 Z-0.291
G1 X13.6533 Y-28.0441 Z-0.294
G1 X13.6512 Y-28.0222 Z-0.297
G1 X13.6505 Y-28.0 Z-0.3
G1 X13.6512 Y-27.9778
G1 X13.6533 Y-27.9559
G1 X13.6566 Y-27.9347
G1 X13.6614 Y-27.9133
G1 X13.6676 Y-27.8919
G1 X13.675 Y-27.8713
G1 X13.6837 Y-27.8513
G1 X13.6937 Y-27.8316
G1 X13.705 Y-27.8126
G1 X13.7173 Y-27.7945
G1 X13.7305 Y-27.7774
G1 X13.7451 Y-27.7609
G1 X13.7609 Y-27.7451
G1 X13.7774 Y-27.7305
G1 X13.7945 Y-27.7173
G1 X13.8126 Y-27.705
G1 X13.8316 Y-27.6937
G1 X13.8513 Y-27.6837
G1 X13.8713 Y-27.675
G1 X13.8919 Y-27.6676
G1 X13.9133 Y-27.6614
G1 X13.9347 Y-27.6566
G1 X13.9559 Y-27.6533
G1 X13.9778 Y-27.6512
G1 X14.0 Y-27.6505
G1 X14.0222 Y-27.6512
G1 X14.0441 Y-27.6533
G1 X14.0653 Y-27.6566
G1 X14.0867 Y-27.6614
G1 X14.1081 Y-27.6676
G1 X14.1287 Y-27.675
G1 X14.1487 Y-27.6837
G1 X14.1684 Y-27.6937
G1 X14.1874 Y-27.705
G1 X14.2055 Y-27.7173
G1 X14.2226 Y-27.7305
G1 X14.2391 Y-27.7451
G1 X14.2549 Y-27.7609
G1 X14.2695 Y-27.7774
G1 X14.2827 Y-27.7945
G1 X14.295 Y-27.8126
G1 X14.3063 Y-27.8316
G1 X14.3163 Y-27.8513
G1 X14.325 Y-27.8713
G1 X14.3324 Y-27.8919
G1 X14.3386 Y-27.9133
G1 X14.3434 Y-27.9347
G1 X14.3467 Y-27.9559
G1 X14.3488 Y-27.9778
G1 X14.3495 Y-28.0
G1 X14.3488 Y-28.0222
G1 X14.3467 Y-28.0441
G1 X14.3434 Y-28.0653
G1 X14.3386 Y-28.0867
G1 X14.3324 Y-28.1081
G1 X14.325 Y-28.1287
G1 X14.3163 Y-28.1487
G1 X14.3063 Y-28.1684
G1 X14.295 Y-28.1874
G1 X14.2827 Y-28.2055
G1 X14.2695 Y-28.2226
G1 X14.2549 Y-28.2391
G1 X14.2391 Y-28.2549
G1 X14.2226 Y-28.2695
G1 X14.2055 Y-28.2827
G1 X14.1874 Y-28.295
G1 X14.1684 Y-28.3063
G1 X14.1487 Y-28.3163
G1 X14.1287 Y-28.325
G1 X14.1081 Y-28.3324
G1 X14.0867 Y-28.3386
G1 X14.0653 Y-28.3434
G1 X14.0441 Y-28.3467
G1 X14.0222 Y-28.3488
G1 X14.0 Y-28.3495
G1 X13.9778 Y-28.3488
G1 X13.9559 Y-28.3467
G1 X13.9347 Y-28.3434
G1 X13.9133 Y-28.3386
G1 X13.8919 Y-28.3324
G1 X13.8713 Y-28.325
G1 X13.8513 Y-28.3163
G1 X13.8316 Y-28.3063
G1 X13.8126 Y-28.295
G1 X13.7945 Y-28.2827
G1 X13.7774 Y-28.2695
G1 X13.7609 Y-28.2549
G1 X13.7451 Y-28.2391
G1 X13.7305 Y-28.2226
G1 X13.7173 Y-28.2055
G1 X13.705 Y-28.1874
G1 X13.6937 Y-28.1684
G1 X13.6837 Y-28.1487
G1 X13.675 Y-28.1287
G1 X13.6676 Y-28.1081
G1 X13.6614 Y-28.0867
G1 X13.6566 Y-28.0653
G1 X13.6533 Y-28.0441
G1 X13.6512 Y-28.0222
G1 X13.6505 Y-28.0
G0 Z3.0
G0 X40.6505
G0 Z1.0
G1 F300.0 Z0.0
G1 F800.0 X40.6512 Y-27.9778 Z-0.003
G1 X40.6533 Y-27.9559 Z-0.006
G1 X40.6566 Y-27.9347 Z-0.009
G1 X40.6614 Y-27.9133 Z-0.012
G1 X40.6676 Y-27.8919 Z-0.015
G1 X40.675 Y-27.8713 Z-0.018
G1 X40.6837 Y-27.8513 Z-0.021
G1 X40.6937 Y-27.8316 Z-0.024
G1 X40.705 Y-27.8126 Z-0.027
G1 X40.7173 Y-27.7945 Z-0.03
G1 X40.7305 Y-27.7774 Z-0.033
G1 X40.7451 Y-27.7609 Z-0.036
G1 X40.7609 Y-27.7451 Z-0.039
G1 X40.7774 Y-27.7305 Z-0.042
G1 X40.7945 Y-27.7173 Z-0.045
G1 X40.8126 Y-27.705 Z-0.048
G1 X40.8316 Y-27.6937 Z-0.051
G1 X40.8513 Y-27.6837 Z-0.054
G1 X40.8713 Y-27.675 Z-0.057
G1 X40.8919 Y-27.6676 Z-0.06
G1 X40.9133 Y-27.6614 Z-0.063
G1 X40.9347 Y-27.6566 Z-0.066
G1 X40.9559 Y-27.6533 Z-0.069
G1 X40.9778 Y-27.6512 Z-0.072
G1 X41.0 Y-27.6505 Z-0.075
G1 X41.0222 Y-27.6512 Z-0.078
G1 X41.0441 Y-27.6533 Z-0.081
G1 X41.0653 Y-27.6566 Z-0.084
G1 X41.0867 Y-27.6614 Z-0.087
G1 X41.1081 Y-27.6676 Z-0.09
G1 X41.1287 Y-27.675 Z-0.093
G1 X41.1487 Y-27.6837 Z-0.096
G1 X41.1684 Y-27.6937 Z-0.099
G1 X41.1874 Y-27.705 Z-0.102
G1 X41.2055 Y-27.7173 Z-0.105
G1 X41.2226 Y-27.7305 Z-0.108
G1 X41.2391 Y-27.7451 Z-0.111
G1 X41.2549 Y-27.7609 Z-0.114
G1 X41.2695 Y-27.7774 Z-0.117
G1 X41.2827 Y-27.7945 Z-0.12
G1 X41.295 Y-27.8126 Z-0.123
G1 X41.3063 Y-27.8316 Z-0.126
G1 X41.3163 Y-27.8513 Z-0.129
G1 X41.325 Y-27.8713 Z-0.132
G1 X41.3324 Y-27.8919 Z-0.135
G1 X41.3386 Y-27.9133 Z-0.138
G1 X41.3434 Y-27.9347 Z-0.141
G1 X41.3467 Y-27.9559 Z-0.144
G1 X41.3488 Y-27.9778 Z-0.147
G1 X41.3495 Y-28.0 Z-0.15
G1 X41.3488 Y-28.0222 Z-0.153
G1 X41.3467 Y-28.0441 Z-0.156
G1 X41.3434 Y-28.0653 Z-0.159
G1 X41.3386 Y-28.0867 Z-0.162
G1 X41.3324 Y-28.1081 Z-0.165
G1 X41.325 Y-28.1287 Z-0.168
G1 X41.3163 Y-28.1487 Z-0.171
G1 X41.3063 Y-28.1684 Z-0.174
G1 X41.295 Y-28.1874 Z-0.177
G1 X41.2827 Y-28.2055 Z-0.18
G1 X41.2695 Y-28.2226 Z-0.183
G1 X41.2549 Y-28.2391 Z-0.186
G1 X41.2391 Y-28.2549 Z-0.189
G1 X41.2226 Y-28.2695 Z-0.192
G1 X41.2055 Y-28.2827 Z-0.195
G1 X41.1874 Y-28.295 Z-0.198
G1 X41.1684 Y-28.3063 Z-0.201
G1 X41.1487 Y-28.3163 Z-0.204
G1 X41.1287 Y-28.325 Z-0.207
G1 X41.1081 Y-28.3324 Z-0.21
G1 X41.0867 Y-28.3386 Z-0.213
G1 X41.0653 Y-28.3434 Z-0.216
G1 X41.0441 Y-28.3467 Z-0.219
G1 X41.0222 Y-28.3488 Z-0.222
G1 X41.0 Y-28.3495 Z-0.225
G1 X40.9778 Y-28.3488 Z-0.228
G1 X40.9559 Y-28.3467 Z-0.231
G1 X40.9347 Y-28.3434 Z-0.234
G1 X40.9133 Y-28.3386 Z-0.237
G1 X40.8919 Y-28.3324 Z-0.24
G1 X40.8713 Y-28.325 Z-0.243
G1 X40.8513 Y-28.3163 Z-0.246
G1 X40.8316 Y-28.3063 Z-0.249
G1 X40.8126 Y-28.295 Z-0.252
G1 X40.7945 Y-28.2827 Z-0.255
G1 X40.7774 Y-28.2695 Z-0.258
G1 X40.7609 Y-28.2549 Z-0.261
G1 X40.7451 Y-28.2391 Z-0.264
G1 X40.7305 Y-28.2226 Z-0.267
G1 X40.7173 Y-28.2055 Z-0.27
G1 X40.705 Y-28.1874 Z-0.273
G1 X40.6937 Y-28.1684 Z-0.276
G1 X40.6837 Y-28.1487 Z-0.279
G1 X40.675 Y-28.1287 Z-0.282
G1 X40.6676 Y-28.1081 Z-0.285
G1 X40.6614 Y-28.0867 Z-0.288
G1 X40.6566 Y-28.0653 Z-0.291
G1 X40.6533 Y-28.0441 Z-0.294
G1 X40.6512 Y-28.0222 Z-0.297
G1 X40.6505 Y-28.0 Z-0.3
G1 X40.6512 Y-27.9778
G1 X40.6533 Y-27.9559
G1 X40.6566 Y-27.9347
G1 X40.6614 Y-27.9133
G1 X40.6676 Y-27.8919
G1 X40.675 Y-27.8713
G1 X40.6837 Y-27.8513
G1 X40.6937 Y-27.8316
G1 X40.705 Y-27.8126
G1 X40.7173 Y-27.7945
G1 X40.7305 Y-27.7774
G1 X40.7451 Y-27.7609
G1 X40.7609 Y-27.7451
G1 X40.7774 Y-27.7305
G1 X40.7945 Y-27.7173
G1 X40.8126 Y-27.705
G1 X40.8316 Y-27.6937
G1 X40.8513 Y-27.6837
G1 X40.8713 Y-27.675
G1 X40.8919 Y-27.6676
G1 X40.9133 Y-27.6614
G1 X40.9347 Y-27.6566
G1 X40.9559 Y-27.6533
G1 X40.9778 Y-27.6512
G1 X41.0 Y-27.6505
G1 X41.0222 Y-27.6512
G1 X41.0441 Y-27.6533
G1 X41.0653 Y-27.6566
G1 X41.0867 Y-27.6614
G1 X41.1081 Y-27.6676
G1 X41.1287 Y-27.675
G1 X41.1487 Y-27.6837
G1 X41.1684 Y-27.6937
G1 X41.1874 Y-27.705
G1 X41.2055 Y-27.7173
G1 X41.2226 Y-27.7305
G1 X41.2391 Y-27.7451
G1 X41.2549 Y-27.7609
G1 X41.2695 Y-27.7774
G1 X41.2827 Y-27.7945
G1 X41.295 Y-27.8126
G1 X41.3063 Y-27.8316
G1 X41.3163 Y-27.8513
G1 X41.325 Y-27.8713
G1 X41.3324 Y-27.8919
G1 X41.3386 Y-27.9133
G1 X41.3434 Y-27.9347
G1 X41.3467 Y-27.9559
G1 X41.3488 Y-27.9778
G1 X41.3495 Y-28.0
G1 X41.3488 Y-28.0222
G1 X41.3467 Y-28.0441
G1 X41.3434 Y-28.0653
G1 X41.3386 Y-28.0867
G1 X41.3324 Y-28.1081
G1 X41.325 Y-28.1287
G1 X41.3163 Y-28.1487
G1 X41.3063 Y-28.1684
G1 X41.295 Y-28.1874
G1 X41.2827 Y-28.2055
G1 X41.2695 Y-28.2226
G1 X41.2549 Y-28.2391
G1 X41.2391 Y-28.2549
G1 X41.2226 Y-28.2695
G1 X41.2055 Y-28.2827
G1 X41.1874 Y-28.295
G1 X41.1684 Y-28.3063
G1 X41.1487 Y-28.3163
G1 X41.1287 Y-28.325
G1 X41.1081 Y-28.3324
G1 X41.0867 Y-28.3386
G1 X41.0653 Y-28.3434
G1 X41.0441 Y-28.3467
G1 X41.0222 Y-28.3488
G1 X41.0 Y-28.3495
G1 X40.9778 Y-28.3488
G1 X40.9559 Y-28.3467
G1 X40.9347 Y-28.3434
G1 X40.9133 Y-28.3386
G1 X40.8919 Y-28.3324
G1 X40.8713 Y-28.325
G1 X40.8513 Y-28.3163
G1 X40.8316 Y-28.3063
G1 X40.8126 Y-28.295
G1 X40.7945 Y-28.2827
G1 X40.7774 Y-28.2695
G1 X40.7609 Y-28.2549
G1 X40.7451 Y-28.2391
G1 X40.7305 Y-28.2226
G1 X40.7173 Y-28.2055
G1 X40.705 Y-28.1874
G1 X40.6937 Y-28.1684
G1 X40.6837 Y-28.1487
G1 X40.675 Y-28.1287
G1 X40.6676 Y-28.1081
G1 X40.6614 Y-28.0867
G1 X40.6566 Y-28.0653
G1 X40.6533 Y-28.0441
G1 X40.6512 Y-28.0222
G1 X40.6505 Y-28.0
G0 Z3.0
G0 X66.2451 Y-4.2391
G0 Z1.0
G1 F300.0 Z0.0
G1 F800.0 X66.2306 Y-4.2227 Z-0.003
G1 X66.2174 Y-4.2056 Z-0.0059
G1 X66.205 Y-4.1874 Z-0.0089
G1 X66.1937 Y-4.1683 Z-0.012
G1 X66.1837 Y-4.1487 Z-0.015
G1 X66.1751 Y-4.1287 Z-0.018
G1 X66.1676 Y-4.1079 Z-0.021
G1 X66.1614 Y-4.0867 Z-0.024
G1 X66.1566 Y-4.0653 Z-0.027
G1 X66.1533 Y-4.0441 Z-0.0299
G1 X66.1512 Y-4.0222 Z-0.0329
G1 X66.1505 Y-4.0 Z-0.036
G1 X66.1512 Y-3.9778 Z-0.039
G1 X66.1533 Y-3.9559 Z-0.042
G1 X66.1566 Y-3.9347 Z-0.045
G1 X66.1614 Y-3.9133 Z-0.0479
G1 X66.1676 Y-3.8921 Z-0.051
G1 X66.1751 Y-3.8713 Z-0.054
G1 X66.1837 Y-3.8513 Z-0.057
G1 X66.1937 Y-3.8317 Z-0.06
G1 X66.205 Y-3.8126 Z-0.063
G1 X66.2174 Y-3.7944 Z-0.066
G1 X66.2306 Y-3.7773 Z-0.069
G1 X66.2451 Y-3.7609 Z-0.072
G1 X66.2607 Y-3.7453 Z-0.075
G1 X66.2773 Y-3.7306 Z-0.078
G1 X66.2947 Y-3.7171 Z-0.081
G1 X66.3128 Y-3.7048 Z-0.084
G1 X66.3315 Y-3.6938 Z-0.087
G1 X66.3512 Y-3.6837 Z-0.09
G1 X66.3714 Y-3.675 Z-0.093
G1 X66.3919 Y-3.6676 Z-0.096
G1 X66.4131 Y-3.6615 Z-0.099
G1 X66.4345 Y-3.6567 Z-0.102
G1 X66.4562 Y-3.6532 Z-0.105
G1 X66.478 Y-3.6512 Z-0.108
G1 X66.5 Y-3.6505 Z-0.111
G1 X66.522 Y-3.6512 Z-0.114
G1 X66.5438 Y-3.6532 Z-0.117
G1 X66.5655 Y-3.6567 Z-0.12
G1 X66.5869 Y-3.6615 Z-0.123
G1 X66.6081 Y-3.6676 Z-0.126
G1 X66.6286 Y-3.675 Z-0.129
G1 X66.6488 Y-3.6837 Z-0.132
G1 X66.6685 Y-3.6938 Z-0.135
G1 X66.6872 Y-3.7048 Z-0.138
G1 X66.7053 Y-3.7171 Z-0.141
G1 X66.7227 Y-3.7306 Z-0.144
G1 X66.7393 Y-3.7453 Z-0.147
G1 X66.7549 Y-3.7609 Z-0.15
G1 X66.7694 Y-3.7773 Z-0.153
G1 X66.7826 Y-3.7944 Z-0.1559
G1 X66.795 Y-3.8126 Z-0.1589
G1 X66.8063 Y-3.8317 Z-0.162
G1 X66.8163 Y-3.8513 Z-0.165
G1 X66.8249 Y-3.8713 Z-0.168
G1 X66.8324 Y-3.8921 Z-0.171
G1 X66.8386 Y-3.9133 Z-0.174
G1 X66.8434 Y-3.9347 Z-0.177
G1 X66.8467 Y-3.9559 Z-0.1799
G1 X66.8488 Y-3.9778 Z-0.1829
G1 X66.8495 Y-4.0 Z-0.186
G1 X66.8488 Y-4.0222 Z-0.189
G1 X66.8467 Y-4.0441 Z-0.192
G1 X66.8434 Y-4.0653 Z-0.195
G1 X66.8386 Y-4.0867 Z-0.1979
G1 X66.8324 Y-4.1079 Z-0.201
G1 X66.8249 Y-4.1287 Z-0.204
G1 X66.8163 Y-4.1487 Z-0.207
G1 X66.8063 Y-4.1683 Z-0.21
G1 X66.795 Y-4.1874 Z-0.213
G1 X66.7826 Y-4.2056 Z-0.216
G1 X66.7694 Y-4.2227 Z-0.219
G1 X66.7549 Y-4.2391 Z-0.222
G1 X66.7393 Y-4.2547 Z-0.225
G1 X66.7227 Y-4.2694 Z-0.228
G1 X66.7053 Y-4.2829 Z-0.231
G1 X66.6872 Y-4.2952 Z-0.234
G1 X66.6685 Y-4.3062 Z-0.237
G1 X66.6488 Y-4.3163 Z-0.24
G1 X66.6286 Y-4.325 Z-0.243
G1 X66.6081 Y-4.3324 Z-0.246
G1 X66.5869 Y-4.3385 Z-0.249
G1 X66.5655 Y-4.3433 Z-0.252
G1 X66.5438 Y-4.3467 Z-0.255
G1 X66.5219 Y-4.3488 Z-0.258
G1 X66.5 Y-4.3495 Z-0.261
G1 X66.4781 Y-4.3488 Z-0.264
G1 X66.4562 Y-4.3467 Z-0.267
G1 X66.4345 Y-4.3433 Z-0.27
G1 X66.4131 Y-4.3385 Z-0.273
G1 X66.3919 Y-4.3324 Z-0.276
G1 X66.3714 Y-4.325 Z-0.279
G1 X66.3512 Y-4.3163 Z-0.282
G1 X66.3315 Y-4.3062 Z-0.285
G1 X66.3128 Y-4.2952 Z-0.288
G1 X66.2947 Y-4.2829 Z-0.291
G1 X66.2773 Y-4.2694 Z-0.294
G1 X66.2607 Y-4.2547 Z-0.297
G1 X66.2451 Y-4.2391 Z-0.3
G1 X66.2306 Y-4.2227
G1 X66.2174 Y-4.2056
G1 X66.205 Y-4.1874
G1 X66.1937 Y-4.1683
G1 X66.1837 Y-4.1487
G1 X66.1751 Y-4.1287
G1 X66.1676 Y-4.1079
G1 X66.1614 Y-4.0867
G1 X66.1566 Y-4.0653
G1 X66.1533 Y-4.0441
G1 X66.1512 Y-4.0222
G1 X66.1505 Y-4.0
G1 X66.1512 Y-3.9778
G1 X66.1533 Y-3.9559
G1 X66.1566 Y-3.9347
G1 X66.1614 Y-3.9133
G1 X66.1676 Y-3.8921
G1 X66.1751 Y-3.8713
G1 X66.1837 Y-3.8513
G1 X66.1937 Y-3.8317
G1 X66.205 Y-3.8126
G1 X66.2174 Y-3.7944
G1 X66.2306 Y-3.7773
G1 X66.2451 Y-3.7609
G1 X66.2607 Y-3.7453
G1 X66.2773 Y-3.7306
G1 X66.2947 Y-3.7171
G1 X66.3128 Y-3.7048
G1 X66.3315 Y-3.6938
G1 X66.3512 Y-3.6837
G1 X66.3714 Y-3.675
G1 X66.3919 Y-3.6676
G1 X66.4131 Y-3.6615
G1 X66.4345 Y-3.6567
G1 X66.4562 Y-3.6532
G1 X66.478 Y-3.6512
G1 X66.5 Y-3.6505
G1 X66.522 Y-3.6512
G1 X66.5438 Y-3.6532
G1 X66.5655 Y-3.6567
G1 X66.5869 Y-3.6615
G1 X66.6081 Y-3.6676
G1 X66.6286 Y-3.675
G1 X66.6488 Y-3.6837
G1 X66.6685 Y-3.6938
G1 X66.6872 Y-3.7048
G1 X66.7053 Y-3.7171
G1 X66.7227 Y-3.7306
G1 X66.7393 Y-3.7453
G1 X66.7549 Y-3.7609
G1 X66.7694 Y-3.7773
G1 X66.7826 Y-3.7944
G1 X66.795 Y-3.8126
G1 X66.8063 Y-3.8317
G1 X66.8163 Y-3.8513
G1 X66.8249 Y-3.8713
G1 X66.8324 Y-3.8921
G1 X66.8386 Y-3.9133
G1 X66.8434 Y-3.9347
G1 X66.8467 Y-3.9559
G1 X66.8488 Y-3.9778
G1 X66.8495 Y-4.0
G1 X66.8488 Y-4.0222
G1 X66.8467 Y-4.0441
G1 X66.8434 Y-4.0653
G1 X66.8386 Y-4.0867
G1 X66.8324 Y-4.1079
G1 X66.8249 Y-4.1287
G1 X66.8163 Y-4.1487
G1 X66.8063 Y-4.1683
G1 X66.795 Y-4.1874
G1 X66.7826 Y-4.2056
G1 X66.7694 Y-4.2227
G1 X66.7549 Y-4.2391
G1 X66.7393 Y-4.2547
G1 X66.7227 Y-4.2694
G1 X66.7053 Y-4.2829
G1 X66.6872 Y-4.2952
G1 X66.6685 Y-4.3062
G1 X66.6488 Y-4.3163
G1 X66.6286 Y-4.325
G1 X66.6081 Y-4.3324
G1 X66.5869 Y-4.3385
G1 X66.5655 Y-4.3433
G1 X66.5438 Y-4.3467
G1 X66.5219 Y-4.3488
G1 X66.5 Y-4.3495
G1 X66.4781 Y-4.3488
G1 X66.4562 Y-4.3467
G1 X66.4345 Y-4.3433
G1 X66.4131 Y-4.3385
G1 X66.3919 Y-4.3324
G1 X66.3714 Y-4.325
G1 X66.3512 Y-4.3163
G1 X66.3315 Y-4.3062
G1 X66.3128 Y-4.2952
G1 X66.2947 Y-4.2829
G1 X66.2773 Y-4.2694
G1 X66.2607 Y-4.2547
G1 X66.2451 Y-4.2391
G0 Z3.0
G0 X66.5 Y15.6505
G0 Z1.0
G1 F300.0 Z0.0
G1 F800.0 X66.4778 Y15.6512 Z-0.003
G1 X66.4559 Y15.6533 Z-0.006
G1 X66.4347 Y15.6566 Z-0.009
G1 X66.4133 Y15.6614 Z-0.012
G1 X66.3919 Y15.6676 Z-0.015
G1 X66.3713 Y15.675 Z-0.018
G1 X66.3513 Y15.6837 Z-0.021
G1 X66.3316 Y15.6937 Z-0.024
G1 X66.3126 Y15.705 Z-0.027
G1 X66.2945 Y15.7173 Z-0.03
G1 X66.2774 Y15.7305 Z-0.033
G1 X66.2609 Y15.7451 Z-0.036
G1 X66.2451 Y15.7609 Z-0.039
G1 X66.2305 Y15.7774 Z-0.042
G1 X66.2173 Y15.7945 Z-0.045
G1 X66.205 Y15.8126 Z-0.048
G1 X66.1937 Y15.8316 Z-0.051
G1 X66.1837 Y15.8513 Z-0.054
G1 X66.175 Y15.8713 Z-0.057
G1 X66.1676 Y15.8919 Z-0.06
G1 X66.1614 Y15.9133 Z-0.063
G1 X66.1566 Y15.9347 Z-0.066
G1 X66.1533 Y15.9559 Z-0.069
G1 X66.1512 Y15.9778 Z-0.072
G1 X66.1505 Y16.0 Z-0.075
G1 X66.1512 Y16.0222 Z-0.078
G1 X66.1533 Y16.0441 Z-0.081
G1 X66.1566 Y16.0653 Z-0.084
G1 X66.1614 Y16.0867 Z-0.087
G1 X66.1676 Y16.1081 Z-0.09
G1 X66.175 Y16.1287 Z-0.093
G1 X66.1837 Y16.1487 Z-0.096
G1 X66.1937 Y16.1684 Z-0.099
G1 X66.205 Y16.1874 Z-0.102
G1 X66.2173 Y16.2055 Z-0.105
G1 X66.2305 Y16.2226 Z-0.108
G1 X66.2451 Y16.2391 Z-0.111
G1 X66.2609 Y16.2549 Z-0.114
G1 X66.2774 Y16.2695 Z-0.117
G1 X66.2945 Y16.2827 Z-0.12
G1 X66.3126 Y16.295 Z-0.123
G1 X66.3316 Y16.3063 Z-0.126
G1 X66.3513 Y16.3163 Z-0.129
G1 X66.3713 Y16.325 Z-0.132
G1 X66.3919 Y16.3324 Z-0.135
G1 X66.4133 Y16.3386 Z-0.138
G1 X66.4347 Y16.3434 Z-0.141
G1 X66.4559 Y16.3467 Z-0.144
G1 X66.4778 Y16.3488 Z-0.147
G1 X66.5 Y16.3495 Z-0.15
G1 X66.5222 Y16.3488 Z-0.153
G1 X66.5441 Y16.3467 Z-0.156
G1 X66.5653 Y16.3434 Z-0.159
G1 X66.5867 Y16.3386 Z-0.162
G1 X66.6081 Y16.3324 Z-0.165
G1 X66.6287 Y16.325 Z-0.168
G1 X66.6487 Y16.3163 Z-0.171
G1 X66.6684 Y16.3063 Z-0.174
G1 X66.6874 Y16.295 Z-0.177
G1 X66.7055 Y16.2827 Z-0.18
G1 X66.7226 Y16.2695 Z-0.183
G1 X66.7391 Y16.2549 Z-0.186
G1 X66.7549 Y16.2391 Z-0.189
G1 X66.7695 Y16.2226 Z-0.192
G1 X66.7827 Y16.2055 Z-0.195
G1 X66.795 Y16.1874 Z-0.198
G1 X66.8063 Y16.1684 Z-0.201
G1 X66.8163 Y16.1487 Z-0.204
G1 X66.825 Y16.1287 Z-0.207
G1 X66.8324 Y16.1081 Z-0.21
G1 X66.8386 Y16.0867 Z-0.213
G1 X66.8434 Y16.0653 Z-0.216
G1 X66.8467 Y16.0441 Z-0.219
G1 X66.8488 Y16.0222 Z-0.222
G1 X66.8495 Y16.0 Z-0.225
G1 X66.8488 Y15.9778 Z-0.228
G1 X66.8467 Y15.9559 Z-0.231
G1 X66.8434 Y15.9347 Z-0.234
G1 X66.8386 Y15.9133 Z-0.237
G1 X66.8324 Y15.8919 Z-0.24
G1 X66.825 Y15.8713 Z-0.243
G1 X66.8163 Y15.8513 Z-0.246
G1 X66.8063 Y15.8316 Z-0.249
G1 X66.795 Y15.8126 Z-0.252
G1 X66.7827 Y15.7945 Z-0.255
G1 X66.7695 Y15.7774 Z-0.258
G1 X66.7549 Y15.7609 Z-0.261
G1 X66.7391 Y15.7451 Z-0.264
G1 X66.7226 Y15.7305 Z-0.267
G1 X66.7055 Y15.7173 Z-0.27
G1 X66.6874 Y15.705 Z-0.273
G1 X66.6684 Y15.6937 Z-0.276
G1 X66.6487 Y15.6837 Z-0.279
G1 X66.6287 Y15.675 Z-0.282
G1 X66.6081 Y15.6676 Z-0.285
G1 X66.5867 Y15.6614 Z-0.288
G1 X66.5653 Y15.6566 Z-0.291
G1 X66.5441 Y15.6533 Z-0.294
G1 X66.5222 Y15.6512 Z-0.297
G1 X66.5 Y15.6505 Z-0.3
G1 X66.4778 Y15.6512
G1 X66.4559 Y15.6533
G1 X66.4347 Y15.6566
G1 X66.4133 Y15.6614
G1 X66.3919 Y15.6676
G1 X66.3713 Y15.675
G1 X66.3513 Y15.6837
G1 X66.3316 Y15.6937
G1 X66.3126 Y15.705
G1 X66.2945 Y15.7173
G1 X66.2774 Y15.7305
G1 X66.2609 Y15.7451
G1 X66.2451 Y15.7609
G1 X66.2305 Y15.7774
G1 X66.2173 Y15.7945
G1 X66.205 Y15.8126
G1 X66.1937 Y15.8316
G1 X66.1837 Y15.8513
G1 X66.175 Y15.8713
G1 X66.1676 Y15.8919
G1 X66.1614 Y15.9133
G1 X66.1566 Y15.9347
G1 X66.1533 Y15.9559
G1 X66.1512 Y15.9778
G1 X66.1505 Y16.0
G1 X66.1512 Y16.0222
G1 X66.1533 Y16.0441
G1 X66.1566 Y16.0653
G1 X66.1614 Y16.0867
G1 X66.1676 Y16.1081
G1 X66.175 Y16.1287
G1 X66.1837 Y16.1487
G1 X66.1937 Y16.1684
G1 X66.205 Y16.1874
G1 X66.2173 Y16.2055
G1 X66.2305 Y16.2226
G1 X66.2451 Y16.2391
G1 X66.2609 Y16.2549
G1 X66.2774 Y16.2695
G1 X66.2945 Y16.2827
G1 X66.3126 Y16.295
G1 X66.3316 Y16.3063
G1 X66.3513 Y16.3163
G1 X66.3713 Y16.325
G1 X66.3919 Y16.3324
G1 X66.4133 Y16.3386
G1 X66.4347 Y16.3434
G1 X66.4559 Y16.3467
G1 X66.4778 Y16.3488
G1 X66.5 Y16.3495
G1 X66.5222 Y16.3488
G1 X66.5441 Y16.3467
G1 X66.5653 Y16.3434
G1 X66.5867 Y16.3386
G1 X66.6081 Y16.3324
G1 X66.6287 Y16.325
G1 X66.6487 Y16.3163
G1 X66.6684 Y16.3063
G1 X66.6874 Y16.295
G1 X66.7055 Y16.2827
G1 X66.7226 Y16.2695
G1 X66.7391 Y16.2549
G1 X66.7549 Y16.2391
G1 X66.7695 Y16.2226
G1 X66.7827 Y16.2055
G1 X66.795 Y16.1874
G1 X66.8063 Y16.1684
G1 X66.8163 Y16.1487
G1 X66.825 Y16.1287
G1 X66.8324 Y16.1081
G1 X66.8386 Y16.0867
G1 X66.8434 Y16.0653
G1 X66.8467 Y16.0441
G1 X66.8488 Y16.0222
G1 X66.8495 Y16.0
G1 X66.8488 Y15.9778
G1 X66.8467 Y15.9559
G1 X66.8434 Y15.9347
G1 X66.8386 Y15.9133
G1 X66.8324 Y15.8919
G1 X66.825 Y15.8713
G1 X66.8163 Y15.8513
G1 X66.8063 Y15.8316
G1 X66.795 Y15.8126
G1 X66.7827 Y15.7945
G1 X66.7695 Y15.7774
G1 X66.7549 Y15.7609
G1 X66.7391 Y15.7451
G1 X66.7226 Y15.7305
G1 X66.7055 Y15.7173
G1 X66.6874 Y15.705
G1 X66.6684 Y15.6937
G1 X66.6487 Y15.6837
G1 X66.6287 Y15.675
G1 X66.6081 Y15.6676
G1 X66.5867 Y15.6614
G1 X66.5653 Y15.6566
G1 X66.5441 Y15.6533
G1 X66.5222 Y15.6512
G1 X66.5 Y15.6505
G0 Z3.0
G0 X75.7126 Y31.105
G0 Z1.0
G1 F300.0 Z0.0
G1 F800.0 X75.6945 Y31.1173 Z-0.003
G1 X75.6774 Y31.1305 Z-0.0059
G1 X75.6609 Y31.1451 Z-0.009
G1 X75.6451 Y31.1609 Z-0.012
G1 X75.6305 Y31.1774 Z-0.015
G1 X75.6173 Y31.1945 Z-0.018
G1 X75.605 Y31.2126 Z-0.021
G1 X75.5937 Y31.2316 Z-0.024
G1 X75.5837 Y31.2513 Z-0.027
G1 X75.575 Y31.2713 Z-0.03
G1 X75.5676 Y31.2919 Z-0.033
G1 X75.5614 Y31.3133 Z-0.036
G1 X75.5566 Y31.3347 Z-0.039
G1 X75.5533 Y31.3559 Z-0.0419
G1 X75.5512 Y31.3778 Z-0.0449
G1 X75.5505 Y31.4 Z-0.048
G1 X75.5512 Y31.4222 Z-0.051
G1 X75.5533 Y31.4441 Z-0.054
G1 X75.5566 Y31.4653 Z-0.057
G1 X75.5614 Y31.4867 Z-0.06
G1 X75.5676 Y31.5081 Z-0.063
G1 X75.575 Y31.5287 Z-0.066
G1 X75.5837 Y31.5487 Z-0.069
G1 X75.5937 Y31.5684 Z-0.072
G1 X75.605 Y31.5874 Z-0.075
G1 X75.6173 Y31.6055 Z-0.078
G1 X75.6305 Y31.6226 Z-0.0809
G1 X75.6451 Y31.6391 Z-0.084
G1 X75.6609 Y31.6549 Z-0.087
G1 X75.6774 Y31.6695 Z-0.09
G1 X75.6945 Y31.6827 Z-0.093
G1 X75.7126 Y31.695 Z-0.096
G1 X75.7316 Y31.7063 Z-0.099
G1 X75.7513 Y31.7163 Z-0.102
G1 X75.7713 Y31.725 Z-0.105
G1 X75.7919 Y31.7324 Z-0.108
G1 X75.8133 Y31.7386 Z-0.111
G1 X75.8347 Y31.7434 Z-0.114
G1 X75.8559 Y31.7467 Z-0.1169
G1 X75.8778 Y31.7488 Z-0.1199
G1 X75.9 Y31.7495 Z-0.123
G1 X75.9222 Y31.7488 Z-0.126
G1 X75.9441 Y31.7467 Z-0.129
G1 X75.9653 Y31.7434 Z-0.132
G1 X75.9867 Y31.7386 Z-0.135
G1 X76.0081 Y31.7324 Z-0.138
G1 X76.0287 Y31.725 Z-0.141
G1 X76.0487 Y31.7163 Z-0.144
G1 X76.0684 Y31.7063 Z-0.147
G1 X76.0874 Y31.695 Z-0.15
G1 X76.1055 Y31.6827 Z-0.153
G1 X76.1226 Y31.6695 Z-0.1559
G1 X76.1391 Y31.6549 Z-0.159
G1 X76.1549 Y31.6391 Z-0.162
G1 X76.1695 Y31.6226 Z-0.165
G1 X76.1827 Y31.6055 Z-0.168
G1 X76.195 Y31.5874 Z-0.171
G1 X76.2063 Y31.5684 Z-0.174
G1 X76.2163 Y31.5487 Z-0.177
G1 X76.225 Y31.5287 Z-0.18
G1 X76.2324 Y31.5081 Z-0.183
G1 X76.2386 Y31.4867 Z-0.186
G1 X76.2434 Y31.4653 Z-0.189
G1 X76.2467 Y31.4441 Z-0.1919
G1 X76.2488 Y31.4222 Z-0.1949
G1 X76.2495 Y31.4 Z-0.198
G1 X76.2488 Y31.3778 Z-0.201
G1 X76.2467 Y31.3559 Z-0.204
G1 X76.2434 Y31.3347 Z-0.207
G1 X76.2386 Y31.3133 Z-0.21
G1 X76.2324 Y31.2919 Z-0.213
G1 X76.225 Y31.2713 Z-0.216
G1 X76.2163 Y31.2513 Z-0.219
G1 X76.2063 Y31.2316 Z-0.222
G1 X76.195 Y31.2126 Z-0.225
G1 X76.1827 Y31.1945 Z-0.228
G1 X76.1695 Y31.1774 Z-0.2309
G1 X76.1549 Y31.1609 Z-0.234
G1 X76.1391 Y31.1451 Z-0.237
G1 X76.1226 Y31.1305 Z-0.24
G1 X76.1055 Y31.1173 Z-0.243
G1 X76.0874 Y31.105 Z-0.246
G1 X76.0684 Y31.0937 Z-0.249
G1 X76.0487 Y31.0837 Z-0.252
G1 X76.0287 Y31.075 Z-0.255
G1 X76.0081 Y31.0676 Z-0.258
G1 X75.9867 Y31.0614 Z-0.261
G1 X75.9653 Y31.0566 Z-0.264
G1 X75.9441 Y31.0533 Z-0.2669
G1 X75.9222 Y31.0512 Z-0.2699
G1 X75.9 Y31.0505 Z-0.273
G1 X75.8778 Y31.0512 Z-0.276
G1 X75.8559 Y31.0533 Z-0.279
G1 X75.8347 Y31.0566 Z-0.282
G1 X75.8133 Y31.0614 Z-0.285
G1 X75.7919 Y31.0676 Z-0.288
G1 X75.7713 Y31.075 Z-0.291
G1 X75.7513 Y31.0837 Z-0.294
G1 X75.7316 Y31.0937 Z-0.297
G1 X75.7126 Y31.105 Z-0.3
G1 X75.6945 Y31.1173
G1 X75.6774 Y31.1305
G1 X75.6609 Y31.1451
G1 X75.6451 Y31.1609
G1 X75.6305 Y31.1774
G1 X75.6173 Y31.1945
G1 X75.605 Y31.2126
G1 X75.5937 Y31.2316
G1 X75.5837 Y31.2513
G1 X75.575 Y31.2713
G1 X75.5676 Y31.2919
G1 X75.5614 Y31.3133
G1 X75.5566 Y31.3347
G1 X75.5533 Y31.3559
G1 X75.5512 Y31.3778
G1 X75.5505 Y31.4
G1 X75.5512 Y31.4222
G1 X75.5533 Y31.4441
G1 X75.5566 Y31.4653
G1 X75.5614 Y31.4867
G1 X75.5676 Y31.5081
G1 X75.575 Y31.5287
G1 X75.5837 Y31.5487
G1 X75.5937 Y31.5684
G1 X75.605 Y31.5874
G1 X75.6173 Y31.6055
G1 X75.6305 Y31.6226
G1 X75.6451 Y31.6391
G1 X75.6609 Y31.6549
G1 X75.6774 Y31.6695
G1 X75.6945 Y31.6827
G1 X75.7126 Y31.695
G1 X75.7316 Y31.7063
G1 X75.7513 Y31.7163
G1 X75.7713 Y31.725
G1 X75.7919 Y31.7324
G1 X75.8133 Y31.7386
G1 X75.8347 Y31.7434
G1 X75.8559 Y31.7467
G1 X75.8778 Y31.7488
G1 X75.9 Y31.7495
G1 X75.9222 Y31.7488
G1 X75.9441 Y31.7467
G1 X75.9653 Y31.7434
G1 X75.9867 Y31.7386
G1 X76.0081 Y31.7324
G1 X76.0287 Y31.725
G1 X76.0487 Y31.7163
G1 X76.0684 Y31.7063
G1 X76.0874 Y31.695
G1 X76.1055 Y31.6827
G1 X76.1226 Y31.6695
G1 X76.1391 Y31.6549
G1 X76.1549 Y31.6391
G1 X76.1695 Y31.6226
G1 X76.1827 Y31.6055
G1 X76.195 Y31.5874
G1 X76.2063 Y31.5684
G1 X76.2163 Y31.5487
G1 X76.225 Y31.5287
G1 X76.2324 Y31.5081
G1 X76.2386 Y31.4867
G1 X76.2434 Y31.4653
G1 X76.2467 Y31.4441
G1 X76.2488 Y31.4222
G1 X76.2495 Y31.4
G1 X76.2488 Y31.3778
G1 X76.2467 Y31.3559
G1 X76.2434 Y31.3347
G1 X76.2386 Y31.3133
G1 X76.2324 Y31.2919
G1 X76.225 Y31.2713
G1 X76.2163 Y31.2513
G1 X76.2063 Y31.2316
G1 X76.195 Y31.2126
G1 X76.1827 Y31.1945
G1 X76.1695 Y31.1774
G1 X76.1549 Y31.1609
G1 X76.1391 Y31.1451
G1 X76.1226 Y31.1305
G1 X76.1055 Y31.1173
G1 X76.0874 Y31.105
G1 X76.0684 Y31.0937
G1 X76.0487 Y31.0837
G1 X76.0287 Y31.075
G1 X76.0081 Y31.0676
G1 X75.9867 Y31.0614
G1 X75.9653 Y31.0566
G1 X75.9441 Y31.0533
G1 X75.9222 Y31.0512
G1 X75.9 Y31.0505
G1 X75.8778 Y31.0512
G1 X75.8559 Y31.0533
G1 X75.8347 Y31.0566
G1 X75.8133 Y31.0614
G1 X75.7919 Y31.0676
G1 X75.7713 Y31.075
G1 X75.7513 Y31.0837
G1 X75.7316 Y31.0937
G1 X75.7126 Y31.105
G0 Z3.0
G0 X75.9 Y-31.0505
G0 Z1.0
G1 F300.0 Z0.0
G1 F800.0 X75.9222 Y-31.0512 Z-0.003
G1 X75.9441 Y-31.0533 Z-0.006
G1 X75.9653 Y-31.0566 Z-0.009
G1 X75.9867 Y-31.0614 Z-0.012
G1 X76.0081 Y-31.0676 Z-0.015
G1 X76.0287 Y-31.075 Z-0.018
G1 X76.0487 Y-31.0837 Z-0.021
G1 X76.0684 Y-31.0937 Z-0.024
G1 X76.0874 Y-31.105 Z-0.027
G1 X76.1055 Y-31.1173 Z-0.03
G1 X76.1226 Y-31.1305 Z-0.033
G1 X76.1391 Y-31.1451 Z-0.036
G1 X76.1549 Y-31.1609 Z-0.039
G1 X76.1695 Y-31.1774 Z-0.042
G1 X76.1827 Y-31.1945 Z-0.045
G1 X76.195 Y-31.2126 Z-0.048
G1 X76.2063 Y-31.2316 Z-0.051
G1 X76.2163 Y-31.2513 Z-0.054
G1 X76.225 Y-31.2713 Z-0.057
G1 X76.2324 Y-31.2919 Z-0.06
G1 X76.2386 Y-31.3133 Z-0.063
G1 X76.2434 Y-31.3347 Z-0.066
G1 X76.2467 Y-31.3559 Z-0.069
G1 X76.2488 Y-31.3778 Z-0.072
G1 X76.2495 Y-31.4 Z-0.075
G1 X76.2488 Y-31.4222 Z-0.078
G1 X76.2467 Y-31.4441 Z-0.081
G1 X76.2434 Y-31.4653 Z-0.084
G1 X76.2386 Y-31.4867 Z-0.087
G1 X76.2324 Y-31.5081 Z-0.09
G1 X76.225 Y-31.5287 Z-0.093
G1 X76.2163 Y-31.5487 Z-0.096
G1 X76.2063 Y-31.5684 Z-0.099
G1 X76.195 Y-31.5874 Z-0.102
G1 X76.1827 Y-31.6055 Z-0.105
G1 X76.1695 Y-31.6226 Z-0.108
G1 X76.1549 Y-31.6391 Z-0.111
G1 X76.1391 Y-31.6549 Z-0.114
G1 X76.1226 Y-31.6695 Z-0.117
G1 X76.1055 Y-31.6827 Z-0.12
G1 X76.0874 Y-31.695 Z-0.123
G1 X76.0684 Y-31.7063 Z-0.126
G1 X76.0487 Y-31.7163 Z-0.129
G1 X76.0287 Y-31.725 Z-0.132
G1 X76.0081 Y-31.7324 Z-0.135
G1 X75.9867 Y-31.7386 Z-0.138
G1 X75.9653 Y-31.7434 Z-0.141
G1 X75.9441 Y-31.7467 Z-0.144
G1 X75.9222 Y-31.7488 Z-0.147
G1 X75.9 Y-31.7495 Z-0.15
G1 X75.8778 Y-31.7488 Z-0.153
G1 X75.8559 Y-31.7467 Z-0.156
G1 X75.8347 Y-31.7434 Z-0.159
G1 X75.8133 Y-31.7386 Z-0.162
G1 X75.7919 Y-31.7324 Z-0.165
G1 X75.7713 Y-31.725 Z-0.168
G1 X75.7513 Y-31.7163 Z-0.171
G1 X75.7316 Y-31.7063 Z-0.174
G1 X75.7126 Y-31.695 Z-0.177
G1 X75.6945 Y-31.6827 Z-0.18
G1 X75.6774 Y-31.6695 Z-0.183
G1 X75.6609 Y-31.6549 Z-0.186
G1 X75.6451 Y-31.6391 Z-0.189
G1 X75.6305 Y-31.6226 Z-0.192
G1 X75.6173 Y-31.6055 Z-0.195
G1 X75.605 Y-31.5874 Z-0.198
G1 X75.5937 Y-31.5684 Z-0.201
G1 X75.5837 Y-31.5487 Z-0.204
G1 X75.575 Y-31.5287 Z-0.207
G1 X75.5676 Y-31.5081 Z-0.21
G1 X75.5614 Y-31.4867 Z-0.213
G1 X75.5566 Y-31.4653 Z-0.216
G1 X75.5533 Y-31.4441 Z-0.219
G1 X75.5512 Y-31.4222 Z-0.222
G1 X75.5505 Y-31.4 Z-0.225
G1 X75.5512 Y-31.3778 Z-0.228
G1 X75.5533 Y-31.3559 Z-0.231
G1 X75.5566 Y-31.3347 Z-0.234
G1 X75.5614 Y-31.3133 Z-0.237
G1 X75.5676 Y-31.2919 Z-0.24
G1 X75.575 Y-31.2713 Z-0.243
G1 X75.5837 Y-31.2513 Z-0.246
G1 X75.5937 Y-31.2316 Z-0.249
G1 X75.605 Y-31.2126 Z-0.252
G1 X75.6173 Y-31.1945 Z-0.255
G1 X75.6305 Y-31.1774 Z-0.258
G1 X75.6451 Y-31.1609 Z-0.261
G1 X75.6609 Y-31.1451 Z-0.264
G1 X75.6774 Y-31.1305 Z-0.267
G1 X75.6945 Y-31.1173 Z-0.27
G1 X75.7126 Y-31.105 Z-0.273
G1 X75.7316 Y-31.0937 Z-0.276
G1 X75.7513 Y-31.0837 Z-0.279
G1 X75.7713 Y-31.075 Z-0.282
G1 X75.7919 Y-31.0676 Z-0.285
G1 X75.8133 Y-31.0614 Z-0.288
G1 X75.8347 Y-31.0566 Z-0.291
G1 X75.8559 Y-31.0533 Z-0.294
G1 X75.8778 Y-31.0512 Z-0.297
G1 X75.9 Y-31.0505 Z-0.3
G1 X75.9222 Y-31.0512
G1 X75.9441 Y-31.0533
G1 X75.9653 Y-31.0566
G1 X75.9867 Y-31.0614
G1 X76.0081 Y-31.0676
G1 X76.0287 Y-31.075
G1 X76.0487 Y-31.0837
G1 X76.0684 Y-31.0937
G1 X76.0874 Y-31.105
G1 X76.1055 Y-31.1173
G1 X76.1226 Y-31.1305
G1 X76.1391 Y-31.1451
G1 X76.1549 Y-31.1609
G1 X76.1695 Y-31.1774
G1 X76.1827 Y-31.1945
G1 X76.195 Y-31.2126
G1 X76.2063 Y-31.2316
G1 X76.2163 Y-31.2513
G1 X76.225 Y-31.2713
G1 X76.2324 Y-31.2919
G1 X76.2386 Y-31.3133
G1 X76.2434 Y-31.3347
G1 X76.2467 Y-31.3559
G1 X76.2488 Y-31.3778
G1 X76.2495 Y-31.4
G1 X76.2488 Y-31.4222
G1 X76.2467 Y-31.4441
G1 X76.2434 Y-31.4653
G1 X76.2386 Y-31.4867
G1 X76.2324 Y-31.5081
G1 X76.225 Y-31.5287
G1 X76.2163 Y-31.5487
G1 X76.2063 Y-31.5684
G1 X76.195 Y-31.5874
G1 X76.1827 Y-31.6055
G1 X76.1695 Y-31.6226
G1 X76.1549 Y-31.6391
G1 X76.1391 Y-31.6549
G1 X76.1226 Y-31.6695
G1 X76.1055 Y-31.6827
G1 X76.0874 Y-31.695
G1 X76.0684 Y-31.7063
G1 X76.0487 Y-31.7163
G1 X76.0287 Y-31.725
G1 X76.0081 Y-31.7324
G1 X75.9867 Y-31.7386
G1 X75.9653 Y-31.7434
G1 X75.9441 Y-31.7467
G1 X75.9222 Y-31.7488
G1 X75.9 Y-31.7495
G1 X75.8778 Y-31.7488
G1 X75.8559 Y-31.7467
G1 X75.8347 Y-31.7434
G1 X75.8133 Y-31.7386
G1 X75.7919 Y-31.7324
G1 X75.7713 Y-31.725
G1 X75.7513 Y-31.7163
G1 X75.7316 Y-31.7063
G1 X75.7126 Y-31.695
G1 X75.6945 Y-31.6827
G1 X75.6774 Y-31.6695
G1 X75.6609 Y-31.6549
G1 X75.6451 Y-31.6391
G1 X75.6305 Y-31.6226
G1 X75.6173 Y-31.6055
G1 X75.605 Y-31.5874
G1 X75.5937 Y-31.5684
G1 X75.5837 Y-31.5487
G1 X75.575 Y-31.5287
G1 X75.5676 Y-31.5081
G1 X75.5614 Y-31.4867
G1 X75.5566 Y-31.4653
G1 X75.5533 Y-31.4441
G1 X75.5512 Y-31.4222
G1 X75.5505 Y-31.4
G1 X75.5512 Y-31.3778
G1 X75.5533 Y-31.3559
G1 X75.5566 Y-31.3347
G1 X75.5614 Y-31.3133
G1 X75.5676 Y-31.2919
G1 X75.575 Y-31.2713
G1 X75.5837 Y-31.2513
G1 X75.5937 Y-31.2316
G1 X75.605 Y-31.2126
G1 X75.6173 Y-31.1945
G1 X75.6305 Y-31.1774
G1 X75.6451 Y-31.1609
G1 X75.6609 Y-31.1451
G1 X75.6774 Y-31.1305
G1 X75.6945 Y-31.1173
G1 X75.7126 Y-31.105
G1 X75.7316 Y-31.0937
G1 X75.7513 Y-31.0837
G1 X75.7713 Y-31.075
G1 X75.7919 Y-31.0676
G1 X75.8133 Y-31.0614
G1 X75.8347 Y-31.0566
G1 X75.8559 Y-31.0533
G1 X75.8778 Y-31.0512
G1 X75.9 Y-31.0505
( IndicatorLed )
S1000
G0 Z3.0
G0 X-72.7 Y18.7
G0 Z1.0
G1 F300.0 Z0.0
G1 F800.0 Y-4.7 Z-0.1475
G1 X-73.1 Z-0.15
G1 Y18.7 Z-0.2975
G1 X-72.7 Z-0.3
G1 Y-4.7
G1 X-73.1
G1 Y18.7
G1 X-72.7
G1 F300.0 X-72.3
G1 F800.0 Y-5.1
G1 X-73.5
G1 Y19.1
G1 X-72.3
G1 Y18.7
G1 F300.0 X-71.5
G1 F800.0 Y-5.9
G1 X-74.3
G1 Y19.9
G1 X-71.5
G1 Y18.7
G1 F300.0 X-70.7
G1 F800.0 Y-6.7
G1 X-75.1
G1 Y20.7
G1 X-70.7
G1 Y18.7
G1 F300.0 X-69.9
G1 F800.0 Y-7.5
G1 X-75.9
G1 Y21.5
G1 X-69.9
G1 Y18.7
( NeopIxelLed )
S1000
G0 Z3.0
G0 X52.0 Y-24.05
G0 Z1.0
G1 F300.0 Z0.0
G1 F800.0 X41.9582 Z-0.029
G1 X40.0418 Z-0.0345
G1 X14.9582 Z-0.1069
G1 X13.0418 Z-0.1124
G1 X-12.5418 Z-0.1862
G1 X-14.4582 Z-0.1917
G1 X-39.5418 Z-0.2641
G1 X-41.4582 Z-0.2696
G1 X-52.0 Z-0.3
G1 X-41.4582
G1 X-39.5418
G1 X-14.4582
G1 X-12.5418
G1 X13.0418
G1 X14.9582
G1 X40.0418
G1 X41.9582
G1 X52.0
G0 Z3.0
G0 X-52.0 Y-23.65
G0 Z1.0
G1 F300.0 Z0.0
G1 F800.0 X52.4 Z-0.1483
G1 Y-24.45 Z-0.1494
G1 X41.9582 Z-0.1643
G1 X40.0418 Z-0.167
G1 X14.9582 Z-0.2026
G1 X13.0418 Z-0.2053
G1 X-12.5418 Z-0.2417
G1 X-14.4582 Z-0.2444
G1 X-39.5418 Z-0.28
G1 X-41.4582 Z-0.2828
G1 X-52.4 Z-0.2983
G1 Y-23.65 Z-0.2994
G1 X-52.0 Z-0.3
G1 X52.4
G1 Y-24.45
G1 X41.9582
G1 X40.0418
G1 X14.9582
G1 X13.0418
G1 X-12.5418
G1 X-14.4582
G1 X-39.5418
G1 X-41.4582
G1 X-52.4
G1 Y-23.65
G1 X-52.0
G1 F300.0 Y-22.85
G1 F800.0 X53.2
G1 Y-25.25
G1 X41.9582
G1 X40.0418
G1 X14.9582
G1 X13.0418
G1 X-12.5418
G1 X-14.4582
G1 X-39.5418
G1 X-41.4582
G1 X-53.2
G1 Y-22.85
G1 X-52.0
G1 F300.0 Y-22.05
G1 F800.0 X54.0
G1 Y-26.05
G1 X41.9582
G1 X40.0418
G1 X14.9582
G1 X13.0418
G1 X-12.5418
G1 X-14.4582
G1 X-39.5418
G1 X-41.4582
G1 X-54.0
G1 Y-22.05
G1 X-52.0
( NeoPixelResistor )
S1000
G0 Z3.0
G0 X42.3156 Y-29.1
G0 Z1.0
G1 F300.0 Z0.0
G1 F800.0 X53.6 Z-0.0158
G1 Y-29.3 Z-0.016
G1 X-53.6 Z-0.1658
G1 Y-29.1 Z-0.166
G1 X-41.8156 Z-0.1825
G1 X-39.1844 Z-0.1862
G1 X-14.8156 Z-0.2202
G1 X-12.1844 Z-0.2239
G1 X12.6844 Z-0.2586
G1 X15.3156 Z-0.2623
G1 X39.6844 Z-0.2963
G1 X42.3156 Z-0.3
G1 X53.6
G1 Y-29.3
G1 X-53.6
G1 Y-29.1
G1 X-41.8156
G1 X-39.1844
G1 X-14.8156
G1 X-12.1844
G1 X12.6844
G1 X15.3156
G1 X39.6844
G1 X42.3156
G1 F300.0 Y-28.7
G1 F800.0 X54.0
G1 Y-29.7
G1 X-54.0
G1 Y-28.7
G1 X-41.8156
G1 X-39.1844
G1 X-14.8156
G1 X-12.1844
G1 X12.6844
G1 X15.3156
G1 X39.6844
G1 X42.3156
( LDRFixture )
S1000
G0 Z3.0
G0 X71.1255 Y6.6093
G0 Z1.0
G1 F300.0 Z0.0
G1 F800.0 X71.1011 Y6.6148 Z-0.003
G1 X71.0771 Y6.6217 Z-0.006
G1 X71.0536 Y6.6302 Z-0.009
G1 X71.0305 Y6.6402 Z-0.012
G1 X71.0085 Y6.6514 Z-0.015
G1 X70.9871 Y6.6641 Z-0.018
G1 X70.9662 Y6.6783 Z-0.021
G1 X70.9466 Y6.6935 Z-0.024
G1 X70.9279 Y6.71 Z-0.027
G1 X70.9098 Y6.728 Z-0.0301
G1 X70.8933 Y6.7467 Z-0.033
G1 X70.8785 Y6.7659 Z-0.036
G1 X70.8644 Y6.7866 Z-0.039
G1 X70.8515 Y6.8084 Z-0.042
G1 X70.84 Y6.8309 Z-0.045
G1 X70.8301 Y6.8539 Z-0.0481
G1 X70.8218 Y6.8769 Z-0.051
G1 X70.8149 Y6.9007 Z-0.054
G1 X70.8093 Y6.9258 Z-0.057
G1 X70.8054 Y6.9502 Z-0.06
G1 X70.8031 Y6.9748 Z-0.063
G1 X70.8023 Y7.0 Z-0.066
G1 X70.8031 Y7.0252 Z-0.069
G1 X70.8054 Y7.0498 Z-0.072
G1 X70.8093 Y7.0742 Z-0.075
G1 X70.8149 Y7.0993 Z-0.0781
G1 X70.8218 Y7.1231 Z-0.081
G1 X70.8301 Y7.1461 Z-0.084
G1 X70.84 Y7.1691 Z-0.087
G1 X70.8515 Y7.1916 Z-0.09
G1 X70.8644 Y7.2134 Z-0.093
G1 X70.8784 Y7.2341 Z-0.0961
G1 X70.8932 Y7.2531 Z-0.0989
G1 X70.9098 Y7.2719 Z-0.1019
G1 X70.9281 Y7.2902 Z-0.1051
G1 X70.9468 Y7.3067 Z-0.1081
G1 X70.9658 Y7.3215 Z-0.111
G1 X70.9868 Y7.3357 Z-0.114
G1 X71.0085 Y7.3486 Z-0.117
G1 X71.0308 Y7.3599 Z-0.12
G1 X71.054 Y7.3699 Z-0.1231
G1 X71.0768 Y7.3782 Z-0.126
G1 X71.1007 Y7.3851 Z-0.129
G1 X71.1259 Y7.3907 Z-0.1321
G1 X71.1502 Y7.3946 Z-0.135
G1 X71.1748 Y7.3969 Z-0.138
G1 X71.2 Y7.3977 Z-0.141
G1 X71.2252 Y7.3969 Z-0.144
G1 X71.2498 Y7.3946 Z-0.147
G1 X71.2743 Y7.3907 Z-0.15
G1 X71.2993 Y7.3851 Z-0.1531
G1 X71.323 Y7.3783 Z-0.156
G1 X71.346 Y7.3699 Z-0.159
G1 X71.3692 Y7.3599 Z-0.162
G1 X71.3915 Y7.3486 Z-0.165
G1 X71.4132 Y7.3357 Z-0.168
G1 X71.4342 Y7.3215 Z-0.1711
G1 X71.4532 Y7.3067 Z-0.174
G1 X71.4719 Y7.2902 Z-0.1769
G1 X71.4902 Y7.2719 Z-0.1801
G1 X71.5068 Y7.2531 Z-0.1831
G1 X71.5216 Y7.2341 Z-0.186
G1 X71.5356 Y7.2134 Z-0.189
G1 X71.5485 Y7.1916 Z-0.192
G1 X71.56 Y7.1691 Z-0.195
G1 X71.5699 Y7.1461 Z-0.198
G1 X71.5782 Y7.1231 Z-0.201
G1 X71.5851 Y7.0993 Z-0.204
G1 X71.5907 Y7.0742 Z-0.207
G1 X71.5946 Y7.0498 Z-0.21
G1 X71.5969 Y7.0252 Z-0.213
G1 X71.5977 Y7.0 Z-0.216
G1 X71.5969 Y6.9748 Z-0.219
G1 X71.5946 Y6.9502 Z-0.222
G1 X71.5907 Y6.9258 Z-0.225
G1 X71.5851 Y6.9007 Z-0.2281
G1 X71.5782 Y6.8769 Z-0.231
G1 X71.5699 Y6.8539 Z-0.234
G1 X71.56 Y6.8309 Z-0.237
G1 X71.5485 Y6.8084 Z-0.24
G1 X71.5356 Y6.7866 Z-0.243
G1 X71.5215 Y6.7659 Z-0.2461
G1 X71.5067 Y6.7467 Z-0.249
G1 X71.4902 Y6.728 Z-0.252
G1 X71.4721 Y6.71 Z-0.255
G1 X71.4534 Y6.6935 Z-0.258
G1 X71.4338 Y6.6783 Z-0.261
G1 X71.4129 Y6.6641 Z-0.264
G1 X71.3915 Y6.6514 Z-0.267
G1 X71.3695 Y6.6402 Z-0.27
G1 X71.3464 Y6.6302 Z-0.273
G1 X71.3227 Y6.6217 Z-0.276
G1 X71.2989 Y6.6148 Z-0.279
G1 X71.2746 Y6.6093 Z-0.282
G1 X71.2499 Y6.6054 Z-0.285
G1 X71.225 Y6.6031 Z-0.288
G1 X71.2 Y6.6023 Z-0.291
G1 X71.175 Y6.6031 Z-0.294
G1 X71.1501 Y6.6054 Z-0.297
G1 X71.1255 Y6.6093 Z-0.3
G1 X71.1011 Y6.6148
G1 X71.0771 Y6.6217
G1 X71.0536 Y6.6302
G1 X71.0305 Y6.6402
G1 X71.0085 Y6.6514
G1 X70.9871 Y6.6641
G1 X70.9662 Y6.6783
G1 X70.9466 Y6.6935
G1 X70.9279 Y6.71
G1 X70.9098 Y6.728
G1 X70.8933 Y6.7467
G1 X70.8785 Y6.7659
G1 X70.8644 Y6.7866
G1 X70.8515 Y6.8084
G1 X70.84 Y6.8309
G1 X70.8301 Y6.8539
G1 X70.8218 Y6.8769
G1 X70.8149 Y6.9007
G1 X70.8093 Y6.9258
G1 X70.8054 Y6.9502
G1 X70.8031 Y6.9748
G1 X70.8023 Y7.0
G1 X70.8031 Y7.0252
G1 X70.8054 Y7.0498
G1 X70.8093 Y7.0742
G1 X70.8149 Y7.0993
G1 X70.8218 Y7.1231
G1 X70.8301 Y7.1461
G1 X70.84 Y7.1691
G1 X70.8515 Y7.1916
G1 X70.8644 Y7.2134
G1 X70.8784 Y7.2341
G1 X70.8932 Y7.2531
G1 X70.9098 Y7.2719
G1 X70.9281 Y7.2902
G1 X70.9468 Y7.3067
G1 X70.9658 Y7.3215
G1 X70.9868 Y7.3357
G1 X71.0085 Y7.3486
G1 X71.0308 Y7.3599
G1 X71.054 Y7.3699
G1 X71.0768 Y7.3782
G1 X71.1007 Y7.3851
G1 X71.1259 Y7.3907
G1 X71.1502 Y7.3946
G1 X71.1748 Y7.3969
G1 X71.2 Y7.3977
G1 X71.2252 Y7.3969
G1 X71.2498 Y7.3946
G1 X71.2743 Y7.3907
G1 X71.2993 Y7.3851
G1 X71.323 Y7.3783
G1 X71.346 Y7.3699
G1 X71.3692 Y7.3599
G1 X71.3915 Y7.3486
G1 X71.4132 Y7.3357
G1 X71.4342 Y7.3215
G1 X71.4532 Y7.3067
G1 X71.4719 Y7.2902
G1 X71.4902 Y7.2719
G1 X71.5068 Y7.2531
G1 X71.5216 Y7.2341
G1 X71.5356 Y7.2134
G1 X71.5485 Y7.1916
G1 X71.56 Y7.1691
G1 X71.5699 Y7.1461
G1 X71.5782 Y7.1231
G1 X71.5851 Y7.0993
G1 X71.5907 Y7.0742
G1 X71.5946 Y7.0498
G1 X71.5969 Y7.0252
G1 X71.5977 Y7.0
G1 X71.5969 Y6.9748
G1 X71.5946 Y6.9502
G1 X71.5907 Y6.9258
G1 X71.5851 Y6.9007
G1 X71.5782 Y6.8769
G1 X71.5699 Y6.8539
G1 X71.56 Y6.8309
G1 X71.5485 Y6.8084
G1 X71.5356 Y6.7866
G1 X71.5215 Y6.7659
G1 X71.5067 Y6.7467
G1 X71.4902 Y6.728
G1 X71.4721 Y6.71
G1 X71.4534 Y6.6935
G1 X71.4338 Y6.6783
G1 X71.4129 Y6.6641
G1 X71.3915 Y6.6514
G1 X71.3695 Y6.6402
G1 X71.3464 Y6.6302
G1 X71.3227 Y6.6217
G1 X71.2989 Y6.6148
G1 X71.2746 Y6.6093
G1 X71.2499 Y6.6054
G1 X71.225 Y6.6031
G1 X71.2 Y6.6023
G1 X71.175 Y6.6031
G1 X71.1501 Y6.6054
G1 X71.1255 Y6.6093
G1 F300.0 X71.0383 Y6.2189
G1 F800.0 X71.0016 Y6.2271
G1 X70.9534 Y6.2411
G1 X70.9063 Y6.2581
G1 X70.8601 Y6.2781
G1 X70.8157 Y6.3007
G1 X70.7726 Y6.3262
G1 X70.731 Y6.3545
G1 X70.6915 Y6.3851
G1 X70.6539 Y6.4183
G1 X70.6181 Y6.454
G1 X70.585 Y6.4916
G1 X70.5547 Y6.5307
G1 X70.5265 Y6.5722
G1 X70.5008 Y6.6156
G1 X70.4779 Y6.6605
G1 X70.458 Y6.7066
G1 X70.4412 Y6.7532
G1 X70.4272 Y6.8012
G1 X70.4162 Y6.8508
G1 X70.4084 Y6.9
G1 X70.4037 Y6.9497
G1 X70.4021 Y7.0
G1 X70.4037 Y7.0503
G1 X70.4084 Y7.1
G1 X70.4162 Y7.1492
G1 X70.4272 Y7.1988
G1 X70.4412 Y7.2468
G1 X70.458 Y7.2934
G1 X70.4779 Y7.3395
G1 X70.5008 Y7.3844
G1 X70.5265 Y7.4278
G1 X70.5547 Y7.4693
G1 X70.5849 Y7.5082
G1 X70.6181 Y7.5459
G1 X70.6541 Y7.5819
G1 X70.6917 Y7.615
G1 X70.7307 Y7.6453
G1 X70.7724 Y7.6736
G1 X70.8157 Y7.6993
G1 X70.8604 Y7.722
G1 X70.9066 Y7.742
G1 X70.9532 Y7.7588
G1 X71.0012 Y7.7727
G1 X71.0509 Y7.7838
G1 X71.1 Y7.7916
G1 X71.1497 Y7.7963
G1 X71.2 Y7.7979
G1 X71.2503 Y7.7963
G1 X71.3 Y7.7916
G1 X71.3493 Y7.7838
G1 X71.3988 Y7.7727
G1 X71.4466 Y7.7589
G1 X71.4934 Y7.742
G1 X71.5396 Y7.722
G1 X71.5843 Y7.6993
G1 X71.6276 Y7.6736
G1 X71.6693 Y7.6453
G1 X71.7083 Y7.615
G1 X71.7459 Y7.5819
G1 X71.7819 Y7.5459
G1 X71.8151 Y7.5082
G1 X71.8453 Y7.4693
G1 X71.8735 Y7.4278
G1 X71.8992 Y7.3844
G1 X71.9221 Y7.3395
G1 X71.942 Y7.2934
G1 X71.9588 Y7.2468
G1 X71.9728 Y7.1988
G1 X71.9838 Y7.1492
G1 X71.9916 Y7.1
G1 X71.9963 Y7.0503
G1 X71.9979 Y7.0
G1 X71.9963 Y6.9497
G1 X71.9916 Y6.9
G1 X71.9838 Y6.8508
G1 X71.9728 Y6.8012
G1 X71.9588 Y6.7532
G1 X71.942 Y6.7066
G1 X71.9221 Y6.6605
G1 X71.8992 Y6.6156
G1 X71.8735 Y6.5722
G1 X71.8453 Y6.5307
G1 X71.815 Y6.4916
G1 X71.7819 Y6.454
G1 X71.7461 Y6.4183
G1 X71.7085 Y6.3851
G1 X71.669 Y6.3545
G1 X71.6274 Y6.3262
G1 X71.5843 Y6.3007
G1 X71.5399 Y6.2781
G1 X71.4937 Y6.2581
G1 X71.4464 Y6.2411
G1 X71.3985 Y6.2271
G1 X71.3496 Y6.2162
G1 X71.3 Y6.2084
G1 X71.2501 Y6.2037
G1 X71.2 Y6.2021
G1 X71.1499 Y6.2037
G1 X71.1 Y6.2084
G1 X71.0505 Y6.2162
G1 X71.0383 Y6.2189
G1 F300.0 X70.8637 Y5.4382
G1 F800.0 X70.8025 Y5.4519
G1 X70.7061 Y5.4799
G1 X70.6116 Y5.5139
G1 X70.5194 Y5.5538
G1 X70.4301 Y5.5993
G1 X70.3437 Y5.6504
G1 X70.2605 Y5.707
G1 X70.1813 Y5.7684
G1 X70.106 Y5.8348
G1 X70.0347 Y5.9061
G1 X69.9683 Y5.9814
G1 X69.9071 Y6.0603
G1 X69.8506 Y6.1434
G1 X69.7994 Y6.23
G1 X69.7537 Y6.3197
G1 X69.7138 Y6.4119
G1 X69.6799 Y6.5059
G1 X69.652 Y6.6022
G1 X69.63 Y6.7007
G1 X69.6143 Y6.7997
G1 X69.6049 Y6.8995
G1 X69.6017 Y7.0
G1 X69.6049 Y7.1005
G1 X69.6143 Y7.2003
G1 X69.63 Y7.2993
G1 X69.652 Y7.3977
G1 X69.6799 Y7.4941
G1 X69.7138 Y7.5881
G1 X69.7537 Y7.6803
G1 X69.7994 Y7.77
G1 X69.8506 Y7.8566
G1 X69.9071 Y7.9397
G1 X69.9682 Y8.0185
G1 X70.0347 Y8.0938
G1 X70.1062 Y8.1653
G1 X70.1814 Y8.2317
G1 X70.2603 Y8.2929
G1 X70.3436 Y8.3494
G1 X70.4301 Y8.4006
G1 X70.5196 Y8.4462
G1 X70.6119 Y8.4862
G1 X70.7059 Y8.52
G1 X70.8022 Y8.548
G1 X70.9008 Y8.57
G1 X70.9997 Y8.5857
G1 X71.0994 Y8.5951
G1 X71.2 Y8.5983
G1 X71.3006 Y8.5951
G1 X71.4003 Y8.5857
G1 X71.4993 Y8.57
G1 X71.5978 Y8.548
G1 X71.694 Y8.5201
G1 X71.7881 Y8.4862
G1 X71.8804 Y8.4462
G1 X71.9699 Y8.4006
G1 X72.0564 Y8.3494
G1 X72.1397 Y8.2929
G1 X72.2186 Y8.2317
G1 X72.2938 Y8.1653
G1 X72.3653 Y8.0938
G1 X72.4318 Y8.0185
G1 X72.4929 Y7.9397
G1 X72.5494 Y7.8566
G1 X72.6006 Y7.77
G1 X72.6463 Y7.6803
G1 X72.6862 Y7.5881
G1 X72.7201 Y7.4941
G1 X72.748 Y7.3977
G1 X72.77 Y7.2993
G1 X72.7857 Y7.2003
G1 X72.7951 Y7.1005
G1 X72.7983 Y7.0
G1 X72.7951 Y6.8995
G1 X72.7857 Y6.7997
G1 X72.77 Y6.7007
G1 X72.748 Y6.6022
G1 X72.7201 Y6.5059
G1 X72.6862 Y6.4119
G1 X72.6463 Y6.3197
G1 X72.6006 Y6.23
G1 X72.5494 Y6.1434
G1 X72.4929 Y6.0603
G1 X72.4317 Y5.9814
G1 X72.3653 Y5.9061
G1 X72.294 Y5.8348
G1 X72.2187 Y5.7684
G1 X72.1395 Y5.707
G1 X72.0563 Y5.6504
G1 X71.9699 Y5.5993
G1 X71.8806 Y5.5538
G1 X71.7884 Y5.5139
G1 X71.6938 Y5.4799
G1 X71.5975 Y5.4519
G1 X71.4996 Y5.43
G1 X71.4004 Y5.4143
G1 X71.3004 Y5.4048
G1 X71.2 Y5.4017
G1 X71.0996 Y5.4048
G1 X70.9996 Y5.4143
G1 X70.9006 Y5.43
G1 X70.8637 Y5.4382
G1 F300.0 X70.6892 Y4.6575
G1 F800.0 X70.6035 Y4.6766
G1 X70.4587 Y4.7187
G1 X70.317 Y4.7697
G1 X70.1786 Y4.8296
G1 X70.0445 Y4.8979
G1 X69.9148 Y4.9746
G1 X69.7901 Y5.0594
G1 X69.6711 Y5.1517
G1 X69.558 Y5.2514
G1 X69.4513 Y5.3581
G1 X69.3516 Y5.4711
G1 X69.2595 Y5.5899
G1 X69.1748 Y5.7146
G1 X69.098 Y5.8444
G1 X69.0295 Y5.9788
G1 X68.9696 Y6.1172
G1 X68.9187 Y6.2586
G1 X68.8767 Y6.4033
G1 X68.8438 Y6.5507
G1 X68.8202 Y6.6994
G1 X68.806 Y6.8493
G1 X68.8013 Y7.0
G1 X68.806 Y7.1507
G1 X68.8202 Y7.3006
G1 X68.8438 Y7.4493
G1 X68.8767 Y7.5967
G1 X68.9187 Y7.7414
G1 X68.9696 Y7.8828
G1 X69.0295 Y8.0212
G1 X69.098 Y8.1556
G1 X69.1748 Y8.2854
G1 X69.2595 Y8.4101
G1 X69.3516 Y8.5288
G1 X69.4513 Y8.6418
G1 X69.5582 Y8.7487
G1 X69.6712 Y8.8484
G1 X69.7899 Y8.9404
G1 X69.9147 Y9.0252
G1 X70.0445 Y9.102
G1 X70.1788 Y9.1704
G1 X70.3172 Y9.2304
G1 X70.4586 Y9.2813
G1 X70.6033 Y9.3233
G1 X70.7508 Y9.3562
G1 X70.8994 Y9.3798
G1 X71.0492 Y9.394
G1 X71.2 Y9.3987
G1 X71.3508 Y9.394
G1 X71.5006 Y9.3798
G1 X71.6493 Y9.3562
G1 X71.7968 Y9.3233
G1 X71.9413 Y9.2813
G1 X72.0828 Y9.2304
G1 X72.2212 Y9.1704
G1 X72.3555 Y9.102
G1 X72.4853 Y9.0252
G1 X72.6101 Y8.9404
G1 X72.7288 Y8.8484
G1 X72.8418 Y8.7487
G1 X72.9487 Y8.6418
G1 X73.0484 Y8.5288
G1 X73.1405 Y8.4101
G1 X73.2252 Y8.2854
G1 X73.302 Y8.1556
G1 X73.3705 Y8.0212
G1 X73.4304 Y7.8828
G1 X73.4813 Y7.7414
G1 X73.5233 Y7.5967
G1 X73.5562 Y7.4493
G1 X73.5798 Y7.3006
G1 X73.594 Y7.1507
G1 X73.5987 Y7.0
G1 X73.594 Y6.8493
G1 X73.5798 Y6.6994
G1 X73.5562 Y6.5507
G1 X73.5233 Y6.4033
G1 X73.4813 Y6.2586
G1 X73.4304 Y6.1172
G1 X73.3705 Y5.9788
G1 X73.302 Y5.8444
G1 X73.2252 Y5.7146
G1 X73.1405 Y5.5899
G1 X73.0484 Y5.4711
G1 X72.9487 Y5.3581
G1 X72.842 Y5.2514
G1 X72.7289 Y5.1517
G1 X72.6099 Y5.0594
G1 X72.4852 Y4.9746
G1 X72.3555 Y4.8979
G1 X72.2214 Y4.8296
G1 X72.083 Y4.7697
G1 X71.9411 Y4.7187
G1 X71.7966 Y4.6766
G1 X71.6495 Y4.6438
G1 X71.5007 Y4.6202
G1 X71.3507 Y4.606
G1 X71.2 Y4.6013
G1 X71.0493 Y4.606
G1 X70.8993 Y4.6202
G1 X70.7506 Y4.6438
G1 X70.6892 Y4.6575
G1 F300.0 X70.5147 Y3.8768
G1 F800.0 X70.4045 Y3.9014
G1 X70.2114 Y3.9575
G1 X70.0223 Y4.0255
G1 X69.8378 Y4.1054
G1 X69.6588 Y4.1966
G1 X69.4859 Y4.2989
G1 X69.3196 Y4.4119
G1 X69.1609 Y4.535
G1 X69.0101 Y4.6679
G1 X68.8679 Y4.8102
G1 X68.7349 Y4.9609
G1 X68.612 Y5.1195
G1 X68.499 Y5.2857
G1 X68.3966 Y5.4588
G1 X68.3053 Y5.638
G1 X68.2255 Y5.8225
G1 X68.1575 Y6.0113
G1 X68.1014 Y6.2043
G1 X68.0576 Y6.4007
G1 X68.0261 Y6.599
G1 X68.0072 Y6.7991
G1 X68.0009 Y7.0
G1 X68.0072 Y7.2009
G1 X68.0261 Y7.401
G1 X68.0576 Y7.5993
G1 X68.1014 Y7.7957
G1 X68.1575 Y7.9887
G1 X68.2255 Y8.1775
G1 X68.3053 Y8.362
G1 X68.3966 Y8.5412
G1 X68.499 Y8.7143
G1 X68.6119 Y8.8805
G1 X68.7349 Y9.039
G1 X68.8679 Y9.1898
G1 X69.0102 Y9.3321
G1 X69.1609 Y9.4651
G1 X69.3195 Y9.588
G1 X69.4858 Y9.701
G1 X69.6588 Y9.8034
G1 X69.8379 Y9.8946
G1 X70.0225 Y9.9745
G1 X70.2113 Y10.0425
G1 X70.4043 Y10.0985
G1 X70.6007 Y10.1424
G1 X70.799 Y10.1739
G1 X70.999 Y10.1928
G1 X71.2 Y10.1991
G1 X71.401 Y10.1928
G1 X71.601 Y10.1739
G1 X71.7993 Y10.1424
G1 X71.9958 Y10.0985
G1 X72.1886 Y10.0425
G1 X72.3775 Y9.9745
G1 X72.5621 Y9.8946
G1 X72.7412 Y9.8034
G1 X72.9142 Y9.701
G1 X73.0805 Y9.588
G1 X73.2391 Y9.4651
G1 X73.3898 Y9.3321
G1 X73.5321 Y9.1898
G1 X73.6651 Y9.039
G1 X73.7881 Y8.8805
G1 X73.901 Y8.7143
G1 X74.0034 Y8.5412
G1 X74.0947 Y8.362
G1 X74.1745 Y8.1775
G1 X74.2425 Y7.9887
G1 X74.2986 Y7.7957
G1 X74.3424 Y7.5993
G1 X74.3739 Y7.401
G1 X74.3928 Y7.2009
G1 X74.3991 Y7.0
G1 X74.3928 Y6.7991
G1 X74.3739 Y6.599
G1 X74.3424 Y6.4007
G1 X74.2986 Y6.2043
G1 X74.2425 Y6.0113
G1 X74.1745 Y5.8225
G1 X74.0947 Y5.638
G1 X74.0034 Y5.4588
G1 X73.901 Y5.2857
G1 X73.788 Y5.1195
G1 X73.6651 Y4.9609
G1 X73.5321 Y4.8102
G1 X73.3899 Y4.6679
G1 X73.2391 Y4.535
G1 X73.0804 Y4.4119
G1 X72.9141 Y4.2989
G1 X72.7412 Y4.1966
G1 X72.5622 Y4.1054
G1 X72.3777 Y4.0255
G1 X72.1885 Y3.9574
G1 X71.9956 Y3.9014
G1 X71.7995 Y3.8576
G1 X71.601 Y3.8261
G1 X71.4009 Y3.8072
G1 X71.2 Y3.8009
G1 X70.9991 Y3.8072
G1 X70.799 Y3.8261
G1 X70.6006 Y3.8575
G1 X70.5147 Y3.8768
G1 F300.0 X70.3401 Y3.096
G1 F800.0 X70.2054 Y3.1261
G1 X69.9641 Y3.1962
G1 X69.7277 Y3.2814
G1 X69.4971 Y3.3811
G1 X69.2732 Y3.4952
G1 X69.057 Y3.6231
G1 X68.8492 Y3.7643
G1 X68.6507 Y3.9183
G1 X68.4622 Y4.0845
G1 X68.2845 Y4.2622
G1 X68.1183 Y4.4507
G1 X67.9644 Y4.6491
G1 X67.8232 Y4.8569
G1 X67.6952 Y5.0732
G1 X67.5811 Y5.2972
G1 X67.4813 Y5.5278
G1 X67.3962 Y5.764
G1 X67.3262 Y6.0053
G1 X67.2714 Y6.2506
G1 X67.232 Y6.4987
G1 X67.2084 Y6.7488
G1 X67.2005 Y7.0
G1 X67.2084 Y7.2512
G1 X67.232 Y7.5013
G1 X67.2714 Y7.7494
G1 X67.3262 Y7.9947
G1 X67.3962 Y8.236
G1 X67.4813 Y8.4722
G1 X67.5811 Y8.7028
G1 X67.6952 Y8.9268
G1 X67.8232 Y9.1431
G1 X67.9644 Y9.3509
G1 X68.1182 Y9.5493
G1 X68.2845 Y9.7377
G1 X68.4623 Y9.9155
G1 X68.6507 Y10.0818
G1 X68.8491 Y10.2356
G1 X69.057 Y10.3768
G1 X69.2732 Y10.5048
G1 X69.4971 Y10.6188
G1 X69.7278 Y10.7187
G1 X69.964 Y10.8038
G1 X70.2053 Y10.8738
G1 X70.4507 Y10.9286
G1 X70.6987 Y10.968
G1 X70.9488 Y10.9916
G1 X71.2 Y10.9995
G1 X71.4512 Y10.9916
G1 X71.7013 Y10.968
G1 X71.9494 Y10.9286
G1 X72.1948 Y10.8738
G1 X72.4359 Y10.8038
G1 X72.6722 Y10.7187
G1 X72.9029 Y10.6188
G1 X73.1268 Y10.5048
G1 X73.343 Y10.3768
G1 X73.5509 Y10.2356
G1 X73.7493 Y10.0818
G1 X73.9377 Y9.9155
G1 X74.1155 Y9.7377
G1 X74.2818 Y9.5493
G1 X74.4356 Y9.3509
G1 X74.5768 Y9.1431
G1 X74.7048 Y8.9268
G1 X74.8189 Y8.7028
G1 X74.9187 Y8.4722
G1 X75.0038 Y8.236
G1 X75.0738 Y7.9947
G1 X75.1286 Y7.7494
G1 X75.168 Y7.5013
G1 X75.1916 Y7.2512
G1 X75.1995 Y7.0
G1 X75.1916 Y6.7488
G1 X75.168 Y6.4987
G1 X75.1286 Y6.2506
G1 X75.0738 Y6.0053
G1 X75.0038 Y5.764
G1 X74.9187 Y5.5278
G1 X74.8189 Y5.2972
G1 X74.7048 Y5.0732
G1 X74.5768 Y4.8569
G1 X74.4356 Y4.6491
G1 X74.2817 Y4.4507
G1 X74.1155 Y4.2622
G1 X73.9378 Y4.0845
G1 X73.7493 Y3.9183
G1 X73.5508 Y3.7643
G1 X73.343 Y3.6231
G1 X73.1268 Y3.4952
G1 X72.9029 Y3.3811
G1 X72.6723 Y3.2814
G1 X72.4359 Y3.1962
G1 X72.1947 Y3.1261
G1 X71.9494 Y3.0713
G1 X71.7013 Y3.032
G1 X71.4512 Y3.0084
G1 X71.2 Y3.0005
G1 X70.9488 Y3.0084
G1 X70.6987 Y3.032
G1 X70.4506 Y3.0713
G1 X70.3401 Y3.096
( LDRLens )
S1000
G0 Z3.0
G0 X71.1258 Y6.7104
G0 Z1.0
G1 F300.0 Z0.0
G1 F800.0 X71.1077 Y6.7157 Z-0.003
G1 X71.09 Y6.7221 Z-0.006
G1 X71.0727 Y6.7296 Z-0.009
G1 X71.0558 Y6.7382 Z-0.0121
G1 X71.0398 Y6.7476 Z-0.015
G1 X71.0243 Y6.7582 Z-0.018
G1 X71.0094 Y6.7697 Z-0.021
G1 X70.9956 Y6.7819 Z-0.024
G1 X70.9822 Y6.7953 Z-0.027
G1 X70.9698 Y6.8094 Z-0.03
G1 X70.9583 Y6.8241 Z-0.033
G1 X70.9474 Y6.8402 Z-0.0361
G1 X70.9379 Y6.8563 Z-0.0391
G1 X70.9297 Y6.8723 Z-0.042
G1 X70.9223 Y6.8895 Z-0.045
G1 X70.9156 Y6.9082 Z-0.0481
G1 X70.9104 Y6.9258 Z-0.0511
G1 X70.9064 Y6.9438 Z-0.054
G1 X70.9034 Y6.9629 Z-0.0571
G1 X70.9017 Y6.9811 Z-0.06
G1 X70.9011 Y7.0 Z-0.063
G1 X70.9017 Y7.0189 Z-0.066
G1 X70.9034 Y7.0371 Z-0.069
G1 X70.9064 Y7.0562 Z-0.0721
G1 X70.9104 Y7.0742 Z-0.075
G1 X70.9156 Y7.0918 Z-0.0779
G1 X70.9223 Y7.1105 Z-0.0811
G1 X70.9297 Y7.1277 Z-0.0841
G1 X70.9379 Y7.1437 Z-0.087
G1 X70.9474 Y7.1598 Z-0.09
G1 X70.9583 Y7.1759 Z-0.0931
G1 X70.9698 Y7.1906 Z-0.0961
G1 X70.9822 Y7.2047 Z-0.099
G1 X70.9956 Y7.2181 Z-0.1021
G1 X71.0094 Y7.2303 Z-0.105
G1 X71.0243 Y7.2418 Z-0.108
G1 X71.0398 Y7.2524 Z-0.111
G1 X71.0558 Y7.2618 Z-0.114
G1 X71.0727 Y7.2704 Z-0.117
G1 X71.09 Y7.2779 Z-0.12
G1 X71.1077 Y7.2843 Z-0.123
G1 X71.1258 Y7.2896 Z-0.1261
G1 X71.144 Y7.2936 Z-0.129
G1 X71.1625 Y7.2966 Z-0.132
G1 X71.1812 Y7.2983 Z-0.135
G1 X71.2 Y7.2989 Z-0.138
G1 X71.2188 Y7.2983 Z-0.141
G1 X71.2375 Y7.2966 Z-0.144
G1 X71.256 Y7.2936 Z-0.147
G1 X71.2742 Y7.2896 Z-0.15
G1 X71.2923 Y7.2843 Z-0.153
G1 X71.3103 Y7.2778 Z-0.1561
G1 X71.3274 Y7.2704 Z-0.1591
G1 X71.344 Y7.262 Z-0.162
G1 X71.3602 Y7.2524 Z-0.165
G1 X71.3757 Y7.2418 Z-0.168
G1 X71.3906 Y7.2303 Z-0.171
G1 X71.4044 Y7.2181 Z-0.174
G1 X71.4178 Y7.2047 Z-0.177
G1 X71.4302 Y7.1906 Z-0.18
G1 X71.4417 Y7.1759 Z-0.183
G1 X71.4526 Y7.1598 Z-0.1861
G1 X71.4621 Y7.1437 Z-0.1891
G1 X71.4703 Y7.1277 Z-0.192
G1 X71.4777 Y7.1105 Z-0.195
G1 X71.4844 Y7.0918 Z-0.1981
G1 X71.4896 Y7.0742 Z-0.2011
G1 X71.4936 Y7.0562 Z-0.204
G1 X71.4966 Y7.0371 Z-0.2071
G1 X71.4983 Y7.0189 Z-0.21
G1 X71.4989 Y7.0 Z-0.213
G1 X71.4983 Y6.9811 Z-0.216
G1 X71.4966 Y6.9629 Z-0.219
G1 X71.4936 Y6.9438 Z-0.2221
G1 X71.4896 Y6.9258 Z-0.225
G1 X71.4844 Y6.9082 Z-0.2279
G1 X71.4777 Y6.8895 Z-0.2311
G1 X71.4703 Y6.8723 Z-0.2341
G1 X71.4621 Y6.8563 Z-0.237
G1 X71.4526 Y6.8402 Z-0.24
G1 X71.4417 Y6.8241 Z-0.2431
G1 X71.4302 Y6.8094 Z-0.2461
G1 X71.4178 Y6.7953 Z-0.249
G1 X71.4044 Y6.7819 Z-0.2521
G1 X71.3906 Y6.7697 Z-0.255
G1 X71.3757 Y6.7582 Z-0.258
G1 X71.3602 Y6.7476 Z-0.261
G1 X71.344 Y6.738 Z-0.264
G1 X71.3274 Y6.7296 Z-0.267
G1 X71.3103 Y6.7222 Z-0.27
G1 X71.2923 Y6.7157 Z-0.273
G1 X71.2742 Y6.7104 Z-0.2761
G1 X71.256 Y6.7064 Z-0.279
G1 X71.2375 Y6.7034 Z-0.282
G1 X71.2188 Y6.7017 Z-0.285
G1 X71.2 Y6.7011 Z-0.288
G1 X71.1812 Y6.7017 Z-0.291
G1 X71.1625 Y6.7034 Z-0.294
G1 X71.144 Y6.7064 Z-0.297
G1 X71.1258 Y6.7104 Z-0.3
G1 X71.1077 Y6.7157
G1 X71.09 Y6.7221
G1 X71.0727 Y6.7296
G1 X71.0558 Y6.7382
G1 X71.0398 Y6.7476
G1 X71.0243 Y6.7582
G1 X71.0094 Y6.7697
G1 X70.9956 Y6.7819
G1 X70.9822 Y6.7953
G1 X70.9698 Y6.8094
G1 X70.9583 Y6.8241
G1 X70.9474 Y6.8402
G1 X70.9379 Y6.8563
G1 X70.9297 Y6.8723
G1 X70.9223 Y6.8895
G1 X70.9156 Y6.9082
G1 X70.9104 Y6.9258
G1 X70.9064 Y6.9438
G1 X70.9034 Y6.9629
G1 X70.9017 Y6.9811
G1 X70.9011 Y7.0
G1 X70.9017 Y7.0189
G1 X70.9034 Y7.0371
G1 X70.9064 Y7.0562
G1 X70.9104 Y7.0742
G1 X70.9156 Y7.0918
G1 X70.9223 Y7.1105
G1 X70.9297 Y7.1277
G1 X70.9379 Y7.1437
G1 X70.9474 Y7.1598
G1 X70.9583 Y7.1759
G1 X70.9698 Y7.1906
G1 X70.9822 Y7.2047
G1 X70.9956 Y7.2181
G1 X71.0094 Y7.2303
G1 X71.0243 Y7.2418
G1 X71.0398 Y7.2524
G1 X71.0558 Y7.2618
G1 X71.0727 Y7.2704
G1 X71.09 Y7.2779
G1 X71.1077 Y7.2843
G1 X71.1258 Y7.2896
G1 X71.144 Y7.2936
G1 X71.1625 Y7.2966
G1 X71.1812 Y7.2983
G1 X71.2 Y7.2989
G1 X71.2188 Y7.2983
G1 X71.2375 Y7.2966
G1 X71.256 Y7.2936
G1 X71.2742 Y7.2896
G1 X71.2923 Y7.2843
G1 X71.3103 Y7.2778
G1 X71.3274 Y7.2704
G1 X71.344 Y7.262
G1 X71.3602 Y7.2524
G1 X71.3757 Y7.2418
G1 X71.3906 Y7.2303
G1 X71.4044 Y7.2181
G1 X71.4178 Y7.2047
G1 X71.4302 Y7.1906
G1 X71.4417 Y7.1759
G1 X71.4526 Y7.1598
G1 X71.4621 Y7.1437
G1 X71.4703 Y7.1277
G1 X71.4777 Y7.1105
G1 X71.4844 Y7.0918
G1 X71.4896 Y7.0742
G1 X71.4936 Y7.0562
G1 X71.4966 Y7.0371
G1 X71.4983 Y7.0189
G1 X71.4989 Y7.0
G1 X71.4983 Y6.9811
G1 X71.4966 Y6.9629
G1 X71.4936 Y6.9438
G1 X71.4896 Y6.9258
G1 X71.4844 Y6.9082
G1 X71.4777 Y6.8895
G1 X71.4703 Y6.8723
G1 X71.4621 Y6.8563
G1 X71.4526 Y6.8402
G1 X71.4417 Y6.8241
G1 X71.4302 Y6.8094
G1 X71.4178 Y6.7953
G1 X71.4044 Y6.7819
G1 X71.3906 Y6.7697
G1 X71.3757 Y6.7582
G1 X71.3602 Y6.7476
G1 X71.344 Y6.738
G1 X71.3274 Y6.7296
G1 X71.3103 Y6.7222
G1 X71.2923 Y6.7157
G1 X71.2742 Y6.7104
G1 X71.256 Y6.7064
G1 X71.2375 Y6.7034
G1 X71.2188 Y6.7017
G1 X71.2 Y6.7011
G1 X71.1812 Y6.7017
G1 X71.1625 Y6.7034
G1 X71.144 Y6.7064
G1 X71.1258 Y6.7104
G1 F300.0 X71.0386 Y6.3201
G1 F800.0 X71.0263 Y6.3228
G1 X70.984 Y6.3351
G1 X70.9427 Y6.35
G1 X70.9023 Y6.3675
G1 X70.863 Y6.3875
G1 X70.8253 Y6.4097
G1 X70.789 Y6.4344
G1 X70.7543 Y6.4613
G1 X70.7216 Y6.4902
G1 X70.6904 Y6.5214
G1 X70.6614 Y6.5543
G1 X70.6345 Y6.5889
G1 X70.6095 Y6.6257
G1 X70.5872 Y6.6634
G1 X70.5676 Y6.702
G1 X70.5502 Y6.7423
G1 X70.535 Y6.7844
G1 X70.5228 Y6.8263
G1 X70.5133 Y6.8688
G1 X70.5064 Y6.9127
G1 X70.5022 Y6.956
G1 X70.5009 Y7.0
G1 X70.5022 Y7.044
G1 X70.5064 Y7.0873
G1 X70.5133 Y7.1312
G1 X70.5228 Y7.1737
G1 X70.535 Y7.2156
G1 X70.5502 Y7.2577
G1 X70.5676 Y7.298
G1 X70.5872 Y7.3366
G1 X70.6095 Y7.3743
G1 X70.6345 Y7.4111
G1 X70.6614 Y7.4457
G1 X70.6904 Y7.4786
G1 X70.7216 Y7.5098
G1 X70.7543 Y7.5387
G1 X70.789 Y7.5656
G1 X70.8253 Y7.5903
G1 X70.863 Y7.6125
G1 X70.9023 Y7.6325
G1 X70.9427 Y7.65
G1 X70.984 Y7.6649
G1 X71.0263 Y7.6772
G1 X71.069 Y7.6867
G1 X71.1124 Y7.6936
G1 X71.1561 Y7.6977
G1 X71.2 Y7.6991
G1 X71.2439 Y7.6977
G1 X71.2876 Y7.6936
G1 X71.331 Y7.6867
G1 X71.3737 Y7.6772
G1 X71.416 Y7.6649
G1 X71.4576 Y7.6499
G1 X71.4978 Y7.6325
G1 X71.5368 Y7.6127
G1 X71.5747 Y7.5903
G1 X71.611 Y7.5656
G1 X71.6457 Y7.5387
G1 X71.6784 Y7.5098
G1 X71.7096 Y7.4786
G1 X71.7386 Y7.4457
G1 X71.7655 Y7.4111
G1 X71.7905 Y7.3743
G1 X71.8128 Y7.3366
G1 X71.8324 Y7.298
G1 X71.8498 Y7.2577
G1 X71.865 Y7.2156
G1 X71.8772 Y7.1737
G1 X71.8867 Y7.1312
G1 X71.8936 Y7.0873
G1 X71.8978 Y7.044
G1 X71.8991 Y7.0
G1 X71.8978 Y6.956
G1 X71.8936 Y6.9127
G1 X71.8867 Y6.8688
G1 X71.8772 Y6.8263
G1 X71.865 Y6.7844
G1 X71.8498 Y6.7423
G1 X71.8324 Y6.702
G1 X71.8128 Y6.6634
G1 X71.7905 Y6.6257
G1 X71.7655 Y6.5889
G1 X71.7386 Y6.5543
G1 X71.7096 Y6.5214
G1 X71.6784 Y6.4902
G1 X71.6457 Y6.4613
G1 X71.611 Y6.4344
G1 X71.5747 Y6.4097
G1 X71.5368 Y6.3873
G1 X71.4978 Y6.3675
G1 X71.4576 Y6.3501
G1 X71.416 Y6.3351
G1 X71.3737 Y6.3228
G1 X71.331 Y6.3133
G1 X71.2876 Y6.3064
G1 X71.2439 Y6.3023
G1 X71.2 Y6.3009
G1 X71.1561 Y6.3023
G1 X71.1124 Y6.3064
G1 X71.069 Y6.3133
G1 X71.0386 Y6.3201
G1 F300.0 X70.864 Y5.5394
G1 F800.0 X70.8272 Y5.5476
G1 X70.7367 Y5.5739
G1 X70.648 Y5.6058
G1 X70.5615 Y5.6432
G1 X70.4775 Y5.686
G1 X70.3965 Y5.7339
G1 X70.3186 Y5.7869
G1 X70.2441 Y5.8446
G1 X70.1736 Y5.9068
G1 X70.1069 Y5.9735
G1 X70.0446 Y6.0441
G1 X69.987 Y6.1185
G1 X69.9338 Y6.1967
G1 X69.8859 Y6.2777
G1 X69.8433 Y6.3613
G1 X69.8059 Y6.4478
G1 X69.7738 Y6.5369
G1 X69.7476 Y6.6272
G1 X69.7271 Y6.7189
G1 X69.7123 Y6.8122
G1 X69.7034 Y6.9058
G1 X69.7005 Y7.0
G1 X69.7034 Y7.0942
G1 X69.7123 Y7.1878
G1 X69.7271 Y7.2811
G1 X69.7476 Y7.3728
G1 X69.7738 Y7.4631
G1 X69.8059 Y7.5522
G1 X69.8433 Y7.6387
G1 X69.8859 Y7.7223
G1 X69.9338 Y7.8033
G1 X69.987 Y7.8815
G1 X70.0446 Y7.9559
G1 X70.1069 Y8.0265
G1 X70.1736 Y8.0932
G1 X70.2441 Y8.1554
G1 X70.3186 Y8.2131
G1 X70.3965 Y8.2661
G1 X70.4775 Y8.314
G1 X70.5615 Y8.3568
G1 X70.648 Y8.3942
G1 X70.7367 Y8.4261
G1 X70.8272 Y8.4524
G1 X70.919 Y8.4729
G1 X71.0121 Y8.4877
G1 X71.1058 Y8.4965
G1 X71.2 Y8.4995
G1 X71.2942 Y8.4965
G1 X71.3879 Y8.4877
G1 X71.481 Y8.4729
G1 X71.5728 Y8.4524
G1 X71.6633 Y8.4261
G1 X71.7521 Y8.3942
G1 X71.8385 Y8.3568
G1 X71.9224 Y8.314
G1 X72.0035 Y8.2661
G1 X72.0814 Y8.2131
G1 X72.1559 Y8.1554
G1 X72.2264 Y8.0932
G1 X72.2931 Y8.0265
G1 X72.3554 Y7.9559
G1 X72.413 Y7.8815
G1 X72.4662 Y7.8033
G1 X72.5141 Y7.7223
G1 X72.5567 Y7.6387
G1 X72.5941 Y7.5522
G1 X72.6262 Y7.4631
G1 X72.6524 Y7.3728
G1 X72.6729 Y7.2811
G1 X72.6877 Y7.1878
G1 X72.6966 Y7.0942
G1 X72.6995 Y7.0
G1 X72.6966 Y6.9058
G1 X72.6877 Y6.8122
G1 X72.6729 Y6.7189
G1 X72.6524 Y6.6272
G1 X72.6262 Y6.5369
G1 X72.5941 Y6.4478
G1 X72.5567 Y6.3613
G1 X72.5141 Y6.2777
G1 X72.4662 Y6.1967
G1 X72.413 Y6.1185
G1 X72.3554 Y6.0441
G1 X72.2931 Y5.9735
G1 X72.2264 Y5.9068
G1 X72.1559 Y5.8446
G1 X72.0814 Y5.7869
G1 X72.0035 Y5.7339
G1 X71.9224 Y5.686
G1 X71.8385 Y5.6432
G1 X71.7521 Y5.6058
G1 X71.6633 Y5.5739
G1 X71.5728 Y5.5476
G1 X71.481 Y5.5271
G1 X71.3879 Y5.5123
G1 X71.2942 Y5.5035
G1 X71.2 Y5.5005
G1 X71.1058 Y5.5035
G1 X71.0121 Y5.5123
G1 X70.919 Y5.5271
G1 X70.864 Y5.5394
( DisplayFixture )
S1000
G0 Z3.0
G0 X59.2 Y4.3028
G0 Z1.0
G1 F300.0 Z0.0
G1 F800.0 Y-4.8028 Z-0.1282
G3 X59.1938 Y-4.8119 Z-0.1283 I1.482 J-1.0216
G1 X59.1231 Y-4.9159 Z-0.1301
G3 X59.0616 Y-5.0126 Z-0.1317 I1.4882 J-1.0125
G1 X58.9977 Y-5.1208 Z-0.1335
G3 X58.9439 Y-5.2186 Z-0.135 I1.5497 J-0.9157
G1 X58.8868 Y-5.3306 Z-0.1368
G3 X58.8383 Y-5.4336 Z-0.1384 I1.6035 J-0.8178
G1 X58.7984 Y-5.5259 Z-0.1398
G1 Y5.0259 Z-0.2883
G1 X58.8383 Y4.9336 Z-0.2898
G3 X58.8868 Y4.8306 Z-0.2914 I1.652 J0.7149
G1 X58.9439 Y4.7186 Z-0.2931
G3 X58.9977 Y4.6208 Z-0.2947 I1.6035 J0.8178
