( Made using CamBam - http://www.cambam.co.uk )
( 210207_FrontpanelConnector 2/7/2021 6:50:54 PM )
( T2 : 2.0 )
( CUTVIEWER )
( FROM/0,0,5 )
( Select dummy tool to avoid warnings )
( TOOL/MILL,1,0,20.0,0 )
( STOCK/BLOCK,20.0,20.0,4.0,5.0,5.0,4.0 )
G21 G90 G91.1 G64 G40
G0 Z3.0
( T2 : 2.0 )
( Tool Taper coming soon )
( TOOL/MILL,2.0,0.0,0.0,0 )
T2 M6
( M3_Screw )
G17
M3 S1000
G0 X2.5525 Y2.6187
G0 Z1.0
G1 F150.0 Z0.0
G1 F100.0 X2.5538 Y2.6247 Z-0.003
G1 X2.5556 Y2.6307 Z-0.006
G1 X2.5576 Y2.6365 Z-0.009
G1 X2.5601 Y2.6422 Z-0.012
G1 X2.563 Y2.6478 Z-0.015
G1 X2.5662 Y2.6532 Z-0.018
G1 X2.5697 Y2.6584 Z-0.021
G1 X2.5734 Y2.6633 Z-0.024
G1 X2.5776 Y2.668 Z-0.027
G1 X2.582 Y2.6724 Z-0.03
G1 X2.5867 Y2.6766 Z-0.033
G1 X2.5916 Y2.6803 Z-0.036
G1 X2.5968 Y2.6838 Z-0.039
G1 X2.6022 Y2.687 Z-0.042
G1 X2.6077 Y2.6898 Z-0.045
G1 X2.6134 Y2.6923 Z-0.048
G1 X2.6193 Y2.6944 Z-0.051
G1 X2.6253 Y2.6962 Z-0.054
G1 X2.6314 Y2.6976 Z-0.057
G1 X2.6376 Y2.6985 Z-0.06
G1 X2.6438 Y2.6991 Z-0.063
G1 X2.65 Y2.6993 Z-0.066
G1 X2.6562 Y2.6991 Z-0.069
G1 X2.6624 Y2.6985 Z-0.072
G1 X2.6686 Y2.6976 Z-0.075
G1 X2.6747 Y2.6962 Z-0.078
G1 X2.6807 Y2.6944 Z-0.081
G1 X2.6866 Y2.6923 Z-0.084
G1 X2.6923 Y2.6898 Z-0.087
G1 X2.6978 Y2.687 Z-0.09
G1 X2.7032 Y2.6838 Z-0.093
G1 X2.7084 Y2.6803 Z-0.096
G1 X2.7133 Y2.6766 Z-0.099
G1 X2.718 Y2.6724 Z-0.102
G1 X2.7224 Y2.668 Z-0.105
G1 X2.7266 Y2.6633 Z-0.108
G1 X2.7303 Y2.6584 Z-0.111
G1 X2.7338 Y2.6532 Z-0.114
G1 X2.737 Y2.6478 Z-0.117
G1 X2.7398 Y2.6423 Z-0.12
G1 X2.7423 Y2.6366 Z-0.123
G1 X2.7444 Y2.6307 Z-0.126
G1 X2.7462 Y2.6247 Z-0.129
G1 X2.7476 Y2.6186 Z-0.132
G1 X2.7485 Y2.6124 Z-0.135
G1 X2.7491 Y2.6062 Z-0.138
G1 X2.7493 Y2.6 Z-0.141
G1 X2.7491 Y2.5938 Z-0.144
G1 X2.7485 Y2.5876 Z-0.147
G1 X2.7476 Y2.5814 Z-0.15
G1 X2.7462 Y2.5753 Z-0.153
G1 X2.7444 Y2.5693 Z-0.156
G1 X2.7423 Y2.5634 Z-0.159
G1 X2.7398 Y2.5577 Z-0.162
G1 X2.737 Y2.5522 Z-0.165
G1 X2.7338 Y2.5468 Z-0.168
G1 X2.7303 Y2.5416 Z-0.171
G1 X2.7266 Y2.5367 Z-0.174
G1 X2.7224 Y2.532 Z-0.177
G1 X2.718 Y2.5276 Z-0.18
G1 X2.7133 Y2.5234 Z-0.183
G1 X2.7084 Y2.5197 Z-0.186
G1 X2.7032 Y2.5162 Z-0.189
G1 X2.6978 Y2.513 Z-0.192
G1 X2.6922 Y2.5101 Z-0.195
G1 X2.6866 Y2.5077 Z-0.198
G1 X2.6808 Y2.5056 Z-0.2009
G1 X2.6747 Y2.5038 Z-0.204
G1 X2.6686 Y2.5024 Z-0.207
G1 X2.6624 Y2.5015 Z-0.21
G1 X2.6562 Y2.5009 Z-0.213
G1 X2.65 Y2.5007 Z-0.216
G1 X2.6438 Y2.5009 Z-0.219
G1 X2.6376 Y2.5015 Z-0.222
G1 X2.6314 Y2.5024 Z-0.225
G1 X2.6253 Y2.5038 Z-0.228
G1 X2.6192 Y2.5056 Z-0.231
G1 X2.6134 Y2.5077 Z-0.234
G1 X2.6078 Y2.5101 Z-0.237
G1 X2.6022 Y2.513 Z-0.24
G1 X2.5968 Y2.5162 Z-0.243
G1 X2.5916 Y2.5197 Z-0.246
G1 X2.5867 Y2.5234 Z-0.249
G1 X2.582 Y2.5276 Z-0.252
G1 X2.5776 Y2.532 Z-0.255
G1 X2.5734 Y2.5367 Z-0.258
G1 X2.5697 Y2.5416 Z-0.261
G1 X2.5662 Y2.5468 Z-0.264
G1 X2.563 Y2.5522 Z-0.267
G1 X2.5601 Y2.5578 Z-0.27
G1 X2.5576 Y2.5635 Z-0.273
G1 X2.5555 Y2.5693 Z-0.276
G1 X2.5538 Y2.5752 Z-0.279
G1 X2.5525 Y2.5813 Z-0.2819
G1 X2.5515 Y2.5876 Z-0.285
G1 X2.5509 Y2.5938 Z-0.288
G1 X2.5507 Y2.6 Z-0.291
G1 X2.5509 Y2.6062 Z-0.294
G1 X2.5515 Y2.6124 Z-0.297
G1 X2.5525 Y2.6187 Z-0.3
G1 F150.0 X2.1621 Y2.7059
G1 F100.0 X2.1662 Y2.7243
G1 X2.1749 Y2.7544
G1 X2.1856 Y2.7839
G1 X2.198 Y2.8127
G1 X2.2123 Y2.8406
G1 X2.2283 Y2.8677
G1 X2.2459 Y2.8936
G1 X2.2651 Y2.9184
G1 X2.2859 Y2.9419
G1 X2.3081 Y2.9641
G1 X2.3316 Y2.9849
G1 X2.3564 Y3.0041
G1 X2.3823 Y3.0217
G1 X2.4094 Y3.0377
G1 X2.4373 Y3.052
G1 X2.4661 Y3.0644
G1 X2.4956 Y3.075
G1 X2.5258 Y3.0838
G1 X2.5564 Y3.0907
G1 X2.5874 Y3.0956
G1 X2.6186 Y3.0985
G1 X2.65 Y3.0995
G1 X2.6814 Y3.0985
G1 X2.7126 Y3.0956
G1 X2.7436 Y3.0907
G1 X2.7742 Y3.0838
G1 X2.8044 Y3.075
G1 X2.8339 Y3.0644
G1 X2.8627 Y3.052
G1 X2.8906 Y3.0377
G1 X2.9177 Y3.0217
G1 X2.9436 Y3.0041
G1 X2.9684 Y2.9849
G1 X2.9919 Y2.9641
G1 X3.0141 Y2.9419
G1 X3.0349 Y2.9184
G1 X3.0541 Y2.8936
G1 X3.0717 Y2.8677
G1 X3.0877 Y2.8406
G1 X3.102 Y2.8127
G1 X3.1144 Y2.7839
G1 X3.125 Y2.7544
G1 X3.1338 Y2.7242
G1 X3.1407 Y2.6936
G1 X3.1456 Y2.6626
G1 X3.1485 Y2.6314
G1 X3.1495 Y2.6
G1 X3.1485 Y2.5686
G1 X3.1456 Y2.5374
G1 X3.1407 Y2.5064
G1 X3.1338 Y2.4758
G1 X3.1251 Y2.4456
G1 X3.1144 Y2.4161
G1 X3.102 Y2.3873
G1 X3.0877 Y2.3594
G1 X3.0717 Y2.3323
G1 X3.0541 Y2.3064
G1 X3.0349 Y2.2816
G1 X3.0141 Y2.2581
G1 X2.9919 Y2.2359
G1 X2.9684 Y2.2151
G1 X2.9436 Y2.1959
G1 X2.9177 Y2.1783
G1 X2.8906 Y2.1623
G1 X2.8627 Y2.148
G1 X2.8339 Y2.1356
G1 X2.8044 Y2.125
G1 X2.7742 Y2.1162
G1 X2.7436 Y2.1093
G1 X2.7126 Y2.1044
G1 X2.6814 Y2.1015
G1 X2.65 Y2.1005
G1 X2.6186 Y2.1015
G1 X2.5874 Y2.1044
G1 X2.5564 Y2.1093
G1 X2.5258 Y2.1162
G1 X2.4956 Y2.125
G1 X2.4661 Y2.1356
G1 X2.4373 Y2.148
G1 X2.4094 Y2.1623
G1 X2.3823 Y2.1783
G1 X2.3564 Y2.1959
G1 X2.3316 Y2.2151
G1 X2.3081 Y2.2359
G1 X2.2859 Y2.2581
G1 X2.2651 Y2.2816
G1 X2.2459 Y2.3064
G1 X2.2283 Y2.3323
G1 X2.2123 Y2.3594
G1 X2.198 Y2.3873
G1 X2.1856 Y2.4161
G1 X2.1749 Y2.4456
G1 X2.1662 Y2.4757
G1 X2.1593 Y2.5064
G1 X2.1544 Y2.5374
G1 X2.1515 Y2.5686
G1 X2.1505 Y2.6
G1 X2.1515 Y2.6314
G1 X2.1544 Y2.6626
G1 X2.1593 Y2.6936
G1 X2.1621 Y2.7059
G1 F150.0 X2.5525 Y2.6187
G1 F100.0 X2.5538 Y2.6247 Z-0.303
G1 X2.5556 Y2.6307 Z-0.306
G1 X2.5576 Y2.6365 Z-0.309
G1 X2.5601 Y2.6422 Z-0.312
G1 X2.563 Y2.6478 Z-0.315
G1 X2.5662 Y2.6532 Z-0.318
G1 X2.5697 Y2.6584 Z-0.321
G1 X2.5734 Y2.6633 Z-0.324
G1 X2.5776 Y2.668 Z-0.327
G1 X2.582 Y2.6724 Z-0.33
G1 X2.5867 Y2.6766 Z-0.333
G1 X2.5916 Y2.6803 Z-0.336
G1 X2.5968 Y2.6838 Z-0.339
G1 X2.6022 Y2.687 Z-0.342
G1 X2.6077 Y2.6898 Z-0.345
G1 X2.6134 Y2.6923 Z-0.348
G1 X2.6193 Y2.6944 Z-0.351
G1 X2.6253 Y2.6962 Z-0.354
G1 X2.6314 Y2.6976 Z-0.357
G1 X2.6376 Y2.6985 Z-0.36
G1 X2.6438 Y2.6991 Z-0.363
G1 X2.65 Y2.6993 Z-0.366
G1 X2.6562 Y2.6991 Z-0.369
G1 X2.6624 Y2.6985 Z-0.372
G1 X2.6686 Y2.6976 Z-0.375
G1 X2.6747 Y2.6962 Z-0.378
G1 X2.6807 Y2.6944 Z-0.381
G1 X2.6866 Y2.6923 Z-0.384
G1 X2.6923 Y2.6898 Z-0.387
G1 X2.6978 Y2.687 Z-0.39
G1 X2.7032 Y2.6838 Z-0.393
G1 X2.7084 Y2.6803 Z-0.396
G1 X2.7133 Y2.6766 Z-0.399
G1 X2.718 Y2.6724 Z-0.402
G1 X2.7224 Y2.668 Z-0.405
G1 X2.7266 Y2.6633 Z-0.408
G1 X2.7303 Y2.6584 Z-0.411
G1 X2.7338 Y2.6532 Z-0.414
G1 X2.737 Y2.6478 Z-0.417
G1 X2.7398 Y2.6423 Z-0.42
G1 X2.7423 Y2.6366 Z-0.423
G1 X2.7444 Y2.6307 Z-0.426
G1 X2.7462 Y2.6247 Z-0.429
G1 X2.7476 Y2.6186 Z-0.432
G1 X2.7485 Y2.6124 Z-0.435
G1 X2.7491 Y2.6062 Z-0.438
G1 X2.7493 Y2.6 Z-0.441
G1 X2.7491 Y2.5938 Z-0.444
G1 X2.7485 Y2.5876 Z-0.447
G1 X2.7476 Y2.5814 Z-0.45
G1 X2.7462 Y2.5753 Z-0.453
G1 X2.7444 Y2.5693 Z-0.456
G1 X2.7423 Y2.5634 Z-0.459
G1 X2.7398 Y2.5577 Z-0.462
G1 X2.737 Y2.5522 Z-0.465
G1 X2.7338 Y2.5468 Z-0.468
G1 X2.7303 Y2.5416 Z-0.471
G1 X2.7266 Y2.5367 Z-0.474
G1 X2.7224 Y2.532 Z-0.477
G1 X2.718 Y2.5276 Z-0.48
G1 X2.7133 Y2.5234 Z-0.483
G1 X2.7084 Y2.5197 Z-0.486
G1 X2.7032 Y2.5162 Z-0.489
G1 X2.6978 Y2.513 Z-0.492
G1 X2.6922 Y2.5101 Z-0.495
G1 X2.6866 Y2.5077 Z-0.498
G1 X2.6808 Y2.5056 Z-0.5009
G1 X2.6747 Y2.5038 Z-0.504
G1 X2.6686 Y2.5024 Z-0.507
G1 X2.6624 Y2.5015 Z-0.51
G1 X2.6562 Y2.5009 Z-0.513
G1 X2.65 Y2.5007 Z-0.516
G1 X2.6438 Y2.5009 Z-0.519
G1 X2.6376 Y2.5015 Z-0.522
G1 X2.6314 Y2.5024 Z-0.525
G1 X2.6253 Y2.5038 Z-0.528
G1 X2.6192 Y2.5056 Z-0.531
G1 X2.6134 Y2.5077 Z-0.534
G1 X2.6078 Y2.5101 Z-0.537
G1 X2.6022 Y2.513 Z-0.54
G1 X2.5968 Y2.5162 Z-0.543
G1 X2.5916 Y2.5197 Z-0.546
G1 X2.5867 Y2.5234 Z-0.549
G1 X2.582 Y2.5276 Z-0.552
G1 X2.5776 Y2.532 Z-0.555
G1 X2.5734 Y2.5367 Z-0.558
G1 X2.5697 Y2.5416 Z-0.561
G1 X2.5662 Y2.5468 Z-0.564
G1 X2.563 Y2.5522 Z-0.567
G1 X2.5601 Y2.5578 Z-0.57
G1 X2.5576 Y2.5635 Z-0.573
G1 X2.5555 Y2.5693 Z-0.576
G1 X2.5538 Y2.5752 Z-0.579
G1 X2.5525 Y2.5813 Z-0.5819
G1 X2.5515 Y2.5876 Z-0.585
G1 X2.5509 Y2.5938 Z-0.588
G1 X2.5507 Y2.6 Z-0.591
G1 X2.5509 Y2.6062 Z-0.594
G1 X2.5515 Y2.6124 Z-0.597
G1 X2.5525 Y2.6187 Z-0.6
G1 F150.0 X2.1621 Y2.7059
G1 F100.0 X2.1662 Y2.7243
G1 X2.1749 Y2.7544
G1 X2.1856 Y2.7839
G1 X2.198 Y2.8127
G1 X2.2123 Y2.8406
G1 X2.2283 Y2.8677
G1 X2.2459 Y2.8936
G1 X2.2651 Y2.9184
G1 X2.2859 Y2.9419
G1 X2.3081 Y2.9641
G1 X2.3316 Y2.9849
G1 X2.3564 Y3.0041
G1 X2.3823 Y3.0217
G1 X2.4094 Y3.0377
G1 X2.4373 Y3.052
G1 X2.4661 Y3.0644
G1 X2.4956 Y3.075
G1 X2.5258 Y3.0838
G1 X2.5564 Y3.0907
G1 X2.5874 Y3.0956
G1 X2.6186 Y3.0985
G1 X2.65 Y3.0995
G1 X2.6814 Y3.0985
G1 X2.7126 Y3.0956
G1 X2.7436 Y3.0907
G1 X2.7742 Y3.0838
G1 X2.8044 Y3.075
G1 X2.8339 Y3.0644
G1 X2.8627 Y3.052
G1 X2.8906 Y3.0377
G1 X2.9177 Y3.0217
G1 X2.9436 Y3.0041
G1 X2.9684 Y2.9849
G1 X2.9919 Y2.9641
G1 X3.0141 Y2.9419
G1 X3.0349 Y2.9184
G1 X3.0541 Y2.8936
G1 X3.0717 Y2.8677
G1 X3.0877 Y2.8406
G1 X3.102 Y2.8127
G1 X3.1144 Y2.7839
G1 X3.125 Y2.7544
G1 X3.1338 Y2.7242
G1 X3.1407 Y2.6936
G1 X3.1456 Y2.6626
G1 X3.1485 Y2.6314
G1 X3.1495 Y2.6
G1 X3.1485 Y2.5686
G1 X3.1456 Y2.5374
G1 X3.1407 Y2.5064
G1 X3.1338 Y2.4758
G1 X3.1251 Y2.4456
G1 X3.1144 Y2.4161
G1 X3.102 Y2.3873
G1 X3.0877 Y2.3594
G1 X3.0717 Y2.3323
G1 X3.0541 Y2.3064
G1 X3.0349 Y2.2816
G1 X3.0141 Y2.2581
G1 X2.9919 Y2.2359
G1 X2.9684 Y2.2151
G1 X2.9436 Y2.1959
G1 X2.9177 Y2.1783
G1 X2.8906 Y2.1623
G1 X2.8627 Y2.148
G1 X2.8339 Y2.1356
G1 X2.8044 Y2.125
G1 X2.7742 Y2.1162
G1 X2.7436 Y2.1093
G1 X2.7126 Y2.1044
G1 X2.6814 Y2.1015
G1 X2.65 Y2.1005
G1 X2.6186 Y2.1015
G1 X2.5874 Y2.1044
G1 X2.5564 Y2.1093
G1 X2.5258 Y2.1162
G1 X2.4956 Y2.125
G1 X2.4661 Y2.1356
G1 X2.4373 Y2.148
G1 X2.4094 Y2.1623
G1 X2.3823 Y2.1783
G1 X2.3564 Y2.1959
G1 X2.3316 Y2.2151
G1 X2.3081 Y2.2359
G1 X2.2859 Y2.2581
G1 X2.2651 Y2.2816
G1 X2.2459 Y2.3064
G1 X2.2283 Y2.3323
G1 X2.2123 Y2.3594
G1 X2.198 Y2.3873
G1 X2.1856 Y2.4161
G1 X2.1749 Y2.4456
G1 X2.1662 Y2.4757
G1 X2.1593 Y2.5064
G1 X2.1544 Y2.5374
G1 X2.1515 Y2.5686
G1 X2.1505 Y2.6
G1 X2.1515 Y2.6314
G1 X2.1544 Y2.6626
G1 X2.1593 Y2.6936
G1 X2.1621 Y2.7059
G1 F150.0 X2.5525 Y2.6187
G1 F100.0 X2.5538 Y2.6247 Z-0.603
G1 X2.5556 Y2.6307 Z-0.606
G1 X2.5576 Y2.6365 Z-0.609
G1 X2.5601 Y2.6422 Z-0.612
G1 X2.563 Y2.6478 Z-0.615
G1 X2.5662 Y2.6532 Z-0.618
G1 X2.5697 Y2.6584 Z-0.621
G1 X2.5734 Y2.6633 Z-0.624
G1 X2.5776 Y2.668 Z-0.627
G1 X2.582 Y2.6724 Z-0.63
G1 X2.5867 Y2.6766 Z-0.633
G1 X2.5916 Y2.6803 Z-0.636
G1 X2.5968 Y2.6838 Z-0.639
G1 X2.6022 Y2.687 Z-0.642
G1 X2.6077 Y2.6898 Z-0.645
G1 X2.6134 Y2.6923 Z-0.648
G1 X2.6193 Y2.6944 Z-0.651
G1 X2.6253 Y2.6962 Z-0.654
G1 X2.6314 Y2.6976 Z-0.657
G1 X2.6376 Y2.6985 Z-0.66
G1 X2.6438 Y2.6991 Z-0.663
G1 X2.65 Y2.6993 Z-0.666
G1 X2.6562 Y2.6991 Z-0.669
G1 X2.6624 Y2.6985 Z-0.672
G1 X2.6686 Y2.6976 Z-0.675
G1 X2.6747 Y2.6962 Z-0.678
G1 X2.6807 Y2.6944 Z-0.681
G1 X2.6866 Y2.6923 Z-0.684
G1 X2.6923 Y2.6898 Z-0.687
G1 X2.6978 Y2.687 Z-0.69
G1 X2.7032 Y2.6838 Z-0.693
G1 X2.7084 Y2.6803 Z-0.696
G1 X2.7133 Y2.6766 Z-0.699
G1 X2.718 Y2.6724 Z-0.702
G1 X2.7224 Y2.668 Z-0.705
G1 X2.7266 Y2.6633 Z-0.708
G1 X2.7303 Y2.6584 Z-0.711
G1 X2.7338 Y2.6532 Z-0.714
G1 X2.737 Y2.6478 Z-0.717
G1 X2.7398 Y2.6423 Z-0.72
G1 X2.7423 Y2.6366 Z-0.723
G1 X2.7444 Y2.6307 Z-0.726
G1 X2.7462 Y2.6247 Z-0.729
G1 X2.7476 Y2.6186 Z-0.732
G1 X2.7485 Y2.6124 Z-0.735
G1 X2.7491 Y2.6062 Z-0.738
G1 X2.7493 Y2.6 Z-0.741
G1 X2.7491 Y2.5938 Z-0.744
G1 X2.7485 Y2.5876 Z-0.747
G1 X2.7476 Y2.5814 Z-0.75
G1 X2.7462 Y2.5753 Z-0.753
G1 X2.7444 Y2.5693 Z-0.756
G1 X2.7423 Y2.5634 Z-0.759
G1 X2.7398 Y2.5577 Z-0.762
G1 X2.737 Y2.5522 Z-0.765
G1 X2.7338 Y2.5468 Z-0.768
G1 X2.7303 Y2.5416 Z-0.771
G1 X2.7266 Y2.5367 Z-0.774
G1 X2.7224 Y2.532 Z-0.777
G1 X2.718 Y2.5276 Z-0.78
G1 X2.7133 Y2.5234 Z-0.783
G1 X2.7084 Y2.5197 Z-0.786
G1 X2.7032 Y2.5162 Z-0.789
G1 X2.6978 Y2.513 Z-0.792
G1 X2.6922 Y2.5101 Z-0.795
G1 X2.6866 Y2.5077 Z-0.798
G1 X2.6808 Y2.5056 Z-0.8009
G1 X2.6747 Y2.5038 Z-0.804
G1 X2.6686 Y2.5024 Z-0.807
G1 X2.6624 Y2.5015 Z-0.81
G1 X2.6562 Y2.5009 Z-0.813
G1 X2.65 Y2.5007 Z-0.816
G1 X2.6438 Y2.5009 Z-0.819
G1 X2.6376 Y2.5015 Z-0.822
G1 X2.6314 Y2.5024 Z-0.825
G1 X2.6253 Y2.5038 Z-0.828
G1 X2.6192 Y2.5056 Z-0.831
G1 X2.6134 Y2.5077 Z-0.834
G1 X2.6078 Y2.5101 Z-0.837
G1 X2.6022 Y2.513 Z-0.84
G1 X2.5968 Y2.5162 Z-0.843
G1 X2.5916 Y2.5197 Z-0.846
G1 X2.5867 Y2.5234 Z-0.849
G1 X2.582 Y2.5276 Z-0.852
G1 X2.5776 Y2.532 Z-0.855
G1 X2.5734 Y2.5367 Z-0.858
G1 X2.5697 Y2.5416 Z-0.861
G1 X2.5662 Y2.5468 Z-0.864
G1 X2.563 Y2.5522 Z-0.867
G1 X2.5601 Y2.5578 Z-0.87
G1 X2.5576 Y2.5635 Z-0.873
G1 X2.5555 Y2.5693 Z-0.876
G1 X2.5538 Y2.5752 Z-0.879
G1 X2.5525 Y2.5813 Z-0.8819
G1 X2.5515 Y2.5876 Z-0.885
G1 X2.5509 Y2.5938 Z-0.888
G1 X2.5507 Y2.6 Z-0.891
G1 X2.5509 Y2.6062 Z-0.894
G1 X2.5515 Y2.6124 Z-0.897
G1 X2.5525 Y2.6187 Z-0.9
G1 F150.0 X2.1621 Y2.7059
G1 F100.0 X2.1662 Y2.7243
G1 X2.1749 Y2.7544
G1 X2.1856 Y2.7839
G1 X2.198 Y2.8127
G1 X2.2123 Y2.8406
G1 X2.2283 Y2.8677
G1 X2.2459 Y2.8936
G1 X2.2651 Y2.9184
G1 X2.2859 Y2.9419
G1 X2.3081 Y2.9641
G1 X2.3316 Y2.9849
G1 X2.3564 Y3.0041
G1 X2.3823 Y3.0217
G1 X2.4094 Y3.0377
G1 X2.4373 Y3.052
G1 X2.4661 Y3.0644
G1 X2.4956 Y3.075
G1 X2.5258 Y3.0838
G1 X2.5564 Y3.0907
G1 X2.5874 Y3.0956
G1 X2.6186 Y3.0985
G1 X2.65 Y3.0995
G1 X2.6814 Y3.0985
G1 X2.7126 Y3.0956
G1 X2.7436 Y3.0907
G1 X2.7742 Y3.0838
G1 X2.8044 Y3.075
G1 X2.8339 Y3.0644
G1 X2.8627 Y3.052
G1 X2.8906 Y3.0377
G1 X2.9177 Y3.0217
G1 X2.9436 Y3.0041
G1 X2.9684 Y2.9849
G1 X2.9919 Y2.9641
G1 X3.0141 Y2.9419
G1 X3.0349 Y2.9184
G1 X3.0541 Y2.8936
G1 X3.0717 Y2.8677
G1 X3.0877 Y2.8406
G1 X3.102 Y2.8127
G1 X3.1144 Y2.7839
G1 X3.125 Y2.7544
G1 X3.1338 Y2.7242
G1 X3.1407 Y2.6936
G1 X3.1456 Y2.6626
G1 X3.1485 Y2.6314
G1 X3.1495 Y2.6
G1 X3.1485 Y2.5686
G1 X3.1456 Y2.5374
G1 X3.1407 Y2.5064
G1 X3.1338 Y2.4758
G1 X3.1251 Y2.4456
G1 X3.1144 Y2.4161
G1 X3.102 Y2.3873
G1 X3.0877 Y2.3594
G1 X3.0717 Y2.3323
G1 X3.0541 Y2.3064
G1 X3.0349 Y2.2816
G1 X3.0141 Y2.2581
G1 X2.9919 Y2.2359
G1 X2.9684 Y2.2151
G1 X2.9436 Y2.1959
G1 X2.9177 Y2.1783
G1 X2.8906 Y2.1623
G1 X2.8627 Y2.148
G1 X2.8339 Y2.1356
G1 X2.8044 Y2.125
G1 X2.7742 Y2.1162
G1 X2.7436 Y2.1093
G1 X2.7126 Y2.1044
G1 X2.6814 Y2.1015
G1 X2.65 Y2.1005
G1 X2.6186 Y2.1015
G1 X2.5874 Y2.1044
G1 X2.5564 Y2.1093
G1 X2.5258 Y2.1162
G1 X2.4956 Y2.125
G1 X2.4661 Y2.1356
G1 X2.4373 Y2.148
G1 X2.4094 Y2.1623
G1 X2.3823 Y2.1783
G1 X2.3564 Y2.1959
G1 X2.3316 Y2.2151
G1 X2.3081 Y2.2359
G1 X2.2859 Y2.2581
G1 X2.2651 Y2.2816
G1 X2.2459 Y2.3064
G1 X2.2283 Y2.3323
G1 X2.2123 Y2.3594
G1 X2.198 Y2.3873
G1 X2.1856 Y2.4161
G1 X2.1749 Y2.4456
G1 X2.1662 Y2.4757
G1 X2.1593 Y2.5064
G1 X2.1544 Y2.5374
G1 X2.1515 Y2.5686
G1 X2.1505 Y2.6
G1 X2.1515 Y2.6314
G1 X2.1544 Y2.6626
G1 X2.1593 Y2.6936
G1 X2.1621 Y2.7059
G1 F150.0 X2.5525 Y2.6187
G1 F100.0 X2.5538 Y2.6247 Z-0.903
G1 X2.5556 Y2.6307 Z-0.906
G1 X2.5576 Y2.6365 Z-0.909
G1 X2.5601 Y2.6422 Z-0.912
G1 X2.563 Y2.6478 Z-0.915
G1 X2.5662 Y2.6532 Z-0.918
G1 X2.5697 Y2.6584 Z-0.921
G1 X2.5734 Y2.6633 Z-0.924
G1 X2.5776 Y2.668 Z-0.927
G1 X2.582 Y2.6724 Z-0.93
G1 X2.5867 Y2.6766 Z-0.933
G1 X2.5916 Y2.6803 Z-0.936
G1 X2.5968 Y2.6838 Z-0.939
G1 X2.6022 Y2.687 Z-0.942
G1 X2.6077 Y2.6898 Z-0.945
G1 X2.6134 Y2.6923 Z-0.948
G1 X2.6193 Y2.6944 Z-0.951
G1 X2.6253 Y2.6962 Z-0.954
G1 X2.6314 Y2.6976 Z-0.957
G1 X2.6376 Y2.6985 Z-0.96
G1 X2.6438 Y2.6991 Z-0.963
G1 X2.65 Y2.6993 Z-0.966
G1 X2.6562 Y2.6991 Z-0.969
G1 X2.6624 Y2.6985 Z-0.972
G1 X2.6686 Y2.6976 Z-0.975
G1 X2.6747 Y2.6962 Z-0.978
G1 X2.6807 Y2.6944 Z-0.981
G1 X2.6866 Y2.6923 Z-0.984
G1 X2.6923 Y2.6898 Z-0.987
G1 X2.6978 Y2.687 Z-0.99
G1 X2.7032 Y2.6838 Z-0.993
G1 X2.7084 Y2.6803 Z-0.996
G1 X2.7133 Y2.6766 Z-0.999
G1 X2.718 Y2.6724 Z-1.002
G1 X2.7224 Y2.668 Z-1.005
G1 X2.7266 Y2.6633 Z-1.008
G1 X2.7303 Y2.6584 Z-1.011
G1 X2.7338 Y2.6532 Z-1.014
G1 X2.737 Y2.6478 Z-1.017
G1 X2.7398 Y2.6423 Z-1.02
G1 X2.7423 Y2.6366 Z-1.023
G1 X2.7444 Y2.6307 Z-1.026
G1 X2.7462 Y2.6247 Z-1.029
G1 X2.7476 Y2.6186 Z-1.032
G1 X2.7485 Y2.6124 Z-1.035
G1 X2.7491 Y2.6062 Z-1.038
G1 X2.7493 Y2.6 Z-1.041
G1 X2.7491 Y2.5938 Z-1.044
G1 X2.7485 Y2.5876 Z-1.047
G1 X2.7476 Y2.5814 Z-1.05
G1 X2.7462 Y2.5753 Z-1.053
G1 X2.7444 Y2.5693 Z-1.056
G1 X2.7423 Y2.5634 Z-1.059
G1 X2.7398 Y2.5577 Z-1.062
G1 X2.737 Y2.5522 Z-1.065
G1 X2.7338 Y2.5468 Z-1.068
G1 X2.7303 Y2.5416 Z-1.071
G1 X2.7266 Y2.5367 Z-1.074
G1 X2.7224 Y2.532 Z-1.077
G1 X2.718 Y2.5276 Z-1.08
G1 X2.7133 Y2.5234 Z-1.083
G1 X2.7084 Y2.5197 Z-1.086
G1 X2.7032 Y2.5162 Z-1.089
G1 X2.6978 Y2.513 Z-1.092
G1 X2.6922 Y2.5101 Z-1.095
G1 X2.6866 Y2.5077 Z-1.098
G1 X2.6808 Y2.5056 Z-1.1009
G1 X2.6747 Y2.5038 Z-1.104
G1 X2.6686 Y2.5024 Z-1.107
G1 X2.6624 Y2.5015 Z-1.11
G1 X2.6562 Y2.5009 Z-1.113
G1 X2.65 Y2.5007 Z-1.116
G1 X2.6438 Y2.5009 Z-1.119
G1 X2.6376 Y2.5015 Z-1.122
G1 X2.6314 Y2.5024 Z-1.125
G1 X2.6253 Y2.5038 Z-1.128
G1 X2.6192 Y2.5056 Z-1.131
G1 X2.6134 Y2.5077 Z-1.134
G1 X2.6078 Y2.5101 Z-1.137
G1 X2.6022 Y2.513 Z-1.14
G1 X2.5968 Y2.5162 Z-1.143
G1 X2.5916 Y2.5197 Z-1.146
G1 X2.5867 Y2.5234 Z-1.149
G1 X2.582 Y2.5276 Z-1.152
G1 X2.5776 Y2.532 Z-1.155
G1 X2.5734 Y2.5367 Z-1.158
G1 X2.5697 Y2.5416 Z-1.161
G1 X2.5662 Y2.5468 Z-1.164
G1 X2.563 Y2.5522 Z-1.167
G1 X2.5601 Y2.5578 Z-1.17
G1 X2.5576 Y2.5635 Z-1.173
G1 X2.5555 Y2.5693 Z-1.176
G1 X2.5538 Y2.5752 Z-1.179
G1 X2.5525 Y2.5813 Z-1.1819
G1 X2.5515 Y2.5876 Z-1.185
G1 X2.5509 Y2.5938 Z-1.188
G1 X2.5507 Y2.6 Z-1.191
G1 X2.5509 Y2.6062 Z-1.194
G1 X2.5515 Y2.6124 Z-1.197
G1 X2.5525 Y2.6187 Z-1.2
G1 F150.0 X2.1621 Y2.7059
G1 F100.0 X2.1662 Y2.7243
G1 X2.1749 Y2.7544
G1 X2.1856 Y2.7839
G1 X2.198 Y2.8127
G1 X2.2123 Y2.8406
G1 X2.2283 Y2.8677
G1 X2.2459 Y2.8936
G1 X2.2651 Y2.9184
G1 X2.2859 Y2.9419
G1 X2.3081 Y2.9641
G1 X2.3316 Y2.9849
G1 X2.3564 Y3.0041
G1 X2.3823 Y3.0217
G1 X2.4094 Y3.0377
G1 X2.4373 Y3.052
G1 X2.4661 Y3.0644
G1 X2.4956 Y3.075
G1 X2.5258 Y3.0838
G1 X2.5564 Y3.0907
G1 X2.5874 Y3.0956
G1 X2.6186 Y3.0985
G1 X2.65 Y3.0995
G1 X2.6814 Y3.0985
G1 X2.7126 Y3.0956
G1 X2.7436 Y3.0907
G1 X2.7742 Y3.0838
G1 X2.8044 Y3.075
G1 X2.8339 Y3.0644
G1 X2.8627 Y3.052
G1 X2.8906 Y3.0377
G1 X2.9177 Y3.0217
G1 X2.9436 Y3.0041
G1 X2.9684 Y2.9849
G1 X2.9919 Y2.9641
G1 X3.0141 Y2.9419
G1 X3.0349 Y2.9184
G1 X3.0541 Y2.8936
G1 X3.0717 Y2.8677
G1 X3.0877 Y2.8406
G1 X3.102 Y2.8127
G1 X3.1144 Y2.7839
G1 X3.125 Y2.7544
G1 X3.1338 Y2.7242
G1 X3.1407 Y2.6936
G1 X3.1456 Y2.6626
G1 X3.1485 Y2.6314
G1 X3.1495 Y2.6
G1 X3.1485 Y2.5686
G1 X3.1456 Y2.5374
G1 X3.1407 Y2.5064
G1 X3.1338 Y2.4758
G1 X3.1251 Y2.4456
G1 X3.1144 Y2.4161
G1 X3.102 Y2.3873
G1 X3.0877 Y2.3594
G1 X3.0717 Y2.3323
G1 X3.0541 Y2.3064
G1 X3.0349 Y2.2816
G1 X3.0141 Y2.2581
G1 X2.9919 Y2.2359
G1 X2.9684 Y2.2151
G1 X2.9436 Y2.1959
G1 X2.9177 Y2.1783
G1 X2.8906 Y2.1623
G1 X2.8627 Y2.148
G1 X2.8339 Y2.1356
G1 X2.8044 Y2.125
G1 X2.7742 Y2.1162
G1 X2.7436 Y2.1093
G1 X2.7126 Y2.1044
G1 X2.6814 Y2.1015
G1 X2.65 Y2.1005
G1 X2.6186 Y2.1015
G1 X2.5874 Y2.1044
G1 X2.5564 Y2.1093
G1 X2.5258 Y2.1162
G1 X2.4956 Y2.125
G1 X2.4661 Y2.1356
G1 X2.4373 Y2.148
G1 X2.4094 Y2.1623
G1 X2.3823 Y2.1783
G1 X2.3564 Y2.1959
G1 X2.3316 Y2.2151
G1 X2.3081 Y2.2359
G1 X2.2859 Y2.2581
G1 X2.2651 Y2.2816
G1 X2.2459 Y2.3064
G1 X2.2283 Y2.3323
G1 X2.2123 Y2.3594
G1 X2.198 Y2.3873
G1 X2.1856 Y2.4161
G1 X2.1749 Y2.4456
G1 X2.1662 Y2.4757
G1 X2.1593 Y2.5064
G1 X2.1544 Y2.5374
G1 X2.1515 Y2.5686
G1 X2.1505 Y2.6
G1 X2.1515 Y2.6314
G1 X2.1544 Y2.6626
G1 X2.1593 Y2.6936
G1 X2.1621 Y2.7059
G1 F150.0 X2.5525 Y2.6187
G1 F100.0 X2.5538 Y2.6247 Z-1.203
G1 X2.5556 Y2.6307 Z-1.206
G1 X2.5576 Y2.6365 Z-1.209
G1 X2.5601 Y2.6422 Z-1.212
G1 X2.563 Y2.6478 Z-1.215
G1 X2.5662 Y2.6532 Z-1.218
G1 X2.5697 Y2.6584 Z-1.221
G1 X2.5734 Y2.6633 Z-1.224
G1 X2.5776 Y2.668 Z-1.227
G1 X2.582 Y2.6724 Z-1.23
G1 X2.5867 Y2.6766 Z-1.233
G1 X2.5916 Y2.6803 Z-1.236
G1 X2.5968 Y2.6838 Z-1.239
G1 X2.6022 Y2.687 Z-1.242
G1 X2.6077 Y2.6898 Z-1.245
G1 X2.6134 Y2.6923 Z-1.248
G1 X2.6193 Y2.6944 Z-1.251
G1 X2.6253 Y2.6962 Z-1.254
G1 X2.6314 Y2.6976 Z-1.257
G1 X2.6376 Y2.6985 Z-1.26
G1 X2.6438 Y2.6991 Z-1.263
G1 X2.65 Y2.6993 Z-1.266
G1 X2.6562 Y2.6991 Z-1.269
G1 X2.6624 Y2.6985 Z-1.272
G1 X2.6686 Y2.6976 Z-1.275
G1 X2.6747 Y2.6962 Z-1.278
G1 X2.6807 Y2.6944 Z-1.281
G1 X2.6866 Y2.6923 Z-1.284
G1 X2.6923 Y2.6898 Z-1.287
G1 X2.6978 Y2.687 Z-1.29
G1 X2.7032 Y2.6838 Z-1.293
G1 X2.7084 Y2.6803 Z-1.296
G1 X2.7133 Y2.6766 Z-1.299
G1 X2.718 Y2.6724 Z-1.302
G1 X2.7224 Y2.668 Z-1.305
G1 X2.7266 Y2.6633 Z-1.308
G1 X2.7303 Y2.6584 Z-1.311
G1 X2.7338 Y2.6532 Z-1.314
G1 X2.737 Y2.6478 Z-1.317
G1 X2.7398 Y2.6423 Z-1.32
G1 X2.7423 Y2.6366 Z-1.323
G1 X2.7444 Y2.6307 Z-1.326
G1 X2.7462 Y2.6247 Z-1.329
G1 X2.7476 Y2.6186 Z-1.332
G1 X2.7485 Y2.6124 Z-1.335
G1 X2.7491 Y2.6062 Z-1.338
G1 X2.7493 Y2.6 Z-1.341
G1 X2.7491 Y2.5938 Z-1.344
G1 X2.7485 Y2.5876 Z-1.347
G1 X2.7476 Y2.5814 Z-1.35
G1 X2.7462 Y2.5753 Z-1.353
G1 X2.7444 Y2.5693 Z-1.356
G1 X2.7423 Y2.5634 Z-1.359
G1 X2.7398 Y2.5577 Z-1.362
G1 X2.737 Y2.5522 Z-1.365
G1 X2.7338 Y2.5468 Z-1.368
G1 X2.7303 Y2.5416 Z-1.371
G1 X2.7266 Y2.5367 Z-1.374
G1 X2.7224 Y2.532 Z-1.377
G1 X2.718 Y2.5276 Z-1.38
G1 X2.7133 Y2.5234 Z-1.383
G1 X2.7084 Y2.5197 Z-1.386
G1 X2.7032 Y2.5162 Z-1.389
G1 X2.6978 Y2.513 Z-1.392
G1 X2.6922 Y2.5101 Z-1.395
G1 X2.6866 Y2.5077 Z-1.398
G1 X2.6808 Y2.5056 Z-1.4009
G1 X2.6747 Y2.5038 Z-1.404
G1 X2.6686 Y2.5024 Z-1.407
G1 X2.6624 Y2.5015 Z-1.41
G1 X2.6562 Y2.5009 Z-1.413
G1 X2.65 Y2.5007 Z-1.416
G1 X2.6438 Y2.5009 Z-1.419
G1 X2.6376 Y2.5015 Z-1.422
G1 X2.6314 Y2.5024 Z-1.425
G1 X2.6253 Y2.5038 Z-1.428
G1 X2.6192 Y2.5056 Z-1.431
G1 X2.6134 Y2.5077 Z-1.434
G1 X2.6078 Y2.5101 Z-1.437
G1 X2.6022 Y2.513 Z-1.44
G1 X2.5968 Y2.5162 Z-1.443
G1 X2.5916 Y2.5197 Z-1.446
G1 X2.5867 Y2.5234 Z-1.449
G1 X2.582 Y2.5276 Z-1.452
G1 X2.5776 Y2.532 Z-1.455
G1 X2.5734 Y2.5367 Z-1.458
G1 X2.5697 Y2.5416 Z-1.461
G1 X2.5662 Y2.5468 Z-1.464
G1 X2.563 Y2.5522 Z-1.467
G1 X2.5601 Y2.5578 Z-1.47
G1 X2.5576 Y2.5635 Z-1.473
G1 X2.5555 Y2.5693 Z-1.476
G1 X2.5538 Y2.5752 Z-1.479
G1 X2.5525 Y2.5813 Z-1.4819
G1 X2.5515 Y2.5876 Z-1.485
G1 X2.5509 Y2.5938 Z-1.488
G1 X2.5507 Y2.6 Z-1.491
G1 X2.5509 Y2.6062 Z-1.494
G1 X2.5515 Y2.6124 Z-1.497
G1 X2.5525 Y2.6187 Z-1.5
G1 F150.0 X2.1621 Y2.7059
G1 F100.0 X2.1662 Y2.7243
G1 X2.1749 Y2.7544
G1 X2.1856 Y2.7839
G1 X2.198 Y2.8127
G1 X2.2123 Y2.8406
G1 X2.2283 Y2.8677
G1 X2.2459 Y2.8936
G1 X2.2651 Y2.9184
G1 X2.2859 Y2.9419
G1 X2.3081 Y2.9641
G1 X2.3316 Y2.9849
G1 X2.3564 Y3.0041
G1 X2.3823 Y3.0217
G1 X2.4094 Y3.0377
G1 X2.4373 Y3.052
G1 X2.4661 Y3.0644
G1 X2.4956 Y3.075
G1 X2.5258 Y3.0838
G1 X2.5564 Y3.0907
G1 X2.5874 Y3.0956
G1 X2.6186 Y3.0985
G1 X2.65 Y3.0995
G1 X2.6814 Y3.0985
G1 X2.7126 Y3.0956
G1 X2.7436 Y3.0907
G1 X2.7742 Y3.0838
G1 X2.8044 Y3.075
G1 X2.8339 Y3.0644
G1 X2.8627 Y3.052
G1 X2.8906 Y3.0377
G1 X2.9177 Y3.0217
G1 X2.9436 Y3.0041
G1 X2.9684 Y2.9849
G1 X2.9919 Y2.9641
G1 X3.0141 Y2.9419
G1 X3.0349 Y2.9184
G1 X3.0541 Y2.8936
G1 X3.0717 Y2.8677
G1 X3.0877 Y2.8406
G1 X3.102 Y2.8127
G1 X3.1144 Y2.7839
G1 X3.125 Y2.7544
G1 X3.1338 Y2.7242
G1 X3.1407 Y2.6936
G1 X3.1456 Y2.6626
G1 X3.1485 Y2.6314
G1 X3.1495 Y2.6
G1 X3.1485 Y2.5686
G1 X3.1456 Y2.5374
G1 X3.1407 Y2.5064
G1 X3.1338 Y2.4758
G1 X3.1251 Y2.4456
G1 X3.1144 Y2.4161
G1 X3.102 Y2.3873
G1 X3.0877 Y2.3594
G1 X3.0717 Y2.3323
G1 X3.0541 Y2.3064
G1 X3.0349 Y2.2816
G1 X3.0141 Y2.2581
G1 X2.9919 Y2.2359
G1 X2.9684 Y2.2151
G1 X2.9436 Y2.1959
G1 X2.9177 Y2.1783
G1 X2.8906 Y2.1623
G1 X2.8627 Y2.148
G1 X2.8339 Y2.1356
G1 X2.8044 Y2.125
G1 X2.7742 Y2.1162
G1 X2.7436 Y2.1093
G1 X2.7126 Y2.1044
G1 X2.6814 Y2.1015
G1 X2.65 Y2.1005
G1 X2.6186 Y2.1015
G1 X2.5874 Y2.1044
G1 X2.5564 Y2.1093
G1 X2.5258 Y2.1162
G1 X2.4956 Y2.125
G1 X2.4661 Y2.1356
G1 X2.4373 Y2.148
G1 X2.4094 Y2.1623
G1 X2.3823 Y2.1783
G1 X2.3564 Y2.1959
G1 X2.3316 Y2.2151
G1 X2.3081 Y2.2359
G1 X2.2859 Y2.2581
G1 X2.2651 Y2.2816
G1 X2.2459 Y2.3064
G1 X2.2283 Y2.3323
G1 X2.2123 Y2.3594
G1 X2.198 Y2.3873
G1 X2.1856 Y2.4161
G1 X2.1749 Y2.4456
G1 X2.1662 Y2.4757
G1 X2.1593 Y2.5064
G1 X2.1544 Y2.5374
G1 X2.1515 Y2.5686
G1 X2.1505 Y2.6
G1 X2.1515 Y2.6314
G1 X2.1544 Y2.6626
G1 X2.1593 Y2.6936
G1 X2.1621 Y2.7059
G1 F150.0 X2.5525 Y2.6187
G1 F100.0 X2.5538 Y2.6247 Z-1.503
G1 X2.5556 Y2.6307 Z-1.506
G1 X2.5576 Y2.6365 Z-1.509
G1 X2.5601 Y2.6422 Z-1.512
G1 X2.563 Y2.6478 Z-1.515
G1 X2.5662 Y2.6532 Z-1.518
G1 X2.5697 Y2.6584 Z-1.521
G1 X2.5734 Y2.6633 Z-1.524
G1 X2.5776 Y2.668 Z-1.527
G1 X2.582 Y2.6724 Z-1.53
G1 X2.5867 Y2.6766 Z-1.533
G1 X2.5916 Y2.6803 Z-1.536
G1 X2.5968 Y2.6838 Z-1.539
G1 X2.6022 Y2.687 Z-1.542
G1 X2.6077 Y2.6898 Z-1.545
G1 X2.6134 Y2.6923 Z-1.548
G1 X2.6193 Y2.6944 Z-1.551
G1 X2.6253 Y2.6962 Z-1.554
G1 X2.6314 Y2.6976 Z-1.557
G1 X2.6376 Y2.6985 Z-1.56
G1 X2.6438 Y2.6991 Z-1.563
G1 X2.65 Y2.6993 Z-1.566
G1 X2.6562 Y2.6991 Z-1.569
G1 X2.6624 Y2.6985 Z-1.572
G1 X2.6686 Y2.6976 Z-1.575
G1 X2.6747 Y2.6962 Z-1.578
G1 X2.6807 Y2.6944 Z-1.581
G1 X2.6866 Y2.6923 Z-1.584
G1 X2.6923 Y2.6898 Z-1.587
G1 X2.6978 Y2.687 Z-1.59
G1 X2.7032 Y2.6838 Z-1.593
G1 X2.7084 Y2.6803 Z-1.596
G1 X2.7133 Y2.6766 Z-1.599
G1 X2.718 Y2.6724 Z-1.602
G1 X2.7224 Y2.668 Z-1.605
G1 X2.7266 Y2.6633 Z-1.608
G1 X2.7303 Y2.6584 Z-1.611
G1 X2.7338 Y2.6532 Z-1.614
G1 X2.737 Y2.6478 Z-1.617
G1 X2.7398 Y2.6423 Z-1.62
G1 X2.7423 Y2.6366 Z-1.623
G1 X2.7444 Y2.6307 Z-1.626
G1 X2.7462 Y2.6247 Z-1.629
G1 X2.7476 Y2.6186 Z-1.632
G1 X2.7485 Y2.6124 Z-1.635
G1 X2.7491 Y2.6062 Z-1.638
G1 X2.7493 Y2.6 Z-1.641
G1 X2.7491 Y2.5938 Z-1.644
G1 X2.7485 Y2.5876 Z-1.647
G1 X2.7476 Y2.5814 Z-1.65
G1 X2.7462 Y2.5753 Z-1.653
G1 X2.7444 Y2.5693 Z-1.656
G1 X2.7423 Y2.5634 Z-1.659
G1 X2.7398 Y2.5577 Z-1.662
G1 X2.737 Y2.5522 Z-1.665
G1 X2.7338 Y2.5468 Z-1.668
G1 X2.7303 Y2.5416 Z-1.671
G1 X2.7266 Y2.5367 Z-1.674
G1 X2.7224 Y2.532 Z-1.677
G1 X2.718 Y2.5276 Z-1.68
G1 X2.7133 Y2.5234 Z-1.683
G1 X2.7084 Y2.5197 Z-1.686
G1 X2.7032 Y2.5162 Z-1.689
G1 X2.6978 Y2.513 Z-1.692
G1 X2.6922 Y2.5101 Z-1.695
G1 X2.6866 Y2.5077 Z-1.698
G1 X2.6808 Y2.5056 Z-1.7009
G1 X2.6747 Y2.5038 Z-1.704
G1 X2.6686 Y2.5024 Z-1.707
G1 X2.6624 Y2.5015 Z-1.71
G1 X2.6562 Y2.5009 Z-1.713
G1 X2.65 Y2.5007 Z-1.716
G1 X2.6438 Y2.5009 Z-1.719
G1 X2.6376 Y2.5015 Z-1.722
G1 X2.6314 Y2.5024 Z-1.725
G1 X2.6253 Y2.5038 Z-1.728
G1 X2.6192 Y2.5056 Z-1.731
G1 X2.6134 Y2.5077 Z-1.734
G1 X2.6078 Y2.5101 Z-1.737
G1 X2.6022 Y2.513 Z-1.74
G1 X2.5968 Y2.5162 Z-1.743
G1 X2.5916 Y2.5197 Z-1.746
G1 X2.5867 Y2.5234 Z-1.749
G1 X2.582 Y2.5276 Z-1.752
G1 X2.5776 Y2.532 Z-1.755
G1 X2.5734 Y2.5367 Z-1.758
G1 X2.5697 Y2.5416 Z-1.761
G1 X2.5662 Y2.5468 Z-1.764
G1 X2.563 Y2.5522 Z-1.767
G1 X2.5601 Y2.5578 Z-1.77
G1 X2.5576 Y2.5635 Z-1.773
G1 X2.5555 Y2.5693 Z-1.776
G1 X2.5538 Y2.5752 Z-1.779
G1 X2.5525 Y2.5813 Z-1.7819
G1 X2.5515 Y2.5876 Z-1.785
G1 X2.5509 Y2.5938 Z-1.788
G1 X2.5507 Y2.6 Z-1.791
G1 X2.5509 Y2.6062 Z-1.794
G1 X2.5515 Y2.6124 Z-1.797
G1 X2.5525 Y2.6187 Z-1.8
G1 F150.0 X2.1621 Y2.7059
G1 F100.0 X2.1662 Y2.7243
G1 X2.1749 Y2.7544
G1 X2.1856 Y2.7839
G1 X2.198 Y2.8127
G1 X2.2123 Y2.8406
G1 X2.2283 Y2.8677
G1 X2.2459 Y2.8936
G1 X2.2651 Y2.9184
G1 X2.2859 Y2.9419
G1 X2.3081 Y2.9641
G1 X2.3316 Y2.9849
G1 X2.3564 Y3.0041
G1 X2.3823 Y3.0217
G1 X2.4094 Y3.0377
G1 X2.4373 Y3.052
G1 X2.4661 Y3.0644
G1 X2.4956 Y3.075
G1 X2.5258 Y3.0838
G1 X2.5564 Y3.0907
G1 X2.5874 Y3.0956
G1 X2.6186 Y3.0985
G1 X2.65 Y3.0995
G1 X2.6814 Y3.0985
G1 X2.7126 Y3.0956
G1 X2.7436 Y3.0907
G1 X2.7742 Y3.0838
G1 X2.8044 Y3.075
G1 X2.8339 Y3.0644
G1 X2.8627 Y3.052
G1 X2.8906 Y3.0377
G1 X2.9177 Y3.0217
G1 X2.9436 Y3.0041
G1 X2.9684 Y2.9849
G1 X2.9919 Y2.9641
G1 X3.0141 Y2.9419
G1 X3.0349 Y2.9184
G1 X3.0541 Y2.8936
G1 X3.0717 Y2.8677
G1 X3.0877 Y2.8406
G1 X3.102 Y2.8127
G1 X3.1144 Y2.7839
G1 X3.125 Y2.7544
G1 X3.1338 Y2.7242
G1 X3.1407 Y2.6936
G1 X3.1456 Y2.6626
G1 X3.1485 Y2.6314
G1 X3.1495 Y2.6
G1 X3.1485 Y2.5686
G1 X3.1456 Y2.5374
G1 X3.1407 Y2.5064
G1 X3.1338 Y2.4758
G1 X3.1251 Y2.4456
G1 X3.1144 Y2.4161
G1 X3.102 Y2.3873
G1 X3.0877 Y2.3594
G1 X3.0717 Y2.3323
G1 X3.0541 Y2.3064
G1 X3.0349 Y2.2816
G1 X3.0141 Y2.2581
G1 X2.9919 Y2.2359
G1 X2.9684 Y2.2151
G1 X2.9436 Y2.1959
G1 X2.9177 Y2.1783
G1 X2.8906 Y2.1623
G1 X2.8627 Y2.148
G1 X2.8339 Y2.1356
G1 X2.8044 Y2.125
G1 X2.7742 Y2.1162
G1 X2.7436 Y2.1093
G1 X2.7126 Y2.1044
G1 X2.6814 Y2.1015
G1 X2.65 Y2.1005
G1 X2.6186 Y2.1015
G1 X2.5874 Y2.1044
G1 X2.5564 Y2.1093
G1 X2.5258 Y2.1162
G1 X2.4956 Y2.125
G1 X2.4661 Y2.1356
G1 X2.4373 Y2.148
G1 X2.4094 Y2.1623
G1 X2.3823 Y2.1783
G1 X2.3564 Y2.1959
G1 X2.3316 Y2.2151
G1 X2.3081 Y2.2359
G1 X2.2859 Y2.2581
G1 X2.2651 Y2.2816
G1 X2.2459 Y2.3064
G1 X2.2283 Y2.3323
G1 X2.2123 Y2.3594
G1 X2.198 Y2.3873
G1 X2.1856 Y2.4161
G1 X2.1749 Y2.4456
G1 X2.1662 Y2.4757
G1 X2.1593 Y2.5064
G1 X2.1544 Y2.5374
G1 X2.1515 Y2.5686
G1 X2.1505 Y2.6
G1 X2.1515 Y2.6314
G1 X2.1544 Y2.6626
G1 X2.1593 Y2.6936
G1 X2.1621 Y2.7059
G1 F150.0 X2.5525 Y2.6187
G1 F100.0 X2.5538 Y2.6247 Z-1.803
G1 X2.5556 Y2.6307 Z-1.806
G1 X2.5576 Y2.6365 Z-1.809
G1 X2.5601 Y2.6422 Z-1.812
G1 X2.563 Y2.6478 Z-1.815
G1 X2.5662 Y2.6532 Z-1.818
G1 X2.5697 Y2.6584 Z-1.821
G1 X2.5734 Y2.6633 Z-1.824
G1 X2.5776 Y2.668 Z-1.827
G1 X2.582 Y2.6724 Z-1.83
G1 X2.5867 Y2.6766 Z-1.833
G1 X2.5916 Y2.6803 Z-1.836
G1 X2.5968 Y2.6838 Z-1.839
G1 X2.6022 Y2.687 Z-1.842
G1 X2.6077 Y2.6898 Z-1.845
G1 X2.6134 Y2.6923 Z-1.848
G1 X2.6193 Y2.6944 Z-1.851
G1 X2.6253 Y2.6962 Z-1.854
G1 X2.6314 Y2.6976 Z-1.857
G1 X2.6376 Y2.6985 Z-1.86
G1 X2.6438 Y2.6991 Z-1.863
G1 X2.65 Y2.6993 Z-1.866
G1 X2.6562 Y2.6991 Z-1.869
G1 X2.6624 Y2.6985 Z-1.872
G1 X2.6686 Y2.6976 Z-1.875
G1 X2.6747 Y2.6962 Z-1.878
G1 X2.6807 Y2.6944 Z-1.881
G1 X2.6866 Y2.6923 Z-1.884
G1 X2.6923 Y2.6898 Z-1.887
G1 X2.6978 Y2.687 Z-1.89
G1 X2.7032 Y2.6838 Z-1.893
G1 X2.7084 Y2.6803 Z-1.896
G1 X2.7133 Y2.6766 Z-1.899
G1 X2.718 Y2.6724 Z-1.902
G1 X2.7224 Y2.668 Z-1.905
G1 X2.7266 Y2.6633 Z-1.908
G1 X2.7303 Y2.6584 Z-1.911
G1 X2.7338 Y2.6532 Z-1.914
G1 X2.737 Y2.6478 Z-1.917
G1 X2.7398 Y2.6423 Z-1.92
G1 X2.7423 Y2.6366 Z-1.923
G1 X2.7444 Y2.6307 Z-1.926
G1 X2.7462 Y2.6247 Z-1.929
G1 X2.7476 Y2.6186 Z-1.932
G1 X2.7485 Y2.6124 Z-1.935
G1 X2.7491 Y2.6062 Z-1.938
G1 X2.7493 Y2.6 Z-1.941
G1 X2.7491 Y2.5938 Z-1.944
G1 X2.7485 Y2.5876 Z-1.947
G1 X2.7476 Y2.5814 Z-1.95
G1 X2.7462 Y2.5753 Z-1.953
G1 X2.7444 Y2.5693 Z-1.956
G1 X2.7423 Y2.5634 Z-1.959
G1 X2.7398 Y2.5577 Z-1.962
G1 X2.737 Y2.5522 Z-1.965
G1 X2.7338 Y2.5468 Z-1.968
G1 X2.7303 Y2.5416 Z-1.971
G1 X2.7266 Y2.5367 Z-1.974
G1 X2.7224 Y2.532 Z-1.977
G1 X2.718 Y2.5276 Z-1.98
G1 X2.7133 Y2.5234 Z-1.983
G1 X2.7084 Y2.5197 Z-1.986
G1 X2.7032 Y2.5162 Z-1.989
G1 X2.6978 Y2.513 Z-1.992
G1 X2.6922 Y2.5101 Z-1.995
G1 X2.6866 Y2.5077 Z-1.998
G1 X2.6808 Y2.5056 Z-2.0009
G1 X2.6747 Y2.5038 Z-2.004
G1 X2.6686 Y2.5024 Z-2.007
G1 X2.6624 Y2.5015 Z-2.01
G1 X2.6562 Y2.5009 Z-2.013
G1 X2.65 Y2.5007 Z-2.016
G1 X2.6438 Y2.5009 Z-2.019
G1 X2.6376 Y2.5015 Z-2.022
G1 X2.6314 Y2.5024 Z-2.025
G1 X2.6253 Y2.5038 Z-2.028
G1 X2.6192 Y2.5056 Z-2.031
G1 X2.6134 Y2.5077 Z-2.034
G1 X2.6078 Y2.5101 Z-2.037
G1 X2.6022 Y2.513 Z-2.04
G1 X2.5968 Y2.5162 Z-2.043
G1 X2.5916 Y2.5197 Z-2.046
G1 X2.5867 Y2.5234 Z-2.049
G1 X2.582 Y2.5276 Z-2.052
G1 X2.5776 Y2.532 Z-2.055
G1 X2.5734 Y2.5367 Z-2.058
G1 X2.5697 Y2.5416 Z-2.061
G1 X2.5662 Y2.5468 Z-2.064
G1 X2.563 Y2.5522 Z-2.067
G1 X2.5601 Y2.5578 Z-2.07
G1 X2.5576 Y2.5635 Z-2.073
G1 X2.5555 Y2.5693 Z-2.076
G1 X2.5538 Y2.5752 Z-2.079
G1 X2.5525 Y2.5813 Z-2.0819
G1 X2.5515 Y2.5876 Z-2.085
G1 X2.5509 Y2.5938 Z-2.088
G1 X2.5507 Y2.6 Z-2.091
G1 X2.5509 Y2.6062 Z-2.094
G1 X2.5515 Y2.6124 Z-2.097
G1 X2.5525 Y2.6187 Z-2.1
G1 F150.0 X2.1621 Y2.7059
G1 F100.0 X2.1662 Y2.7243
G1 X2.1749 Y2.7544
G1 X2.1856 Y2.7839
G1 X2.198 Y2.8127
G1 X2.2123 Y2.8406
G1 X2.2283 Y2.8677
G1 X2.2459 Y2.8936
G1 X2.2651 Y2.9184
G1 X2.2859 Y2.9419
G1 X2.3081 Y2.9641
G1 X2.3316 Y2.9849
G1 X2.3564 Y3.0041
G1 X2.3823 Y3.0217
G1 X2.4094 Y3.0377
G1 X2.4373 Y3.052
G1 X2.4661 Y3.0644
G1 X2.4956 Y3.075
G1 X2.5258 Y3.0838
G1 X2.5564 Y3.0907
G1 X2.5874 Y3.0956
G1 X2.6186 Y3.0985
G1 X2.65 Y3.0995
G1 X2.6814 Y3.0985
G1 X2.7126 Y3.0956
G1 X2.7436 Y3.0907
G1 X2.7742 Y3.0838
G1 X2.8044 Y3.075
G1 X2.8339 Y3.0644
G1 X2.8627 Y3.052
G1 X2.8906 Y3.0377
G1 X2.9177 Y3.0217
G1 X2.9436 Y3.0041
G1 X2.9684 Y2.9849
G1 X2.9919 Y2.9641
G1 X3.0141 Y2.9419
G1 X3.0349 Y2.9184
G1 X3.0541 Y2.8936
G1 X3.0717 Y2.8677
G1 X3.0877 Y2.8406
G1 X3.102 Y2.8127
G1 X3.1144 Y2.7839
G1 X3.125 Y2.7544
G1 X3.1338 Y2.7242
G1 X3.1407 Y2.6936
G1 X3.1456 Y2.6626
G1 X3.1485 Y2.6314
G1 X3.1495 Y2.6
G1 X3.1485 Y2.5686
G1 X3.1456 Y2.5374
G1 X3.1407 Y2.5064
G1 X3.1338 Y2.4758
G1 X3.1251 Y2.4456
G1 X3.1144 Y2.4161
G1 X3.102 Y2.3873
G1 X3.0877 Y2.3594
G1 X3.0717 Y2.3323
G1 X3.0541 Y2.3064
G1 X3.0349 Y2.2816
G1 X3.0141 Y2.2581
G1 X2.9919 Y2.2359
G1 X2.9684 Y2.2151
G1 X2.9436 Y2.1959
G1 X2.9177 Y2.1783
G1 X2.8906 Y2.1623
G1 X2.8627 Y2.148
G1 X2.8339 Y2.1356
G1 X2.8044 Y2.125
G1 X2.7742 Y2.1162
G1 X2.7436 Y2.1093
G1 X2.7126 Y2.1044
G1 X2.6814 Y2.1015
G1 X2.65 Y2.1005
G1 X2.6186 Y2.1015
G1 X2.5874 Y2.1044
G1 X2.5564 Y2.1093
G1 X2.5258 Y2.1162
G1 X2.4956 Y2.125
G1 X2.4661 Y2.1356
G1 X2.4373 Y2.148
G1 X2.4094 Y2.1623
G1 X2.3823 Y2.1783
G1 X2.3564 Y2.1959
G1 X2.3316 Y2.2151
G1 X2.3081 Y2.2359
G1 X2.2859 Y2.2581
G1 X2.2651 Y2.2816
G1 X2.2459 Y2.3064
G1 X2.2283 Y2.3323
G1 X2.2123 Y2.3594
G1 X2.198 Y2.3873
G1 X2.1856 Y2.4161
G1 X2.1749 Y2.4456
G1 X2.1662 Y2.4757
G1 X2.1593 Y2.5064
G1 X2.1544 Y2.5374
G1 X2.1515 Y2.5686
G1 X2.1505 Y2.6
G1 X2.1515 Y2.6314
G1 X2.1544 Y2.6626
G1 X2.1593 Y2.6936
G1 X2.1621 Y2.7059
G1 F150.0 X2.5525 Y2.6187
G1 F100.0 X2.5538 Y2.6247 Z-2.103
G1 X2.5556 Y2.6307 Z-2.106
G1 X2.5576 Y2.6365 Z-2.109
G1 X2.5601 Y2.6422 Z-2.112
G1 X2.563 Y2.6478 Z-2.115
G1 X2.5662 Y2.6532 Z-2.118
G1 X2.5697 Y2.6584 Z-2.121
G1 X2.5734 Y2.6633 Z-2.124
G1 X2.5776 Y2.668 Z-2.127
G1 X2.582 Y2.6724 Z-2.13
G1 X2.5867 Y2.6766 Z-2.133
G1 X2.5916 Y2.6803 Z-2.136
G1 X2.5968 Y2.6838 Z-2.139
G1 X2.6022 Y2.687 Z-2.142
G1 X2.6077 Y2.6898 Z-2.145
G1 X2.6134 Y2.6923 Z-2.148
G1 X2.6193 Y2.6944 Z-2.151
G1 X2.6253 Y2.6962 Z-2.154
G1 X2.6314 Y2.6976 Z-2.157
G1 X2.6376 Y2.6985 Z-2.16
G1 X2.6438 Y2.6991 Z-2.163
G1 X2.65 Y2.6993 Z-2.166
G1 X2.6562 Y2.6991 Z-2.169
G1 X2.6624 Y2.6985 Z-2.172
G1 X2.6686 Y2.6976 Z-2.175
G1 X2.6747 Y2.6962 Z-2.178
G1 X2.6807 Y2.6944 Z-2.181
G1 X2.6866 Y2.6923 Z-2.184
G1 X2.6923 Y2.6898 Z-2.187
G1 X2.6978 Y2.687 Z-2.19
G1 X2.7032 Y2.6838 Z-2.193
G1 X2.7084 Y2.6803 Z-2.196
G1 X2.7133 Y2.6766 Z-2.199
G1 X2.718 Y2.6724 Z-2.202
G1 X2.7224 Y2.668 Z-2.205
G1 X2.7266 Y2.6633 Z-2.208
G1 X2.7303 Y2.6584 Z-2.211
G1 X2.7338 Y2.6532 Z-2.214
G1 X2.737 Y2.6478 Z-2.217
G1 X2.7398 Y2.6423 Z-2.22
G1 X2.7423 Y2.6366 Z-2.223
G1 X2.7444 Y2.6307 Z-2.226
G1 X2.7462 Y2.6247 Z-2.229
G1 X2.7476 Y2.6186 Z-2.232
G1 X2.7485 Y2.6124 Z-2.235
G1 X2.7491 Y2.6062 Z-2.238
G1 X2.7493 Y2.6 Z-2.241
G1 X2.7491 Y2.5938 Z-2.244
G1 X2.7485 Y2.5876 Z-2.247
G1 X2.7476 Y2.5814 Z-2.25
G1 X2.7462 Y2.5753 Z-2.253
G1 X2.7444 Y2.5693 Z-2.256
G1 X2.7423 Y2.5634 Z-2.259
G1 X2.7398 Y2.5577 Z-2.262
G1 X2.737 Y2.5522 Z-2.265
G1 X2.7338 Y2.5468 Z-2.268
G1 X2.7303 Y2.5416 Z-2.271
G1 X2.7266 Y2.5367 Z-2.274
G1 X2.7224 Y2.532 Z-2.277
G1 X2.718 Y2.5276 Z-2.28
G1 X2.7133 Y2.5234 Z-2.283
G1 X2.7084 Y2.5197 Z-2.286
G1 X2.7032 Y2.5162 Z-2.289
G1 X2.6978 Y2.513 Z-2.292
G1 X2.6922 Y2.5101 Z-2.295
G1 X2.6866 Y2.5077 Z-2.298
G1 X2.6808 Y2.5056 Z-2.3009
G1 X2.6747 Y2.5038 Z-2.304
G1 X2.6686 Y2.5024 Z-2.307
G1 X2.6624 Y2.5015 Z-2.31
G1 X2.6562 Y2.5009 Z-2.313
G1 X2.65 Y2.5007 Z-2.316
G1 X2.6438 Y2.5009 Z-2.319
G1 X2.6376 Y2.5015 Z-2.322
G1 X2.6314 Y2.5024 Z-2.325
G1 X2.6253 Y2.5038 Z-2.328
G1 X2.6192 Y2.5056 Z-2.331
G1 X2.6134 Y2.5077 Z-2.334
G1 X2.6078 Y2.5101 Z-2.337
G1 X2.6022 Y2.513 Z-2.34
G1 X2.5968 Y2.5162 Z-2.343
G1 X2.5916 Y2.5197 Z-2.346
G1 X2.5867 Y2.5234 Z-2.349
G1 X2.582 Y2.5276 Z-2.352
G1 X2.5776 Y2.532 Z-2.355
G1 X2.5734 Y2.5367 Z-2.358
G1 X2.5697 Y2.5416 Z-2.361
G1 X2.5662 Y2.5468 Z-2.364
G1 X2.563 Y2.5522 Z-2.367
G1 X2.5601 Y2.5578 Z-2.37
G1 X2.5576 Y2.5635 Z-2.373
G1 X2.5555 Y2.5693 Z-2.376
G1 X2.5538 Y2.5752 Z-2.379
G1 X2.5525 Y2.5813 Z-2.3819
G1 X2.5515 Y2.5876 Z-2.385
G1 X2.5509 Y2.5938 Z-2.388
G1 X2.5507 Y2.6 Z-2.391
G1 X2.5509 Y2.6062 Z-2.394
G1 X2.5515 Y2.6124 Z-2.397
G1 X2.5525 Y2.6187 Z-2.4
G1 F150.0 X2.1621 Y2.7059
G1 F100.0 X2.1662 Y2.7243
G1 X2.1749 Y2.7544
G1 X2.1856 Y2.7839
G1 X2.198 Y2.8127
G1 X2.2123 Y2.8406
G1 X2.2283 Y2.8677
G1 X2.2459 Y2.8936
G1 X2.2651 Y2.9184
G1 X2.2859 Y2.9419
G1 X2.3081 Y2.9641
G1 X2.3316 Y2.9849
G1 X2.3564 Y3.0041
G1 X2.3823 Y3.0217
G1 X2.4094 Y3.0377
G1 X2.4373 Y3.052
G1 X2.4661 Y3.0644
G1 X2.4956 Y3.075
G1 X2.5258 Y3.0838
G1 X2.5564 Y3.0907
G1 X2.5874 Y3.0956
G1 X2.6186 Y3.0985
G1 X2.65 Y3.0995
G1 X2.6814 Y3.0985
G1 X2.7126 Y3.0956
G1 X2.7436 Y3.0907
G1 X2.7742 Y3.0838
G1 X2.8044 Y3.075
G1 X2.8339 Y3.0644
G1 X2.8627 Y3.052
G1 X2.8906 Y3.0377
G1 X2.9177 Y3.0217
G1 X2.9436 Y3.0041
G1 X2.9684 Y2.9849
G1 X2.9919 Y2.9641
G1 X3.0141 Y2.9419
G1 X3.0349 Y2.9184
G1 X3.0541 Y2.8936
G1 X3.0717 Y2.8677
G1 X3.0877 Y2.8406
G1 X3.102 Y2.8127
G1 X3.1144 Y2.7839
G1 X3.125 Y2.7544
G1 X3.1338 Y2.7242
G1 X3.1407 Y2.6936
G1 X3.1456 Y2.6626
G1 X3.1485 Y2.6314
G1 X3.1495 Y2.6
G1 X3.1485 Y2.5686
G1 X3.1456 Y2.5374
G1 X3.1407 Y2.5064
G1 X3.1338 Y2.4758
G1 X3.1251 Y2.4456
G1 X3.1144 Y2.4161
G1 X3.102 Y2.3873
G1 X3.0877 Y2.3594
G1 X3.0717 Y2.3323
G1 X3.0541 Y2.3064
G1 X3.0349 Y2.2816
G1 X3.0141 Y2.2581
G1 X2.9919 Y2.2359
G1 X2.9684 Y2.2151
G1 X2.9436 Y2.1959
G1 X2.9177 Y2.1783
G1 X2.8906 Y2.1623
G1 X2.8627 Y2.148
G1 X2.8339 Y2.1356
G1 X2.8044 Y2.125
G1 X2.7742 Y2.1162
G1 X2.7436 Y2.1093
G1 X2.7126 Y2.1044
G1 X2.6814 Y2.1015
G1 X2.65 Y2.1005
G1 X2.6186 Y2.1015
G1 X2.5874 Y2.1044
G1 X2.5564 Y2.1093
G1 X2.5258 Y2.1162
G1 X2.4956 Y2.125
G1 X2.4661 Y2.1356
G1 X2.4373 Y2.148
G1 X2.4094 Y2.1623
G1 X2.3823 Y2.1783
G1 X2.3564 Y2.1959
G1 X2.3316 Y2.2151
G1 X2.3081 Y2.2359
G1 X2.2859 Y2.2581
G1 X2.2651 Y2.2816
G1 X2.2459 Y2.3064
G1 X2.2283 Y2.3323
G1 X2.2123 Y2.3594
G1 X2.198 Y2.3873
G1 X2.1856 Y2.4161
G1 X2.1749 Y2.4456
G1 X2.1662 Y2.4757
G1 X2.1593 Y2.5064
G1 X2.1544 Y2.5374
G1 X2.1515 Y2.5686
G1 X2.1505 Y2.6
G1 X2.1515 Y2.6314
G1 X2.1544 Y2.6626
G1 X2.1593 Y2.6936
G1 X2.1621 Y2.7059
G1 F150.0 X2.5525 Y2.6187
G1 F100.0 X2.5538 Y2.6247 Z-2.403
G1 X2.5556 Y2.6307 Z-2.406
G1 X2.5576 Y2.6365 Z-2.409
G1 X2.5601 Y2.6422 Z-2.412
G1 X2.563 Y2.6478 Z-2.415
G1 X2.5662 Y2.6532 Z-2.418
G1 X2.5697 Y2.6584 Z-2.421
G1 X2.5734 Y2.6633 Z-2.424
G1 X2.5776 Y2.668 Z-2.427
G1 X2.582 Y2.6724 Z-2.43
G1 X2.5867 Y2.6766 Z-2.433
G1 X2.5916 Y2.6803 Z-2.436
G1 X2.5968 Y2.6838 Z-2.439
G1 X2.6022 Y2.687 Z-2.442
G1 X2.6077 Y2.6898 Z-2.445
G1 X2.6134 Y2.6923 Z-2.448
G1 X2.6193 Y2.6944 Z-2.451
G1 X2.6253 Y2.6962 Z-2.454
G1 X2.6314 Y2.6976 Z-2.457
G1 X2.6376 Y2.6985 Z-2.46
G1 X2.6438 Y2.6991 Z-2.463
G1 X2.65 Y2.6993 Z-2.466
G1 X2.6562 Y2.6991 Z-2.469
G1 X2.6624 Y2.6985 Z-2.472
G1 X2.6686 Y2.6976 Z-2.475
G1 X2.6747 Y2.6962 Z-2.478
G1 X2.6807 Y2.6944 Z-2.481
G1 X2.6866 Y2.6923 Z-2.484
G1 X2.6923 Y2.6898 Z-2.487
G1 X2.6978 Y2.687 Z-2.49
G1 X2.7032 Y2.6838 Z-2.493
G1 X2.7084 Y2.6803 Z-2.496
G1 X2.7133 Y2.6766 Z-2.499
G1 X2.718 Y2.6724 Z-2.502
G1 X2.7224 Y2.668 Z-2.505
G1 X2.7266 Y2.6633 Z-2.508
G1 X2.7303 Y2.6584 Z-2.511
G1 X2.7338 Y2.6532 Z-2.514
G1 X2.737 Y2.6478 Z-2.517
G1 X2.7398 Y2.6423 Z-2.52
G1 X2.7423 Y2.6366 Z-2.523
G1 X2.7444 Y2.6307 Z-2.526
G1 X2.7462 Y2.6247 Z-2.529
G1 X2.7476 Y2.6186 Z-2.532
G1 X2.7485 Y2.6124 Z-2.535
G1 X2.7491 Y2.6062 Z-2.538
G1 X2.7493 Y2.6 Z-2.541
G1 X2.7491 Y2.5938 Z-2.544
G1 X2.7485 Y2.5876 Z-2.547
G1 X2.7476 Y2.5814 Z-2.55
G1 X2.7462 Y2.5753 Z-2.553
G1 X2.7444 Y2.5693 Z-2.556
G1 X2.7423 Y2.5634 Z-2.559
G1 X2.7398 Y2.5577 Z-2.562
G1 X2.737 Y2.5522 Z-2.565
G1 X2.7338 Y2.5468 Z-2.568
G1 X2.7303 Y2.5416 Z-2.571
G1 X2.7266 Y2.5367 Z-2.574
G1 X2.7224 Y2.532 Z-2.577
G1 X2.718 Y2.5276 Z-2.58
G1 X2.7133 Y2.5234 Z-2.583
G1 X2.7084 Y2.5197 Z-2.586
G1 X2.7032 Y2.5162 Z-2.589
G1 X2.6978 Y2.513 Z-2.592
G1 X2.6922 Y2.5101 Z-2.595
G1 X2.6866 Y2.5077 Z-2.598
G1 X2.6808 Y2.5056 Z-2.6009
G1 X2.6747 Y2.5038 Z-2.604
G1 X2.6686 Y2.5024 Z-2.607
G1 X2.6624 Y2.5015 Z-2.61
G1 X2.6562 Y2.5009 Z-2.613
G1 X2.65 Y2.5007 Z-2.616
G1 X2.6438 Y2.5009 Z-2.619
G1 X2.6376 Y2.5015 Z-2.622
G1 X2.6314 Y2.5024 Z-2.625
G1 X2.6253 Y2.5038 Z-2.628
G1 X2.6192 Y2.5056 Z-2.631
G1 X2.6134 Y2.5077 Z-2.634
G1 X2.6078 Y2.5101 Z-2.637
G1 X2.6022 Y2.513 Z-2.64
G1 X2.5968 Y2.5162 Z-2.643
G1 X2.5916 Y2.5197 Z-2.646
G1 X2.5867 Y2.5234 Z-2.649
G1 X2.582 Y2.5276 Z-2.652
G1 X2.5776 Y2.532 Z-2.655
G1 X2.5734 Y2.5367 Z-2.658
G1 X2.5697 Y2.5416 Z-2.661
G1 X2.5662 Y2.5468 Z-2.664
G1 X2.563 Y2.5522 Z-2.667
G1 X2.5601 Y2.5578 Z-2.67
G1 X2.5576 Y2.5635 Z-2.673
G1 X2.5555 Y2.5693 Z-2.676
G1 X2.5538 Y2.5752 Z-2.679
G1 X2.5525 Y2.5813 Z-2.6819
G1 X2.5515 Y2.5876 Z-2.685
G1 X2.5509 Y2.5938 Z-2.688
G1 X2.5507 Y2.6 Z-2.691
G1 X2.5509 Y2.6062 Z-2.694
G1 X2.5515 Y2.6124 Z-2.697
G1 X2.5525 Y2.6187 Z-2.7
G1 F150.0 X2.1621 Y2.7059
G1 F100.0 X2.1662 Y2.7243
G1 X2.1749 Y2.7544
G1 X2.1856 Y2.7839
G1 X2.198 Y2.8127
G1 X2.2123 Y2.8406
G1 X2.2283 Y2.8677
G1 X2.2459 Y2.8936
G1 X2.2651 Y2.9184
G1 X2.2859 Y2.9419
G1 X2.3081 Y2.9641
G1 X2.3316 Y2.9849
G1 X2.3564 Y3.0041
G1 X2.3823 Y3.0217
G1 X2.4094 Y3.0377
G1 X2.4373 Y3.052
G1 X2.4661 Y3.0644
G1 X2.4956 Y3.075
G1 X2.5258 Y3.0838
G1 X2.5564 Y3.0907
G1 X2.5874 Y3.0956
G1 X2.6186 Y3.0985
G1 X2.65 Y3.0995
G1 X2.6814 Y3.0985
G1 X2.7126 Y3.0956
G1 X2.7436 Y3.0907
G1 X2.7742 Y3.0838
G1 X2.8044 Y3.075
G1 X2.8339 Y3.0644
G1 X2.8627 Y3.052
G1 X2.8906 Y3.0377
G1 X2.9177 Y3.0217
G1 X2.9436 Y3.0041
G1 X2.9684 Y2.9849
G1 X2.9919 Y2.9641
G1 X3.0141 Y2.9419
G1 X3.0349 Y2.9184
G1 X3.0541 Y2.8936
G1 X3.0717 Y2.8677
G1 X3.0877 Y2.8406
G1 X3.102 Y2.8127
G1 X3.1144 Y2.7839
G1 X3.125 Y2.7544
G1 X3.1338 Y2.7242
G1 X3.1407 Y2.6936
G1 X3.1456 Y2.6626
G1 X3.1485 Y2.6314
G1 X3.1495 Y2.6
G1 X3.1485 Y2.5686
G1 X3.1456 Y2.5374
G1 X3.1407 Y2.5064
G1 X3.1338 Y2.4758
G1 X3.1251 Y2.4456
G1 X3.1144 Y2.4161
G1 X3.102 Y2.3873
G1 X3.0877 Y2.3594
G1 X3.0717 Y2.3323
G1 X3.0541 Y2.3064
G1 X3.0349 Y2.2816
G1 X3.0141 Y2.2581
G1 X2.9919 Y2.2359
G1 X2.9684 Y2.2151
G1 X2.9436 Y2.1959
G1 X2.9177 Y2.1783
G1 X2.8906 Y2.1623
G1 X2.8627 Y2.148
G1 X2.8339 Y2.1356
G1 X2.8044 Y2.125
G1 X2.7742 Y2.1162
G1 X2.7436 Y2.1093
G1 X2.7126 Y2.1044
G1 X2.6814 Y2.1015
G1 X2.65 Y2.1005
G1 X2.6186 Y2.1015
G1 X2.5874 Y2.1044
G1 X2.5564 Y2.1093
G1 X2.5258 Y2.1162
G1 X2.4956 Y2.125
G1 X2.4661 Y2.1356
G1 X2.4373 Y2.148
G1 X2.4094 Y2.1623
G1 X2.3823 Y2.1783
G1 X2.3564 Y2.1959
G1 X2.3316 Y2.2151
G1 X2.3081 Y2.2359
G1 X2.2859 Y2.2581
G1 X2.2651 Y2.2816
G1 X2.2459 Y2.3064
G1 X2.2283 Y2.3323
G1 X2.2123 Y2.3594
G1 X2.198 Y2.3873
G1 X2.1856 Y2.4161
G1 X2.1749 Y2.4456
G1 X2.1662 Y2.4757
G1 X2.1593 Y2.5064
G1 X2.1544 Y2.5374
G1 X2.1515 Y2.5686
G1 X2.1505 Y2.6
G1 X2.1515 Y2.6314
G1 X2.1544 Y2.6626
G1 X2.1593 Y2.6936
G1 X2.1621 Y2.7059
G1 F150.0 X2.5525 Y2.6187
G1 F100.0 X2.5538 Y2.6247 Z-2.703
G1 X2.5556 Y2.6307 Z-2.706
G1 X2.5576 Y2.6365 Z-2.709
G1 X2.5601 Y2.6422 Z-2.712
G1 X2.563 Y2.6478 Z-2.715
G1 X2.5662 Y2.6532 Z-2.718
G1 X2.5697 Y2.6584 Z-2.721
G1 X2.5734 Y2.6633 Z-2.724
G1 X2.5776 Y2.668 Z-2.727
G1 X2.582 Y2.6724 Z-2.73
G1 X2.5867 Y2.6766 Z-2.733
G1 X2.5916 Y2.6803 Z-2.736
G1 X2.5968 Y2.6838 Z-2.739
G1 X2.6022 Y2.687 Z-2.742
G1 X2.6077 Y2.6898 Z-2.745
G1 X2.6134 Y2.6923 Z-2.748
G1 X2.6193 Y2.6944 Z-2.751
G1 X2.6253 Y2.6962 Z-2.754
G1 X2.6314 Y2.6976 Z-2.757
G1 X2.6376 Y2.6985 Z-2.76
G1 X2.6438 Y2.6991 Z-2.763
G1 X2.65 Y2.6993 Z-2.766
G1 X2.6562 Y2.6991 Z-2.769
G1 X2.6624 Y2.6985 Z-2.772
G1 X2.6686 Y2.6976 Z-2.775
G1 X2.6747 Y2.6962 Z-2.778
G1 X2.6807 Y2.6944 Z-2.781
G1 X2.6866 Y2.6923 Z-2.784
G1 X2.6923 Y2.6898 Z-2.787
G1 X2.6978 Y2.687 Z-2.79
G1 X2.7032 Y2.6838 Z-2.793
G1 X2.7084 Y2.6803 Z-2.796
G1 X2.7133 Y2.6766 Z-2.799
G1 X2.718 Y2.6724 Z-2.802
G1 X2.7224 Y2.668 Z-2.805
G1 X2.7266 Y2.6633 Z-2.808
G1 X2.7303 Y2.6584 Z-2.811
G1 X2.7338 Y2.6532 Z-2.814
G1 X2.737 Y2.6478 Z-2.817
G1 X2.7398 Y2.6423 Z-2.82
G1 X2.7423 Y2.6366 Z-2.823
G1 X2.7444 Y2.6307 Z-2.826
G1 X2.7462 Y2.6247 Z-2.829
G1 X2.7476 Y2.6186 Z-2.832
G1 X2.7485 Y2.6124 Z-2.835
G1 X2.7491 Y2.6062 Z-2.838
G1 X2.7493 Y2.6 Z-2.841
G1 X2.7491 Y2.5938 Z-2.844
G1 X2.7485 Y2.5876 Z-2.847
G1 X2.7476 Y2.5814 Z-2.85
G1 X2.7462 Y2.5753 Z-2.853
G1 X2.7444 Y2.5693 Z-2.856
G1 X2.7423 Y2.5634 Z-2.859
G1 X2.7398 Y2.5577 Z-2.862
G1 X2.737 Y2.5522 Z-2.865
G1 X2.7338 Y2.5468 Z-2.868
G1 X2.7303 Y2.5416 Z-2.871
G1 X2.7266 Y2.5367 Z-2.874
G1 X2.7224 Y2.532 Z-2.877
G1 X2.718 Y2.5276 Z-2.88
G1 X2.7133 Y2.5234 Z-2.883
G1 X2.7084 Y2.5197 Z-2.886
G1 X2.7032 Y2.5162 Z-2.889
G1 X2.6978 Y2.513 Z-2.892
G1 X2.6922 Y2.5101 Z-2.895
G1 X2.6866 Y2.5077 Z-2.898
G1 X2.6808 Y2.5056 Z-2.9009
G1 X2.6747 Y2.5038 Z-2.904
G1 X2.6686 Y2.5024 Z-2.907
G1 X2.6624 Y2.5015 Z-2.91
G1 X2.6562 Y2.5009 Z-2.913
G1 X2.65 Y2.5007 Z-2.916
G1 X2.6438 Y2.5009 Z-2.919
G1 X2.6376 Y2.5015 Z-2.922
G1 X2.6314 Y2.5024 Z-2.925
G1 X2.6253 Y2.5038 Z-2.928
G1 X2.6192 Y2.5056 Z-2.931
G1 X2.6134 Y2.5077 Z-2.934
G1 X2.6078 Y2.5101 Z-2.937
G1 X2.6022 Y2.513 Z-2.94
G1 X2.5968 Y2.5162 Z-2.943
G1 X2.5916 Y2.5197 Z-2.946
G1 X2.5867 Y2.5234 Z-2.949
G1 X2.582 Y2.5276 Z-2.952
G1 X2.5776 Y2.532 Z-2.955
G1 X2.5734 Y2.5367 Z-2.958
G1 X2.5697 Y2.5416 Z-2.961
G1 X2.5662 Y2.5468 Z-2.964
G1 X2.563 Y2.5522 Z-2.967
G1 X2.5601 Y2.5578 Z-2.97
G1 X2.5576 Y2.5635 Z-2.973
G1 X2.5555 Y2.5693 Z-2.976
G1 X2.5538 Y2.5752 Z-2.979
G1 X2.5525 Y2.5813 Z-2.9819
G1 X2.5515 Y2.5876 Z-2.985
G1 X2.5509 Y2.5938 Z-2.988
G1 X2.5507 Y2.6 Z-2.991
G1 X2.5509 Y2.6062 Z-2.994
G1 X2.5515 Y2.6124 Z-2.997
G1 X2.5525 Y2.6187 Z-3.0
G1 F150.0 X2.1621 Y2.7059
G1 F100.0 X2.1662 Y2.7243
G1 X2.1749 Y2.7544
G1 X2.1856 Y2.7839
G1 X2.198 Y2.8127
G1 X2.2123 Y2.8406
G1 X2.2283 Y2.8677
G1 X2.2459 Y2.8936
G1 X2.2651 Y2.9184
G1 X2.2859 Y2.9419
G1 X2.3081 Y2.9641
G1 X2.3316 Y2.9849
G1 X2.3564 Y3.0041
G1 X2.3823 Y3.0217
G1 X2.4094 Y3.0377
G1 X2.4373 Y3.052
G1 X2.4661 Y3.0644
G1 X2.4956 Y3.075
G1 X2.5258 Y3.0838
G1 X2.5564 Y3.0907
G1 X2.5874 Y3.0956
G1 X2.6186 Y3.0985
G1 X2.65 Y3.0995
G1 X2.6814 Y3.0985
G1 X2.7126 Y3.0956
G1 X2.7436 Y3.0907
G1 X2.7742 Y3.0838
G1 X2.8044 Y3.075
G1 X2.8339 Y3.0644
G1 X2.8627 Y3.052
G1 X2.8906 Y3.0377
G1 X2.9177 Y3.0217
G1 X2.9436 Y3.0041
G1 X2.9684 Y2.9849
G1 X2.9919 Y2.9641
G1 X3.0141 Y2.9419
G1 X3.0349 Y2.9184
G1 X3.0541 Y2.8936
G1 X3.0717 Y2.8677
G1 X3.0877 Y2.8406
G1 X3.102 Y2.8127
G1 X3.1144 Y2.7839
G1 X3.125 Y2.7544
G1 X3.1338 Y2.7242
G1 X3.1407 Y2.6936
G1 X3.1456 Y2.6626
G1 X3.1485 Y2.6314
G1 X3.1495 Y2.6
G1 X3.1485 Y2.5686
G1 X3.1456 Y2.5374
G1 X3.1407 Y2.5064
G1 X3.1338 Y2.4758
G1 X3.1251 Y2.4456
G1 X3.1144 Y2.4161
G1 X3.102 Y2.3873
G1 X3.0877 Y2.3594
G1 X3.0717 Y2.3323
G1 X3.0541 Y2.3064
G1 X3.0349 Y2.2816
G1 X3.0141 Y2.2581
G1 X2.9919 Y2.2359
G1 X2.9684 Y2.2151
G1 X2.9436 Y2.1959
G1 X2.9177 Y2.1783
G1 X2.8906 Y2.1623
G1 X2.8627 Y2.148
G1 X2.8339 Y2.1356
G1 X2.8044 Y2.125
G1 X2.7742 Y2.1162
G1 X2.7436 Y2.1093
G1 X2.7126 Y2.1044
G1 X2.6814 Y2.1015
G1 X2.65 Y2.1005
G1 X2.6186 Y2.1015
G1 X2.5874 Y2.1044
G1 X2.5564 Y2.1093
G1 X2.5258 Y2.1162
G1 X2.4956 Y2.125
G1 X2.4661 Y2.1356
G1 X2.4373 Y2.148
G1 X2.4094 Y2.1623
G1 X2.3823 Y2.1783
G1 X2.3564 Y2.1959
G1 X2.3316 Y2.2151
G1 X2.3081 Y2.2359
G1 X2.2859 Y2.2581
G1 X2.2651 Y2.2816
G1 X2.2459 Y2.3064
G1 X2.2283 Y2.3323
G1 X2.2123 Y2.3594
G1 X2.198 Y2.3873
G1 X2.1856 Y2.4161
G1 X2.1749 Y2.4456
G1 X2.1662 Y2.4757
G1 X2.1593 Y2.5064
G1 X2.1544 Y2.5374
G1 X2.1515 Y2.5686
G1 X2.1505 Y2.6
G1 X2.1515 Y2.6314
G1 X2.1544 Y2.6626
G1 X2.1593 Y2.6936
G1 X2.1621 Y2.7059
G1 F150.0 X2.5525 Y2.6187
G1 F100.0 X2.5538 Y2.6247 Z-3.003
G1 X2.5556 Y2.6307 Z-3.006
G1 X2.5576 Y2.6365 Z-3.009
G1 X2.5601 Y2.6422 Z-3.012
G1 X2.563 Y2.6478 Z-3.015
G1 X2.5662 Y2.6532 Z-3.018
G1 X2.5697 Y2.6584 Z-3.021
G1 X2.5734 Y2.6633 Z-3.024
G1 X2.5776 Y2.668 Z-3.027
G1 X2.582 Y2.6724 Z-3.03
G1 X2.5867 Y2.6766 Z-3.033
G1 X2.5916 Y2.6803 Z-3.036
G1 X2.5968 Y2.6838 Z-3.039
G1 X2.6022 Y2.687 Z-3.042
G1 X2.6077 Y2.6898 Z-3.045
G1 X2.6134 Y2.6923 Z-3.048
G1 X2.6193 Y2.6944 Z-3.051
G1 X2.6253 Y2.6962 Z-3.054
G1 X2.6314 Y2.6976 Z-3.057
G1 X2.6376 Y2.6985 Z-3.06
G1 X2.6438 Y2.6991 Z-3.063
G1 X2.65 Y2.6993 Z-3.066
G1 X2.6562 Y2.6991 Z-3.069
G1 X2.6624 Y2.6985 Z-3.072
G1 X2.6686 Y2.6976 Z-3.075
G1 X2.6747 Y2.6962 Z-3.078
G1 X2.6807 Y2.6944 Z-3.081
G1 X2.6866 Y2.6923 Z-3.084
G1 X2.6923 Y2.6898 Z-3.087
G1 X2.6978 Y2.687 Z-3.09
G1 X2.7032 Y2.6838 Z-3.093
G1 X2.7084 Y2.6803 Z-3.096
G1 X2.7133 Y2.6766 Z-3.099
G1 X2.718 Y2.6724 Z-3.102
G1 X2.7224 Y2.668 Z-3.105
G1 X2.7266 Y2.6633 Z-3.108
G1 X2.7303 Y2.6584 Z-3.111
G1 X2.7338 Y2.6532 Z-3.114
G1 X2.737 Y2.6478 Z-3.117
G1 X2.7398 Y2.6423 Z-3.12
G1 X2.7423 Y2.6366 Z-3.123
G1 X2.7444 Y2.6307 Z-3.126
G1 X2.7462 Y2.6247 Z-3.129
G1 X2.7476 Y2.6186 Z-3.132
G1 X2.7485 Y2.6124 Z-3.135
G1 X2.7491 Y2.6062 Z-3.138
G1 X2.7493 Y2.6 Z-3.141
G1 X2.7491 Y2.5938 Z-3.144
G1 X2.7485 Y2.5876 Z-3.147
G1 X2.7476 Y2.5814 Z-3.15
G1 X2.7462 Y2.5753 Z-3.153
G1 X2.7444 Y2.5693 Z-3.156
G1 X2.7423 Y2.5634 Z-3.159
G1 X2.7398 Y2.5577 Z-3.162
G1 X2.737 Y2.5522 Z-3.165
G1 X2.7338 Y2.5468 Z-3.168
G1 X2.7303 Y2.5416 Z-3.171
G1 X2.7266 Y2.5367 Z-3.174
G1 X2.7224 Y2.532 Z-3.177
G1 X2.718 Y2.5276 Z-3.18
G1 X2.7133 Y2.5234 Z-3.183
G1 X2.7084 Y2.5197 Z-3.186
G1 X2.7032 Y2.5162 Z-3.189
G1 X2.6978 Y2.513 Z-3.192
G1 X2.6922 Y2.5101 Z-3.195
G1 X2.6866 Y2.5077 Z-3.198
G1 X2.6808 Y2.5056 Z-3.2009
G1 X2.6747 Y2.5038 Z-3.204
G1 X2.6686 Y2.5024 Z-3.207
G1 X2.6624 Y2.5015 Z-3.21
G1 X2.6562 Y2.5009 Z-3.213
G1 X2.65 Y2.5007 Z-3.216
G1 X2.6438 Y2.5009 Z-3.219
G1 X2.6376 Y2.5015 Z-3.222
G1 X2.6314 Y2.5024 Z-3.225
G1 X2.6253 Y2.5038 Z-3.228
G1 X2.6192 Y2.5056 Z-3.231
G1 X2.6134 Y2.5077 Z-3.234
G1 X2.6078 Y2.5101 Z-3.237
G1 X2.6022 Y2.513 Z-3.24
G1 X2.5968 Y2.5162 Z-3.243
G1 X2.5916 Y2.5197 Z-3.246
G1 X2.5867 Y2.5234 Z-3.249
G1 X2.582 Y2.5276 Z-3.252
G1 X2.5776 Y2.532 Z-3.255
G1 X2.5734 Y2.5367 Z-3.258
G1 X2.5697 Y2.5416 Z-3.261
G1 X2.5662 Y2.5468 Z-3.264
G1 X2.563 Y2.5522 Z-3.267
G1 X2.5601 Y2.5578 Z-3.27
G1 X2.5576 Y2.5635 Z-3.273
G1 X2.5555 Y2.5693 Z-3.276
G1 X2.5538 Y2.5752 Z-3.279
G1 X2.5525 Y2.5813 Z-3.2819
G1 X2.5515 Y2.5876 Z-3.285
G1 X2.5509 Y2.5938 Z-3.288
G1 X2.5507 Y2.6 Z-3.291
G1 X2.5509 Y2.6062 Z-3.294
G1 X2.5515 Y2.6124 Z-3.297
G1 X2.5525 Y2.6187 Z-3.3
G1 F150.0 X2.1621 Y2.7059
G1 F100.0 X2.1662 Y2.7243
G1 X2.1749 Y2.7544
G1 X2.1856 Y2.7839
G1 X2.198 Y2.8127
G1 X2.2123 Y2.8406
G1 X2.2283 Y2.8677
G1 X2.2459 Y2.8936
G1 X2.2651 Y2.9184
G1 X2.2859 Y2.9419
G1 X2.3081 Y2.9641
G1 X2.3316 Y2.9849
G1 X2.3564 Y3.0041
G1 X2.3823 Y3.0217
G1 X2.4094 Y3.0377
G1 X2.4373 Y3.052
G1 X2.4661 Y3.0644
G1 X2.4956 Y3.075
G1 X2.5258 Y3.0838
G1 X2.5564 Y3.0907
G1 X2.5874 Y3.0956
G1 X2.6186 Y3.0985
G1 X2.65 Y3.0995
G1 X2.6814 Y3.0985
G1 X2.7126 Y3.0956
G1 X2.7436 Y3.0907
G1 X2.7742 Y3.0838
G1 X2.8044 Y3.075
G1 X2.8339 Y3.0644
G1 X2.8627 Y3.052
G1 X2.8906 Y3.0377
G1 X2.9177 Y3.0217
G1 X2.9436 Y3.0041
G1 X2.9684 Y2.9849
G1 X2.9919 Y2.9641
G1 X3.0141 Y2.9419
G1 X3.0349 Y2.9184
G1 X3.0541 Y2.8936
G1 X3.0717 Y2.8677
G1 X3.0877 Y2.8406
G1 X3.102 Y2.8127
G1 X3.1144 Y2.7839
G1 X3.125 Y2.7544
G1 X3.1338 Y2.7242
G1 X3.1407 Y2.6936
G1 X3.1456 Y2.6626
G1 X3.1485 Y2.6314
G1 X3.1495 Y2.6
G1 X3.1485 Y2.5686
G1 X3.1456 Y2.5374
G1 X3.1407 Y2.5064
G1 X3.1338 Y2.4758
G1 X3.1251 Y2.4456
G1 X3.1144 Y2.4161
G1 X3.102 Y2.3873
G1 X3.0877 Y2.3594
G1 X3.0717 Y2.3323
G1 X3.0541 Y2.3064
G1 X3.0349 Y2.2816
G1 X3.0141 Y2.2581
G1 X2.9919 Y2.2359
G1 X2.9684 Y2.2151
G1 X2.9436 Y2.1959
G1 X2.9177 Y2.1783
G1 X2.8906 Y2.1623
G1 X2.8627 Y2.148
G1 X2.8339 Y2.1356
G1 X2.8044 Y2.125
G1 X2.7742 Y2.1162
G1 X2.7436 Y2.1093
G1 X2.7126 Y2.1044
G1 X2.6814 Y2.1015
G1 X2.65 Y2.1005
G1 X2.6186 Y2.1015
G1 X2.5874 Y2.1044
G1 X2.5564 Y2.1093
G1 X2.5258 Y2.1162
G1 X2.4956 Y2.125
G1 X2.4661 Y2.1356
G1 X2.4373 Y2.148
G1 X2.4094 Y2.1623
G1 X2.3823 Y2.1783
G1 X2.3564 Y2.1959
G1 X2.3316 Y2.2151
G1 X2.3081 Y2.2359
G1 X2.2859 Y2.2581
G1 X2.2651 Y2.2816
G1 X2.2459 Y2.3064
G1 X2.2283 Y2.3323
G1 X2.2123 Y2.3594
G1 X2.198 Y2.3873
G1 X2.1856 Y2.4161
G1 X2.1749 Y2.4456
G1 X2.1662 Y2.4757
G1 X2.1593 Y2.5064
G1 X2.1544 Y2.5374
G1 X2.1515 Y2.5686
G1 X2.1505 Y2.6
G1 X2.1515 Y2.6314
G1 X2.1544 Y2.6626
G1 X2.1593 Y2.6936
G1 X2.1621 Y2.7059
G1 F150.0 X2.5525 Y2.6187
G1 F100.0 X2.5538 Y2.6247 Z-3.303
G1 X2.5556 Y2.6307 Z-3.306
G1 X2.5576 Y2.6365 Z-3.309
G1 X2.5601 Y2.6422 Z-3.312
G1 X2.563 Y2.6478 Z-3.315
G1 X2.5662 Y2.6532 Z-3.318
G1 X2.5697 Y2.6584 Z-3.321
G1 X2.5734 Y2.6633 Z-3.324
G1 X2.5776 Y2.668 Z-3.327
G1 X2.582 Y2.6724 Z-3.33
G1 X2.5867 Y2.6766 Z-3.333
G1 X2.5916 Y2.6803 Z-3.336
G1 X2.5968 Y2.6838 Z-3.339
G1 X2.6022 Y2.687 Z-3.342
G1 X2.6077 Y2.6898 Z-3.345
G1 X2.6134 Y2.6923 Z-3.348
G1 X2.6193 Y2.6944 Z-3.351
G1 X2.6253 Y2.6962 Z-3.354
G1 X2.6314 Y2.6976 Z-3.357
G1 X2.6376 Y2.6985 Z-3.36
G1 X2.6438 Y2.6991 Z-3.363
G1 X2.65 Y2.6993 Z-3.366
G1 X2.6562 Y2.6991 Z-3.369
G1 X2.6624 Y2.6985 Z-3.372
G1 X2.6686 Y2.6976 Z-3.375
G1 X2.6747 Y2.6962 Z-3.378
G1 X2.6807 Y2.6944 Z-3.381
G1 X2.6866 Y2.6923 Z-3.384
G1 X2.6923 Y2.6898 Z-3.387
G1 X2.6978 Y2.687 Z-3.39
G1 X2.7032 Y2.6838 Z-3.393
G1 X2.7084 Y2.6803 Z-3.396
G1 X2.7133 Y2.6766 Z-3.399
G1 X2.718 Y2.6724 Z-3.402
G1 X2.7224 Y2.668 Z-3.405
G1 X2.7266 Y2.6633 Z-3.408
G1 X2.7303 Y2.6584 Z-3.411
G1 X2.7338 Y2.6532 Z-3.414
G1 X2.737 Y2.6478 Z-3.417
G1 X2.7398 Y2.6423 Z-3.42
G1 X2.7423 Y2.6366 Z-3.423
G1 X2.7444 Y2.6307 Z-3.426
G1 X2.7462 Y2.6247 Z-3.429
G1 X2.7476 Y2.6186 Z-3.432
G1 X2.7485 Y2.6124 Z-3.435
G1 X2.7491 Y2.6062 Z-3.438
G1 X2.7493 Y2.6 Z-3.441
G1 X2.7491 Y2.5938 Z-3.444
G1 X2.7485 Y2.5876 Z-3.447
G1 X2.7476 Y2.5814 Z-3.45
G1 X2.7462 Y2.5753 Z-3.453
G1 X2.7444 Y2.5693 Z-3.456
G1 X2.7423 Y2.5634 Z-3.459
G1 X2.7398 Y2.5577 Z-3.462
G1 X2.737 Y2.5522 Z-3.465
G1 X2.7338 Y2.5468 Z-3.468
G1 X2.7303 Y2.5416 Z-3.471
G1 X2.7266 Y2.5367 Z-3.474
G1 X2.7224 Y2.532 Z-3.477
G1 X2.718 Y2.5276 Z-3.48
G1 X2.7133 Y2.5234 Z-3.483
G1 X2.7084 Y2.5197 Z-3.486
G1 X2.7032 Y2.5162 Z-3.489
G1 X2.6978 Y2.513 Z-3.492
G1 X2.6922 Y2.5101 Z-3.495
G1 X2.6866 Y2.5077 Z-3.498
G1 X2.6808 Y2.5056 Z-3.5009
G1 X2.6747 Y2.5038 Z-3.504
G1 X2.6686 Y2.5024 Z-3.507
G1 X2.6624 Y2.5015 Z-3.51
G1 X2.6562 Y2.5009 Z-3.513
G1 X2.65 Y2.5007 Z-3.516
G1 X2.6438 Y2.5009 Z-3.519
G1 X2.6376 Y2.5015 Z-3.522
G1 X2.6314 Y2.5024 Z-3.525
G1 X2.6253 Y2.5038 Z-3.528
G1 X2.6192 Y2.5056 Z-3.531
G1 X2.6134 Y2.5077 Z-3.534
G1 X2.6078 Y2.5101 Z-3.537
G1 X2.6022 Y2.513 Z-3.54
G1 X2.5968 Y2.5162 Z-3.543
G1 X2.5916 Y2.5197 Z-3.546
G1 X2.5867 Y2.5234 Z-3.549
G1 X2.582 Y2.5276 Z-3.552
G1 X2.5776 Y2.532 Z-3.555
G1 X2.5734 Y2.5367 Z-3.558
G1 X2.5697 Y2.5416 Z-3.561
G1 X2.5662 Y2.5468 Z-3.564
G1 X2.563 Y2.5522 Z-3.567
G1 X2.5601 Y2.5578 Z-3.57
G1 X2.5576 Y2.5635 Z-3.573
G1 X2.5555 Y2.5693 Z-3.576
G1 X2.5538 Y2.5752 Z-3.579
G1 X2.5525 Y2.5813 Z-3.5819
G1 X2.5515 Y2.5876 Z-3.585
G1 X2.5509 Y2.5938 Z-3.588
G1 X2.5507 Y2.6 Z-3.591
G1 X2.5509 Y2.6062 Z-3.594
G1 X2.5515 Y2.6124 Z-3.597
G1 X2.5525 Y2.6187 Z-3.6
G1 F150.0 X2.1621 Y2.7059
G1 F100.0 X2.1662 Y2.7243
G1 X2.1749 Y2.7544
G1 X2.1856 Y2.7839
G1 X2.198 Y2.8127
G1 X2.2123 Y2.8406
G1 X2.2283 Y2.8677
G1 X2.2459 Y2.8936
G1 X2.2651 Y2.9184
G1 X2.2859 Y2.9419
G1 X2.3081 Y2.9641
G1 X2.3316 Y2.9849
G1 X2.3564 Y3.0041
G1 X2.3823 Y3.0217
G1 X2.4094 Y3.0377
G1 X2.4373 Y3.052
G1 X2.4661 Y3.0644
G1 X2.4956 Y3.075
G1 X2.5258 Y3.0838
G1 X2.5564 Y3.0907
G1 X2.5874 Y3.0956
G1 X2.6186 Y3.0985
G1 X2.65 Y3.0995
G1 X2.6814 Y3.0985
G1 X2.7126 Y3.0956
G1 X2.7436 Y3.0907
G1 X2.7742 Y3.0838
G1 X2.8044 Y3.075
G1 X2.8339 Y3.0644
G1 X2.8627 Y3.052
G1 X2.8906 Y3.0377
G1 X2.9177 Y3.0217
G1 X2.9436 Y3.0041
G1 X2.9684 Y2.9849
G1 X2.9919 Y2.9641
G1 X3.0141 Y2.9419
G1 X3.0349 Y2.9184
G1 X3.0541 Y2.8936
G1 X3.0717 Y2.8677
G1 X3.0877 Y2.8406
G1 X3.102 Y2.8127
G1 X3.1144 Y2.7839
G1 X3.125 Y2.7544
G1 X3.1338 Y2.7242
G1 X3.1407 Y2.6936
G1 X3.1456 Y2.6626
G1 X3.1485 Y2.6314
G1 X3.1495 Y2.6
G1 X3.1485 Y2.5686
G1 X3.1456 Y2.5374
G1 X3.1407 Y2.5064
G1 X3.1338 Y2.4758
G1 X3.1251 Y2.4456
G1 X3.1144 Y2.4161
G1 X3.102 Y2.3873
G1 X3.0877 Y2.3594
G1 X3.0717 Y2.3323
G1 X3.0541 Y2.3064
G1 X3.0349 Y2.2816
G1 X3.0141 Y2.2581
G1 X2.9919 Y2.2359
G1 X2.9684 Y2.2151
G1 X2.9436 Y2.1959
G1 X2.9177 Y2.1783
G1 X2.8906 Y2.1623
G1 X2.8627 Y2.148
G1 X2.8339 Y2.1356
G1 X2.8044 Y2.125
G1 X2.7742 Y2.1162
G1 X2.7436 Y2.1093
G1 X2.7126 Y2.1044
G1 X2.6814 Y2.1015
G1 X2.65 Y2.1005
G1 X2.6186 Y2.1015
G1 X2.5874 Y2.1044
G1 X2.5564 Y2.1093
G1 X2.5258 Y2.1162
G1 X2.4956 Y2.125
G1 X2.4661 Y2.1356
G1 X2.4373 Y2.148
G1 X2.4094 Y2.1623
G1 X2.3823 Y2.1783
G1 X2.3564 Y2.1959
G1 X2.3316 Y2.2151
G1 X2.3081 Y2.2359
G1 X2.2859 Y2.2581
G1 X2.2651 Y2.2816
G1 X2.2459 Y2.3064
G1 X2.2283 Y2.3323
G1 X2.2123 Y2.3594
G1 X2.198 Y2.3873
G1 X2.1856 Y2.4161
G1 X2.1749 Y2.4456
G1 X2.1662 Y2.4757
G1 X2.1593 Y2.5064
G1 X2.1544 Y2.5374
G1 X2.1515 Y2.5686
G1 X2.1505 Y2.6
G1 X2.1515 Y2.6314
G1 X2.1544 Y2.6626
G1 X2.1593 Y2.6936
G1 X2.1621 Y2.7059
G1 F150.0 X2.5525 Y2.6187
G1 F100.0 X2.5538 Y2.6247 Z-3.603
G1 X2.5556 Y2.6307 Z-3.606
G1 X2.5576 Y2.6365 Z-3.609
G1 X2.5601 Y2.6422 Z-3.612
G1 X2.563 Y2.6478 Z-3.615
G1 X2.5662 Y2.6532 Z-3.618
G1 X2.5697 Y2.6584 Z-3.621
G1 X2.5734 Y2.6633 Z-3.624
G1 X2.5776 Y2.668 Z-3.627
G1 X2.582 Y2.6724 Z-3.63
G1 X2.5867 Y2.6766 Z-3.633
G1 X2.5916 Y2.6803 Z-3.636
G1 X2.5968 Y2.6838 Z-3.639
G1 X2.6022 Y2.687 Z-3.642
G1 X2.6077 Y2.6898 Z-3.645
G1 X2.6134 Y2.6923 Z-3.648
G1 X2.6193 Y2.6944 Z-3.651
G1 X2.6253 Y2.6962 Z-3.654
G1 X2.6314 Y2.6976 Z-3.657
G1 X2.6376 Y2.6985 Z-3.66
G1 X2.6438 Y2.6991 Z-3.663
G1 X2.65 Y2.6993 Z-3.666
G1 X2.6562 Y2.6991 Z-3.669
G1 X2.6624 Y2.6985 Z-3.672
G1 X2.6686 Y2.6976 Z-3.675
G1 X2.6747 Y2.6962 Z-3.678
G1 X2.6807 Y2.6944 Z-3.681
G1 X2.6866 Y2.6923 Z-3.684
G1 X2.6923 Y2.6898 Z-3.687
G1 X2.6978 Y2.687 Z-3.69
G1 X2.7032 Y2.6838 Z-3.693
G1 X2.7084 Y2.6803 Z-3.696
G1 X2.7133 Y2.6766 Z-3.699
G1 X2.718 Y2.6724 Z-3.702
G1 X2.7224 Y2.668 Z-3.705
G1 X2.7266 Y2.6633 Z-3.708
G1 X2.7303 Y2.6584 Z-3.711
G1 X2.7338 Y2.6532 Z-3.714
G1 X2.737 Y2.6478 Z-3.717
G1 X2.7398 Y2.6423 Z-3.72
G1 X2.7423 Y2.6366 Z-3.723
G1 X2.7444 Y2.6307 Z-3.726
G1 X2.7462 Y2.6247 Z-3.729
G1 X2.7476 Y2.6186 Z-3.732
G1 X2.7485 Y2.6124 Z-3.735
G1 X2.7491 Y2.6062 Z-3.738
G1 X2.7493 Y2.6 Z-3.741
G1 X2.7491 Y2.5938 Z-3.744
G1 X2.7485 Y2.5876 Z-3.747
G1 X2.7476 Y2.5814 Z-3.75
G1 X2.7462 Y2.5753 Z-3.753
G1 X2.7444 Y2.5693 Z-3.756
G1 X2.7423 Y2.5634 Z-3.759
G1 X2.7398 Y2.5577 Z-3.762
G1 X2.737 Y2.5522 Z-3.765
G1 X2.7338 Y2.5468 Z-3.768
G1 X2.7303 Y2.5416 Z-3.771
G1 X2.7266 Y2.5367 Z-3.774
G1 X2.7224 Y2.532 Z-3.777
G1 X2.718 Y2.5276 Z-3.78
G1 X2.7133 Y2.5234 Z-3.783
G1 X2.7084 Y2.5197 Z-3.786
G1 X2.7032 Y2.5162 Z-3.789
G1 X2.6978 Y2.513 Z-3.792
G1 X2.6922 Y2.5101 Z-3.795
G1 X2.6866 Y2.5077 Z-3.798
G1 X2.6808 Y2.5056 Z-3.8009
G1 X2.6747 Y2.5038 Z-3.804
G1 X2.6686 Y2.5024 Z-3.807
G1 X2.6624 Y2.5015 Z-3.81
G1 X2.6562 Y2.5009 Z-3.813
G1 X2.65 Y2.5007 Z-3.816
G1 X2.6438 Y2.5009 Z-3.819
G1 X2.6376 Y2.5015 Z-3.822
G1 X2.6314 Y2.5024 Z-3.825
G1 X2.6253 Y2.5038 Z-3.828
G1 X2.6192 Y2.5056 Z-3.831
G1 X2.6134 Y2.5077 Z-3.834
G1 X2.6078 Y2.5101 Z-3.837
G1 X2.6022 Y2.513 Z-3.84
G1 X2.5968 Y2.5162 Z-3.843
G1 X2.5916 Y2.5197 Z-3.846
G1 X2.5867 Y2.5234 Z-3.849
G1 X2.582 Y2.5276 Z-3.852
G1 X2.5776 Y2.532 Z-3.855
G1 X2.5734 Y2.5367 Z-3.858
G1 X2.5697 Y2.5416 Z-3.861
G1 X2.5662 Y2.5468 Z-3.864
G1 X2.563 Y2.5522 Z-3.867
G1 X2.5601 Y2.5578 Z-3.87
G1 X2.5576 Y2.5635 Z-3.873
G1 X2.5555 Y2.5693 Z-3.876
G1 X2.5538 Y2.5752 Z-3.879
G1 X2.5525 Y2.5813 Z-3.8819
G1 X2.5515 Y2.5876 Z-3.885
G1 X2.5509 Y2.5938 Z-3.888
G1 X2.5507 Y2.6 Z-3.891
G1 X2.5509 Y2.6062 Z-3.894
G1 X2.5515 Y2.6124 Z-3.897
G1 X2.5525 Y2.6187 Z-3.9
G1 F150.0 X2.1621 Y2.7059
G1 F100.0 X2.1662 Y2.7243
G1 X2.1749 Y2.7544
G1 X2.1856 Y2.7839
G1 X2.198 Y2.8127
G1 X2.2123 Y2.8406
G1 X2.2283 Y2.8677
G1 X2.2459 Y2.8936
G1 X2.2651 Y2.9184
G1 X2.2859 Y2.9419
G1 X2.3081 Y2.9641
G1 X2.3316 Y2.9849
G1 X2.3564 Y3.0041
G1 X2.3823 Y3.0217
G1 X2.4094 Y3.0377
G1 X2.4373 Y3.052
G1 X2.4661 Y3.0644
G1 X2.4956 Y3.075
G1 X2.5258 Y3.0838
G1 X2.5564 Y3.0907
G1 X2.5874 Y3.0956
G1 X2.6186 Y3.0985
G1 X2.65 Y3.0995
G1 X2.6814 Y3.0985
G1 X2.7126 Y3.0956
G1 X2.7436 Y3.0907
G1 X2.7742 Y3.0838
G1 X2.8044 Y3.075
G1 X2.8339 Y3.0644
G1 X2.8627 Y3.052
G1 X2.8906 Y3.0377
G1 X2.9177 Y3.0217
G1 X2.9436 Y3.0041
G1 X2.9684 Y2.9849
G1 X2.9919 Y2.9641
G1 X3.0141 Y2.9419
G1 X3.0349 Y2.9184
G1 X3.0541 Y2.8936
G1 X3.0717 Y2.8677
G1 X3.0877 Y2.8406
G1 X3.102 Y2.8127
G1 X3.1144 Y2.7839
G1 X3.125 Y2.7544
G1 X3.1338 Y2.7242
G1 X3.1407 Y2.6936
G1 X3.1456 Y2.6626
G1 X3.1485 Y2.6314
G1 X3.1495 Y2.6
G1 X3.1485 Y2.5686
G1 X3.1456 Y2.5374
G1 X3.1407 Y2.5064
G1 X3.1338 Y2.4758
G1 X3.1251 Y2.4456
G1 X3.1144 Y2.4161
G1 X3.102 Y2.3873
G1 X3.0877 Y2.3594
G1 X3.0717 Y2.3323
G1 X3.0541 Y2.3064
G1 X3.0349 Y2.2816
G1 X3.0141 Y2.2581
G1 X2.9919 Y2.2359
G1 X2.9684 Y2.2151
G1 X2.9436 Y2.1959
G1 X2.9177 Y2.1783
G1 X2.8906 Y2.1623
G1 X2.8627 Y2.148
G1 X2.8339 Y2.1356
G1 X2.8044 Y2.125
G1 X2.7742 Y2.1162
G1 X2.7436 Y2.1093
G1 X2.7126 Y2.1044
G1 X2.6814 Y2.1015
G1 X2.65 Y2.1005
G1 X2.6186 Y2.1015
G1 X2.5874 Y2.1044
G1 X2.5564 Y2.1093
G1 X2.5258 Y2.1162
G1 X2.4956 Y2.125
G1 X2.4661 Y2.1356
G1 X2.4373 Y2.148
G1 X2.4094 Y2.1623
G1 X2.3823 Y2.1783
G1 X2.3564 Y2.1959
G1 X2.3316 Y2.2151
G1 X2.3081 Y2.2359
G1 X2.2859 Y2.2581
G1 X2.2651 Y2.2816
G1 X2.2459 Y2.3064
G1 X2.2283 Y2.3323
G1 X2.2123 Y2.3594
G1 X2.198 Y2.3873
G1 X2.1856 Y2.4161
G1 X2.1749 Y2.4456
G1 X2.1662 Y2.4757
G1 X2.1593 Y2.5064
G1 X2.1544 Y2.5374
G1 X2.1515 Y2.5686
G1 X2.1505 Y2.6
G1 X2.1515 Y2.6314
G1 X2.1544 Y2.6626
G1 X2.1593 Y2.6936
G1 X2.1621 Y2.7059
G1 F150.0 X2.5525 Y2.6187
G1 F100.0 X2.5538 Y2.6247 Z-3.903
G1 X2.5556 Y2.6307 Z-3.906
G1 X2.5576 Y2.6365 Z-3.909
G1 X2.5601 Y2.6422 Z-3.912
G1 X2.563 Y2.6478 Z-3.915
G1 X2.5662 Y2.6532 Z-3.918
G1 X2.5697 Y2.6584 Z-3.921
G1 X2.5734 Y2.6633 Z-3.924
G1 X2.5776 Y2.668 Z-3.927
G1 X2.582 Y2.6724 Z-3.93
G1 X2.5867 Y2.6766 Z-3.933
G1 X2.5916 Y2.6803 Z-3.936
G1 X2.5968 Y2.6838 Z-3.939
G1 X2.6022 Y2.687 Z-3.942
G1 X2.6077 Y2.6898 Z-3.945
G1 X2.6134 Y2.6923 Z-3.948
G1 X2.6193 Y2.6944 Z-3.951
G1 X2.6253 Y2.6962 Z-3.954
G1 X2.6314 Y2.6976 Z-3.957
G1 X2.6376 Y2.6985 Z-3.96
G1 X2.6438 Y2.6991 Z-3.963
G1 X2.65 Y2.6993 Z-3.966
G1 X2.6562 Y2.6991 Z-3.969
G1 X2.6624 Y2.6985 Z-3.972
G1 X2.6686 Y2.6976 Z-3.975
G1 X2.6747 Y2.6962 Z-3.978
G1 X2.6807 Y2.6944 Z-3.981
G1 X2.6866 Y2.6923 Z-3.984
G1 X2.6923 Y2.6898 Z-3.987
G1 X2.6978 Y2.687 Z-3.99
G1 X2.7032 Y2.6838 Z-3.993
G1 X2.7084 Y2.6803 Z-3.996
G1 X2.7133 Y2.6766 Z-3.999
G1 X2.718 Y2.6724 Z-4.002
G1 X2.7224 Y2.668 Z-4.005
G1 X2.7266 Y2.6633 Z-4.008
G1 X2.7303 Y2.6584 Z-4.011
G1 X2.7338 Y2.6532 Z-4.014
G1 X2.737 Y2.6478 Z-4.017
G1 X2.7398 Y2.6423 Z-4.02
G1 X2.7423 Y2.6366 Z-4.023
G1 X2.7444 Y2.6307 Z-4.026
G1 X2.7462 Y2.6247 Z-4.029
G1 X2.7476 Y2.6186 Z-4.032
G1 X2.7485 Y2.6124 Z-4.035
G1 X2.7491 Y2.6062 Z-4.038
G1 X2.7493 Y2.6 Z-4.041
G1 X2.7491 Y2.5938 Z-4.044
G1 X2.7485 Y2.5876 Z-4.047
G1 X2.7476 Y2.5814 Z-4.05
G1 X2.7462 Y2.5753 Z-4.053
G1 X2.7444 Y2.5693 Z-4.056
G1 X2.7423 Y2.5634 Z-4.059
G1 X2.7398 Y2.5577 Z-4.062
G1 X2.737 Y2.5522 Z-4.065
G1 X2.7338 Y2.5468 Z-4.068
G1 X2.7303 Y2.5416 Z-4.071
G1 X2.7266 Y2.5367 Z-4.074
G1 X2.7224 Y2.532 Z-4.077
G1 X2.718 Y2.5276 Z-4.08
G1 X2.7133 Y2.5234 Z-4.083
G1 X2.7084 Y2.5197 Z-4.086
G1 X2.7032 Y2.5162 Z-4.089
G1 X2.6978 Y2.513 Z-4.092
G1 X2.6922 Y2.5101 Z-4.095
G1 X2.6866 Y2.5077 Z-4.098
G1 X2.6808 Y2.5056 Z-4.1009
G1 X2.6747 Y2.5038 Z-4.104
G1 X2.6686 Y2.5024 Z-4.107
G1 X2.6624 Y2.5015 Z-4.11
G1 X2.6562 Y2.5009 Z-4.113
G1 X2.65 Y2.5007 Z-4.116
G1 X2.6438 Y2.5009 Z-4.119
G1 X2.6376 Y2.5015 Z-4.122
G1 X2.6314 Y2.5024 Z-4.125
G1 X2.6253 Y2.5038 Z-4.128
G1 X2.6192 Y2.5056 Z-4.131
G1 X2.6134 Y2.5077 Z-4.134
G1 X2.6078 Y2.5101 Z-4.137
G1 X2.6022 Y2.513 Z-4.14
G1 X2.5968 Y2.5162 Z-4.143
G1 X2.5916 Y2.5197 Z-4.146
G1 X2.5867 Y2.5234 Z-4.149
G1 X2.582 Y2.5276 Z-4.152
G1 X2.5776 Y2.532 Z-4.155
G1 X2.5734 Y2.5367 Z-4.158
G1 X2.5697 Y2.5416 Z-4.161
G1 X2.5662 Y2.5468 Z-4.164
G1 X2.563 Y2.5522 Z-4.167
G1 X2.5601 Y2.5578 Z-4.17
G1 X2.5576 Y2.5635 Z-4.173
G1 X2.5555 Y2.5693 Z-4.176
G1 X2.5538 Y2.5752 Z-4.179
G1 X2.5525 Y2.5813 Z-4.1819
G1 X2.5515 Y2.5876 Z-4.185
G1 X2.5509 Y2.5938 Z-4.188
G1 X2.5507 Y2.6 Z-4.191
G1 X2.5509 Y2.6062 Z-4.194
G1 X2.5515 Y2.6124 Z-4.197
G1 X2.5525 Y2.6187 Z-4.2
G1 X2.5538 Y2.6247
G1 X2.5556 Y2.6307
G1 X2.5576 Y2.6365
G1 X2.5601 Y2.6422
G1 X2.563 Y2.6478
G1 X2.5662 Y2.6532
G1 X2.5697 Y2.6584
G1 X2.5734 Y2.6633
G1 X2.5776 Y2.668
G1 X2.582 Y2.6724
G1 X2.5867 Y2.6766
G1 X2.5916 Y2.6803
G1 X2.5968 Y2.6838
G1 X2.6022 Y2.687
G1 X2.6077 Y2.6898
G1 X2.6134 Y2.6923
G1 X2.6193 Y2.6944
G1 X2.6253 Y2.6962
G1 X2.6314 Y2.6976
G1 X2.6376 Y2.6985
G1 X2.6438 Y2.6991
G1 X2.65 Y2.6993
G1 X2.6562 Y2.6991
G1 X2.6624 Y2.6985
G1 X2.6686 Y2.6976
G1 X2.6747 Y2.6962
G1 X2.6807 Y2.6944
G1 X2.6866 Y2.6923
G1 X2.6923 Y2.6898
G1 X2.6978 Y2.687
G1 X2.7032 Y2.6838
G1 X2.7084 Y2.6803
G1 X2.7133 Y2.6766
G1 X2.718 Y2.6724
G1 X2.7224 Y2.668
G1 X2.7266 Y2.6633
G1 X2.7303 Y2.6584
G1 X2.7338 Y2.6532
G1 X2.737 Y2.6478
G1 X2.7398 Y2.6423
G1 X2.7423 Y2.6366
G1 X2.7444 Y2.6307
G1 X2.7462 Y2.6247
G1 X2.7476 Y2.6186
G1 X2.7485 Y2.6124
G1 X2.7491 Y2.6062
G1 X2.7493 Y2.6
G1 X2.7491 Y2.5938
G1 X2.7485 Y2.5876
G1 X2.7476 Y2.5814
G1 X2.7462 Y2.5753
G1 X2.7444 Y2.5693
G1 X2.7423 Y2.5634
G1 X2.7398 Y2.5577
G1 X2.737 Y2.5522
G1 X2.7338 Y2.5468
G1 X2.7303 Y2.5416
G1 X2.7266 Y2.5367
G1 X2.7224 Y2.532
G1 X2.718 Y2.5276
G1 X2.7133 Y2.5234
G1 X2.7084 Y2.5197
G1 X2.7032 Y2.5162
G1 X2.6978 Y2.513
G1 X2.6922 Y2.5101
G1 X2.6866 Y2.5077
G1 X2.6808 Y2.5056
G1 X2.6747 Y2.5038
G1 X2.6686 Y2.5024
G1 X2.6624 Y2.5015
G1 X2.6562 Y2.5009
G1 X2.65 Y2.5007
G1 X2.6438 Y2.5009
G1 X2.6376 Y2.5015
G1 X2.6314 Y2.5024
G1 X2.6253 Y2.5038
G1 X2.6192 Y2.5056
G1 X2.6134 Y2.5077
G1 X2.6078 Y2.5101
G1 X2.6022 Y2.513
G1 X2.5968 Y2.5162
G1 X2.5916 Y2.5197
G1 X2.5867 Y2.5234
G1 X2.582 Y2.5276
G1 X2.5776 Y2.532
G1 X2.5734 Y2.5367
G1 X2.5697 Y2.5416
G1 X2.5662 Y2.5468
G1 X2.563 Y2.5522
G1 X2.5601 Y2.5578
G1 X2.5576 Y2.5635
G1 X2.5555 Y2.5693
G1 X2.5538 Y2.5752
G1 X2.5525 Y2.5813
G1 X2.5515 Y2.5876
G1 X2.5509 Y2.5938
G1 X2.5507 Y2.6
G1 X2.5509 Y2.6062
G1 X2.5515 Y2.6124
G1 X2.5525 Y2.6187
G1 F150.0 X2.1621 Y2.7059
G1 F100.0 X2.1662 Y2.7243
G1 X2.1749 Y2.7544
G1 X2.1856 Y2.7839
G1 X2.198 Y2.8127
G1 X2.2123 Y2.8406
G1 X2.2283 Y2.8677
G1 X2.2459 Y2.8936
G1 X2.2651 Y2.9184
G1 X2.2859 Y2.9419
G1 X2.3081 Y2.9641
G1 X2.3316 Y2.9849
G1 X2.3564 Y3.0041
G1 X2.3823 Y3.0217
G1 X2.4094 Y3.0377
G1 X2.4373 Y3.052
G1 X2.4661 Y3.0644
G1 X2.4956 Y3.075
G1 X2.5258 Y3.0838
G1 X2.5564 Y3.0907
G1 X2.5874 Y3.0956
G1 X2.6186 Y3.0985
G1 X2.65 Y3.0995
G1 X2.6814 Y3.0985
G1 X2.7126 Y3.0956
G1 X2.7436 Y3.0907
G1 X2.7742 Y3.0838
G1 X2.8044 Y3.075
G1 X2.8339 Y3.0644
G1 X2.8627 Y3.052
G1 X2.8906 Y3.0377
G1 X2.9177 Y3.0217
G1 X2.9436 Y3.0041
G1 X2.9684 Y2.9849
G1 X2.9919 Y2.9641
G1 X3.0141 Y2.9419
G1 X3.0349 Y2.9184
G1 X3.0541 Y2.8936
G1 X3.0717 Y2.8677
G1 X3.0877 Y2.8406
G1 X3.102 Y2.8127
G1 X3.1144 Y2.7839
G1 X3.125 Y2.7544
G1 X3.1338 Y2.7242
G1 X3.1407 Y2.6936
G1 X3.1456 Y2.6626
G1 X3.1485 Y2.6314
G1 X3.1495 Y2.6
G1 X3.1485 Y2.5686
G1 X3.1456 Y2.5374
G1 X3.1407 Y2.5064
G1 X3.1338 Y2.4758
G1 X3.1251 Y2.4456
G1 X3.1144 Y2.4161
G1 X3.102 Y2.3873
G1 X3.0877 Y2.3594
G1 X3.0717 Y2.3323
G1 X3.0541 Y2.3064
G1 X3.0349 Y2.2816
G1 X3.0141 Y2.2581
G1 X2.9919 Y2.2359
G1 X2.9684 Y2.2151
G1 X2.9436 Y2.1959
G1 X2.9177 Y2.1783
G1 X2.8906 Y2.1623
G1 X2.8627 Y2.148
G1 X2.8339 Y2.1356
G1 X2.8044 Y2.125
G1 X2.7742 Y2.1162
G1 X2.7436 Y2.1093
G1 X2.7126 Y2.1044
G1 X2.6814 Y2.1015
G1 X2.65 Y2.1005
G1 X2.6186 Y2.1015
G1 X2.5874 Y2.1044
G1 X2.5564 Y2.1093
G1 X2.5258 Y2.1162
G1 X2.4956 Y2.125
G1 X2.4661 Y2.1356
G1 X2.4373 Y2.148
G1 X2.4094 Y2.1623
G1 X2.3823 Y2.1783
G1 X2.3564 Y2.1959
G1 X2.3316 Y2.2151
G1 X2.3081 Y2.2359
G1 X2.2859 Y2.2581
G1 X2.2651 Y2.2816
G1 X2.2459 Y2.3064
G1 X2.2283 Y2.3323
G1 X2.2123 Y2.3594
G1 X2.198 Y2.3873
G1 X2.1856 Y2.4161
G1 X2.1749 Y2.4456
G1 X2.1662 Y2.4757
G1 X2.1593 Y2.5064
G1 X2.1544 Y2.5374
G1 X2.1515 Y2.5686
G1 X2.1505 Y2.6
G1 X2.1515 Y2.6314
G1 X2.1544 Y2.6626
G1 X2.1593 Y2.6936
G1 X2.1621 Y2.7059
( Cutout )
S1000
G0 Z3.0
G0 X-2.2053 Y13.1769
G0 Z1.0
G1 F150.0 Z0.0
G1 F100.0 X-2.2481 Y13.093 Z-0.0006
G3 X-2.275 Y13.0357 Z-0.001 I0.8909 J-0.4543
G1 X-2.3125 Y12.9492 Z-0.0016
G3 X-2.3356 Y12.8908 Z-0.0019 I0.9178 J-0.397
G1 X-2.3675 Y12.8021 Z-0.0025
G3 X-2.3869 Y12.7425 Z-0.0029 I0.9409 J-0.3386
G1 X-2.4132 Y12.652 Z-0.0035
G3 X-2.4287 Y12.5913 Z-0.0039 I0.9603 J-0.279
G1 X-2.4493 Y12.4994 Z-0.0045
G3 X-2.4611 Y12.4375 Z-0.0048 I0.9759 J-0.2183
G1 X-2.4759 Y12.3444 Z-0.0054
G3 X-2.4837 Y12.2821 Z-0.0058 I0.9877 J-0.1564
G1 X-2.4926 Y12.1883 Z-0.0064
G3 X-2.4965 Y12.1256 Z-0.0068 I0.9956 J-0.0941
G1 X-2.4995 Y12.0314 Z-0.0074
G3 X-2.5 Y12.0 Z-0.0076 I0.9995 J-0.0314
G1 Y0.0 Z-0.0816
G3 X-2.4995 Y-0.0314 Z-0.0818 I1.0 J0.0
G1 X-2.4965 Y-0.1256 Z-0.0824
G3 X-2.4926 Y-0.1883 Z-0.0828 I0.9995 J0.0314
G1 X-2.4837 Y-0.2821 Z-0.0834
G3 X-2.4759 Y-0.3444 Z-0.0838 I0.9956 J0.0941
G1 X-2.4611 Y-0.4375 Z-0.0844
G3 X-2.4493 Y-0.4993 Z-0.0847 I0.9877 J0.1564
G1 X-2.4288 Y-0.5912 Z-0.0853
G3 X-2.4132 Y-0.652 Z-0.0857 I0.9759 J0.2182
G1 X-2.3869 Y-0.7425 Z-0.0863
G3 X-2.3675 Y-0.8023 Z-0.0867 I0.9603 J0.279
G1 X-2.3355 Y-0.8909 Z-0.0873
G3 X-2.3124 Y-0.9493 Z-0.0877 I0.9409 J0.3387
G1 X-2.275 Y-1.0358 Z-0.0882
G3 X-2.2483 Y-1.0926 Z-0.0886 I0.9178 J0.3971
G1 X-2.2055 Y-1.1766 Z-0.0892
G3 X-2.1752 Y-1.2317 Z-0.0896 I0.891 J0.454
G1 X-2.1272 Y-1.3128 Z-0.0902
G3 X-2.0936 Y-1.3658 Z-0.0906 I0.8607 J0.5091
G1 X-2.0406 Y-1.4438 Z-0.0911
G3 X-2.0037 Y-1.4945 Z-0.0915 I0.8271 J0.5621
G1 X-1.946 Y-1.569 Z-0.0921
G3 X-1.9059 Y-1.6175 Z-0.0925 I0.7902 J0.6129
G1 X-1.8435 Y-1.6882 Z-0.0931
G3 X-1.8006 Y-1.7339 Z-0.0935 I0.7501 J0.6613
G1 X-1.7339 Y-1.8006 Z-0.0941
G3 X-1.6882 Y-1.8435 Z-0.0944 I0.7071 J0.7071
G1 X-1.6175 Y-1.9059 Z-0.095
G3 X-1.569 Y-1.946 Z-0.0954 I0.6613 J0.7501
G1 X-1.4945 Y-2.0037 Z-0.096
G3 X-1.4438 Y-2.0406 Z-0.0964 I0.6129 J0.7902
G1 X-1.3658 Y-2.0936 Z-0.097
G3 X-1.3128 Y-2.1272 Z-0.0973 I0.5621 J0.8271
G1 X-1.2317 Y-2.1752 Z-0.0979
G3 X-1.1766 Y-2.2055 Z-0.0983 I0.5091 J0.8607
G1 X-1.0926 Y-2.2483 Z-0.0989
G3 X-1.0358 Y-2.275 Z-0.0993 I0.454 J0.891
G1 X-0.9493 Y-2.3124 Z-0.0999
G3 X-0.8909 Y-2.3355 Z-0.1003 I0.3971 J0.9178
G1 X-0.8023 Y-2.3675 Z-0.1008
G3 X-0.7425 Y-2.3869 Z-0.1012 I0.3387 J0.9409
G1 X-0.652 Y-2.4132 Z-0.1018
G3 X-0.5912 Y-2.4288 Z-0.1022 I0.279 J0.9603
G1 X-0.4993 Y-2.4493 Z-0.1028
G3 X-0.4375 Y-2.4611 Z-0.1032 I0.2182 J0.9759
G1 X-0.3444 Y-2.4759 Z-0.1037
G3 X-0.2821 Y-2.4837 Z-0.1041 I0.1564 J0.9877
G1 X-0.1883 Y-2.4926 Z-0.1047
G3 X-0.1256 Y-2.4965 Z-0.1051 I0.0941 J0.9956
G1 X-0.0314 Y-2.4995 Z-0.1057
G3 X0.0 Y-2.5 Z-0.1059 I0.0314 J0.9995
G1 X7.0 Z-0.1491
G3 X7.0314 Y-2.4995 Z-0.1493 I0.0 J1.0
G1 X7.1256 Y-2.4965 Z-0.1499
G3 X7.1883 Y-2.4926 Z-0.1503 I-0.0314 J0.9995
G1 X7.2821 Y-2.4837 Z-0.1508
G3 X7.3444 Y-2.4759 Z-0.1512 I-0.0941 J0.9956
G1 X7.4375 Y-2.4611 Z-0.1518
G3 X7.4993 Y-2.4493 Z-0.1522 I-0.1564 J0.9877
G1 X7.5912 Y-2.4288 Z-0.1528
G3 X7.652 Y-2.4132 Z-0.1532 I-0.2182 J0.9759
G1 X7.7425 Y-2.3869 Z-0.1537
G3 X7.8022 Y-2.3675 Z-0.1541 I-0.279 J0.9603
G1 X7.8909 Y-2.3356 Z-0.1547
G3 X7.9493 Y-2.3124 Z-0.1551 I-0.3387 J0.9409
G1 X8.0358 Y-2.275 Z-0.1557
G3 X8.0927 Y-2.2482 Z-0.1561 I-0.3971 J0.9178
G1 X8.1766 Y-2.2055 Z-0.1567
G3 X8.2317 Y-2.1752 Z-0.157 I-0.454 J0.891
G1 X8.3128 Y-2.1272 Z-0.1576
G3 X8.3658 Y-2.0936 Z-0.158 I-0.5091 J0.8607
G1 X8.4438 Y-2.0406 Z-0.1586
G3 X8.4945 Y-2.0037 Z-0.159 I-0.5621 J0.8271
G1 X8.569 Y-1.946 Z-0.1596
G3 X8.6175 Y-1.9058 Z-0.1599 I-0.6129 J0.7902
G1 X8.6882 Y-1.8435 Z-0.1605
G3 X8.7339 Y-1.8006 Z-0.1609 I-0.6614 J0.7501
G1 X8.8006 Y-1.7339 Z-0.1615
G3 X8.8435 Y-1.6882 Z-0.1619 I-0.7071 J0.7071
G1 X8.9059 Y-1.6175 Z-0.1625
G3 X8.946 Y-1.569 Z-0.1629 I-0.7501 J0.6613
G1 X9.0037 Y-1.4945 Z-0.1634
G3 X9.0406 Y-1.4438 Z-0.1638 I-0.7902 J0.6129
G1 X9.0936 Y-1.3658 Z-0.1644
G3 X9.1272 Y-1.3128 Z-0.1648 I-0.8271 J0.5621
G1 X9.1752 Y-1.2317 Z-0.1654
G3 X9.2055 Y-1.1766 Z-0.1658 I-0.8607 J0.5091
G1 X9.2483 Y-1.0926 Z-0.1663
G3 X9.275 Y-1.0358 Z-0.1667 I-0.891 J0.454
G1 X9.3124 Y-0.9493 Z-0.1673
G3 X9.3355 Y-0.8909 Z-0.1677 I-0.9178 J0.3971
G1 X9.3675 Y-0.8023 Z-0.1683
G3 X9.3869 Y-0.7425 Z-0.1687 I-0.9409 J0.3387
G1 X9.4132 Y-0.652 Z-0.1693
G3 X9.4288 Y-0.5912 Z-0.1696 I-0.9603 J0.279
G1 X9.4493 Y-0.4993 Z-0.1702
G3 X9.4611 Y-0.4375 Z-0.1706 I-0.9759 J0.2182
G1 X9.4759 Y-0.3444 Z-0.1712
G3 X9.4837 Y-0.2821 Z-0.1716 I-0.9877 J0.1564
G1 X9.4926 Y-0.1883 Z-0.1722
G3 X9.4965 Y-0.1256 Z-0.1726 I-0.9956 J0.0941
G1 X9.4995 Y-0.0314 Z-0.1731
G3 Y0.0314 Z-0.1735 I-0.9995 J0.0314
G1 X9.4965 Y0.1256 Z-0.1741
G3 X9.4926 Y0.1883 Z-0.1745 I-0.9995 J-0.0314
G1 X9.4837 Y0.2821 Z-0.1751
G3 X9.4759 Y0.3444 Z-0.1755 I-0.9956 J-0.0941
G1 X9.4611 Y0.4375 Z-0.176
G3 X9.4493 Y0.4993 Z-0.1764 I-0.9877 J-0.1564
G1 X9.4288 Y0.5912 Z-0.177
G3 X9.4132 Y0.652 Z-0.1774 I-0.9759 J-0.2182
G1 X9.3869 Y0.7425 Z-0.178
G3 X9.3675 Y0.8023 Z-0.1784 I-0.9603 J-0.279
G1 X9.3355 Y0.8909 Z-0.179
G3 X9.3124 Y0.9493 Z-0.1793 I-0.9409 J-0.3387
G1 X9.275 Y1.0358 Z-0.1799
G3 X9.2483 Y1.0926 Z-0.1803 I-0.9178 J-0.3971
G1 X9.2055 Y1.1766 Z-0.1809
G3 X9.1782 Y1.2265 Z-0.1812 I-0.891 J-0.454
G1 X2.1782 Y13.2265 Z-0.267
G3 X2.1752 Y13.2317 I-0.8638 J-0.5039
G1 X2.1272 Y13.3128 Z-0.2676
G3 X2.0938 Y13.3655 Z-0.268 I-0.8607 J-0.5091
G1 X2.0408 Y13.4435 Z-0.2686
G3 X2.0035 Y13.4949 Z-0.269 I-0.8273 J-0.5618
G1 X1.9457 Y13.5693 Z-0.2696
G3 X1.9059 Y13.6173 Z-0.2699 I-0.79 J-0.6132
G1 X1.8436 Y13.688 Z-0.2705
G3 X1.8009 Y13.7335 Z-0.2709 I-0.7502 J-0.6612
G1 X1.7343 Y13.8002 Z-0.2715
G3 X1.688 Y13.8437 Z-0.2719 I-0.7075 J-0.7067
G1 X1.6174 Y13.906 Z-0.2725
G3 X1.5687 Y13.9462 Z-0.2729 I-0.6612 J-0.7502
G1 X1.4942 Y14.0039 Z-0.2734
G3 X1.444 Y14.0404 Z-0.2738 I-0.6125 J-0.7904
G1 X1.3661 Y14.0934 Z-0.2744
G3 X1.313 Y14.1271 Z-0.2748 I-0.5623 J-0.8269
G1 X1.2319 Y14.1751 Z-0.2754
G3 X1.1759 Y14.2059 Z-0.2758 I-0.5093 J-0.8606
G1 X1.092 Y14.2486 Z-0.2763
G3 X1.0365 Y14.2747 Z-0.2767 I-0.4533 J-0.8914
G1 X0.95 Y14.3122 Z-0.2773
G3 X0.8907 Y14.3356 Z-0.2777 I-0.3978 J-0.9175
G1 X0.8021 Y14.3675 Z-0.2783
G3 X0.7426 Y14.3869 Z-0.2787 I-0.3386 J-0.9409
G1 X0.6521 Y14.4132 Z-0.2793
G3 X0.5906 Y14.4289 Z-0.2796 I-0.2791 J-0.9603
G1 X0.4986 Y14.4494 Z-0.2802
G3 X0.4381 Y14.461 Z-0.2806 I-0.2176 J-0.976
G1 X0.345 Y14.4758 Z-0.2812
G3 X0.2814 Y14.4838 Z-0.2816 I-0.157 J-0.9876
G1 X0.1876 Y14.4926 Z-0.2822
G3 X0.126 Y14.4965 Z-0.2825 I-0.0934 J-0.9956
G1 X0.0318 Y14.4995 Z-0.2831
G3 X-0.0318 Z-0.2835 I-0.0318 J-0.9995
G1 X-0.126 Y14.4965 Z-0.2841
G3 X-0.1876 Y14.4926 Z-0.2845 I0.0318 J-0.9995
G1 X-0.2814 Y14.4838 Z-0.2851
G3 X-0.345 Y14.4758 Z-0.2855 I0.0934 J-0.9956
G1 X-0.4381 Y14.461 Z-0.286
G3 X-0.4986 Y14.4494 Z-0.2864 I0.157 J-0.9876
G1 X-0.5906 Y14.4289 Z-0.287
G3 X-0.6521 Y14.4132 Z-0.2874 I0.2176 J-0.976
G1 X-0.7426 Y14.3869 Z-0.288
G3 X-0.8021 Y14.3675 Z-0.2884 I0.2791 J-0.9603
G1 X-0.8907 Y14.3356 Z-0.2889
G3 X-0.95 Y14.3122 Z-0.2893 I0.3386 J-0.9409
G1 X-1.0365 Y14.2747 Z-0.2899
G3 X-1.092 Y14.2486 Z-0.2903 I0.3978 J-0.9175
G1 X-1.1759 Y14.2059 Z-0.2909
G3 X-1.2319 Y14.1751 Z-0.2913 I0.4533 J-0.8914
G1 X-1.313 Y14.1271 Z-0.2919
G3 X-1.3661 Y14.0934 Z-0.2922 I0.5093 J-0.8606
G1 X-1.444 Y14.0404 Z-0.2928
G3 X-1.4942 Y14.0039 Z-0.2932 I0.5623 J-0.8269
G1 X-1.5687 Y13.9462 Z-0.2938
G3 X-1.6174 Y13.906 Z-0.2942 I0.6125 J-0.7904
G1 X-1.688 Y13.8437 Z-0.2948
G3 X-1.7343 Y13.8002 Z-0.2952 I0.6612 J-0.7502
G1 X-1.8009 Y13.7335 Z-0.2957
G3 X-1.8436 Y13.688 Z-0.2961 I0.7075 J-0.7067
G1 X-1.9059 Y13.6173 Z-0.2967
G3 X-1.9457 Y13.5693 Z-0.2971 I0.7502 J-0.6612
G1 X-2.0035 Y13.4949 Z-0.2977
G3 X-2.0408 Y13.4435 Z-0.2981 I0.79 J-0.6132
G1 X-2.0938 Y13.3655 Z-0.2986
G3 X-2.1272 Y13.3128 Z-0.299 I0.8273 J-0.5618
G1 X-2.1752 Y13.2317 Z-0.2996
G3 X-2.2053 Y13.1769 Z-0.3 I0.8607 J-0.5091
G1 X-2.2481 Y13.093 Z-0.3006
G3 X-2.275 Y13.0357 Z-0.301 I0.8909 J-0.4543
G1 X-2.3125 Y12.9492 Z-0.3016
G3 X-2.3356 Y12.8908 Z-0.3019 I0.9178 J-0.397
G1 X-2.3675 Y12.8021 Z-0.3025
G3 X-2.3869 Y12.7425 Z-0.3029 I0.9409 J-0.3386
G1 X-2.4132 Y12.652 Z-0.3035
G3 X-2.4287 Y12.5913 Z-0.3039 I0.9603 J-0.279
G1 X-2.4493 Y12.4994 Z-0.3045
G3 X-2.4611 Y12.4375 Z-0.3048 I0.9759 J-0.2183
G1 X-2.4759 Y12.3444 Z-0.3054
G3 X-2.4837 Y12.2821 Z-0.3058 I0.9877 J-0.1564
G1 X-2.4926 Y12.1883 Z-0.3064
G3 X-2.4965 Y12.1256 Z-0.3068 I0.9956 J-0.0941
G1 X-2.4995 Y12.0314 Z-0.3074
G3 X-2.5 Y12.0 Z-0.3076 I0.9995 J-0.0314
G1 Y0.0 Z-0.3816
G3 X-2.4995 Y-0.0314 Z-0.3818 I1.0 J0.0
G1 X-2.4965 Y-0.1256 Z-0.3824
G3 X-2.4926 Y-0.1883 Z-0.3828 I0.9995 J0.0314
G1 X-2.4837 Y-0.2821 Z-0.3834
G3 X-2.4759 Y-0.3444 Z-0.3838 I0.9956 J0.0941
G1 X-2.4611 Y-0.4375 Z-0.3844
G3 X-2.4493 Y-0.4993 Z-0.3847 I0.9877 J0.1564
G1 X-2.4288 Y-0.5912 Z-0.3853
G3 X-2.4132 Y-0.652 Z-0.3857 I0.9759 J0.2182
G1 X-2.3869 Y-0.7425 Z-0.3863
G3 X-2.3675 Y-0.8023 Z-0.3867 I0.9603 J0.279
G1 X-2.3355 Y-0.8909 Z-0.3873
G3 X-2.3124 Y-0.9493 Z-0.3877 I0.9409 J0.3387
G1 X-2.275 Y-1.0358 Z-0.3882
G3 X-2.2483 Y-1.0926 Z-0.3886 I0.9178 J0.3971
G1 X-2.2055 Y-1.1766 Z-0.3892
G3 X-2.1752 Y-1.2317 Z-0.3896 I0.891 J0.454
G1 X-2.1272 Y-1.3128 Z-0.3902
G3 X-2.0936 Y-1.3658 Z-0.3906 I0.8607 J0.5091
G1 X-2.0406 Y-1.4438 Z-0.3911
G3 X-2.0037 Y-1.4945 Z-0.3915 I0.8271 J0.5621
G1 X-1.946 Y-1.569 Z-0.3921
G3 X-1.9059 Y-1.6175 Z-0.3925 I0.7902 J0.6129
G1 X-1.8435 Y-1.6882 Z-0.3931
G3 X-1.8006 Y-1.7339 Z-0.3935 I0.7501 J0.6613
G1 X-1.7339 Y-1.8006 Z-0.3941
G3 X-1.6882 Y-1.8435 Z-0.3944 I0.7071 J0.7071
G1 X-1.6175 Y-1.9059 Z-0.395
G3 X-1.569 Y-1.946 Z-0.3954 I0.6613 J0.7501
G1 X-1.4945 Y-2.0037 Z-0.396
G3 X-1.4438 Y-2.0406 Z-0.3964 I0.6129 J0.7902
G1 X-1.3658 Y-2.0936 Z-0.397
G3 X-1.3128 Y-2.1272 Z-0.3973 I0.5621 J0.8271
G1 X-1.2317 Y-2.1752 Z-0.3979
G3 X-1.1766 Y-2.2055 Z-0.3983 I0.5091 J0.8607
G1 X-1.0926 Y-2.2483 Z-0.3989
G3 X-1.0358 Y-2.275 Z-0.3993 I0.454 J0.891
G1 X-0.9493 Y-2.3124 Z-0.3999
G3 X-0.8909 Y-2.3355 Z-0.4003 I0.3971 J0.9178
G1 X-0.8023 Y-2.3675 Z-0.4008
G3 X-0.7425 Y-2.3869 Z-0.4012 I0.3387 J0.9409
G1 X-0.652 Y-2.4132 Z-0.4018
G3 X-0.5912 Y-2.4288 Z-0.4022 I0.279 J0.9603
G1 X-0.4993 Y-2.4493 Z-0.4028
G3 X-0.4375 Y-2.4611 Z-0.4032 I0.2182 J0.9759
G1 X-0.3444 Y-2.4759 Z-0.4037
G3 X-0.2821 Y-2.4837 Z-0.4041 I0.1564 J0.9877
G1 X-0.1883 Y-2.4926 Z-0.4047
G3 X-0.1256 Y-2.4965 Z-0.4051 I0.0941 J0.9956
G1 X-0.0314 Y-2.4995 Z-0.4057
G3 X0.0 Y-2.5 Z-0.4059 I0.0314 J0.9995
G1 X7.0 Z-0.4491
G3 X7.0314 Y-2.4995 Z-0.4493 I0.0 J1.0
G1 X7.1256 Y-2.4965 Z-0.4499
G3 X7.1883 Y-2.4926 Z-0.4503 I-0.0314 J0.9995
G1 X7.2821 Y-2.4837 Z-0.4508
G3 X7.3444 Y-2.4759 Z-0.4512 I-0.0941 J0.9956
G1 X7.4375 Y-2.4611 Z-0.4518
G3 X7.4993 Y-2.4493 Z-0.4522 I-0.1564 J0.9877
G1 X7.5912 Y-2.4288 Z-0.4528
G3 X7.652 Y-2.4132 Z-0.4532 I-0.2182 J0.9759
G1 X7.7425 Y-2.3869 Z-0.4537
G3 X7.8022 Y-2.3675 Z-0.4541 I-0.279 J0.9603
G1 X7.8909 Y-2.3356 Z-0.4547
G3 X7.9493 Y-2.3124 Z-0.4551 I-0.3387 J0.9409
G1 X8.0358 Y-2.275 Z-0.4557
G3 X8.0927 Y-2.2482 Z-0.4561 I-0.3971 J0.9178
G1 X8.1766 Y-2.2055 Z-0.4567
G3 X8.2317 Y-2.1752 Z-0.457 I-0.454 J0.891
G1 X8.3128 Y-2.1272 Z-0.4576
G3 X8.3658 Y-2.0936 Z-0.458 I-0.5091 J0.8607
G1 X8.4438 Y-2.0406 Z-0.4586
G3 X8.4945 Y-2.0037 Z-0.459 I-0.5621 J0.8271
G1 X8.569 Y-1.946 Z-0.4596
G3 X8.6175 Y-1.9058 Z-0.4599 I-0.6129 J0.7902
G1 X8.6882 Y-1.8435 Z-0.4605
G3 X8.7339 Y-1.8006 Z-0.4609 I-0.6614 J0.7501
G1 X8.8006 Y-1.7339 Z-0.4615
G3 X8.8435 Y-1.6882 Z-0.4619 I-0.7071 J0.7071
G1 X8.9059 Y-1.6175 Z-0.4625
G3 X8.946 Y-1.569 Z-0.4629 I-0.7501 J0.6613
G1 X9.0037 Y-1.4945 Z-0.4634
G3 X9.0406 Y-1.4438 Z-0.4638 I-0.7902 J0.6129
G1 X9.0936 Y-1.3658 Z-0.4644
G3 X9.1272 Y-1.3128 Z-0.4648 I-0.8271 J0.5621
G1 X9.1752 Y-1.2317 Z-0.4654
G3 X9.2055 Y-1.1766 Z-0.4658 I-0.8607 J0.5091
G1 X9.2483 Y-1.0926 Z-0.4663
G3 X9.275 Y-1.0358 Z-0.4667 I-0.891 J0.454
G1 X9.3124 Y-0.9493 Z-0.4673
G3 X9.3355 Y-0.8909 Z-0.4677 I-0.9178 J0.3971
G1 X9.3675 Y-0.8023 Z-0.4683
G3 X9.3869 Y-0.7425 Z-0.4687 I-0.9409 J0.3387
G1 X9.4132 Y-0.652 Z-0.4693
G3 X9.4288 Y-0.5912 Z-0.4696 I-0.9603 J0.279
G1 X9.4493 Y-0.4993 Z-0.4702
G3 X9.4611 Y-0.4375 Z-0.4706 I-0.9759 J0.2182
G1 X9.4759 Y-0.3444 Z-0.4712
G3 X9.4837 Y-0.2821 Z-0.4716 I-0.9877 J0.1564
G1 X9.4926 Y-0.1883 Z-0.4722
G3 X9.4965 Y-0.1256 Z-0.4726 I-0.9956 J0.0941
G1 X9.4995 Y-0.0314 Z-0.4731
G3 Y0.0314 Z-0.4735 I-0.9995 J0.0314
G1 X9.4965 Y0.1256 Z-0.4741
G3 X9.4926 Y0.1883 Z-0.4745 I-0.9995 J-0.0314
G1 X9.4837 Y0.2821 Z-0.4751
G3 X9.4759 Y0.3444 Z-0.4755 I-0.9956 J-0.0941
G1 X9.4611 Y0.4375 Z-0.476
G3 X9.4493 Y0.4993 Z-0.4764 I-0.9877 J-0.1564
G1 X9.4288 Y0.5912 Z-0.477
G3 X9.4132 Y0.652 Z-0.4774 I-0.9759 J-0.2182
G1 X9.3869 Y0.7425 Z-0.478
G3 X9.3675 Y0.8023 Z-0.4784 I-0.9603 J-0.279
G1 X9.3355 Y0.8909 Z-0.479
G3 X9.3124 Y0.9493 Z-0.4793 I-0.9409 J-0.3387
G1 X9.275 Y1.0358 Z-0.4799
G3 X9.2483 Y1.0926 Z-0.4803 I-0.9178 J-0.3971
G1 X9.2055 Y1.1766 Z-0.4809
G3 X9.1782 Y1.2265 Z-0.4812 I-0.891 J-0.454
G1 X2.1782 Y13.2265 Z-0.567
G3 X2.1752 Y13.2317 I-0.8638 J-0.5039
G1 X2.1272 Y13.3128 Z-0.5676
G3 X2.0938 Y13.3655 Z-0.568 I-0.8607 J-0.5091
G1 X2.0408 Y13.4435 Z-0.5686
G3 X2.0035 Y13.4949 Z-0.569 I-0.8273 J-0.5618
G1 X1.9457 Y13.5693 Z-0.5696
G3 X1.9059 Y13.6173 Z-0.5699 I-0.79 J-0.6132
G1 X1.8436 Y13.688 Z-0.5705
G3 X1.8009 Y13.7335 Z-0.5709 I-0.7502 J-0.6612
G1 X1.7343 Y13.8002 Z-0.5715
G3 X1.688 Y13.8437 Z-0.5719 I-0.7075 J-0.7067
G1 X1.6174 Y13.906 Z-0.5725
G3 X1.5687 Y13.9462 Z-0.5729 I-0.6612 J-0.7502
G1 X1.4942 Y14.0039 Z-0.5734
G3 X1.444 Y14.0404 Z-0.5738 I-0.6125 J-0.7904
G1 X1.3661 Y14.0934 Z-0.5744
G3 X1.313 Y14.1271 Z-0.5748 I-0.5623 J-0.8269
G1 X1.2319 Y14.1751 Z-0.5754
G3 X1.1759 Y14.2059 Z-0.5758 I-0.5093 J-0.8606
G1 X1.092 Y14.2486 Z-0.5763
G3 X1.0365 Y14.2747 Z-0.5767 I-0.4533 J-0.8914
G1 X0.95 Y14.3122 Z-0.5773
G3 X0.8907 Y14.3356 Z-0.5777 I-0.3978 J-0.9175
G1 X0.8021 Y14.3675 Z-0.5783
G3 X0.7426 Y14.3869 Z-0.5787 I-0.3386 J-0.9409
G1 X0.6521 Y14.4132 Z-0.5793
G3 X0.5906 Y14.4289 Z-0.5796 I-0.2791 J-0.9603
G1 X0.4986 Y14.4494 Z-0.5802
G3 X0.4381 Y14.461 Z-0.5806 I-0.2176 J-0.976
G1 X0.345 Y14.4758 Z-0.5812
G3 X0.2814 Y14.4838 Z-0.5816 I-0.157 J-0.9876
G1 X0.1876 Y14.4926 Z-0.5822
G3 X0.126 Y14.4965 Z-0.5825 I-0.0934 J-0.9956
G1 X0.0318 Y14.4995 Z-0.5831
G3 X-0.0318 Z-0.5835 I-0.0318 J-0.9995
G1 X-0.126 Y14.4965 Z-0.5841
G3 X-0.1876 Y14.4926 Z-0.5845 I0.0318 J-0.9995
G1 X-0.2814 Y14.4838 Z-0.5851
G3 X-0.345 Y14.4758 Z-0.5855 I0.0934 J-0.9956
G1 X-0.4381 Y14.461 Z-0.586
G3 X-0.4986 Y14.4494 Z-0.5864 I0.157 J-0.9876
G1 X-0.5906 Y14.4289 Z-0.587
G3 X-0.6521 Y14.4132 Z-0.5874 I0.2176 J-0.976
G1 X-0.7426 Y14.3869 Z-0.588
G3 X-0.8021 Y14.3675 Z-0.5884 I0.2791 J-0.9603
G1 X-0.8907 Y14.3356 Z-0.5889
G3 X-0.95 Y14.3122 Z-0.5893 I0.3386 J-0.9409
G1 X-1.0365 Y14.2747 Z-0.5899
G3 X-1.092 Y14.2486 Z-0.5903 I0.3978 J-0.9175
G1 X-1.1759 Y14.2059 Z-0.5909
G3 X-1.2319 Y14.1751 Z-0.5913 I0.4533 J-0.8914
G1 X-1.313 Y14.1271 Z-0.5919
G3 X-1.3661 Y14.0934 Z-0.5922 I0.5093 J-0.8606
G1 X-1.444 Y14.0404 Z-0.5928
G3 X-1.4942 Y14.0039 Z-0.5932 I0.5623 J-0.8269
G1 X-1.5687 Y13.9462 Z-0.5938
G3 X-1.6174 Y13.906 Z-0.5942 I0.6125 J-0.7904
G1 X-1.688 Y13.8437 Z-0.5948
G3 X-1.7343 Y13.8002 Z-0.5952 I0.6612 J-0.7502
G1 X-1.8009 Y13.7335 Z-0.5957
G3 X-1.8436 Y13.688 Z-0.5961 I0.7075 J-0.7067
G1 X-1.9059 Y13.6173 Z-0.5967
G3 X-1.9457 Y13.5693 Z-0.5971 I0.7502 J-0.6612
G1 X-2.0035 Y13.4949 Z-0.5977
G3 X-2.0408 Y13.4435 Z-0.5981 I0.79 J-0.6132
G1 X-2.0938 Y13.3655 Z-0.5986
G3 X-2.1272 Y13.3128 Z-0.599 I0.8273 J-0.5618
G1 X-2.1752 Y13.2317 Z-0.5996
G3 X-2.2053 Y13.1769 Z-0.6 I0.8607 J-0.5091
G1 X-2.2481 Y13.093 Z-0.6006
G3 X-2.275 Y13.0357 Z-0.601 I0.8909 J-0.4543
G1 X-2.3125 Y12.9492 Z-0.6016
G3 X-2.3356 Y12.8908 Z-0.6019 I0.9178 J-0.397
G1 X-2.3675 Y12.8021 Z-0.6025
G3 X-2.3869 Y12.7425 Z-0.6029 I0.9409 J-0.3386
G1 X-2.4132 Y12.652 Z-0.6035
G3 X-2.4287 Y12.5913 Z-0.6039 I0.9603 J-0.279
G1 X-2.4493 Y12.4994 Z-0.6045
G3 X-2.4611 Y12.4375 Z-0.6048 I0.9759 J-0.2183
G1 X-2.4759 Y12.3444 Z-0.6054
G3 X-2.4837 Y12.2821 Z-0.6058 I0.9877 J-0.1564
G1 X-2.4926 Y12.1883 Z-0.6064
G3 X-2.4965 Y12.1256 Z-0.6068 I0.9956 J-0.0941
G1 X-2.4995 Y12.0314 Z-0.6074
G3 X-2.5 Y12.0 Z-0.6076 I0.9995 J-0.0314
G1 Y0.0 Z-0.6816
G3 X-2.4995 Y-0.0314 Z-0.6818 I1.0 J0.0
G1 X-2.4965 Y-0.1256 Z-0.6824
G3 X-2.4926 Y-0.1883 Z-0.6828 I0.9995 J0.0314
G1 X-2.4837 Y-0.2821 Z-0.6834
G3 X-2.4759 Y-0.3444 Z-0.6838 I0.9956 J0.0941
G1 X-2.4611 Y-0.4375 Z-0.6844
G3 X-2.4493 Y-0.4993 Z-0.6847 I0.9877 J0.1564
G1 X-2.4288 Y-0.5912 Z-0.6853
G3 X-2.4132 Y-0.652 Z-0.6857 I0.9759 J0.2182
G1 X-2.3869 Y-0.7425 Z-0.6863
G3 X-2.3675 Y-0.8023 Z-0.6867 I0.9603 J0.279
G1 X-2.3355 Y-0.8909 Z-0.6873
G3 X-2.3124 Y-0.9493 Z-0.6877 I0.9409 J0.3387
G1 X-2.275 Y-1.0358 Z-0.6882
G3 X-2.2483 Y-1.0926 Z-0.6886 I0.9178 J0.3971
G1 X-2.2055 Y-1.1766 Z-0.6892
G3 X-2.1752 Y-1.2317 Z-0.6896 I0.891 J0.454
G1 X-2.1272 Y-1.3128 Z-0.6902
G3 X-2.0936 Y-1.3658 Z-0.6906 I0.8607 J0.5091
G1 X-2.0406 Y-1.4438 Z-0.6911
G3 X-2.0037 Y-1.4945 Z-0.6915 I0.8271 J0.5621
G1 X-1.946 Y-1.569 Z-0.6921
G3 X-1.9059 Y-1.6175 Z-0.6925 I0.7902 J0.6129
G1 X-1.8435 Y-1.6882 Z-0.6931
G3 X-1.8006 Y-1.7339 Z-0.6935 I0.7501 J0.6613
G1 X-1.7339 Y-1.8006 Z-0.6941
G3 X-1.6882 Y-1.8435 Z-0.6944 I0.7071 J0.7071
G1 X-1.6175 Y-1.9059 Z-0.695
G3 X-1.569 Y-1.946 Z-0.6954 I0.6613 J0.7501
G1 X-1.4945 Y-2.0037 Z-0.696
G3 X-1.4438 Y-2.0406 Z-0.6964 I0.6129 J0.7902
G1 X-1.3658 Y-2.0936 Z-0.697
G3 X-1.3128 Y-2.1272 Z-0.6973 I0.5621 J0.8271
G1 X-1.2317 Y-2.1752 Z-0.6979
G3 X-1.1766 Y-2.2055 Z-0.6983 I0.5091 J0.8607
G1 X-1.0926 Y-2.2483 Z-0.6989
G3 X-1.0358 Y-2.275 Z-0.6993 I0.454 J0.891
G1 X-0.9493 Y-2.3124 Z-0.6999
G3 X-0.8909 Y-2.3355 Z-0.7003 I0.3971 J0.9178
G1 X-0.8023 Y-2.3675 Z-0.7008
G3 X-0.7425 Y-2.3869 Z-0.7012 I0.3387 J0.9409
G1 X-0.652 Y-2.4132 Z-0.7018
G3 X-0.5912 Y-2.4288 Z-0.7022 I0.279 J0.9603
G1 X-0.4993 Y-2.4493 Z-0.7028
G3 X-0.4375 Y-2.4611 Z-0.7032 I0.2182 J0.9759
G1 X-0.3444 Y-2.4759 Z-0.7037
G3 X-0.2821 Y-2.4837 Z-0.7041 I0.1564 J0.9877
G1 X-0.1883 Y-2.4926 Z-0.7047
G3 X-0.1256 Y-2.4965 Z-0.7051 I0.0941 J0.9956
G1 X-0.0314 Y-2.4995 Z-0.7057
G3 X0.0 Y-2.5 Z-0.7059 I0.0314 J0.9995
G1 X7.0 Z-0.7491
G3 X7.0314 Y-2.4995 Z-0.7493 I0.0 J1.0
G1 X7.1256 Y-2.4965 Z-0.7499
G3 X7.1883 Y-2.4926 Z-0.7503 I-0.0314 J0.9995
G1 X7.2821 Y-2.4837 Z-0.7508
G3 X7.3444 Y-2.4759 Z-0.7512 I-0.0941 J0.9956
G1 X7.4375 Y-2.4611 Z-0.7518
G3 X7.4993 Y-2.4493 Z-0.7522 I-0.1564 J0.9877
G1 X7.5912 Y-2.4288 Z-0.7528
G3 X7.652 Y-2.4132 Z-0.7532 I-0.2182 J0.9759
G1 X7.7425 Y-2.3869 Z-0.7537
G3 X7.8022 Y-2.3675 Z-0.7541 I-0.279 J0.9603
G1 X7.8909 Y-2.3356 Z-0.7547
G3 X7.9493 Y-2.3124 Z-0.7551 I-0.3387 J0.9409
G1 X8.0358 Y-2.275 Z-0.7557
G3 X8.0927 Y-2.2482 Z-0.7561 I-0.3971 J0.9178
G1 X8.1766 Y-2.2055 Z-0.7567
G3 X8.2317 Y-2.1752 Z-0.757 I-0.454 J0.891
G1 X8.3128 Y-2.1272 Z-0.7576
G3 X8.3658 Y-2.0936 Z-0.758 I-0.5091 J0.8607
G1 X8.4438 Y-2.0406 Z-0.7586
G3 X8.4945 Y-2.0037 Z-0.759 I-0.5621 J0.8271
G1 X8.569 Y-1.946 Z-0.7596
G3 X8.6175 Y-1.9058 Z-0.7599 I-0.6129 J0.7902
G1 X8.6882 Y-1.8435 Z-0.7605
G3 X8.7339 Y-1.8006 Z-0.7609 I-0.6614 J0.7501
G1 X8.8006 Y-1.7339 Z-0.7615
G3 X8.8435 Y-1.6882 Z-0.7619 I-0.7071 J0.7071
G1 X8.9059 Y-1.6175 Z-0.7625
G3 X8.946 Y-1.569 Z-0.7629 I-0.7501 J0.6613
G1 X9.0037 Y-1.4945 Z-0.7634
G3 X9.0406 Y-1.4438 Z-0.7638 I-0.7902 J0.6129
G1 X9.0936 Y-1.3658 Z-0.7644
G3 X9.1272 Y-1.3128 Z-0.7648 I-0.8271 J0.5621
G1 X9.1752 Y-1.2317 Z-0.7654
G3 X9.2055 Y-1.1766 Z-0.7658 I-0.8607 J0.5091
G1 X9.2483 Y-1.0926 Z-0.7663
G3 X9.275 Y-1.0358 Z-0.7667 I-0.891 J0.454
G1 X9.3124 Y-0.9493 Z-0.7673
G3 X9.3355 Y-0.8909 Z-0.7677 I-0.9178 J0.3971
G1 X9.3675 Y-0.8023 Z-0.7683
G3 X9.3869 Y-0.7425 Z-0.7687 I-0.9409 J0.3387
G1 X9.4132 Y-0.652 Z-0.7693
G3 X9.4288 Y-0.5912 Z-0.7696 I-0.9603 J0.279
G1 X9.4493 Y-0.4993 Z-0.7702
G3 X9.4611 Y-0.4375 Z-0.7706 I-0.9759 J0.2182
G1 X9.4759 Y-0.3444 Z-0.7712
G3 X9.4837 Y-0.2821 Z-0.7716 I-0.9877 J0.1564
G1 X9.4926 Y-0.1883 Z-0.7722
G3 X9.4965 Y-0.1256 Z-0.7726 I-0.9956 J0.0941
G1 X9.4995 Y-0.0314 Z-0.7731
G3 Y0.0314 Z-0.7735 I-0.9995 J0.0314
G1 X9.4965 Y0.1256 Z-0.7741
G3 X9.4926 Y0.1883 Z-0.7745 I-0.9995 J-0.0314
G1 X9.4837 Y0.2821 Z-0.7751
G3 X9.4759 Y0.3444 Z-0.7755 I-0.9956 J-0.0941
G1 X9.4611 Y0.4375 Z-0.776
G3 X9.4493 Y0.4993 Z-0.7764 I-0.9877 J-0.1564
G1 X9.4288 Y0.5912 Z-0.777
G3 X9.4132 Y0.652 Z-0.7774 I-0.9759 J-0.2182
G1 X9.3869 Y0.7425 Z-0.778
G3 X9.3675 Y0.8023 Z-0.7784 I-0.9603 J-0.279
G1 X9.3355 Y0.8909 Z-0.779
G3 X9.3124 Y0.9493 Z-0.7793 I-0.9409 J-0.3387
G1 X9.275 Y1.0358 Z-0.7799
G3 X9.2483 Y1.0926 Z-0.7803 I-0.9178 J-0.3971
G1 X9.2055 Y1.1766 Z-0.7809
G3 X9.1782 Y1.2265 Z-0.7812 I-0.891 J-0.454
G1 X2.1782 Y13.2265 Z-0.867
G3 X2.1752 Y13.2317 I-0.8638 J-0.5039
G1 X2.1272 Y13.3128 Z-0.8676
G3 X2.0938 Y13.3655 Z-0.868 I-0.8607 J-0.5091
G1 X2.0408 Y13.4435 Z-0.8686
G3 X2.0035 Y13.4949 Z-0.869 I-0.8273 J-0.5618
G1 X1.9457 Y13.5693 Z-0.8696
G3 X1.9059 Y13.6173 Z-0.8699 I-0.79 J-0.6132
G1 X1.8436 Y13.688 Z-0.8705
G3 X1.8009 Y13.7335 Z-0.8709 I-0.7502 J-0.6612
G1 X1.7343 Y13.8002 Z-0.8715
G3 X1.688 Y13.8437 Z-0.8719 I-0.7075 J-0.7067
G1 X1.6174 Y13.906 Z-0.8725
G3 X1.5687 Y13.9462 Z-0.8729 I-0.6612 J-0.7502
G1 X1.4942 Y14.0039 Z-0.8734
G3 X1.444 Y14.0404 Z-0.8738 I-0.6125 J-0.7904
G1 X1.3661 Y14.0934 Z-0.8744
G3 X1.313 Y14.1271 Z-0.8748 I-0.5623 J-0.8269
G1 X1.2319 Y14.1751 Z-0.8754
G3 X1.1759 Y14.2059 Z-0.8758 I-0.5093 J-0.8606
G1 X1.092 Y14.2486 Z-0.8763
G3 X1.0365 Y14.2747 Z-0.8767 I-0.4533 J-0.8914
G1 X0.95 Y14.3122 Z-0.8773
G3 X0.8907 Y14.3356 Z-0.8777 I-0.3978 J-0.9175
G1 X0.8021 Y14.3675 Z-0.8783
G3 X0.7426 Y14.3869 Z-0.8787 I-0.3386 J-0.9409
G1 X0.6521 Y14.4132 Z-0.8793
G3 X0.5906 Y14.4289 Z-0.8796 I-0.2791 J-0.9603
G1 X0.4986 Y14.4494 Z-0.8802
G3 X0.4381 Y14.461 Z-0.8806 I-0.2176 J-0.976
G1 X0.345 Y14.4758 Z-0.8812
G3 X0.2814 Y14.4838 Z-0.8816 I-0.157 J-0.9876
G1 X0.1876 Y14.4926 Z-0.8822
G3 X0.126 Y14.4965 Z-0.8825 I-0.0934 J-0.9956
G1 X0.0318 Y14.4995 Z-0.8831
G3 X-0.0318 Z-0.8835 I-0.0318 J-0.9995
G1 X-0.126 Y14.4965 Z-0.8841
G3 X-0.1876 Y14.4926 Z-0.8845 I0.0318 J-0.9995
G1 X-0.2814 Y14.4838 Z-0.8851
G3 X-0.345 Y14.4758 Z-0.8855 I0.0934 J-0.9956
G1 X-0.4381 Y14.461 Z-0.886
G3 X-0.4986 Y14.4494 Z-0.8864 I0.157 J-0.9876
G1 X-0.5906 Y14.4289 Z-0.887
G3 X-0.6521 Y14.4132 Z-0.8874 I0.2176 J-0.976
G1 X-0.7426 Y14.3869 Z-0.888
G3 X-0.8021 Y14.3675 Z-0.8884 I0.2791 J-0.9603
G1 X-0.8907 Y14.3356 Z-0.8889
G3 X-0.95 Y14.3122 Z-0.8893 I0.3386 J-0.9409
G1 X-1.0365 Y14.2747 Z-0.8899
G3 X-1.092 Y14.2486 Z-0.8903 I0.3978 J-0.9175
G1 X-1.1759 Y14.2059 Z-0.8909
G3 X-1.2319 Y14.1751 Z-0.8913 I0.4533 J-0.8914
G1 X-1.313 Y14.1271 Z-0.8919
G3 X-1.3661 Y14.0934 Z-0.8922 I0.5093 J-0.8606
G1 X-1.444 Y14.0404 Z-0.8928
G3 X-1.4942 Y14.0039 Z-0.8932 I0.5623 J-0.8269
G1 X-1.5687 Y13.9462 Z-0.8938
G3 X-1.6174 Y13.906 Z-0.8942 I0.6125 J-0.7904
G1 X-1.688 Y13.8437 Z-0.8948
G3 X-1.7343 Y13.8002 Z-0.8952 I0.6612 J-0.7502
G1 X-1.8009 Y13.7335 Z-0.8957
G3 X-1.8436 Y13.688 Z-0.8961 I0.7075 J-0.7067
G1 X-1.9059 Y13.6173 Z-0.8967
G3 X-1.9457 Y13.5693 Z-0.8971 I0.7502 J-0.6612
G1 X-2.0035 Y13.4949 Z-0.8977
G3 X-2.0408 Y13.4435 Z-0.8981 I0.79 J-0.6132
G1 X-2.0938 Y13.3655 Z-0.8986
G3 X-2.1272 Y13.3128 Z-0.899 I0.8273 J-0.5618
G1 X-2.1752 Y13.2317 Z-0.8996
G3 X-2.2053 Y13.1769 Z-0.9 I0.8607 J-0.5091
G1 X-2.2481 Y13.093 Z-0.9006
G3 X-2.275 Y13.0357 Z-0.901 I0.8909 J-0.4543
G1 X-2.3125 Y12.9492 Z-0.9016
G3 X-2.3356 Y12.8908 Z-0.9019 I0.9178 J-0.397
G1 X-2.3675 Y12.8021 Z-0.9025
G3 X-2.3869 Y12.7425 Z-0.9029 I0.9409 J-0.3386
G1 X-2.4132 Y12.652 Z-0.9035
G3 X-2.4287 Y12.5913 Z-0.9039 I0.9603 J-0.279
G1 X-2.4493 Y12.4994 Z-0.9045
G3 X-2.4611 Y12.4375 Z-0.9048 I0.9759 J-0.2183
G1 X-2.4759 Y12.3444 Z-0.9054
G3 X-2.4837 Y12.2821 Z-0.9058 I0.9877 J-0.1564
G1 X-2.4926 Y12.1883 Z-0.9064
G3 X-2.4965 Y12.1256 Z-0.9068 I0.9956 J-0.0941
G1 X-2.4995 Y12.0314 Z-0.9074
G3 X-2.5 Y12.0 Z-0.9076 I0.9995 J-0.0314
G1 Y0.0 Z-0.9816
G3 X-2.4995 Y-0.0314 Z-0.9818 I1.0 J0.0
G1 X-2.4965 Y-0.1256 Z-0.9824
G3 X-2.4926 Y-0.1883 Z-0.9828 I0.9995 J0.0314
G1 X-2.4837 Y-0.2821 Z-0.9834
G3 X-2.4759 Y-0.3444 Z-0.9838 I0.9956 J0.0941
G1 X-2.4611 Y-0.4375 Z-0.9844
G3 X-2.4493 Y-0.4993 Z-0.9847 I0.9877 J0.1564
G1 X-2.4288 Y-0.5912 Z-0.9853
G3 X-2.4132 Y-0.652 Z-0.9857 I0.9759 J0.2182
G1 X-2.3869 Y-0.7425 Z-0.9863
G3 X-2.3675 Y-0.8023 Z-0.9867 I0.9603 J0.279
G1 X-2.3355 Y-0.8909 Z-0.9873
G3 X-2.3124 Y-0.9493 Z-0.9877 I0.9409 J0.3387
G1 X-2.275 Y-1.0358 Z-0.9882
G3 X-2.2483 Y-1.0926 Z-0.9886 I0.9178 J0.3971
G1 X-2.2055 Y-1.1766 Z-0.9892
G3 X-2.1752 Y-1.2317 Z-0.9896 I0.891 J0.454
G1 X-2.1272 Y-1.3128 Z-0.9902
G3 X-2.0936 Y-1.3658 Z-0.9906 I0.8607 J0.5091
G1 X-2.0406 Y-1.4438 Z-0.9911
G3 X-2.0037 Y-1.4945 Z-0.9915 I0.8271 J0.5621
G1 X-1.946 Y-1.569 Z-0.9921
G3 X-1.9059 Y-1.6175 Z-0.9925 I0.7902 J0.6129
G1 X-1.8435 Y-1.6882 Z-0.9931
G3 X-1.8006 Y-1.7339 Z-0.9935 I0.7501 J0.6613
G1 X-1.7339 Y-1.8006 Z-0.9941
G3 X-1.6882 Y-1.8435 Z-0.9944 I0.7071 J0.7071
G1 X-1.6175 Y-1.9059 Z-0.995
G3 X-1.569 Y-1.946 Z-0.9954 I0.6613 J0.7501
G1 X-1.4945 Y-2.0037 Z-0.996
G3 X-1.4438 Y-2.0406 Z-0.9964 I0.6129 J0.7902
G1 X-1.3658 Y-2.0936 Z-0.997
G3 X-1.3128 Y-2.1272 Z-0.9973 I0.5621 J0.8271
G1 X-1.2317 Y-2.1752 Z-0.9979
G3 X-1.1766 Y-2.2055 Z-0.9983 I0.5091 J0.8607
G1 X-1.0926 Y-2.2483 Z-0.9989
G3 X-1.0358 Y-2.275 Z-0.9993 I0.454 J0.891
G1 X-0.9493 Y-2.3124 Z-0.9999
G3 X-0.8909 Y-2.3355 Z-1.0003 I0.3971 J0.9178
G1 X-0.8023 Y-2.3675 Z-1.0008
G3 X-0.7425 Y-2.3869 Z-1.0012 I0.3387 J0.9409
G1 X-0.652 Y-2.4132 Z-1.0018
G3 X-0.5912 Y-2.4288 Z-1.0022 I0.279 J0.9603
G1 X-0.4993 Y-2.4493 Z-1.0028
G3 X-0.4375 Y-2.4611 Z-1.0032 I0.2182 J0.9759
G1 X-0.3444 Y-2.4759 Z-1.0037
G3 X-0.2821 Y-2.4837 Z-1.0041 I0.1564 J0.9877
G1 X-0.1883 Y-2.4926 Z-1.0047
G3 X-0.1256 Y-2.4965 Z-1.0051 I0.0941 J0.9956
G1 X-0.0314 Y-2.4995 Z-1.0057
G3 X0.0 Y-2.5 Z-1.0059 I0.0314 J0.9995
G1 X7.0 Z-1.0491
G3 X7.0314 Y-2.4995 Z-1.0493 I0.0 J1.0
G1 X7.1256 Y-2.4965 Z-1.0499
G3 X7.1883 Y-2.4926 Z-1.0503 I-0.0314 J0.9995
G1 X7.2821 Y-2.4837 Z-1.0508
G3 X7.3444 Y-2.4759 Z-1.0512 I-0.0941 J0.9956
G1 X7.4375 Y-2.4611 Z-1.0518
G3 X7.4993 Y-2.4493 Z-1.0522 I-0.1564 J0.9877
G1 X7.5912 Y-2.4288 Z-1.0528
G3 X7.652 Y-2.4132 Z-1.0532 I-0.2182 J0.9759
G1 X7.7425 Y-2.3869 Z-1.0537
G3 X7.8022 Y-2.3675 Z-1.0541 I-0.279 J0.9603
G1 X7.8909 Y-2.3356 Z-1.0547
G3 X7.9493 Y-2.3124 Z-1.0551 I-0.3387 J0.9409
G1 X8.0358 Y-2.275 Z-1.0557
G3 X8.0927 Y-2.2482 Z-1.0561 I-0.3971 J0.9178
G1 X8.1766 Y-2.2055 Z-1.0567
G3 X8.2317 Y-2.1752 Z-1.057 I-0.454 J0.891
G1 X8.3128 Y-2.1272 Z-1.0576
G3 X8.3658 Y-2.0936 Z-1.058 I-0.5091 J0.8607
G1 X8.4438 Y-2.0406 Z-1.0586
G3 X8.4945 Y-2.0037 Z-1.059 I-0.5621 J0.8271
G1 X8.569 Y-1.946 Z-1.0596
G3 X8.6175 Y-1.9058 Z-1.0599 I-0.6129 J0.7902
G1 X8.6882 Y-1.8435 Z-1.0605
G3 X8.7339 Y-1.8006 Z-1.0609 I-0.6614 J0.7501
G1 X8.8006 Y-1.7339 Z-1.0615
G3 X8.8435 Y-1.6882 Z-1.0619 I-0.7071 J0.7071
G1 X8.9059 Y-1.6175 Z-1.0625
G3 X8.946 Y-1.569 Z-1.0629 I-0.7501 J0.6613
G1 X9.0037 Y-1.4945 Z-1.0634
G3 X9.0406 Y-1.4438 Z-1.0638 I-0.7902 J0.6129
G1 X9.0936 Y-1.3658 Z-1.0644
G3 X9.1272 Y-1.3128 Z-1.0648 I-0.8271 J0.5621
G1 X9.1752 Y-1.2317 Z-1.0654
G3 X9.2055 Y-1.1766 Z-1.0658 I-0.8607 J0.5091
G1 X9.2483 Y-1.0926 Z-1.0663
G3 X9.275 Y-1.0358 Z-1.0667 I-0.891 J0.454
G1 X9.3124 Y-0.9493 Z-1.0673
G3 X9.3355 Y-0.8909 Z-1.0677 I-0.9178 J0.3971
G1 X9.3675 Y-0.8023 Z-1.0683
G3 X9.3869 Y-0.7425 Z-1.0687 I-0.9409 J0.3387
G1 X9.4132 Y-0.652 Z-1.0693
G3 X9.4288 Y-0.5912 Z-1.0696 I-0.9603 J0.279
G1 X9.4493 Y-0.4993 Z-1.0702
G3 X9.4611 Y-0.4375 Z-1.0706 I-0.9759 J0.2182
G1 X9.4759 Y-0.3444 Z-1.0712
G3 X9.4837 Y-0.2821 Z-1.0716 I-0.9877 J0.1564
G1 X9.4926 Y-0.1883 Z-1.0722
G3 X9.4965 Y-0.1256 Z-1.0726 I-0.9956 J0.0941
G1 X9.4995 Y-0.0314 Z-1.0731
G3 Y0.0314 Z-1.0735 I-0.9995 J0.0314
G1 X9.4965 Y0.1256 Z-1.0741
G3 X9.4926 Y0.1883 Z-1.0745 I-0.9995 J-0.0314
G1 X9.4837 Y0.2821 Z-1.0751
G3 X9.4759 Y0.3444 Z-1.0755 I-0.9956 J-0.0941
G1 X9.4611 Y0.4375 Z-1.076
G3 X9.4493 Y0.4993 Z-1.0764 I-0.9877 J-0.1564
G1 X9.4288 Y0.5912 Z-1.077
G3 X9.4132 Y0.652 Z-1.0774 I-0.9759 J-0.2182
G1 X9.3869 Y0.7425 Z-1.078
G3 X9.3675 Y0.8023 Z-1.0784 I-0.9603 J-0.279
G1 X9.3355 Y0.8909 Z-1.079
G3 X9.3124 Y0.9493 Z-1.0793 I-0.9409 J-0.3387
G1 X9.275 Y1.0358 Z-1.0799
G3 X9.2483 Y1.0926 Z-1.0803 I-0.9178 J-0.3971
G1 X9.2055 Y1.1766 Z-1.0809
G3 X9.1782 Y1.2265 Z-1.0812 I-0.891 J-0.454
G1 X2.1782 Y13.2265 Z-1.167
G3 X2.1752 Y13.2317 I-0.8638 J-0.5039
G1 X2.1272 Y13.3128 Z-1.1676
G3 X2.0938 Y13.3655 Z-1.168 I-0.8607 J-0.5091
G1 X2.0408 Y13.4435 Z-1.1686
G3 X2.0035 Y13.4949 Z-1.169 I-0.8273 J-0.5618
G1 X1.9457 Y13.5693 Z-1.1696
G3 X1.9059 Y13.6173 Z-1.1699 I-0.79 J-0.6132
G1 X1.8436 Y13.688 Z-1.1705
G3 X1.8009 Y13.7335 Z-1.1709 I-0.7502 J-0.6612
G1 X1.7343 Y13.8002 Z-1.1715
G3 X1.688 Y13.8437 Z-1.1719 I-0.7075 J-0.7067
G1 X1.6174 Y13.906 Z-1.1725
G3 X1.5687 Y13.9462 Z-1.1729 I-0.6612 J-0.7502
G1 X1.4942 Y14.0039 Z-1.1734
G3 X1.444 Y14.0404 Z-1.1738 I-0.6125 J-0.7904
G1 X1.3661 Y14.0934 Z-1.1744
G3 X1.313 Y14.1271 Z-1.1748 I-0.5623 J-0.8269
G1 X1.2319 Y14.1751 Z-1.1754
G3 X1.1759 Y14.2059 Z-1.1758 I-0.5093 J-0.8606
G1 X1.092 Y14.2486 Z-1.1763
G3 X1.0365 Y14.2747 Z-1.1767 I-0.4533 J-0.8914
G1 X0.95 Y14.3122 Z-1.1773
G3 X0.8907 Y14.3356 Z-1.1777 I-0.3978 J-0.9175
G1 X0.8021 Y14.3675 Z-1.1783
G3 X0.7426 Y14.3869 Z-1.1787 I-0.3386 J-0.9409
G1 X0.6521 Y14.4132 Z-1.1793
G3 X0.5906 Y14.4289 Z-1.1796 I-0.2791 J-0.9603
G1 X0.4986 Y14.4494 Z-1.1802
G3 X0.4381 Y14.461 Z-1.1806 I-0.2176 J-0.976
G1 X0.345 Y14.4758 Z-1.1812
G3 X0.2814 Y14.4838 Z-1.1816 I-0.157 J-0.9876
G1 X0.1876 Y14.4926 Z-1.1822
G3 X0.126 Y14.4965 Z-1.1825 I-0.0934 J-0.9956
G1 X0.0318 Y14.4995 Z-1.1831
G3 X-0.0318 Z-1.1835 I-0.0318 J-0.9995
G1 X-0.126 Y14.4965 Z-1.1841
G3 X-0.1876 Y14.4926 Z-1.1845 I0.0318 J-0.9995
G1 X-0.2814 Y14.4838 Z-1.1851
G3 X-0.345 Y14.4758 Z-1.1855 I0.0934 J-0.9956
G1 X-0.4381 Y14.461 Z-1.186
G3 X-0.4986 Y14.4494 Z-1.1864 I0.157 J-0.9876
G1 X-0.5906 Y14.4289 Z-1.187
G3 X-0.6521 Y14.4132 Z-1.1874 I0.2176 J-0.976
G1 X-0.7426 Y14.3869 Z-1.188
G3 X-0.8021 Y14.3675 Z-1.1884 I0.2791 J-0.9603
G1 X-0.8907 Y14.3356 Z-1.1889
G3 X-0.95 Y14.3122 Z-1.1893 I0.3386 J-0.9409
G1 X-1.0365 Y14.2747 Z-1.1899
G3 X-1.092 Y14.2486 Z-1.1903 I0.3978 J-0.9175
G1 X-1.1759 Y14.2059 Z-1.1909
G3 X-1.2319 Y14.1751 Z-1.1913 I0.4533 J-0.8914
G1 X-1.313 Y14.1271 Z-1.1919
G3 X-1.3661 Y14.0934 Z-1.1922 I0.5093 J-0.8606
G1 X-1.444 Y14.0404 Z-1.1928
G3 X-1.4942 Y14.0039 Z-1.1932 I0.5623 J-0.8269
G1 X-1.5687 Y13.9462 Z-1.1938
G3 X-1.6174 Y13.906 Z-1.1942 I0.6125 J-0.7904
G1 X-1.688 Y13.8437 Z-1.1948
G3 X-1.7343 Y13.8002 Z-1.1952 I0.6612 J-0.7502
G1 X-1.8009 Y13.7335 Z-1.1957
G3 X-1.8436 Y13.688 Z-1.1961 I0.7075 J-0.7067
G1 X-1.9059 Y13.6173 Z-1.1967
G3 X-1.9457 Y13.5693 Z-1.1971 I0.7502 J-0.6612
G1 X-2.0035 Y13.4949 Z-1.1977
G3 X-2.0408 Y13.4435 Z-1.1981 I0.79 J-0.6132
G1 X-2.0938 Y13.3655 Z-1.1986
G3 X-2.1272 Y13.3128 Z-1.199 I0.8273 J-0.5618
G1 X-2.1752 Y13.2317 Z-1.1996
G3 X-2.2053 Y13.1769 Z-1.2 I0.8607 J-0.5091
G1 X-2.2481 Y13.093 Z-1.2006
G3 X-2.275 Y13.0357 Z-1.201 I0.8909 J-0.4543
G1 X-2.3125 Y12.9492 Z-1.2016
G3 X-2.3356 Y12.8908 Z-1.2019 I0.9178 J-0.397
G1 X-2.3675 Y12.8021 Z-1.2025
G3 X-2.3869 Y12.7425 Z-1.2029 I0.9409 J-0.3386
G1 X-2.4132 Y12.652 Z-1.2035
G3 X-2.4287 Y12.5913 Z-1.2039 I0.9603 J-0.279
G1 X-2.4493 Y12.4994 Z-1.2045
G3 X-2.4611 Y12.4375 Z-1.2048 I0.9759 J-0.2183
G1 X-2.4759 Y12.3444 Z-1.2054
G3 X-2.4837 Y12.2821 Z-1.2058 I0.9877 J-0.1564
G1 X-2.4926 Y12.1883 Z-1.2064
G3 X-2.4965 Y12.1256 Z-1.2068 I0.9956 J-0.0941
G1 X-2.4995 Y12.0314 Z-1.2074
G3 X-2.5 Y12.0 Z-1.2076 I0.9995 J-0.0314
G1 Y0.0 Z-1.2816
G3 X-2.4995 Y-0.0314 Z-1.2818 I1.0 J0.0
G1 X-2.4965 Y-0.1256 Z-1.2824
G3 X-2.4926 Y-0.1883 Z-1.2828 I0.9995 J0.0314
G1 X-2.4837 Y-0.2821 Z-1.2834
G3 X-2.4759 Y-0.3444 Z-1.2838 I0.9956 J0.0941
G1 X-2.4611 Y-0.4375 Z-1.2844
G3 X-2.4493 Y-0.4993 Z-1.2847 I0.9877 J0.1564
G1 X-2.4288 Y-0.5912 Z-1.2853
G3 X-2.4132 Y-0.652 Z-1.2857 I0.9759 J0.2182
G1 X-2.3869 Y-0.7425 Z-1.2863
G3 X-2.3675 Y-0.8023 Z-1.2867 I0.9603 J0.279
G1 X-2.3355 Y-0.8909 Z-1.2873
G3 X-2.3124 Y-0.9493 Z-1.2877 I0.9409 J0.3387
G1 X-2.275 Y-1.0358 Z-1.2882
G3 X-2.2483 Y-1.0926 Z-1.2886 I0.9178 J0.3971
G1 X-2.2055 Y-1.1766 Z-1.2892
G3 X-2.1752 Y-1.2317 Z-1.2896 I0.891 J0.454
G1 X-2.1272 Y-1.3128 Z-1.2902
G3 X-2.0936 Y-1.3658 Z-1.2906 I0.8607 J0.5091
G1 X-2.0406 Y-1.4438 Z-1.2911
G3 X-2.0037 Y-1.4945 Z-1.2915 I0.8271 J0.5621
G1 X-1.946 Y-1.569 Z-1.2921
G3 X-1.9059 Y-1.6175 Z-1.2925 I0.7902 J0.6129
G1 X-1.8435 Y-1.6882 Z-1.2931
G3 X-1.8006 Y-1.7339 Z-1.2935 I0.7501 J0.6613
G1 X-1.7339 Y-1.8006 Z-1.2941
G3 X-1.6882 Y-1.8435 Z-1.2944 I0.7071 J0.7071
G1 X-1.6175 Y-1.9059 Z-1.295
G3 X-1.569 Y-1.946 Z-1.2954 I0.6613 J0.7501
G1 X-1.4945 Y-2.0037 Z-1.296
G3 X-1.4438 Y-2.0406 Z-1.2964 I0.6129 J0.7902
G1 X-1.3658 Y-2.0936 Z-1.297
G3 X-1.3128 Y-2.1272 Z-1.2973 I0.5621 J0.8271
G1 X-1.2317 Y-2.1752 Z-1.2979
G3 X-1.1766 Y-2.2055 Z-1.2983 I0.5091 J0.8607
G1 X-1.0926 Y-2.2483 Z-1.2989
G3 X-1.0358 Y-2.275 Z-1.2993 I0.454 J0.891
G1 X-0.9493 Y-2.3124 Z-1.2999
G3 X-0.8909 Y-2.3355 Z-1.3003 I0.3971 J0.9178
G1 X-0.8023 Y-2.3675 Z-1.3008
G3 X-0.7425 Y-2.3869 Z-1.3012 I0.3387 J0.9409
G1 X-0.652 Y-2.4132 Z-1.3018
G3 X-0.5912 Y-2.4288 Z-1.3022 I0.279 J0.9603
G1 X-0.4993 Y-2.4493 Z-1.3028
