( Made using CamBam - http://www.cambam.co.uk )
( bottomPanel 1/31/2021 10:32:02 PM )
( T2 : 2.0 )
( CUTVIEWER )
( FROM/0,0,5 )
( Select dummy tool to avoid warnings )
( TOOL/MILL,1,0,20.0,0 )
( STOCK/BLOCK,180.0,100.0,4.0,90.0,50.0,4.0 )
G21 G90 G91.1 G64 G40
G0 Z3.0
( T2 : 2.0 )
( Tool Taper coming soon )
( TOOL/MILL,2.0,0.0,0.0,0 )
T2 M6
( ventilationPocket )
G17
M3 S1000
G0 X-47.6818 Y15.1709
G0 Z1.0
G1 F300.0 Z0.0
G1 F800.0 X-47.6709 Y15.1818 Z-0.0001
G1 X-47.6591 Y15.1922 Z-0.0002
G1 X-47.6465 Y15.2019 Z-0.0003
G1 X-47.6336 Y15.2107 Z-0.0004
G1 X-47.6204 Y15.2185 Z-0.0005
G1 X-47.6063 Y15.2257 Z-0.0006
G1 X-47.5917 Y15.232 Z-0.0007
G1 X-47.5772 Y15.2373 Z-0.0008
G1 X-47.5618 Y15.2417 Z-0.0009
G1 X-47.5468 Y15.2451 Z-0.001
G1 X-47.5317 Y15.2475 Z-0.0011
G1 X-47.5154 Y15.249 Z-0.0012
G1 X-47.5 Y15.2495 Z-0.0013
G1 X-47.4846 Y15.249 Z-0.0014
G1 X-47.4683 Y15.2475 Z-0.0015
G1 X-47.4532 Y15.2451 Z-0.0016
G1 X-47.4382 Y15.2417 Z-0.0017
G1 X-47.4228 Y15.2373 Z-0.0018
G1 X-47.4083 Y15.232 Z-0.0019
G1 X-47.3937 Y15.2257 Z-0.002
G1 X-47.3796 Y15.2185 Z-0.0021
G1 X-47.3664 Y15.2107 Z-0.0022
G1 X-47.3535 Y15.2019 Z-0.0023
G1 X-47.3409 Y15.1922 Z-0.0024
G1 X-47.3291 Y15.1818 Z-0.0025
G1 X-47.3182 Y15.1709 Z-0.0026
G1 X-47.3078 Y15.1591 Z-0.0027
G1 X-47.2981 Y15.1465 Z-0.0029
G1 X-47.2893 Y15.1336 Z-0.003
G1 X-47.2815 Y15.1204 Z-0.0031
G1 X-47.2743 Y15.1063 Z-0.0032
G1 X-47.268 Y15.0917 Z-0.0033
G1 X-47.2627 Y15.0772 Z-0.0034
G1 X-47.2583 Y15.0618 Z-0.0035
G1 X-47.2549 Y15.0468 Z-0.0036
G1 X-47.2525 Y15.0317 Z-0.0037
G1 X-47.251 Y15.0154 Z-0.0038
G1 X-47.25 Y14.9841 Z-0.004
G1 Y-14.9841 Z-0.1987
G1 X-47.251 Y-15.0154 Z-0.1989
G1 X-47.2525 Y-15.0317 Z-0.199
G1 X-47.2549 Y-15.0468 Z-0.1991
G1 X-47.2583 Y-15.0618 Z-0.1992
G1 X-47.2627 Y-15.0772 Z-0.1993
G1 X-47.268 Y-15.0917 Z-0.1994
G1 X-47.2743 Y-15.1063 Z-0.1995
G1 X-47.2815 Y-15.1204 Z-0.1996
G1 X-47.2893 Y-15.1336 Z-0.1997
G1 X-47.2981 Y-15.1465 Z-0.1998
G1 X-47.3078 Y-15.1591 Z-0.1999
G1 X-47.3182 Y-15.1709 Z-0.2
G1 X-47.3291 Y-15.1818 Z-0.2001
G1 X-47.3409 Y-15.1922 Z-0.2002
G1 X-47.3535 Y-15.2019 Z-0.2003
G1 X-47.3664 Y-15.2107 Z-0.2004
G1 X-47.3796 Y-15.2185 Z-0.2005
G1 X-47.3937 Y-15.2257 Z-0.2006
G1 X-47.4083 Y-15.232 Z-0.2007
G1 X-47.4228 Y-15.2373 Z-0.2008
G1 X-47.4382 Y-15.2417 Z-0.2009
G1 X-47.4532 Y-15.2451 Z-0.201
G1 X-47.4683 Y-15.2475 Z-0.2011
G1 X-47.4846 Y-15.249 Z-0.2012
G1 X-47.5 Y-15.2495 Z-0.2013
G1 X-47.5154 Y-15.249 Z-0.2014
G1 X-47.5317 Y-15.2475 Z-0.2015
G1 X-47.5468 Y-15.2451 Z-0.2016
G1 X-47.5618 Y-15.2417 Z-0.2017
G1 X-47.5772 Y-15.2373 Z-0.2018
G1 X-47.5917 Y-15.232 Z-0.2019
G1 X-47.6063 Y-15.2257 Z-0.202
G1 X-47.6204 Y-15.2185 Z-0.2021
G1 X-47.6336 Y-15.2107 Z-0.2022
G1 X-47.6465 Y-15.2019 Z-0.2023
G1 X-47.6591 Y-15.1922 Z-0.2024
G1 X-47.6709 Y-15.1818 Z-0.2025
G1 X-47.6818 Y-15.1709 Z-0.2026
G1 X-47.6922 Y-15.1591 Z-0.2027
G1 X-47.7019 Y-15.1465 Z-0.2029
G1 X-47.7107 Y-15.1336 Z-0.203
G1 X-47.7185 Y-15.1204 Z-0.2031
G1 X-47.7257 Y-15.1063 Z-0.2032
G1 X-47.732 Y-15.0917 Z-0.2033
G1 X-47.7373 Y-15.0772 Z-0.2034
G1 X-47.7417 Y-15.0618 Z-0.2035
G1 X-47.7451 Y-15.0468 Z-0.2036
G1 X-47.7475 Y-15.0317 Z-0.2037
G1 X-47.749 Y-15.0154 Z-0.2038
G1 X-47.75 Y-14.9841 Z-0.204
G1 Y14.9841 Z-0.3987
G1 X-47.749 Y15.0154 Z-0.3989
G1 X-47.7475 Y15.0317 Z-0.399
G1 X-47.7451 Y15.0468 Z-0.3991
G1 X-47.7417 Y15.0618 Z-0.3992
G1 X-47.7373 Y15.0772 Z-0.3993
G1 X-47.732 Y15.0917 Z-0.3994
G1 X-47.7257 Y15.1063 Z-0.3995
G1 X-47.7185 Y15.1204 Z-0.3996
G1 X-47.7107 Y15.1336 Z-0.3997
G1 X-47.7019 Y15.1465 Z-0.3998
G1 X-47.6922 Y15.1591 Z-0.3999
G1 X-47.6818 Y15.1709 Z-0.4
G1 X-47.6709 Y15.1818 Z-0.4001
G1 X-47.6591 Y15.1922 Z-0.4002
G1 X-47.6465 Y15.2019 Z-0.4003
G1 X-47.6336 Y15.2107 Z-0.4004
G1 X-47.6204 Y15.2185 Z-0.4005
G1 X-47.6063 Y15.2257 Z-0.4006
G1 X-47.5917 Y15.232 Z-0.4007
G1 X-47.5772 Y15.2373 Z-0.4008
G1 X-47.5618 Y15.2417 Z-0.4009
G1 X-47.5468 Y15.2451 Z-0.401
G1 X-47.5317 Y15.2475 Z-0.4011
G1 X-47.5154 Y15.249 Z-0.4012
G1 X-47.5 Y15.2495 Z-0.4013
G1 X-47.4846 Y15.249 Z-0.4014
G1 X-47.4683 Y15.2475 Z-0.4015
G1 X-47.4532 Y15.2451 Z-0.4016
G1 X-47.4382 Y15.2417 Z-0.4017
G1 X-47.4228 Y15.2373 Z-0.4018
G1 X-47.4083 Y15.232 Z-0.4019
G1 X-47.3937 Y15.2257 Z-0.402
G1 X-47.3796 Y15.2185 Z-0.4021
G1 X-47.3664 Y15.2107 Z-0.4022
G1 X-47.3535 Y15.2019 Z-0.4023
G1 X-47.3409 Y15.1922 Z-0.4024
G1 X-47.3291 Y15.1818 Z-0.4025
G1 X-47.3182 Y15.1709 Z-0.4026
G1 X-47.3078 Y15.1591 Z-0.4027
G1 X-47.2981 Y15.1465 Z-0.4029
G1 X-47.2893 Y15.1336 Z-0.403
G1 X-47.2815 Y15.1204 Z-0.4031
G1 X-47.2743 Y15.1063 Z-0.4032
G1 X-47.268 Y15.0917 Z-0.4033
G1 X-47.2627 Y15.0772 Z-0.4034
G1 X-47.2583 Y15.0618 Z-0.4035
G1 X-47.2549 Y15.0468 Z-0.4036
G1 X-47.2525 Y15.0317 Z-0.4037
G1 X-47.251 Y15.0154 Z-0.4038
G1 X-47.25 Y14.9841 Z-0.404
G1 Y-14.9841 Z-0.5987
G1 X-47.251 Y-15.0154 Z-0.5989
G1 X-47.2525 Y-15.0317 Z-0.599
G1 X-47.2549 Y-15.0468 Z-0.5991
G1 X-47.2583 Y-15.0618 Z-0.5992
G1 X-47.2627 Y-15.0772 Z-0.5993
G1 X-47.268 Y-15.0917 Z-0.5994
G1 X-47.2743 Y-15.1063 Z-0.5995
G1 X-47.2815 Y-15.1204 Z-0.5996
G1 X-47.2893 Y-15.1336 Z-0.5997
G1 X-47.2981 Y-15.1465 Z-0.5998
G1 X-47.3078 Y-15.1591 Z-0.5999
G1 X-47.3182 Y-15.1709 Z-0.6
G1 X-47.3291 Y-15.1818 Z-0.6001
G1 X-47.3409 Y-15.1922 Z-0.6002
G1 X-47.3535 Y-15.2019 Z-0.6003
G1 X-47.3664 Y-15.2107 Z-0.6004
G1 X-47.3796 Y-15.2185 Z-0.6005
G1 X-47.3937 Y-15.2257 Z-0.6006
G1 X-47.4083 Y-15.232 Z-0.6007
G1 X-47.4228 Y-15.2373 Z-0.6008
G1 X-47.4382 Y-15.2417 Z-0.6009
G1 X-47.4532 Y-15.2451 Z-0.601
G1 X-47.4683 Y-15.2475 Z-0.6011
G1 X-47.4846 Y-15.249 Z-0.6012
G1 X-47.5 Y-15.2495 Z-0.6013
G1 X-47.5154 Y-15.249 Z-0.6014
G1 X-47.5317 Y-15.2475 Z-0.6015
G1 X-47.5468 Y-15.2451 Z-0.6016
G1 X-47.5618 Y-15.2417 Z-0.6017
G1 X-47.5772 Y-15.2373 Z-0.6018
G1 X-47.5917 Y-15.232 Z-0.6019
G1 X-47.6063 Y-15.2257 Z-0.602
G1 X-47.6204 Y-15.2185 Z-0.6021
G1 X-47.6336 Y-15.2107 Z-0.6022
G1 X-47.6465 Y-15.2019 Z-0.6023
G1 X-47.6591 Y-15.1922 Z-0.6024
G1 X-47.6709 Y-15.1818 Z-0.6025
G1 X-47.6818 Y-15.1709 Z-0.6026
G1 X-47.6922 Y-15.1591 Z-0.6027
G1 X-47.7019 Y-15.1465 Z-0.6029
G1 X-47.7107 Y-15.1336 Z-0.603
G1 X-47.7185 Y-15.1204 Z-0.6031
G1 X-47.7257 Y-15.1063 Z-0.6032
G1 X-47.732 Y-15.0917 Z-0.6033
G1 X-47.7373 Y-15.0772 Z-0.6034
G1 X-47.7417 Y-15.0618 Z-0.6035
G1 X-47.7451 Y-15.0468 Z-0.6036
G1 X-47.7475 Y-15.0317 Z-0.6037
G1 X-47.749 Y-15.0154 Z-0.6038
G1 X-47.75 Y-14.9841 Z-0.604
G1 Y14.9841 Z-0.7987
G1 X-47.749 Y15.0154 Z-0.7989
G1 X-47.7475 Y15.0317 Z-0.799
G1 X-47.7451 Y15.0468 Z-0.7991
G1 X-47.7417 Y15.0618 Z-0.7992
G1 X-47.7373 Y15.0772 Z-0.7993
G1 X-47.732 Y15.0917 Z-0.7994
G1 X-47.7257 Y15.1063 Z-0.7995
G1 X-47.7185 Y15.1204 Z-0.7996
G1 X-47.7107 Y15.1336 Z-0.7997
G1 X-47.7019 Y15.1465 Z-0.7998
G1 X-47.6922 Y15.1591 Z-0.7999
G1 X-47.6818 Y15.1709 Z-0.8
G1 X-47.6709 Y15.1818 Z-0.8001
G1 X-47.6591 Y15.1922 Z-0.8002
G1 X-47.6465 Y15.2019 Z-0.8003
G1 X-47.6336 Y15.2107 Z-0.8004
G1 X-47.6204 Y15.2185 Z-0.8005
G1 X-47.6063 Y15.2257 Z-0.8006
G1 X-47.5917 Y15.232 Z-0.8007
G1 X-47.5772 Y15.2373 Z-0.8008
G1 X-47.5618 Y15.2417 Z-0.8009
G1 X-47.5468 Y15.2451 Z-0.801
G1 X-47.5317 Y15.2475 Z-0.8011
G1 X-47.5154 Y15.249 Z-0.8012
G1 X-47.5 Y15.2495 Z-0.8013
G1 X-47.4846 Y15.249 Z-0.8014
G1 X-47.4683 Y15.2475 Z-0.8015
G1 X-47.4532 Y15.2451 Z-0.8016
G1 X-47.4382 Y15.2417 Z-0.8017
G1 X-47.4228 Y15.2373 Z-0.8018
G1 X-47.4083 Y15.232 Z-0.8019
G1 X-47.3937 Y15.2257 Z-0.802
G1 X-47.3796 Y15.2185 Z-0.8021
G1 X-47.3664 Y15.2107 Z-0.8022
G1 X-47.3535 Y15.2019 Z-0.8023
G1 X-47.3409 Y15.1922 Z-0.8024
G1 X-47.3291 Y15.1818 Z-0.8025
G1 X-47.3182 Y15.1709 Z-0.8026
G1 X-47.3078 Y15.1591 Z-0.8027
G1 X-47.2981 Y15.1465 Z-0.8029
G1 X-47.2893 Y15.1336 Z-0.803
G1 X-47.2815 Y15.1204 Z-0.8031
G1 X-47.2743 Y15.1063 Z-0.8032
G1 X-47.268 Y15.0917 Z-0.8033
G1 X-47.2627 Y15.0772 Z-0.8034
G1 X-47.2583 Y15.0618 Z-0.8035
G1 X-47.2549 Y15.0468 Z-0.8036
G1 X-47.2525 Y15.0317 Z-0.8037
G1 X-47.251 Y15.0154 Z-0.8038
G1 X-47.25 Y14.9841 Z-0.804
G1 Y-14.9841 Z-0.9987
G1 X-47.251 Y-15.0154 Z-0.9989
G1 X-47.2525 Y-15.0317 Z-0.999
G1 X-47.2549 Y-15.0468 Z-0.9991
G1 X-47.2583 Y-15.0618 Z-0.9992
G1 X-47.2627 Y-15.0772 Z-0.9993
G1 X-47.268 Y-15.0917 Z-0.9994
G1 X-47.2743 Y-15.1063 Z-0.9995
G1 X-47.2815 Y-15.1204 Z-0.9996
G1 X-47.2893 Y-15.1336 Z-0.9997
G1 X-47.2981 Y-15.1465 Z-0.9998
G1 X-47.3078 Y-15.1591 Z-0.9999
G1 X-47.3182 Y-15.1709 Z-1.0
G1 X-47.3291 Y-15.1818 Z-1.0001
G1 X-47.3409 Y-15.1922 Z-1.0002
G1 X-47.3535 Y-15.2019 Z-1.0003
G1 X-47.3664 Y-15.2107 Z-1.0004
G1 X-47.3796 Y-15.2185 Z-1.0005
G1 X-47.3937 Y-15.2257 Z-1.0006
G1 X-47.4083 Y-15.232 Z-1.0007
G1 X-47.4228 Y-15.2373 Z-1.0008
G1 X-47.4382 Y-15.2417 Z-1.0009
G1 X-47.4532 Y-15.2451 Z-1.001
G1 X-47.4683 Y-15.2475 Z-1.0011
G1 X-47.4846 Y-15.249 Z-1.0012
G1 X-47.5 Y-15.2495 Z-1.0013
G1 X-47.5154 Y-15.249 Z-1.0014
G1 X-47.5317 Y-15.2475 Z-1.0015
G1 X-47.5468 Y-15.2451 Z-1.0016
G1 X-47.5618 Y-15.2417 Z-1.0017
G1 X-47.5772 Y-15.2373 Z-1.0018
G1 X-47.5917 Y-15.232 Z-1.0019
G1 X-47.6063 Y-15.2257 Z-1.002
G1 X-47.6204 Y-15.2185 Z-1.0021
G1 X-47.6336 Y-15.2107 Z-1.0022
G1 X-47.6465 Y-15.2019 Z-1.0023
G1 X-47.6591 Y-15.1922 Z-1.0024
G1 X-47.6709 Y-15.1818 Z-1.0025
G1 X-47.6818 Y-15.1709 Z-1.0026
G1 X-47.6922 Y-15.1591 Z-1.0027
G1 X-47.7019 Y-15.1465 Z-1.0029
G1 X-47.7107 Y-15.1336 Z-1.003
G1 X-47.7185 Y-15.1204 Z-1.0031
G1 X-47.7257 Y-15.1063 Z-1.0032
G1 X-47.732 Y-15.0917 Z-1.0033
G1 X-47.7373 Y-15.0772 Z-1.0034
G1 X-47.7417 Y-15.0618 Z-1.0035
G1 X-47.7451 Y-15.0468 Z-1.0036
G1 X-47.7475 Y-15.0317 Z-1.0037
G1 X-47.749 Y-15.0154 Z-1.0038
G1 X-47.75 Y-14.9841 Z-1.004
G1 Y14.9841 Z-1.1987
G1 X-47.749 Y15.0154 Z-1.1989
G1 X-47.7475 Y15.0317 Z-1.199
G1 X-47.7451 Y15.0468 Z-1.1991
G1 X-47.7417 Y15.0618 Z-1.1992
G1 X-47.7373 Y15.0772 Z-1.1993
G1 X-47.732 Y15.0917 Z-1.1994
G1 X-47.7257 Y15.1063 Z-1.1995
G1 X-47.7185 Y15.1204 Z-1.1996
G1 X-47.7107 Y15.1336 Z-1.1997
G1 X-47.7019 Y15.1465 Z-1.1998
G1 X-47.6922 Y15.1591 Z-1.1999
G1 X-47.6818 Y15.1709 Z-1.2
G1 X-47.6709 Y15.1818 Z-1.2001
G1 X-47.6591 Y15.1922 Z-1.2002
G1 X-47.6465 Y15.2019 Z-1.2003
G1 X-47.6336 Y15.2107 Z-1.2004
G1 X-47.6204 Y15.2185 Z-1.2005
G1 X-47.6063 Y15.2257 Z-1.2006
G1 X-47.5917 Y15.232 Z-1.2007
G1 X-47.5772 Y15.2373 Z-1.2008
G1 X-47.5618 Y15.2417 Z-1.2009
G1 X-47.5468 Y15.2451 Z-1.201
G1 X-47.5317 Y15.2475 Z-1.2011
G1 X-47.5154 Y15.249 Z-1.2012
G1 X-47.5 Y15.2495 Z-1.2013
G1 X-47.4846 Y15.249 Z-1.2014
G1 X-47.4683 Y15.2475 Z-1.2015
G1 X-47.4532 Y15.2451 Z-1.2016
G1 X-47.4382 Y15.2417 Z-1.2017
G1 X-47.4228 Y15.2373 Z-1.2018
G1 X-47.4083 Y15.232 Z-1.2019
G1 X-47.3937 Y15.2257 Z-1.202
G1 X-47.3796 Y15.2185 Z-1.2021
G1 X-47.3664 Y15.2107 Z-1.2022
G1 X-47.3535 Y15.2019 Z-1.2023
G1 X-47.3409 Y15.1922 Z-1.2024
G1 X-47.3291 Y15.1818 Z-1.2025
G1 X-47.3182 Y15.1709 Z-1.2026
G1 X-47.3078 Y15.1591 Z-1.2027
G1 X-47.2981 Y15.1465 Z-1.2029
G1 X-47.2893 Y15.1336 Z-1.203
G1 X-47.2815 Y15.1204 Z-1.2031
G1 X-47.2743 Y15.1063 Z-1.2032
G1 X-47.268 Y15.0917 Z-1.2033
G1 X-47.2627 Y15.0772 Z-1.2034
G1 X-47.2583 Y15.0618 Z-1.2035
G1 X-47.2549 Y15.0468 Z-1.2036
G1 X-47.2525 Y15.0317 Z-1.2037
G1 X-47.251 Y15.0154 Z-1.2038
G1 X-47.25 Y14.9841 Z-1.204
G1 Y-14.9841 Z-1.3987
G1 X-47.251 Y-15.0154 Z-1.3989
G1 X-47.2525 Y-15.0317 Z-1.399
G1 X-47.2549 Y-15.0468 Z-1.3991
G1 X-47.2583 Y-15.0618 Z-1.3992
G1 X-47.2627 Y-15.0772 Z-1.3993
G1 X-47.268 Y-15.0917 Z-1.3994
G1 X-47.2743 Y-15.1063 Z-1.3995
G1 X-47.2815 Y-15.1204 Z-1.3996
G1 X-47.2893 Y-15.1336 Z-1.3997
G1 X-47.2981 Y-15.1465 Z-1.3998
G1 X-47.3078 Y-15.1591 Z-1.3999
G1 X-47.3182 Y-15.1709 Z-1.4
G1 X-47.3291 Y-15.1818 Z-1.4001
G1 X-47.3409 Y-15.1922 Z-1.4002
G1 X-47.3535 Y-15.2019 Z-1.4003
G1 X-47.3664 Y-15.2107 Z-1.4004
G1 X-47.3796 Y-15.2185 Z-1.4005
G1 X-47.3937 Y-15.2257 Z-1.4006
G1 X-47.4083 Y-15.232 Z-1.4007
G1 X-47.4228 Y-15.2373 Z-1.4008
G1 X-47.4382 Y-15.2417 Z-1.4009
G1 X-47.4532 Y-15.2451 Z-1.401
G1 X-47.4683 Y-15.2475 Z-1.4011
G1 X-47.4846 Y-15.249 Z-1.4012
G1 X-47.5 Y-15.2495 Z-1.4013
G1 X-47.5154 Y-15.249 Z-1.4014
G1 X-47.5317 Y-15.2475 Z-1.4015
G1 X-47.5468 Y-15.2451 Z-1.4016
G1 X-47.5618 Y-15.2417 Z-1.4017
G1 X-47.5772 Y-15.2373 Z-1.4018
G1 X-47.5917 Y-15.232 Z-1.4019
G1 X-47.6063 Y-15.2257 Z-1.402
G1 X-47.6204 Y-15.2185 Z-1.4021
G1 X-47.6336 Y-15.2107 Z-1.4022
G1 X-47.6465 Y-15.2019 Z-1.4023
G1 X-47.6591 Y-15.1922 Z-1.4024
G1 X-47.6709 Y-15.1818 Z-1.4025
G1 X-47.6818 Y-15.1709 Z-1.4026
G1 X-47.6922 Y-15.1591 Z-1.4027
G1 X-47.7019 Y-15.1465 Z-1.4029
G1 X-47.7107 Y-15.1336 Z-1.403
G1 X-47.7185 Y-15.1204 Z-1.4031
G1 X-47.7257 Y-15.1063 Z-1.4032
G1 X-47.732 Y-15.0917 Z-1.4033
G1 X-47.7373 Y-15.0772 Z-1.4034
G1 X-47.7417 Y-15.0618 Z-1.4035
G1 X-47.7451 Y-15.0468 Z-1.4036
G1 X-47.7475 Y-15.0317 Z-1.4037
G1 X-47.749 Y-15.0154 Z-1.4038
G1 X-47.75 Y-14.9841 Z-1.404
G1 Y14.9841 Z-1.5987
G1 X-47.749 Y15.0154 Z-1.5989
G1 X-47.7475 Y15.0317 Z-1.599
G1 X-47.7451 Y15.0468 Z-1.5991
G1 X-47.7417 Y15.0618 Z-1.5992
G1 X-47.7373 Y15.0772 Z-1.5993
G1 X-47.732 Y15.0917 Z-1.5994
G1 X-47.7257 Y15.1063 Z-1.5995
G1 X-47.7185 Y15.1204 Z-1.5996
G1 X-47.7107 Y15.1336 Z-1.5997
G1 X-47.7019 Y15.1465 Z-1.5998
G1 X-47.6922 Y15.1591 Z-1.5999
G1 X-47.6818 Y15.1709 Z-1.6
G1 X-47.6709 Y15.1818 Z-1.6001
G1 X-47.6591 Y15.1922 Z-1.6002
G1 X-47.6465 Y15.2019 Z-1.6003
G1 X-47.6336 Y15.2107 Z-1.6004
G1 X-47.6204 Y15.2185 Z-1.6005
G1 X-47.6063 Y15.2257 Z-1.6006
G1 X-47.5917 Y15.232 Z-1.6007
G1 X-47.5772 Y15.2373 Z-1.6008
G1 X-47.5618 Y15.2417 Z-1.6009
G1 X-47.5468 Y15.2451 Z-1.601
G1 X-47.5317 Y15.2475 Z-1.6011
G1 X-47.5154 Y15.249 Z-1.6012
G1 X-47.5 Y15.2495 Z-1.6013
G1 X-47.4846 Y15.249 Z-1.6014
G1 X-47.4683 Y15.2475 Z-1.6015
G1 X-47.4532 Y15.2451 Z-1.6016
G1 X-47.4382 Y15.2417 Z-1.6017
G1 X-47.4228 Y15.2373 Z-1.6018
G1 X-47.4083 Y15.232 Z-1.6019
G1 X-47.3937 Y15.2257 Z-1.602
G1 X-47.3796 Y15.2185 Z-1.6021
G1 X-47.3664 Y15.2107 Z-1.6022
G1 X-47.3535 Y15.2019 Z-1.6023
G1 X-47.3409 Y15.1922 Z-1.6024
G1 X-47.3291 Y15.1818 Z-1.6025
G1 X-47.3182 Y15.1709 Z-1.6026
G1 X-47.3078 Y15.1591 Z-1.6027
G1 X-47.2981 Y15.1465 Z-1.6029
G1 X-47.2893 Y15.1336 Z-1.603
G1 X-47.2815 Y15.1204 Z-1.6031
G1 X-47.2743 Y15.1063 Z-1.6032
G1 X-47.268 Y15.0917 Z-1.6033
G1 X-47.2627 Y15.0772 Z-1.6034
G1 X-47.2583 Y15.0618 Z-1.6035
G1 X-47.2549 Y15.0468 Z-1.6036
G1 X-47.2525 Y15.0317 Z-1.6037
G1 X-47.251 Y15.0154 Z-1.6038
G1 X-47.25 Y14.9841 Z-1.604
G1 Y-14.9841 Z-1.7987
G1 X-47.251 Y-15.0154 Z-1.7989
G1 X-47.2525 Y-15.0317 Z-1.799
G1 X-47.2549 Y-15.0468 Z-1.7991
G1 X-47.2583 Y-15.0618 Z-1.7992
G1 X-47.2627 Y-15.0772 Z-1.7993
G1 X-47.268 Y-15.0917 Z-1.7994
G1 X-47.2743 Y-15.1063 Z-1.7995
G1 X-47.2815 Y-15.1204 Z-1.7996
G1 X-47.2893 Y-15.1336 Z-1.7997
G1 X-47.2981 Y-15.1465 Z-1.7998
G1 X-47.3078 Y-15.1591 Z-1.7999
G1 X-47.3182 Y-15.1709 Z-1.8
G1 X-47.3291 Y-15.1818 Z-1.8001
G1 X-47.3409 Y-15.1922 Z-1.8002
G1 X-47.3535 Y-15.2019 Z-1.8003
G1 X-47.3664 Y-15.2107 Z-1.8004
G1 X-47.3796 Y-15.2185 Z-1.8005
G1 X-47.3937 Y-15.2257 Z-1.8006
G1 X-47.4083 Y-15.232 Z-1.8007
G1 X-47.4228 Y-15.2373 Z-1.8008
G1 X-47.4382 Y-15.2417 Z-1.8009
G1 X-47.4532 Y-15.2451 Z-1.801
G1 X-47.4683 Y-15.2475 Z-1.8011
G1 X-47.4846 Y-15.249 Z-1.8012
G1 X-47.5 Y-15.2495 Z-1.8013
G1 X-47.5154 Y-15.249 Z-1.8014
G1 X-47.5317 Y-15.2475 Z-1.8015
G1 X-47.5468 Y-15.2451 Z-1.8016
G1 X-47.5618 Y-15.2417 Z-1.8017
G1 X-47.5772 Y-15.2373 Z-1.8018
G1 X-47.5917 Y-15.232 Z-1.8019
G1 X-47.6063 Y-15.2257 Z-1.802
G1 X-47.6204 Y-15.2185 Z-1.8021
G1 X-47.6336 Y-15.2107 Z-1.8022
G1 X-47.6465 Y-15.2019 Z-1.8023
G1 X-47.6591 Y-15.1922 Z-1.8024
G1 X-47.6709 Y-15.1818 Z-1.8025
G1 X-47.6818 Y-15.1709 Z-1.8026
G1 X-47.6922 Y-15.1591 Z-1.8027
G1 X-47.7019 Y-15.1465 Z-1.8029
G1 X-47.7107 Y-15.1336 Z-1.803
G1 X-47.7185 Y-15.1204 Z-1.8031
G1 X-47.7257 Y-15.1063 Z-1.8032
G1 X-47.732 Y-15.0917 Z-1.8033
G1 X-47.7373 Y-15.0772 Z-1.8034
G1 X-47.7417 Y-15.0618 Z-1.8035
G1 X-47.7451 Y-15.0468 Z-1.8036
G1 X-47.7475 Y-15.0317 Z-1.8037
G1 X-47.749 Y-15.0154 Z-1.8038
G1 X-47.75 Y-14.9841 Z-1.804
G1 Y14.9841 Z-1.9987
G1 X-47.749 Y15.0154 Z-1.9989
G1 X-47.7475 Y15.0317 Z-1.999
G1 X-47.7451 Y15.0468 Z-1.9991
G1 X-47.7417 Y15.0618 Z-1.9992
G1 X-47.7373 Y15.0772 Z-1.9993
G1 X-47.732 Y15.0917 Z-1.9994
G1 X-47.7257 Y15.1063 Z-1.9995
G1 X-47.7185 Y15.1204 Z-1.9996
G1 X-47.7107 Y15.1336 Z-1.9997
G1 X-47.7019 Y15.1465 Z-1.9998
G1 X-47.6922 Y15.1591 Z-1.9999
G1 X-47.6818 Y15.1709 Z-2.0
G1 X-47.6709 Y15.1818 Z-2.0001
G1 X-47.6591 Y15.1922 Z-2.0002
G1 X-47.6465 Y15.2019 Z-2.0003
G1 X-47.6336 Y15.2107 Z-2.0004
G1 X-47.6204 Y15.2185 Z-2.0005
G1 X-47.6063 Y15.2257 Z-2.0006
G1 X-47.5917 Y15.232 Z-2.0007
G1 X-47.5772 Y15.2373 Z-2.0008
G1 X-47.5618 Y15.2417 Z-2.0009
G1 X-47.5468 Y15.2451 Z-2.001
G1 X-47.5317 Y15.2475 Z-2.0011
G1 X-47.5154 Y15.249 Z-2.0012
G1 X-47.5 Y15.2495 Z-2.0013
G1 X-47.4846 Y15.249 Z-2.0014
G1 X-47.4683 Y15.2475 Z-2.0015
G1 X-47.4532 Y15.2451 Z-2.0016
G1 X-47.4382 Y15.2417 Z-2.0017
G1 X-47.4228 Y15.2373 Z-2.0018
G1 X-47.4083 Y15.232 Z-2.0019
G1 X-47.3937 Y15.2257 Z-2.002
G1 X-47.3796 Y15.2185 Z-2.0021
G1 X-47.3664 Y15.2107 Z-2.0022
G1 X-47.3535 Y15.2019 Z-2.0023
G1 X-47.3409 Y15.1922 Z-2.0024
G1 X-47.3291 Y15.1818 Z-2.0025
G1 X-47.3182 Y15.1709 Z-2.0026
G1 X-47.3078 Y15.1591 Z-2.0027
G1 X-47.2981 Y15.1465 Z-2.0029
G1 X-47.2893 Y15.1336 Z-2.003
G1 X-47.2815 Y15.1204 Z-2.0031
G1 X-47.2743 Y15.1063 Z-2.0032
G1 X-47.268 Y15.0917 Z-2.0033
G1 X-47.2627 Y15.0772 Z-2.0034
G1 X-47.2583 Y15.0618 Z-2.0035
G1 X-47.2549 Y15.0468 Z-2.0036
G1 X-47.2525 Y15.0317 Z-2.0037
G1 X-47.251 Y15.0154 Z-2.0038
G1 X-47.25 Y14.9841 Z-2.004
G1 Y-14.9841 Z-2.1987
G1 X-47.251 Y-15.0154 Z-2.1989
G1 X-47.2525 Y-15.0317 Z-2.199
G1 X-47.2549 Y-15.0468 Z-2.1991
G1 X-47.2583 Y-15.0618 Z-2.1992
G1 X-47.2627 Y-15.0772 Z-2.1993
G1 X-47.268 Y-15.0917 Z-2.1994
G1 X-47.2743 Y-15.1063 Z-2.1995
G1 X-47.2815 Y-15.1204 Z-2.1996
G1 X-47.2893 Y-15.1336 Z-2.1997
G1 X-47.2981 Y-15.1465 Z-2.1998
G1 X-47.3078 Y-15.1591 Z-2.1999
G1 X-47.3182 Y-15.1709 Z-2.2
G1 X-47.3291 Y-15.1818 Z-2.2001
G1 X-47.3409 Y-15.1922 Z-2.2002
G1 X-47.3535 Y-15.2019 Z-2.2003
G1 X-47.3664 Y-15.2107 Z-2.2004
G1 X-47.3796 Y-15.2185 Z-2.2005
G1 X-47.3937 Y-15.2257 Z-2.2006
G1 X-47.4083 Y-15.232 Z-2.2007
G1 X-47.4228 Y-15.2373 Z-2.2008
G1 X-47.4382 Y-15.2417 Z-2.2009
G1 X-47.4532 Y-15.2451 Z-2.201
G1 X-47.4683 Y-15.2475 Z-2.2011
G1 X-47.4846 Y-15.249 Z-2.2012
G1 X-47.5 Y-15.2495 Z-2.2013
G1 X-47.5154 Y-15.249 Z-2.2014
G1 X-47.5317 Y-15.2475 Z-2.2015
G1 X-47.5468 Y-15.2451 Z-2.2016
G1 X-47.5618 Y-15.2417 Z-2.2017
G1 X-47.5772 Y-15.2373 Z-2.2018
G1 X-47.5917 Y-15.232 Z-2.2019
G1 X-47.6063 Y-15.2257 Z-2.202
G1 X-47.6204 Y-15.2185 Z-2.2021
G1 X-47.6336 Y-15.2107 Z-2.2022
G1 X-47.6465 Y-15.2019 Z-2.2023
G1 X-47.6591 Y-15.1922 Z-2.2024
G1 X-47.6709 Y-15.1818 Z-2.2025
G1 X-47.6818 Y-15.1709 Z-2.2026
G1 X-47.6922 Y-15.1591 Z-2.2027
G1 X-47.7019 Y-15.1465 Z-2.2029
G1 X-47.7107 Y-15.1336 Z-2.203
G1 X-47.7185 Y-15.1204 Z-2.2031
G1 X-47.7257 Y-15.1063 Z-2.2032
G1 X-47.732 Y-15.0917 Z-2.2033
G1 X-47.7373 Y-15.0772 Z-2.2034
G1 X-47.7417 Y-15.0618 Z-2.2035
G1 X-47.7451 Y-15.0468 Z-2.2036
G1 X-47.7475 Y-15.0317 Z-2.2037
G1 X-47.749 Y-15.0154 Z-2.2038
G1 X-47.75 Y-14.9841 Z-2.204
G1 Y14.9841 Z-2.3987
G1 X-47.749 Y15.0154 Z-2.3989
G1 X-47.7475 Y15.0317 Z-2.399
G1 X-47.7451 Y15.0468 Z-2.3991
G1 X-47.7417 Y15.0618 Z-2.3992
G1 X-47.7373 Y15.0772 Z-2.3993
G1 X-47.732 Y15.0917 Z-2.3994
G1 X-47.7257 Y15.1063 Z-2.3995
G1 X-47.7185 Y15.1204 Z-2.3996
G1 X-47.7107 Y15.1336 Z-2.3997
G1 X-47.7019 Y15.1465 Z-2.3998
G1 X-47.6922 Y15.1591 Z-2.3999
G1 X-47.6818 Y15.1709 Z-2.4
G1 X-47.6709 Y15.1818 Z-2.4001
G1 X-47.6591 Y15.1922 Z-2.4002
G1 X-47.6465 Y15.2019 Z-2.4003
G1 X-47.6336 Y15.2107 Z-2.4004
G1 X-47.6204 Y15.2185 Z-2.4005
G1 X-47.6063 Y15.2257 Z-2.4006
G1 X-47.5917 Y15.232 Z-2.4007
G1 X-47.5772 Y15.2373 Z-2.4008
G1 X-47.5618 Y15.2417 Z-2.4009
G1 X-47.5468 Y15.2451 Z-2.401
G1 X-47.5317 Y15.2475 Z-2.4011
G1 X-47.5154 Y15.249 Z-2.4012
G1 X-47.5 Y15.2495 Z-2.4013
G1 X-47.4846 Y15.249 Z-2.4014
G1 X-47.4683 Y15.2475 Z-2.4015
G1 X-47.4532 Y15.2451 Z-2.4016
G1 X-47.4382 Y15.2417 Z-2.4017
G1 X-47.4228 Y15.2373 Z-2.4018
G1 X-47.4083 Y15.232 Z-2.4019
G1 X-47.3937 Y15.2257 Z-2.402
G1 X-47.3796 Y15.2185 Z-2.4021
G1 X-47.3664 Y15.2107 Z-2.4022
G1 X-47.3535 Y15.2019 Z-2.4023
G1 X-47.3409 Y15.1922 Z-2.4024
G1 X-47.3291 Y15.1818 Z-2.4025
G1 X-47.3182 Y15.1709 Z-2.4026
G1 X-47.3078 Y15.1591 Z-2.4027
G1 X-47.2981 Y15.1465 Z-2.4029
G1 X-47.2893 Y15.1336 Z-2.403
G1 X-47.2815 Y15.1204 Z-2.4031
G1 X-47.2743 Y15.1063 Z-2.4032
G1 X-47.268 Y15.0917 Z-2.4033
G1 X-47.2627 Y15.0772 Z-2.4034
G1 X-47.2583 Y15.0618 Z-2.4035
G1 X-47.2549 Y15.0468 Z-2.4036
G1 X-47.2525 Y15.0317 Z-2.4037
G1 X-47.251 Y15.0154 Z-2.4038
G1 X-47.25 Y14.9841 Z-2.404
G1 Y-14.9841 Z-2.5987
G1 X-47.251 Y-15.0154 Z-2.5989
G1 X-47.2525 Y-15.0317 Z-2.599
G1 X-47.2549 Y-15.0468 Z-2.5991
G1 X-47.2583 Y-15.0618 Z-2.5992
G1 X-47.2627 Y-15.0772 Z-2.5993
G1 X-47.268 Y-15.0917 Z-2.5994
G1 X-47.2743 Y-15.1063 Z-2.5995
G1 X-47.2815 Y-15.1204 Z-2.5996
G1 X-47.2893 Y-15.1336 Z-2.5997
G1 X-47.2981 Y-15.1465 Z-2.5998
G1 X-47.3078 Y-15.1591 Z-2.5999
G1 X-47.3182 Y-15.1709 Z-2.6
G1 X-47.3291 Y-15.1818 Z-2.6001
G1 X-47.3409 Y-15.1922 Z-2.6002
G1 X-47.3535 Y-15.2019 Z-2.6003
G1 X-47.3664 Y-15.2107 Z-2.6004
G1 X-47.3796 Y-15.2185 Z-2.6005
G1 X-47.3937 Y-15.2257 Z-2.6006
G1 X-47.4083 Y-15.232 Z-2.6007
G1 X-47.4228 Y-15.2373 Z-2.6008
G1 X-47.4382 Y-15.2417 Z-2.6009
G1 X-47.4532 Y-15.2451 Z-2.601
G1 X-47.4683 Y-15.2475 Z-2.6011
G1 X-47.4846 Y-15.249 Z-2.6012
G1 X-47.5 Y-15.2495 Z-2.6013
G1 X-47.5154 Y-15.249 Z-2.6014
G1 X-47.5317 Y-15.2475 Z-2.6015
G1 X-47.5468 Y-15.2451 Z-2.6016
G1 X-47.5618 Y-15.2417 Z-2.6017
G1 X-47.5772 Y-15.2373 Z-2.6018
G1 X-47.5917 Y-15.232 Z-2.6019
G1 X-47.6063 Y-15.2257 Z-2.602
G1 X-47.6204 Y-15.2185 Z-2.6021
G1 X-47.6336 Y-15.2107 Z-2.6022
G1 X-47.6465 Y-15.2019 Z-2.6023
G1 X-47.6591 Y-15.1922 Z-2.6024
G1 X-47.6709 Y-15.1818 Z-2.6025
G1 X-47.6818 Y-15.1709 Z-2.6026
G1 X-47.6922 Y-15.1591 Z-2.6027
G1 X-47.7019 Y-15.1465 Z-2.6029
G1 X-47.7107 Y-15.1336 Z-2.603
G1 X-47.7185 Y-15.1204 Z-2.6031
G1 X-47.7257 Y-15.1063 Z-2.6032
G1 X-47.732 Y-15.0917 Z-2.6033
G1 X-47.7373 Y-15.0772 Z-2.6034
G1 X-47.7417 Y-15.0618 Z-2.6035
G1 X-47.7451 Y-15.0468 Z-2.6036
G1 X-47.7475 Y-15.0317 Z-2.6037
G1 X-47.749 Y-15.0154 Z-2.6038
G1 X-47.75 Y-14.9841 Z-2.604
G1 Y14.9841 Z-2.7987
G1 X-47.749 Y15.0154 Z-2.7989
G1 X-47.7475 Y15.0317 Z-2.799
G1 X-47.7451 Y15.0468 Z-2.7991
G1 X-47.7417 Y15.0618 Z-2.7992
G1 X-47.7373 Y15.0772 Z-2.7993
G1 X-47.732 Y15.0917 Z-2.7994
G1 X-47.7257 Y15.1063 Z-2.7995
G1 X-47.7185 Y15.1204 Z-2.7996
G1 X-47.7107 Y15.1336 Z-2.7997
G1 X-47.7019 Y15.1465 Z-2.7998
G1 X-47.6922 Y15.1591 Z-2.7999
G1 X-47.6818 Y15.1709 Z-2.8
G1 X-47.6709 Y15.1818 Z-2.8001
G1 X-47.6591 Y15.1922 Z-2.8002
G1 X-47.6465 Y15.2019 Z-2.8003
G1 X-47.6336 Y15.2107 Z-2.8004
G1 X-47.6204 Y15.2185 Z-2.8005
G1 X-47.6063 Y15.2257 Z-2.8006
G1 X-47.5917 Y15.232 Z-2.8007
G1 X-47.5772 Y15.2373 Z-2.8008
G1 X-47.5618 Y15.2417 Z-2.8009
G1 X-47.5468 Y15.2451 Z-2.801
G1 X-47.5317 Y15.2475 Z-2.8011
G1 X-47.5154 Y15.249 Z-2.8012
G1 X-47.5 Y15.2495 Z-2.8013
G1 X-47.4846 Y15.249 Z-2.8014
G1 X-47.4683 Y15.2475 Z-2.8015
G1 X-47.4532 Y15.2451 Z-2.8016
G1 X-47.4382 Y15.2417 Z-2.8017
G1 X-47.4228 Y15.2373 Z-2.8018
G1 X-47.4083 Y15.232 Z-2.8019
G1 X-47.3937 Y15.2257 Z-2.802
G1 X-47.3796 Y15.2185 Z-2.8021
G1 X-47.3664 Y15.2107 Z-2.8022
G1 X-47.3535 Y15.2019 Z-2.8023
G1 X-47.3409 Y15.1922 Z-2.8024
G1 X-47.3291 Y15.1818 Z-2.8025
G1 X-47.3182 Y15.1709 Z-2.8026
G1 X-47.3078 Y15.1591 Z-2.8027
G1 X-47.2981 Y15.1465 Z-2.8029
G1 X-47.2893 Y15.1336 Z-2.803
G1 X-47.2815 Y15.1204 Z-2.8031
G1 X-47.2743 Y15.1063 Z-2.8032
G1 X-47.268 Y15.0917 Z-2.8033
G1 X-47.2627 Y15.0772 Z-2.8034
G1 X-47.2583 Y15.0618 Z-2.8035
G1 X-47.2549 Y15.0468 Z-2.8036
G1 X-47.2525 Y15.0317 Z-2.8037
G1 X-47.251 Y15.0154 Z-2.8038
G1 X-47.25 Y14.9841 Z-2.804
G1 Y-14.9841 Z-2.9987
G1 X-47.251 Y-15.0154 Z-2.9989
G1 X-47.2525 Y-15.0317 Z-2.999
G1 X-47.2549 Y-15.0468 Z-2.9991
G1 X-47.2583 Y-15.0618 Z-2.9992
G1 X-47.2627 Y-15.0772 Z-2.9993
G1 X-47.268 Y-15.0917 Z-2.9994
G1 X-47.2743 Y-15.1063 Z-2.9995
G1 X-47.2815 Y-15.1204 Z-2.9996
G1 X-47.2893 Y-15.1336 Z-2.9997
G1 X-47.2981 Y-15.1465 Z-2.9998
G1 X-47.3078 Y-15.1591 Z-2.9999
G1 X-47.3182 Y-15.1709 Z-3.0
G1 X-47.3291 Y-15.1818 Z-3.0001
G1 X-47.3409 Y-15.1922 Z-3.0002
G1 X-47.3535 Y-15.2019 Z-3.0003
G1 X-47.3664 Y-15.2107 Z-3.0004
G1 X-47.3796 Y-15.2185 Z-3.0005
G1 X-47.3937 Y-15.2257 Z-3.0006
G1 X-47.4083 Y-15.232 Z-3.0007
G1 X-47.4228 Y-15.2373 Z-3.0008
G1 X-47.4382 Y-15.2417 Z-3.0009
G1 X-47.4532 Y-15.2451 Z-3.001
G1 X-47.4683 Y-15.2475 Z-3.0011
G1 X-47.4846 Y-15.249 Z-3.0012
G1 X-47.5 Y-15.2495 Z-3.0013
G1 X-47.5154 Y-15.249 Z-3.0014
G1 X-47.5317 Y-15.2475 Z-3.0015
G1 X-47.5468 Y-15.2451 Z-3.0016
G1 X-47.5618 Y-15.2417 Z-3.0017
G1 X-47.5772 Y-15.2373 Z-3.0018
G1 X-47.5917 Y-15.232 Z-3.0019
G1 X-47.6063 Y-15.2257 Z-3.002
G1 X-47.6204 Y-15.2185 Z-3.0021
G1 X-47.6336 Y-15.2107 Z-3.0022
G1 X-47.6465 Y-15.2019 Z-3.0023
G1 X-47.6591 Y-15.1922 Z-3.0024
G1 X-47.6709 Y-15.1818 Z-3.0025
G1 X-47.6818 Y-15.1709 Z-3.0026
G1 X-47.6922 Y-15.1591 Z-3.0027
G1 X-47.7019 Y-15.1465 Z-3.0029
G1 X-47.7107 Y-15.1336 Z-3.003
G1 X-47.7185 Y-15.1204 Z-3.0031
G1 X-47.7257 Y-15.1063 Z-3.0032
G1 X-47.732 Y-15.0917 Z-3.0033
G1 X-47.7373 Y-15.0772 Z-3.0034
G1 X-47.7417 Y-15.0618 Z-3.0035
G1 X-47.7451 Y-15.0468 Z-3.0036
G1 X-47.7475 Y-15.0317 Z-3.0037
G1 X-47.749 Y-15.0154 Z-3.0038
G1 X-47.75 Y-14.9841 Z-3.004
G1 Y14.9841 Z-3.1987
G1 X-47.749 Y15.0154 Z-3.1989
G1 X-47.7475 Y15.0317 Z-3.199
G1 X-47.7451 Y15.0468 Z-3.1991
G1 X-47.7417 Y15.0618 Z-3.1992
G1 X-47.7373 Y15.0772 Z-3.1993
G1 X-47.732 Y15.0917 Z-3.1994
G1 X-47.7257 Y15.1063 Z-3.1995
G1 X-47.7185 Y15.1204 Z-3.1996
G1 X-47.7107 Y15.1336 Z-3.1997
G1 X-47.7019 Y15.1465 Z-3.1998
G1 X-47.6922 Y15.1591 Z-3.1999
G1 X-47.6818 Y15.1709 Z-3.2
G1 X-47.6709 Y15.1818 Z-3.2001
G1 X-47.6591 Y15.1922 Z-3.2002
G1 X-47.6465 Y15.2019 Z-3.2003
G1 X-47.6336 Y15.2107 Z-3.2004
G1 X-47.6204 Y15.2185 Z-3.2005
G1 X-47.6063 Y15.2257 Z-3.2006
G1 X-47.5917 Y15.232 Z-3.2007
G1 X-47.5772 Y15.2373 Z-3.2008
G1 X-47.5618 Y15.2417 Z-3.2009
G1 X-47.5468 Y15.2451 Z-3.201
G1 X-47.5317 Y15.2475 Z-3.2011
G1 X-47.5154 Y15.249 Z-3.2012
G1 X-47.5 Y15.2495 Z-3.2013
G1 X-47.4846 Y15.249 Z-3.2014
G1 X-47.4683 Y15.2475 Z-3.2015
G1 X-47.4532 Y15.2451 Z-3.2016
G1 X-47.4382 Y15.2417 Z-3.2017
G1 X-47.4228 Y15.2373 Z-3.2018
G1 X-47.4083 Y15.232 Z-3.2019
G1 X-47.3937 Y15.2257 Z-3.202
G1 X-47.3796 Y15.2185 Z-3.2021
G1 X-47.3664 Y15.2107 Z-3.2022
G1 X-47.3535 Y15.2019 Z-3.2023
G1 X-47.3409 Y15.1922 Z-3.2024
G1 X-47.3291 Y15.1818 Z-3.2025
G1 X-47.3182 Y15.1709 Z-3.2026
G1 X-47.3078 Y15.1591 Z-3.2027
G1 X-47.2981 Y15.1465 Z-3.2029
G1 X-47.2893 Y15.1336 Z-3.203
G1 X-47.2815 Y15.1204 Z-3.2031
G1 X-47.2743 Y15.1063 Z-3.2032
G1 X-47.268 Y15.0917 Z-3.2033
G1 X-47.2627 Y15.0772 Z-3.2034
G1 X-47.2583 Y15.0618 Z-3.2035
G1 X-47.2549 Y15.0468 Z-3.2036
G1 X-47.2525 Y15.0317 Z-3.2037
G1 X-47.251 Y15.0154 Z-3.2038
G1 X-47.25 Y14.9841 Z-3.204
G1 Y-14.9841 Z-3.3987
G1 X-47.251 Y-15.0154 Z-3.3989
G1 X-47.2525 Y-15.0317 Z-3.399
G1 X-47.2549 Y-15.0468 Z-3.3991
G1 X-47.2583 Y-15.0618 Z-3.3992
G1 X-47.2627 Y-15.0772 Z-3.3993
G1 X-47.268 Y-15.0917 Z-3.3994
G1 X-47.2743 Y-15.1063 Z-3.3995
G1 X-47.2815 Y-15.1204 Z-3.3996
G1 X-47.2893 Y-15.1336 Z-3.3997
G1 X-47.2981 Y-15.1465 Z-3.3998
G1 X-47.3078 Y-15.1591 Z-3.3999
G1 X-47.3182 Y-15.1709 Z-3.4
G1 X-47.3291 Y-15.1818 Z-3.4001
G1 X-47.3409 Y-15.1922 Z-3.4002
G1 X-47.3535 Y-15.2019 Z-3.4003
G1 X-47.3664 Y-15.2107 Z-3.4004
G1 X-47.3796 Y-15.2185 Z-3.4005
G1 X-47.3937 Y-15.2257 Z-3.4006
G1 X-47.4083 Y-15.232 Z-3.4007
G1 X-47.4228 Y-15.2373 Z-3.4008
G1 X-47.4382 Y-15.2417 Z-3.4009
G1 X-47.4532 Y-15.2451 Z-3.401
G1 X-47.4683 Y-15.2475 Z-3.4011
G1 X-47.4846 Y-15.249 Z-3.4012
G1 X-47.5 Y-15.2495 Z-3.4013
G1 X-47.5154 Y-15.249 Z-3.4014
G1 X-47.5317 Y-15.2475 Z-3.4015
G1 X-47.5468 Y-15.2451 Z-3.4016
G1 X-47.5618 Y-15.2417 Z-3.4017
G1 X-47.5772 Y-15.2373 Z-3.4018
G1 X-47.5917 Y-15.232 Z-3.4019
G1 X-47.6063 Y-15.2257 Z-3.402
G1 X-47.6204 Y-15.2185 Z-3.4021
G1 X-47.6336 Y-15.2107 Z-3.4022
G1 X-47.6465 Y-15.2019 Z-3.4023
G1 X-47.6591 Y-15.1922 Z-3.4024
G1 X-47.6709 Y-15.1818 Z-3.4025
G1 X-47.6818 Y-15.1709 Z-3.4026
G1 X-47.6922 Y-15.1591 Z-3.4027
G1 X-47.7019 Y-15.1465 Z-3.4029
G1 X-47.7107 Y-15.1336 Z-3.403
G1 X-47.7185 Y-15.1204 Z-3.4031
G1 X-47.7257 Y-15.1063 Z-3.4032
G1 X-47.732 Y-15.0917 Z-3.4033
G1 X-47.7373 Y-15.0772 Z-3.4034
G1 X-47.7417 Y-15.0618 Z-3.4035
G1 X-47.7451 Y-15.0468 Z-3.4036
G1 X-47.7475 Y-15.0317 Z-3.4037
G1 X-47.749 Y-15.0154 Z-3.4038
G1 X-47.75 Y-14.9841 Z-3.404
G1 Y14.9841 Z-3.5987
G1 X-47.749 Y15.0154 Z-3.5989
G1 X-47.7475 Y15.0317 Z-3.599
G1 X-47.7451 Y15.0468 Z-3.5991
G1 X-47.7417 Y15.0618 Z-3.5992
G1 X-47.7373 Y15.0772 Z-3.5993
G1 X-47.732 Y15.0917 Z-3.5994
G1 X-47.7257 Y15.1063 Z-3.5995
G1 X-47.7185 Y15.1204 Z-3.5996
G1 X-47.7107 Y15.1336 Z-3.5997
G1 X-47.7019 Y15.1465 Z-3.5998
G1 X-47.6922 Y15.1591 Z-3.5999
G1 X-47.6818 Y15.1709 Z-3.6
G1 X-47.6709 Y15.1818 Z-3.6001
G1 X-47.6591 Y15.1922 Z-3.6002
G1 X-47.6465 Y15.2019 Z-3.6003
G1 X-47.6336 Y15.2107 Z-3.6004
G1 X-47.6204 Y15.2185 Z-3.6005
G1 X-47.6063 Y15.2257 Z-3.6006
G1 X-47.5917 Y15.232 Z-3.6007
G1 X-47.5772 Y15.2373 Z-3.6008
G1 X-47.5618 Y15.2417 Z-3.6009
G1 X-47.5468 Y15.2451 Z-3.601
G1 X-47.5317 Y15.2475 Z-3.6011
G1 X-47.5154 Y15.249 Z-3.6012
G1 X-47.5 Y15.2495 Z-3.6013
G1 X-47.4846 Y15.249 Z-3.6014
G1 X-47.4683 Y15.2475 Z-3.6015
G1 X-47.4532 Y15.2451 Z-3.6016
G1 X-47.4382 Y15.2417 Z-3.6017
G1 X-47.4228 Y15.2373 Z-3.6018
G1 X-47.4083 Y15.232 Z-3.6019
G1 X-47.3937 Y15.2257 Z-3.602
G1 X-47.3796 Y15.2185 Z-3.6021
G1 X-47.3664 Y15.2107 Z-3.6022
G1 X-47.3535 Y15.2019 Z-3.6023
G1 X-47.3409 Y15.1922 Z-3.6024
G1 X-47.3291 Y15.1818 Z-3.6025
G1 X-47.3182 Y15.1709 Z-3.6026
G1 X-47.3078 Y15.1591 Z-3.6027
G1 X-47.2981 Y15.1465 Z-3.6029
G1 X-47.2893 Y15.1336 Z-3.603
G1 X-47.2815 Y15.1204 Z-3.6031
G1 X-47.2743 Y15.1063 Z-3.6032
G1 X-47.268 Y15.0917 Z-3.6033
G1 X-47.2627 Y15.0772 Z-3.6034
G1 X-47.2583 Y15.0618 Z-3.6035
G1 X-47.2549 Y15.0468 Z-3.6036
G1 X-47.2525 Y15.0317 Z-3.6037
G1 X-47.251 Y15.0154 Z-3.6038
G1 X-47.25 Y14.9841 Z-3.604
G1 Y-14.9841 Z-3.7987
G1 X-47.251 Y-15.0154 Z-3.7989
G1 X-47.2525 Y-15.0317 Z-3.799
G1 X-47.2549 Y-15.0468 Z-3.7991
G1 X-47.2583 Y-15.0618 Z-3.7992
G1 X-47.2627 Y-15.0772 Z-3.7993
G1 X-47.268 Y-15.0917 Z-3.7994
G1 X-47.2743 Y-15.1063 Z-3.7995
G1 X-47.2815 Y-15.1204 Z-3.7996
G1 X-47.2893 Y-15.1336 Z-3.7997
G1 X-47.2981 Y-15.1465 Z-3.7998
G1 X-47.3078 Y-15.1591 Z-3.7999
G1 X-47.3182 Y-15.1709 Z-3.8
G1 X-47.3291 Y-15.1818 Z-3.8001
G1 X-47.3409 Y-15.1922 Z-3.8002
G1 X-47.3535 Y-15.2019 Z-3.8003
G1 X-47.3664 Y-15.2107 Z-3.8004
G1 X-47.3796 Y-15.2185 Z-3.8005
G1 X-47.3937 Y-15.2257 Z-3.8006
G1 X-47.4083 Y-15.232 Z-3.8007
G1 X-47.4228 Y-15.2373 Z-3.8008
G1 X-47.4382 Y-15.2417 Z-3.8009
G1 X-47.4532 Y-15.2451 Z-3.801
G1 X-47.4683 Y-15.2475 Z-3.8011
G1 X-47.4846 Y-15.249 Z-3.8012
G1 X-47.5 Y-15.2495 Z-3.8013
G1 X-47.5154 Y-15.249 Z-3.8014
G1 X-47.5317 Y-15.2475 Z-3.8015
G1 X-47.5468 Y-15.2451 Z-3.8016
G1 X-47.5618 Y-15.2417 Z-3.8017
G1 X-47.5772 Y-15.2373 Z-3.8018
G1 X-47.5917 Y-15.232 Z-3.8019
G1 X-47.6063 Y-15.2257 Z-3.802
G1 X-47.6204 Y-15.2185 Z-3.8021
G1 X-47.6336 Y-15.2107 Z-3.8022
G1 X-47.6465 Y-15.2019 Z-3.8023
G1 X-47.6591 Y-15.1922 Z-3.8024
G1 X-47.6709 Y-15.1818 Z-3.8025
G1 X-47.6818 Y-15.1709 Z-3.8026
G1 X-47.6922 Y-15.1591 Z-3.8027
G1 X-47.7019 Y-15.1465 Z-3.8029
G1 X-47.7107 Y-15.1336 Z-3.803
G1 X-47.7185 Y-15.1204 Z-3.8031
G1 X-47.7257 Y-15.1063 Z-3.8032
G1 X-47.732 Y-15.0917 Z-3.8033
G1 X-47.7373 Y-15.0772 Z-3.8034
G1 X-47.7417 Y-15.0618 Z-3.8035
G1 X-47.7451 Y-15.0468 Z-3.8036
G1 X-47.7475 Y-15.0317 Z-3.8037
G1 X-47.749 Y-15.0154 Z-3.8038
G1 X-47.75 Y-14.9841 Z-3.804
G1 Y14.9841 Z-3.9987
G1 X-47.749 Y15.0154 Z-3.9989
G1 X-47.7475 Y15.0317 Z-3.999
G1 X-47.7451 Y15.0468 Z-3.9991
G1 X-47.7417 Y15.0618 Z-3.9992
G1 X-47.7373 Y15.0772 Z-3.9993
G1 X-47.732 Y15.0917 Z-3.9994
G1 X-47.7257 Y15.1063 Z-3.9995
G1 X-47.7185 Y15.1204 Z-3.9996
G1 X-47.7107 Y15.1336 Z-3.9997
G1 X-47.7019 Y15.1465 Z-3.9998
G1 X-47.6922 Y15.1591 Z-3.9999
G1 X-47.6818 Y15.1709 Z-4.0
G1 X-47.6709 Y15.1818 Z-4.0001
G1 X-47.6591 Y15.1922 Z-4.0002
G1 X-47.6465 Y15.2019
G1 X-47.6336 Y15.2107 Z-4.0003
G1 X-47.6204 Y15.2185 Z-4.0004
G1 X-47.6063 Y15.2257 Z-4.0005
G1 X-47.5917 Y15.232
G1 X-47.5772 Y15.2373 Z-4.0006
G1 X-47.5618 Y15.2417 Z-4.0007
G1 X-47.5468 Y15.2451 Z-4.0008
G1 X-47.5317 Y15.2475
G1 X-47.5154 Y15.249 Z-4.0009
G1 X-47.5 Y15.2495 Z-4.001
G1 X-47.4846 Y15.249 Z-4.0011
G1 X-47.4683 Y15.2475
G1 X-47.4532 Y15.2451 Z-4.0012
G1 X-47.4382 Y15.2417 Z-4.0013
G1 X-47.4228 Y15.2373 Z-4.0014
G1 X-47.4083 Y15.232
G1 X-47.3937 Y15.2257 Z-4.0015
G1 X-47.3796 Y15.2185 Z-4.0016
G1 X-47.3664 Y15.2107 Z-4.0017
G1 X-47.3535 Y15.2019 Z-4.0018
G1 X-47.3409 Y15.1922
G1 X-47.3291 Y15.1818 Z-4.0019
G1 X-47.3182 Y15.1709 Z-4.002
G1 X-47.3078 Y15.1591 Z-4.0021
G1 X-47.2981 Y15.1465
G1 X-47.2893 Y15.1336 Z-4.0022
G1 X-47.2815 Y15.1204 Z-4.0023
G1 X-47.2743 Y15.1063 Z-4.0024
G1 X-47.268 Y15.0917
G1 X-47.2627 Y15.0772 Z-4.0025
G1 X-47.2583 Y15.0618 Z-4.0026
G1 X-47.2549 Y15.0468 Z-4.0027
G1 X-47.2525 Y15.0317
G1 X-47.251 Y15.0154 Z-4.0028
G1 X-47.25 Y14.9841 Z-4.003
G1 Y-14.9841 Z-4.149
G1 X-47.251 Y-15.0154 Z-4.1492
G1 X-47.2525 Y-15.0317
G1 X-47.2549 Y-15.0468 Z-4.1493
G1 X-47.2583 Y-15.0618 Z-4.1494
G1 X-47.2627 Y-15.0772 Z-4.1495
G1 X-47.268 Y-15.0917
G1 X-47.2743 Y-15.1063 Z-4.1496
G1 X-47.2815 Y-15.1204 Z-4.1497
G1 X-47.2893 Y-15.1336 Z-4.1498
G1 X-47.2981 Y-15.1465
G1 X-47.3078 Y-15.1591 Z-4.1499
G1 X-47.3182 Y-15.1709 Z-4.15
G1 X-47.3291 Y-15.1818 Z-4.1501
G1 X-47.3409 Y-15.1922 Z-4.1502
G1 X-47.3535 Y-15.2019
G1 X-47.3664 Y-15.2107 Z-4.1503
G1 X-47.3796 Y-15.2185 Z-4.1504
G1 X-47.3937 Y-15.2257 Z-4.1505
G1 X-47.4083 Y-15.232
G1 X-47.4228 Y-15.2373 Z-4.1506
G1 X-47.4382 Y-15.2417 Z-4.1507
G1 X-47.4532 Y-15.2451 Z-4.1508
G1 X-47.4683 Y-15.2475
G1 X-47.4846 Y-15.249 Z-4.1509
G1 X-47.5 Y-15.2495 Z-4.151
G1 X-47.5154 Y-15.249 Z-4.1511
G1 X-47.5317 Y-15.2475
G1 X-47.5468 Y-15.2451 Z-4.1512
G1 X-47.5618 Y-15.2417 Z-4.1513
G1 X-47.5772 Y-15.2373 Z-4.1514
G1 X-47.5917 Y-15.232
G1 X-47.6063 Y-15.2257 Z-4.1515
G1 X-47.6204 Y-15.2185 Z-4.1516
G1 X-47.6336 Y-15.2107 Z-4.1517
G1 X-47.6465 Y-15.2019 Z-4.1518
G1 X-47.6591 Y-15.1922
G1 X-47.6709 Y-15.1818 Z-4.1519
G1 X-47.6818 Y-15.1709 Z-4.152
G1 X-47.6922 Y-15.1591 Z-4.1521
G1 X-47.7019 Y-15.1465
G1 X-47.7107 Y-15.1336 Z-4.1522
G1 X-47.7185 Y-15.1204 Z-4.1523
G1 X-47.7257 Y-15.1063 Z-4.1524
G1 X-47.732 Y-15.0917
G1 X-47.7373 Y-15.0772 Z-4.1525
G1 X-47.7417 Y-15.0618 Z-4.1526
G1 X-47.7451 Y-15.0468 Z-4.1527
G1 X-47.7475 Y-15.0317
G1 X-47.749 Y-15.0154 Z-4.1528
G1 X-47.75 Y-14.9841 Z-4.153
G1 Y14.9841 Z-4.299
G1 X-47.749 Y15.0154 Z-4.2992
G1 X-47.7475 Y15.0317
G1 X-47.7451 Y15.0468 Z-4.2993
G1 X-47.7417 Y15.0618 Z-4.2994
G1 X-47.7373 Y15.0772 Z-4.2995
G1 X-47.732 Y15.0917
G1 X-47.7257 Y15.1063 Z-4.2996
G1 X-47.7185 Y15.1204 Z-4.2997
G1 X-47.7107 Y15.1336 Z-4.2998
G1 X-47.7019 Y15.1465
G1 X-47.6922 Y15.1591 Z-4.2999
G1 X-47.6818 Y15.1709 Z-4.3
G1 X-47.6709 Y15.1818
G1 X-47.6591 Y15.1922
G1 X-47.6465 Y15.2019
G1 X-47.6336 Y15.2107
G1 X-47.6204 Y15.2185
G1 X-47.6063 Y15.2257
G1 X-47.5917 Y15.232
G1 X-47.5772 Y15.2373
G1 X-47.5618 Y15.2417
G1 X-47.5468 Y15.2451
G1 X-47.5317 Y15.2475
G1 X-47.5154 Y15.249
G1 X-47.5 Y15.2495
G1 X-47.4846 Y15.249
G1 X-47.4683 Y15.2475
G1 X-47.4532 Y15.2451
G1 X-47.4382 Y15.2417
G1 X-47.4228 Y15.2373
G1 X-47.4083 Y15.232
G1 X-47.3937 Y15.2257
G1 X-47.3796 Y15.2185
G1 X-47.3664 Y15.2107
G1 X-47.3535 Y15.2019
G1 X-47.3409 Y15.1922
G1 X-47.3291 Y15.1818
G1 X-47.3182 Y15.1709
G1 X-47.3078 Y15.1591
G1 X-47.2981 Y15.1465
G1 X-47.2893 Y15.1336
G1 X-47.2815 Y15.1204
G1 X-47.2743 Y15.1063
G1 X-47.268 Y15.0917
G1 X-47.2627 Y15.0772
G1 X-47.2583 Y15.0618
G1 X-47.2549 Y15.0468
G1 X-47.2525 Y15.0317
G1 X-47.251 Y15.0154
G1 X-47.25 Y14.9841
G1 Y-14.9841
G1 X-47.251 Y-15.0154
G1 X-47.2525 Y-15.0317
G1 X-47.2549 Y-15.0468
G1 X-47.2583 Y-15.0618
G1 X-47.2627 Y-15.0772
G1 X-47.268 Y-15.0917
G1 X-47.2743 Y-15.1063
G1 X-47.2815 Y-15.1204
G1 X-47.2893 Y-15.1336
G1 X-47.2981 Y-15.1465
G1 X-47.3078 Y-15.1591
G1 X-47.3182 Y-15.1709
G1 X-47.3291 Y-15.1818
G1 X-47.3409 Y-15.1922
G1 X-47.3535 Y-15.2019
G1 X-47.3664 Y-15.2107
G1 X-47.3796 Y-15.2185
G1 X-47.3937 Y-15.2257
G1 X-47.4083 Y-15.232
G1 X-47.4228 Y-15.2373
G1 X-47.4382 Y-15.2417
G1 X-47.4532 Y-15.2451
G1 X-47.4683 Y-15.2475
G1 X-47.4846 Y-15.249
G1 X-47.5 Y-15.2495
G1 X-47.5154 Y-15.249
G1 X-47.5317 Y-15.2475
G1 X-47.5468 Y-15.2451
G1 X-47.5618 Y-15.2417
G1 X-47.5772 Y-15.2373
G1 X-47.5917 Y-15.232
G1 X-47.6063 Y-15.2257
G1 X-47.6204 Y-15.2185
G1 X-47.6336 Y-15.2107
G1 X-47.6465 Y-15.2019
G1 X-47.6591 Y-15.1922
G1 X-47.6709 Y-15.1818
G1 X-47.6818 Y-15.1709
G1 X-47.6922 Y-15.1591
G1 X-47.7019 Y-15.1465
G1 X-47.7107 Y-15.1336
G1 X-47.7185 Y-15.1204
G1 X-47.7257 Y-15.1063
G1 X-47.732 Y-15.0917
G1 X-47.7373 Y-15.0772
G1 X-47.7417 Y-15.0618
G1 X-47.7451 Y-15.0468
G1 X-47.7475 Y-15.0317
G1 X-47.749 Y-15.0154
G1 X-47.75 Y-14.9841
G1 Y14.9841
G1 X-47.749 Y15.0154
G1 X-47.7475 Y15.0317
G1 X-47.7451 Y15.0468
G1 X-47.7417 Y15.0618
G1 X-47.7373 Y15.0772
G1 X-47.732 Y15.0917
G1 X-47.7257 Y15.1063
G1 X-47.7185 Y15.1204
G1 X-47.7107 Y15.1336
G1 X-47.7019 Y15.1465
G1 X-47.6922 Y15.1591
G1 X-47.6818 Y15.1709
G0 Z3.0
G0 X-31.75 Y14.9841
G0 Z1.0
G1 F300.0 Z0.0
G1 F800.0 X-31.749 Y15.0154 Z-0.0002
G1 X-31.7475 Y15.0317 Z-0.0003
G1 X-31.7451 Y15.0468 Z-0.0004
G1 X-31.7417 Y15.0618 Z-0.0005
G1 X-31.7373 Y15.0772 Z-0.0006
G1 X-31.732 Y15.0917 Z-0.0007
G1 X-31.7257 Y15.1063 Z-0.0008
G1 X-31.7185 Y15.1204 Z-0.0009
G1 X-31.7107 Y15.1336 Z-0.001
G1 X-31.7019 Y15.1465 Z-0.0011
G1 X-31.6922 Y15.1591 Z-0.0012
G1 X-31.6818 Y15.1709 Z-0.0013
G1 X-31.6709 Y15.1818 Z-0.0014
G1 X-31.6591 Y15.1922 Z-0.0015
G1 X-31.6465 Y15.2019 Z-0.0016
G1 X-31.6336 Y15.2107 Z-0.0017
G1 X-31.6204 Y15.2185 Z-0.0018
G1 X-31.6063 Y15.2257 Z-0.0019
G1 X-31.5917 Y15.232 Z-0.002
G1 X-31.5772 Y15.2373 Z-0.0021
G1 X-31.5618 Y15.2417 Z-0.0022
G1 X-31.5468 Y15.2451 Z-0.0023
G1 X-31.5317 Y15.2475 Z-0.0024
G1 X-31.5154 Y15.249 Z-0.0025
G1 X-31.5 Y15.2495 Z-0.0026
G1 X-31.4846 Y15.249 Z-0.0027
G1 X-31.4683 Y15.2475 Z-0.0029
G1 X-31.4532 Y15.2451 Z-0.003
G1 X-31.4382 Y15.2417 Z-0.0031
G1 X-31.4228 Y15.2373 Z-0.0032
G1 X-31.4083 Y15.232 Z-0.0033
G1 X-31.3937 Y15.2257 Z-0.0034
G1 X-31.3796 Y15.2185 Z-0.0035
G1 X-31.3664 Y15.2107 Z-0.0036
G1 X-31.3535 Y15.2019 Z-0.0037
G1 X-31.3409 Y15.1922 Z-0.0038
G1 X-31.3291 Y15.1818 Z-0.0039
G1 X-31.3182 Y15.1709 Z-0.004
G1 X-31.3078 Y15.1591 Z-0.0041
G1 X-31.2981 Y15.1465 Z-0.0042
G1 X-31.2893 Y15.1336 Z-0.0043
G1 X-31.2815 Y15.1204 Z-0.0044
G1 X-31.2743 Y15.1063 Z-0.0045
G1 X-31.268 Y15.0917 Z-0.0046
G1 X-31.2627 Y15.0772 Z-0.0047
G1 X-31.2583 Y15.0618 Z-0.0048
G1 X-31.2549 Y15.0468 Z-0.0049
G1 X-31.2525 Y15.0317 Z-0.005
G1 X-31.251 Y15.0154 Z-0.0051
G1 X-31.25 Y14.9841 Z-0.0053
G1 Y-14.9841 Z-0.2
G1 X-31.251 Y-15.0154 Z-0.2002
G1 X-31.2525 Y-15.0317 Z-0.2003
G1 X-31.2549 Y-15.0468 Z-0.2004
G1 X-31.2583 Y-15.0618 Z-0.2005
G1 X-31.2627 Y-15.0772 Z-0.2006
G1 X-31.268 Y-15.0917 Z-0.2007
G1 X-31.2743 Y-15.1063 Z-0.2008
G1 X-31.2815 Y-15.1204 Z-0.2009
G1 X-31.2893 Y-15.1336 Z-0.201
G1 X-31.2981 Y-15.1465 Z-0.2011
G1 X-31.3078 Y-15.1591 Z-0.2012
G1 X-31.3182 Y-15.1709 Z-0.2013
G1 X-31.3291 Y-15.1818 Z-0.2014
G1 X-31.3409 Y-15.1922 Z-0.2015
G1 X-31.3535 Y-15.2019 Z-0.2016
G1 X-31.3664 Y-15.2107 Z-0.2017
G1 X-31.3796 Y-15.2185 Z-0.2018
G1 X-31.3937 Y-15.2257 Z-0.2019
G1 X-31.4083 Y-15.232 Z-0.202
G1 X-31.4228 Y-15.2373 Z-0.2021
G1 X-31.4382 Y-15.2417 Z-0.2022
G1 X-31.4532 Y-15.2451 Z-0.2023
G1 X-31.4683 Y-15.2475 Z-0.2024
G1 X-31.4846 Y-15.249 Z-0.2025
G1 X-31.5 Y-15.2495 Z-0.2026
G1 X-31.5154 Y-15.249 Z-0.2027
G1 X-31.5317 Y-15.2475 Z-0.2029
G1 X-31.5468 Y-15.2451 Z-0.203
G1 X-31.5618 Y-15.2417 Z-0.2031
G1 X-31.5772 Y-15.2373 Z-0.2032
G1 X-31.5917 Y-15.232 Z-0.2033
G1 X-31.6063 Y-15.2257 Z-0.2034
G1 X-31.6204 Y-15.2185 Z-0.2035
G1 X-31.6336 Y-15.2107 Z-0.2036
G1 X-31.6465 Y-15.2019 Z-0.2037
G1 X-31.6591 Y-15.1922 Z-0.2038
G1 X-31.6709 Y-15.1818 Z-0.2039
G1 X-31.6818 Y-15.1709 Z-0.204
G1 X-31.6922 Y-15.1591 Z-0.2041
G1 X-31.7019 Y-15.1465 Z-0.2042
G1 X-31.7107 Y-15.1336 Z-0.2043
G1 X-31.7185 Y-15.1204 Z-0.2044
G1 X-31.7257 Y-15.1063 Z-0.2045
G1 X-31.732 Y-15.0917 Z-0.2046
G1 X-31.7373 Y-15.0772 Z-0.2047
G1 X-31.7417 Y-15.0618 Z-0.2048
G1 X-31.7451 Y-15.0468 Z-0.2049
G1 X-31.7475 Y-15.0317 Z-0.205
G1 X-31.749 Y-15.0154 Z-0.2051
G1 X-31.75 Y-14.9841 Z-0.2053
G1 Y14.9841 Z-0.4
G1 X-31.749 Y15.0154 Z-0.4002
G1 X-31.7475 Y15.0317 Z-0.4003
G1 X-31.7451 Y15.0468 Z-0.4004
G1 X-31.7417 Y15.0618 Z-0.4005
G1 X-31.7373 Y15.0772 Z-0.4006
G1 X-31.732 Y15.0917 Z-0.4007
G1 X-31.7257 Y15.1063 Z-0.4008
G1 X-31.7185 Y15.1204 Z-0.4009
G1 X-31.7107 Y15.1336 Z-0.401
G1 X-31.7019 Y15.1465 Z-0.4011
G1 X-31.6922 Y15.1591 Z-0.4012
G1 X-31.6818 Y15.1709 Z-0.4013
G1 X-31.6709 Y15.1818 Z-0.4014
G1 X-31.6591 Y15.1922 Z-0.4015
G1 X-31.6465 Y15.2019 Z-0.4016
G1 X-31.6336 Y15.2107 Z-0.4017
G1 X-31.6204 Y15.2185 Z-0.4018
G1 X-31.6063 Y15.2257 Z-0.4019
G1 X-31.5917 Y15.232 Z-0.402
G1 X-31.5772 Y15.2373 Z-0.4021
G1 X-31.5618 Y15.2417 Z-0.4022
G1 X-31.5468 Y15.2451 Z-0.4023
G1 X-31.5317 Y15.2475 Z-0.4024
G1 X-31.5154 Y15.249 Z-0.4025
G1 X-31.5 Y15.2495 Z-0.4026
G1 X-31.4846 Y15.249 Z-0.4027
G1 X-31.4683 Y15.2475 Z-0.4029
G1 X-31.4532 Y15.2451 Z-0.403
G1 X-31.4382 Y15.2417 Z-0.4031
G1 X-31.4228 Y15.2373 Z-0.4032
G1 X-31.4083 Y15.232 Z-0.4033
G1 X-31.3937 Y15.2257 Z-0.4034
G1 X-31.3796 Y15.2185 Z-0.4035
G1 X-31.3664 Y15.2107 Z-0.4036
G1 X-31.3535 Y15.2019 Z-0.4037
G1 X-31.3409 Y15.1922 Z-0.4038
G1 X-31.3291 Y15.1818 Z-0.4039
G1 X-31.3182 Y15.1709 Z-0.404
G1 X-31.3078 Y15.1591 Z-0.4041
G1 X-31.2981 Y15.1465 Z-0.4042
G1 X-31.2893 Y15.1336 Z-0.4043
G1 X-31.2815 Y15.1204 Z-0.4044
G1 X-31.2743 Y15.1063 Z-0.4045
G1 X-31.268 Y15.0917 Z-0.4046
G1 X-31.2627 Y15.0772 Z-0.4047
G1 X-31.2583 Y15.0618 Z-0.4048
G1 X-31.2549 Y15.0468 Z-0.4049
G1 X-31.2525 Y15.0317 Z-0.405
G1 X-31.251 Y15.0154 Z-0.4051
G1 X-31.25 Y14.9841 Z-0.4053
G1 Y-14.9841 Z-0.6
G1 X-31.251 Y-15.0154 Z-0.6002
G1 X-31.2525 Y-15.0317 Z-0.6003
G1 X-31.2549 Y-15.0468 Z-0.6004
G1 X-31.2583 Y-15.0618 Z-0.6005
G1 X-31.2627 Y-15.0772 Z-0.6006
G1 X-31.268 Y-15.0917 Z-0.6007
G1 X-31.2743 Y-15.1063 Z-0.6008
G1 X-31.2815 Y-15.1204 Z-0.6009
G1 X-31.2893 Y-15.1336 Z-0.601
G1 X-31.2981 Y-15.1465 Z-0.6011
G1 X-31.3078 Y-15.1591 Z-0.6012
G1 X-31.3182 Y-15.1709 Z-0.6013
G1 X-31.3291 Y-15.1818 Z-0.6014
G1 X-31.3409 Y-15.1922 Z-0.6015
G1 X-31.3535 Y-15.2019 Z-0.6016
G1 X-31.3664 Y-15.2107 Z-0.6017
G1 X-31.3796 Y-15.2185 Z-0.6018
G1 X-31.3937 Y-15.2257 Z-0.6019
G1 X-31.4083 Y-15.232 Z-0.602
G1 X-31.4228 Y-15.2373 Z-0.6021
G1 X-31.4382 Y-15.2417 Z-0.6022
G1 X-31.4532 Y-15.2451 Z-0.6023
G1 X-31.4683 Y-15.2475 Z-0.6024
G1 X-31.4846 Y-15.249 Z-0.6025
G1 X-31.5 Y-15.2495 Z-0.6026
G1 X-31.5154 Y-15.249 Z-0.6027
G1 X-31.5317 Y-15.2475 Z-0.6029
G1 X-31.5468 Y-15.2451 Z-0.603
G1 X-31.5618 Y-15.2417 Z-0.6031
G1 X-31.5772 Y-15.2373 Z-0.6032
G1 X-31.5917 Y-15.232 Z-0.6033
G1 X-31.6063 Y-15.2257 Z-0.6034
G1 X-31.6204 Y-15.2185 Z-0.6035
G1 X-31.6336 Y-15.2107 Z-0.6036
G1 X-31.6465 Y-15.2019 Z-0.6037
G1 X-31.6591 Y-15.1922 Z-0.6038
G1 X-31.6709 Y-15.1818 Z-0.6039
G1 X-31.6818 Y-15.1709 Z-0.604
G1 X-31.6922 Y-15.1591 Z-0.6041
G1 X-31.7019 Y-15.1465 Z-0.6042
G1 X-31.7107 Y-15.1336 Z-0.6043
G1 X-31.7185 Y-15.1204 Z-0.6044
G1 X-31.7257 Y-15.1063 Z-0.6045
G1 X-31.732 Y-15.0917 Z-0.6046
G1 X-31.7373 Y-15.0772 Z-0.6047
G1 X-31.7417 Y-15.0618 Z-0.6048
G1 X-31.7451 Y-15.0468 Z-0.6049
G1 X-31.7475 Y-15.0317 Z-0.605
G1 X-31.749 Y-15.0154 Z-0.6051
G1 X-31.75 Y-14.9841 Z-0.6053
G1 Y14.9841 Z-0.8
G1 X-31.749 Y15.0154 Z-0.8002
G1 X-31.7475 Y15.0317 Z-0.8003
G1 X-31.7451 Y15.0468 Z-0.8004
G1 X-31.7417 Y15.0618 Z-0.8005
G1 X-31.7373 Y15.0772 Z-0.8006
G1 X-31.732 Y15.0917 Z-0.8007
G1 X-31.7257 Y15.1063 Z-0.8008
G1 X-31.7185 Y15.1204 Z-0.8009
G1 X-31.7107 Y15.1336 Z-0.801
G1 X-31.7019 Y15.1465 Z-0.8011
G1 X-31.6922 Y15.1591 Z-0.8012
G1 X-31.6818 Y15.1709 Z-0.8013
G1 X-31.6709 Y15.1818 Z-0.8014
G1 X-31.6591 Y15.1922 Z-0.8015
G1 X-31.6465 Y15.2019 Z-0.8016
G1 X-31.6336 Y15.2107 Z-0.8017
G1 X-31.6204 Y15.2185 Z-0.8018
G1 X-31.6063 Y15.2257 Z-0.8019
G1 X-31.5917 Y15.232 Z-0.802
G1 X-31.5772 Y15.2373 Z-0.8021
G1 X-31.5618 Y15.2417 Z-0.8022
G1 X-31.5468 Y15.2451 Z-0.8023
G1 X-31.5317 Y15.2475 Z-0.8024
G1 X-31.5154 Y15.249 Z-0.8025
G1 X-31.5 Y15.2495 Z-0.8026
G1 X-31.4846 Y15.249 Z-0.8027
G1 X-31.4683 Y15.2475 Z-0.8029
G1 X-31.4532 Y15.2451 Z-0.803
G1 X-31.4382 Y15.2417 Z-0.8031
G1 X-31.4228 Y15.2373 Z-0.8032
G1 X-31.4083 Y15.232 Z-0.8033
G1 X-31.3937 Y15.2257 Z-0.8034
G1 X-31.3796 Y15.2185 Z-0.8035
G1 X-31.3664 Y15.2107 Z-0.8036
G1 X-31.3535 Y15.2019 Z-0.8037
G1 X-31.3409 Y15.1922 Z-0.8038
G1 X-31.3291 Y15.1818 Z-0.8039
G1 X-31.3182 Y15.1709 Z-0.804
G1 X-31.3078 Y15.1591 Z-0.8041
G1 X-31.2981 Y15.1465 Z-0.8042
G1 X-31.2893 Y15.1336 Z-0.8043
G1 X-31.2815 Y15.1204 Z-0.8044
G1 X-31.2743 Y15.1063 Z-0.8045
G1 X-31.268 Y15.0917 Z-0.8046
G1 X-31.2627 Y15.0772 Z-0.8047
G1 X-31.2583 Y15.0618 Z-0.8048
G1 X-31.2549 Y15.0468 Z-0.8049
G1 X-31.2525 Y15.0317 Z-0.805
G1 X-31.251 Y15.0154 Z-0.8051
G1 X-31.25 Y14.9841 Z-0.8053
G1 Y-14.9841 Z-1.0
G1 X-31.251 Y-15.0154 Z-1.0002
G1 X-31.2525 Y-15.0317 Z-1.0003
G1 X-31.2549 Y-15.0468 Z-1.0004
G1 X-31.2583 Y-15.0618 Z-1.0005
G1 X-31.2627 Y-15.0772 Z-1.0006
G1 X-31.268 Y-15.0917 Z-1.0007
G1 X-31.2743 Y-15.1063 Z-1.0008
G1 X-31.2815 Y-15.1204 Z-1.0009
G1 X-31.2893 Y-15.1336 Z-1.001
G1 X-31.2981 Y-15.1465 Z-1.0011
G1 X-31.3078 Y-15.1591 Z-1.0012
G1 X-31.3182 Y-15.1709 Z-1.0013
G1 X-31.3291 Y-15.1818 Z-1.0014
G1 X-31.3409 Y-15.1922 Z-1.0015
G1 X-31.3535 Y-15.2019 Z-1.0016
G1 X-31.3664 Y-15.2107 Z-1.0017
G1 X-31.3796 Y-15.2185 Z-1.0018
G1 X-31.3937 Y-15.2257 Z-1.0019
G1 X-31.4083 Y-15.232 Z-1.002
G1 X-31.4228 Y-15.2373 Z-1.0021
G1 X-31.4382 Y-15.2417 Z-1.0022
G1 X-31.4532 Y-15.2451 Z-1.0023
G1 X-31.4683 Y-15.2475 Z-1.0024
G1 X-31.4846 Y-15.249 Z-1.0025
G1 X-31.5 Y-15.2495 Z-1.0026
G1 X-31.5154 Y-15.249 Z-1.0027
G1 X-31.5317 Y-15.2475 Z-1.0029
G1 X-31.5468 Y-15.2451 Z-1.003
G1 X-31.5618 Y-15.2417 Z-1.0031
G1 X-31.5772 Y-15.2373 Z-1.0032
G1 X-31.5917 Y-15.232 Z-1.0033
G1 X-31.6063 Y-15.2257 Z-1.0034
G1 X-31.6204 Y-15.2185 Z-1.0035
G1 X-31.6336 Y-15.2107 Z-1.0036
G1 X-31.6465 Y-15.2019 Z-1.0037
G1 X-31.6591 Y-15.1922 Z-1.0038
G1 X-31.6709 Y-15.1818 Z-1.0039
G1 X-31.6818 Y-15.1709 Z-1.004
G1 X-31.6922 Y-15.1591 Z-1.0041
G1 X-31.7019 Y-15.1465 Z-1.0042
G1 X-31.7107 Y-15.1336 Z-1.0043
G1 X-31.7185 Y-15.1204 Z-1.0044
G1 X-31.7257 Y-15.1063 Z-1.0045
G1 X-31.732 Y-15.0917 Z-1.0046
G1 X-31.7373 Y-15.0772 Z-1.0047
G1 X-31.7417 Y-15.0618 Z-1.0048
G1 X-31.7451 Y-15.0468 Z-1.0049
G1 X-31.7475 Y-15.0317 Z-1.005
G1 X-31.749 Y-15.0154 Z-1.0051
G1 X-31.75 Y-14.9841 Z-1.0053
G1 Y14.9841 Z-1.2
G1 X-31.749 Y15.0154 Z-1.2002
G1 X-31.7475 Y15.0317 Z-1.2003
G1 X-31.7451 Y15.0468 Z-1.2004
G1 X-31.7417 Y15.0618 Z-1.2005
G1 X-31.7373 Y15.0772 Z-1.2006
G1 X-31.732 Y15.0917 Z-1.2007
G1 X-31.7257 Y15.1063 Z-1.2008
G1 X-31.7185 Y15.1204 Z-1.2009
G1 X-31.7107 Y15.1336 Z-1.201
G1 X-31.7019 Y15.1465 Z-1.2011
G1 X-31.6922 Y15.1591 Z-1.2012
G1 X-31.6818 Y15.1709 Z-1.2013
G1 X-31.6709 Y15.1818 Z-1.2014
G1 X-31.6591 Y15.1922 Z-1.2015
G1 X-31.6465 Y15.2019 Z-1.2016
G1 X-31.6336 Y15.2107 Z-1.2017
G1 X-31.6204 Y15.2185 Z-1.2018
G1 X-31.6063 Y15.2257 Z-1.2019
G1 X-31.5917 Y15.232 Z-1.202
G1 X-31.5772 Y15.2373 Z-1.2021
G1 X-31.5618 Y15.2417 Z-1.2022
G1 X-31.5468 Y15.2451 Z-1.2023
G1 X-31.5317 Y15.2475 Z-1.2024
G1 X-31.5154 Y15.249 Z-1.2025
G1 X-31.5 Y15.2495 Z-1.2026
G1 X-31.4846 Y15.249 Z-1.2027
G1 X-31.4683 Y15.2475 Z-1.2029
G1 X-31.4532 Y15.2451 Z-1.203
G1 X-31.4382 Y15.2417 Z-1.2031
G1 X-31.4228 Y15.2373 Z-1.2032
G1 X-31.4083 Y15.232 Z-1.2033
G1 X-31.3937 Y15.2257 Z-1.2034
G1 X-31.3796 Y15.2185 Z-1.2035
G1 X-31.3664 Y15.2107 Z-1.2036
G1 X-31.3535 Y15.2019 Z-1.2037
G1 X-31.3409 Y15.1922 Z-1.2038
G1 X-31.3291 Y15.1818 Z-1.2039
G1 X-31.3182 Y15.1709 Z-1.204
G1 X-31.3078 Y15.1591 Z-1.2041
G1 X-31.2981 Y15.1465 Z-1.2042
G1 X-31.2893 Y15.1336 Z-1.2043
G1 X-31.2815 Y15.1204 Z-1.2044
G1 X-31.2743 Y15.1063 Z-1.2045
G1 X-31.268 Y15.0917 Z-1.2046
G1 X-31.2627 Y15.0772 Z-1.2047
G1 X-31.2583 Y15.0618 Z-1.2048
G1 X-31.2549 Y15.0468 Z-1.2049
G1 X-31.2525 Y15.0317 Z-1.205
G1 X-31.251 Y15.0154 Z-1.2051
G1 X-31.25 Y14.9841 Z-1.2053
G1 Y-14.9841 Z-1.4
G1 X-31.251 Y-15.0154 Z-1.4002
G1 X-31.2525 Y-15.0317 Z-1.4003
G1 X-31.2549 Y-15.0468 Z-1.4004
G1 X-31.2583 Y-15.0618 Z-1.4005
G1 X-31.2627 Y-15.0772 Z-1.4006
G1 X-31.268 Y-15.0917 Z-1.4007
G1 X-31.2743 Y-15.1063 Z-1.4008
G1 X-31.2815 Y-15.1204 Z-1.4009
G1 X-31.2893 Y-15.1336 Z-1.401
G1 X-31.2981 Y-15.1465 Z-1.4011
G1 X-31.3078 Y-15.1591 Z-1.4012
G1 X-31.3182 Y-15.1709 Z-1.4013
G1 X-31.3291 Y-15.1818 Z-1.4014
G1 X-31.3409 Y-15.1922 Z-1.4015
G1 X-31.3535 Y-15.2019 Z-1.4016
G1 X-31.3664 Y-15.2107 Z-1.4017
G1 X-31.3796 Y-15.2185 Z-1.4018
G1 X-31.3937 Y-15.2257 Z-1.4019
G1 X-31.4083 Y-15.232 Z-1.402
G1 X-31.4228 Y-15.2373 Z-1.4021
G1 X-31.4382 Y-15.2417 Z-1.4022
G1 X-31.4532 Y-15.2451 Z-1.4023
G1 X-31.4683 Y-15.2475 Z-1.4024
G1 X-31.4846 Y-15.249 Z-1.4025
G1 X-31.5 Y-15.2495 Z-1.4026
G1 X-31.5154 Y-15.249 Z-1.4027
G1 X-31.5317 Y-15.2475 Z-1.4029
G1 X-31.5468 Y-15.2451 Z-1.403
G1 X-31.5618 Y-15.2417 Z-1.4031
G1 X-31.5772 Y-15.2373 Z-1.4032
G1 X-31.5917 Y-15.232 Z-1.4033
G1 X-31.6063 Y-15.2257 Z-1.4034
G1 X-31.6204 Y-15.2185 Z-1.4035
G1 X-31.6336 Y-15.2107 Z-1.4036
G1 X-31.6465 Y-15.2019 Z-1.4037
G1 X-31.6591 Y-15.1922 Z-1.4038
G1 X-31.6709 Y-15.1818 Z-1.4039
G1 X-31.6818 Y-15.1709 Z-1.404
G1 X-31.6922 Y-15.1591 Z-1.4041
G1 X-31.7019 Y-15.1465 Z-1.4042
G1 X-31.7107 Y-15.1336 Z-1.4043
G1 X-31.7185 Y-15.1204 Z-1.4044
G1 X-31.7257 Y-15.1063 Z-1.4045
G1 X-31.732 Y-15.0917 Z-1.4046
G1 X-31.7373 Y-15.0772 Z-1.4047
G1 X-31.7417 Y-15.0618 Z-1.4048
G1 X-31.7451 Y-15.0468 Z-1.4049
G1 X-31.7475 Y-15.0317 Z-1.405
G1 X-31.749 Y-15.0154 Z-1.4051
G1 X-31.75 Y-14.9841 Z-1.4053
G1 Y14.9841 Z-1.6
G1 X-31.749 Y15.0154 Z-1.6002
G1 X-31.7475 Y15.0317 Z-1.6003
G1 X-31.7451 Y15.0468 Z-1.6004
G1 X-31.7417 Y15.0618 Z-1.6005
G1 X-31.7373 Y15.0772 Z-1.6006
G1 X-31.732 Y15.0917 Z-1.6007
G1 X-31.7257 Y15.1063 Z-1.6008
G1 X-31.7185 Y15.1204 Z-1.6009
G1 X-31.7107 Y15.1336 Z-1.601
G1 X-31.7019 Y15.1465 Z-1.6011
G1 X-31.6922 Y15.1591 Z-1.6012
G1 X-31.6818 Y15.1709 Z-1.6013
G1 X-31.6709 Y15.1818 Z-1.6014
G1 X-31.6591 Y15.1922 Z-1.6015
G1 X-31.6465 Y15.2019 Z-1.6016
G1 X-31.6336 Y15.2107 Z-1.6017
G1 X-31.6204 Y15.2185 Z-1.6018
G1 X-31.6063 Y15.2257 Z-1.6019
G1 X-31.5917 Y15.232 Z-1.602
G1 X-31.5772 Y15.2373 Z-1.6021
G1 X-31.5618 Y15.2417 Z-1.6022
G1 X-31.5468 Y15.2451 Z-1.6023
G1 X-31.5317 Y15.2475 Z-1.6024
G1 X-31.5154 Y15.249 Z-1.6025
G1 X-31.5 Y15.2495 Z-1.6026
G1 X-31.4846 Y15.249 Z-1.6027
G1 X-31.4683 Y15.2475 Z-1.6029
G1 X-31.4532 Y15.2451 Z-1.603
G1 X-31.4382 Y15.2417 Z-1.6031
G1 X-31.4228 Y15.2373 Z-1.6032
G1 X-31.4083 Y15.232 Z-1.6033
G1 X-31.3937 Y15.2257 Z-1.6034
G1 X-31.3796 Y15.2185 Z-1.6035
G1 X-31.3664 Y15.2107 Z-1.6036
G1 X-31.3535 Y15.2019 Z-1.6037
G1 X-31.3409 Y15.1922 Z-1.6038
G1 X-31.3291 Y15.1818 Z-1.6039
G1 X-31.3182 Y15.1709 Z-1.604
G1 X-31.3078 Y15.1591 Z-1.6041
G1 X-31.2981 Y15.1465 Z-1.6042
G1 X-31.2893 Y15.1336 Z-1.6043
G1 X-31.2815 Y15.1204 Z-1.6044
G1 X-31.2743 Y15.1063 Z-1.6045
G1 X-31.268 Y15.0917 Z-1.6046
G1 X-31.2627 Y15.0772 Z-1.6047
G1 X-31.2583 Y15.0618 Z-1.6048
G1 X-31.2549 Y15.0468 Z-1.6049
G1 X-31.2525 Y15.0317 Z-1.605
G1 X-31.251 Y15.0154 Z-1.6051
G1 X-31.25 Y14.9841 Z-1.6053
G1 Y-14.9841 Z-1.8
G1 X-31.251 Y-15.0154 Z-1.8002
G1 X-31.2525 Y-15.0317 Z-1.8003
G1 X-31.2549 Y-15.0468 Z-1.8004
G1 X-31.2583 Y-15.0618 Z-1.8005
G1 X-31.2627 Y-15.0772 Z-1.8006
G1 X-31.268 Y-15.0917 Z-1.8007
G1 X-31.2743 Y-15.1063 Z-1.8008
G1 X-31.2815 Y-15.1204 Z-1.8009
G1 X-31.2893 Y-15.1336 Z-1.801
G1 X-31.2981 Y-15.1465 Z-1.8011
G1 X-31.3078 Y-15.1591 Z-1.8012
G1 X-31.3182 Y-15.1709 Z-1.8013
G1 X-31.3291 Y-15.1818 Z-1.8014
G1 X-31.3409 Y-15.1922 Z-1.8015
G1 X-31.3535 Y-15.2019 Z-1.8016
G1 X-31.3664 Y-15.2107 Z-1.8017
G1 X-31.3796 Y-15.2185 Z-1.8018
G1 X-31.3937 Y-15.2257 Z-1.8019
G1 X-31.4083 Y-15.232 Z-1.802
G1 X-31.4228 Y-15.2373 Z-1.8021
G1 X-31.4382 Y-15.2417 Z-1.8022
G1 X-31.4532 Y-15.2451 Z-1.8023
G1 X-31.4683 Y-15.2475 Z-1.8024
G1 X-31.4846 Y-15.249 Z-1.8025
G1 X-31.5 Y-15.2495 Z-1.8026
G1 X-31.5154 Y-15.249 Z-1.8027
G1 X-31.5317 Y-15.2475 Z-1.8029
G1 X-31.5468 Y-15.2451 Z-1.803
G1 X-31.5618 Y-15.2417 Z-1.8031
G1 X-31.5772 Y-15.2373 Z-1.8032
G1 X-31.5917 Y-15.232 Z-1.8033
G1 X-31.6063 Y-15.2257 Z-1.8034
G1 X-31.6204 Y-15.2185 Z-1.8035
G1 X-31.6336 Y-15.2107 Z-1.8036
G1 X-31.6465 Y-15.2019 Z-1.8037
G1 X-31.6591 Y-15.1922 Z-1.8038
G1 X-31.6709 Y-15.1818 Z-1.8039
G1 X-31.6818 Y-15.1709 Z-1.804
G1 X-31.6922 Y-15.1591 Z-1.8041
G1 X-31.7019 Y-15.1465 Z-1.8042
G1 X-31.7107 Y-15.1336 Z-1.8043
G1 X-31.7185 Y-15.1204 Z-1.8044
G1 X-31.7257 Y-15.1063 Z-1.8045
G1 X-31.732 Y-15.0917 Z-1.8046
G1 X-31.7373 Y-15.0772 Z-1.8047
G1 X-31.7417 Y-15.0618 Z-1.8048
G1 X-31.7451 Y-15.0468 Z-1.8049
G1 X-31.7475 Y-15.0317 Z-1.805
G1 X-31.749 Y-15.0154 Z-1.8051
G1 X-31.75 Y-14.9841 Z-1.8053
G1 Y14.9841 Z-2.0
G1 X-31.749 Y15.0154 Z-2.0002
G1 X-31.7475 Y15.0317 Z-2.0003
G1 X-31.7451 Y15.0468 Z-2.0004
G1 X-31.7417 Y15.0618 Z-2.0005
G1 X-31.7373 Y15.0772 Z-2.0006
G1 X-31.732 Y15.0917 Z-2.0007
G1 X-31.7257 Y15.1063 Z-2.0008
G1 X-31.7185 Y15.1204 Z-2.0009
G1 X-31.7107 Y15.1336 Z-2.001
G1 X-31.7019 Y15.1465 Z-2.0011
G1 X-31.6922 Y15.1591 Z-2.0012
G1 X-31.6818 Y15.1709 Z-2.0013
G1 X-31.6709 Y15.1818 Z-2.0014
G1 X-31.6591 Y15.1922 Z-2.0015
G1 X-31.6465 Y15.2019 Z-2.0016
G1 X-31.6336 Y15.2107 Z-2.0017
G1 X-31.6204 Y15.2185 Z-2.0018
G1 X-31.6063 Y15.2257 Z-2.0019
G1 X-31.5917 Y15.232 Z-2.002
G1 X-31.5772 Y15.2373 Z-2.0021
G1 X-31.5618 Y15.2417 Z-2.0022
G1 X-31.5468 Y15.2451 Z-2.0023
G1 X-31.5317 Y15.2475 Z-2.0024
G1 X-31.5154 Y15.249 Z-2.0025
G1 X-31.5 Y15.2495 Z-2.0026
G1 X-31.4846 Y15.249 Z-2.0027
G1 X-31.4683 Y15.2475 Z-2.0029
G1 X-31.4532 Y15.2451 Z-2.003
G1 X-31.4382 Y15.2417 Z-2.0031
G1 X-31.4228 Y15.2373 Z-2.0032
G1 X-31.4083 Y15.232 Z-2.0033
G1 X-31.3937 Y15.2257 Z-2.0034
G1 X-31.3796 Y15.2185 Z-2.0035
G1 X-31.3664 Y15.2107 Z-2.0036
G1 X-31.3535 Y15.2019 Z-2.0037
G1 X-31.3409 Y15.1922 Z-2.0038
G1 X-31.3291 Y15.1818 Z-2.0039
G1 X-31.3182 Y15.1709 Z-2.004
G1 X-31.3078 Y15.1591 Z-2.0041
G1 X-31.2981 Y15.1465 Z-2.0042
G1 X-31.2893 Y15.1336 Z-2.0043
G1 X-31.2815 Y15.1204 Z-2.0044
G1 X-31.2743 Y15.1063 Z-2.0045
G1 X-31.268 Y15.0917 Z-2.0046
G1 X-31.2627 Y15.0772 Z-2.0047
G1 X-31.2583 Y15.0618 Z-2.0048
G1 X-31.2549 Y15.0468 Z-2.0049
G1 X-31.2525 Y15.0317 Z-2.005
G1 X-31.251 Y15.0154 Z-2.0051
G1 X-31.25 Y14.9841 Z-2.0053
G1 Y-14.9841 Z-2.2
G1 X-31.251 Y-15.0154 Z-2.2002
G1 X-31.2525 Y-15.0317 Z-2.2003
G1 X-31.2549 Y-15.0468 Z-2.2004
G1 X-31.2583 Y-15.0618 Z-2.2005
G1 X-31.2627 Y-15.0772 Z-2.2006
G1 X-31.268 Y-15.0917 Z-2.2007
G1 X-31.2743 Y-15.1063 Z-2.2008
G1 X-31.2815 Y-15.1204 Z-2.2009
G1 X-31.2893 Y-15.1336 Z-2.201
G1 X-31.2981 Y-15.1465 Z-2.2011
G1 X-31.3078 Y-15.1591 Z-2.2012
G1 X-31.3182 Y-15.1709 Z-2.2013
G1 X-31.3291 Y-15.1818 Z-2.2014
G1 X-31.3409 Y-15.1922 Z-2.2015
G1 X-31.3535 Y-15.2019 Z-2.2016
G1 X-31.3664 Y-15.2107 Z-2.2017
G1 X-31.3796 Y-15.2185 Z-2.2018
G1 X-31.3937 Y-15.2257 Z-2.2019
G1 X-31.4083 Y-15.232 Z-2.202
G1 X-31.4228 Y-15.2373 Z-2.2021
G1 X-31.4382 Y-15.2417 Z-2.2022
G1 X-31.4532 Y-15.2451 Z-2.2023
G1 X-31.4683 Y-15.2475 Z-2.2024
G1 X-31.4846 Y-15.249 Z-2.2025
G1 X-31.5 Y-15.2495 Z-2.2026
G1 X-31.5154 Y-15.249 Z-2.2027
G1 X-31.5317 Y-15.2475 Z-2.2029
G1 X-31.5468 Y-15.2451 Z-2.203
G1 X-31.5618 Y-15.2417 Z-2.2031
G1 X-31.5772 Y-15.2373 Z-2.2032
G1 X-31.5917 Y-15.232 Z-2.2033
G1 X-31.6063 Y-15.2257 Z-2.2034
G1 X-31.6204 Y-15.2185 Z-2.2035
G1 X-31.6336 Y-15.2107 Z-2.2036
G1 X-31.6465 Y-15.2019 Z-2.2037
G1 X-31.6591 Y-15.1922 Z-2.2038
G1 X-31.6709 Y-15.1818 Z-2.2039
G1 X-31.6818 Y-15.1709 Z-2.204
G1 X-31.6922 Y-15.1591 Z-2.2041
G1 X-31.7019 Y-15.1465 Z-2.2042
G1 X-31.7107 Y-15.1336 Z-2.2043
G1 X-31.7185 Y-15.1204 Z-2.2044
G1 X-31.7257 Y-15.1063 Z-2.2045
G1 X-31.732 Y-15.0917 Z-2.2046
G1 X-31.7373 Y-15.0772 Z-2.2047
G1 X-31.7417 Y-15.0618 Z-2.2048
G1 X-31.7451 Y-15.0468 Z-2.2049
G1 X-31.7475 Y-15.0317 Z-2.205
G1 X-31.749 Y-15.0154 Z-2.2051
G1 X-31.75 Y-14.9841 Z-2.2053
G1 Y14.9841 Z-2.4
G1 X-31.749 Y15.0154 Z-2.4002
G1 X-31.7475 Y15.0317 Z-2.4003
G1 X-31.7451 Y15.0468 Z-2.4004
G1 X-31.7417 Y15.0618 Z-2.4005
G1 X-31.7373 Y15.0772 Z-2.4006
G1 X-31.732 Y15.0917 Z-2.4007
G1 X-31.7257 Y15.1063 Z-2.4008
G1 X-31.7185 Y15.1204 Z-2.4009
G1 X-31.7107 Y15.1336 Z-2.401
G1 X-31.7019 Y15.1465 Z-2.4011
G1 X-31.6922 Y15.1591 Z-2.4012
G1 X-31.6818 Y15.1709 Z-2.4013
G1 X-31.6709 Y15.1818 Z-2.4014
G1 X-31.6591 Y15.1922 Z-2.4015
G1 X-31.6465 Y15.2019 Z-2.4016
G1 X-31.6336 Y15.2107 Z-2.4017
G1 X-31.6204 Y15.2185 Z-2.4018
G1 X-31.6063 Y15.2257 Z-2.4019
G1 X-31.5917 Y15.232 Z-2.402
G1 X-31.5772 Y15.2373 Z-2.4021
G1 X-31.5618 Y15.2417 Z-2.4022
G1 X-31.5468 Y15.2451 Z-2.4023
G1 X-31.5317 Y15.2475 Z-2.4024
G1 X-31.5154 Y15.249 Z-2.4025
G1 X-31.5 Y15.2495 Z-2.4026
G1 X-31.4846 Y15.249 Z-2.4027
G1 X-31.4683 Y15.2475 Z-2.4029
G1 X-31.4532 Y15.2451 Z-2.403
G1 X-31.4382 Y15.2417 Z-2.4031
G1 X-31.4228 Y15.2373 Z-2.4032
G1 X-31.4083 Y15.232 Z-2.4033
G1 X-31.3937 Y15.2257 Z-2.4034
G1 X-31.3796 Y15.2185 Z-2.4035
G1 X-31.3664 Y15.2107 Z-2.4036
G1 X-31.3535 Y15.2019 Z-2.4037
G1 X-31.3409 Y15.1922 Z-2.4038
G1 X-31.3291 Y15.1818 Z-2.4039
G1 X-31.3182 Y15.1709 Z-2.404
G1 X-31.3078 Y15.1591 Z-2.4041
G1 X-31.2981 Y15.1465 Z-2.4042
G1 X-31.2893 Y15.1336 Z-2.4043
G1 X-31.2815 Y15.1204 Z-2.4044
G1 X-31.2743 Y15.1063 Z-2.4045
G1 X-31.268 Y15.0917 Z-2.4046
G1 X-31.2627 Y15.0772 Z-2.4047
G1 X-31.2583 Y15.0618 Z-2.4048
G1 X-31.2549 Y15.0468 Z-2.4049
G1 X-31.2525 Y15.0317 Z-2.405
G1 X-31.251 Y15.0154 Z-2.4051
G1 X-31.25 Y14.9841 Z-2.4053
G1 Y-14.9841 Z-2.6
G1 X-31.251 Y-15.0154 Z-2.6002
G1 X-31.2525 Y-15.0317 Z-2.6003
G1 X-31.2549 Y-15.0468 Z-2.6004
G1 X-31.2583 Y-15.0618 Z-2.6005
G1 X-31.2627 Y-15.0772 Z-2.6006
G1 X-31.268 Y-15.0917 Z-2.6007
G1 X-31.2743 Y-15.1063 Z-2.6008
G1 X-31.2815 Y-15.1204 Z-2.6009
G1 X-31.2893 Y-15.1336 Z-2.601
G1 X-31.2981 Y-15.1465 Z-2.6011
G1 X-31.3078 Y-15.1591 Z-2.6012
G1 X-31.3182 Y-15.1709 Z-2.6013
G1 X-31.3291 Y-15.1818 Z-2.6014
G1 X-31.3409 Y-15.1922 Z-2.6015
G1 X-31.3535 Y-15.2019 Z-2.6016
G1 X-31.3664 Y-15.2107 Z-2.6017
G1 X-31.3796 Y-15.2185 Z-2.6018
G1 X-31.3937 Y-15.2257 Z-2.6019
G1 X-31.4083 Y-15.232 Z-2.602
G1 X-31.4228 Y-15.2373 Z-2.6021
G1 X-31.4382 Y-15.2417 Z-2.6022
G1 X-31.4532 Y-15.2451 Z-2.6023
G1 X-31.4683 Y-15.2475 Z-2.6024
G1 X-31.4846 Y-15.249 Z-2.6025
G1 X-31.5 Y-15.2495 Z-2.6026
G1 X-31.5154 Y-15.249 Z-2.6027
G1 X-31.5317 Y-15.2475 Z-2.6029
G1 X-31.5468 Y-15.2451 Z-2.603
G1 X-31.5618 Y-15.2417 Z-2.6031
G1 X-31.5772 Y-15.2373 Z-2.6032
G1 X-31.5917 Y-15.232 Z-2.6033
G1 X-31.6063 Y-15.2257 Z-2.6034
G1 X-31.6204 Y-15.2185 Z-2.6035
G1 X-31.6336 Y-15.2107 Z-2.6036
G1 X-31.6465 Y-15.2019 Z-2.6037
G1 X-31.6591 Y-15.1922 Z-2.6038
G1 X-31.6709 Y-15.1818 Z-2.6039
G1 X-31.6818 Y-15.1709 Z-2.604
G1 X-31.6922 Y-15.1591 Z-2.6041
G1 X-31.7019 Y-15.1465 Z-2.6042
G1 X-31.7107 Y-15.1336 Z-2.6043
G1 X-31.7185 Y-15.1204 Z-2.6044
G1 X-31.7257 Y-15.1063 Z-2.6045
G1 X-31.732 Y-15.0917 Z-2.6046
G1 X-31.7373 Y-15.0772 Z-2.6047
G1 X-31.7417 Y-15.0618 Z-2.6048
G1 X-31.7451 Y-15.0468 Z-2.6049
G1 X-31.7475 Y-15.0317 Z-2.605
G1 X-31.749 Y-15.0154 Z-2.6051
G1 X-31.75 Y-14.9841 Z-2.6053
G1 Y14.9841 Z-2.8
G1 X-31.749 Y15.0154 Z-2.8002
G1 X-31.7475 Y15.0317 Z-2.8003
G1 X-31.7451 Y15.0468 Z-2.8004
G1 X-31.7417 Y15.0618 Z-2.8005
G1 X-31.7373 Y15.0772 Z-2.8006
G1 X-31.732 Y15.0917 Z-2.8007
G1 X-31.7257 Y15.1063 Z-2.8008
G1 X-31.7185 Y15.1204 Z-2.8009
G1 X-31.7107 Y15.1336 Z-2.801
G1 X-31.7019 Y15.1465 Z-2.8011
G1 X-31.6922 Y15.1591 Z-2.8012
G1 X-31.6818 Y15.1709 Z-2.8013
G1 X-31.6709 Y15.1818 Z-2.8014
G1 X-31.6591 Y15.1922 Z-2.8015
G1 X-31.6465 Y15.2019 Z-2.8016
G1 X-31.6336 Y15.2107 Z-2.8017
G1 X-31.6204 Y15.2185 Z-2.8018
G1 X-31.6063 Y15.2257 Z-2.8019
G1 X-31.5917 Y15.232 Z-2.802
G1 X-31.5772 Y15.2373 Z-2.8021
G1 X-31.5618 Y15.2417 Z-2.8022
G1 X-31.5468 Y15.2451 Z-2.8023
G1 X-31.5317 Y15.2475 Z-2.8024
G1 X-31.5154 Y15.249 Z-2.8025
G1 X-31.5 Y15.2495 Z-2.8026
G1 X-31.4846 Y15.249 Z-2.8027
G1 X-31.4683 Y15.2475 Z-2.8029
G1 X-31.4532 Y15.2451 Z-2.803
G1 X-31.4382 Y15.2417 Z-2.8031
G1 X-31.4228 Y15.2373 Z-2.8032
G1 X-31.4083 Y15.232 Z-2.8033
G1 X-31.3937 Y15.2257 Z-2.8034
G1 X-31.3796 Y15.2185 Z-2.8035
G1 X-31.3664 Y15.2107 Z-2.8036
G1 X-31.3535 Y15.2019 Z-2.8037
G1 X-31.3409 Y15.1922 Z-2.8038
G1 X-31.3291 Y15.1818 Z-2.8039
G1 X-31.3182 Y15.1709 Z-2.804
G1 X-31.3078 Y15.1591 Z-2.8041
G1 X-31.2981 Y15.1465 Z-2.8042
G1 X-31.2893 Y15.1336 Z-2.8043
G1 X-31.2815 Y15.1204 Z-2.8044
G1 X-31.2743 Y15.1063 Z-2.8045
G1 X-31.268 Y15.0917 Z-2.8046
G1 X-31.2627 Y15.0772 Z-2.8047
G1 X-31.2583 Y15.0618 Z-2.8048
G1 X-31.2549 Y15.0468 Z-2.8049
G1 X-31.2525 Y15.0317 Z-2.805
G1 X-31.251 Y15.0154 Z-2.8051
G1 X-31.25 Y14.9841 Z-2.8053
G1 Y-14.9841 Z-3.0
G1 X-31.251 Y-15.0154 Z-3.0002
G1 X-31.2525 Y-15.0317 Z-3.0003
G1 X-31.2549 Y-15.0468 Z-3.0004
G1 X-31.2583 Y-15.0618 Z-3.0005
G1 X-31.2627 Y-15.0772 Z-3.0006
G1 X-31.268 Y-15.0917 Z-3.0007
G1 X-31.2743 Y-15.1063 Z-3.0008
G1 X-31.2815 Y-15.1204 Z-3.0009
G1 X-31.2893 Y-15.1336 Z-3.001
G1 X-31.2981 Y-15.1465 Z-3.0011
G1 X-31.3078 Y-15.1591 Z-3.0012
G1 X-31.3182 Y-15.1709 Z-3.0013
G1 X-31.3291 Y-15.1818 Z-3.0014
G1 X-31.3409 Y-15.1922 Z-3.0015
G1 X-31.3535 Y-15.2019 Z-3.0016
G1 X-31.3664 Y-15.2107 Z-3.0017
G1 X-31.3796 Y-15.2185 Z-3.0018
G1 X-31.3937 Y-15.2257 Z-3.0019
G1 X-31.4083 Y-15.232 Z-3.002
G1 X-31.4228 Y-15.2373 Z-3.0021
G1 X-31.4382 Y-15.2417 Z-3.0022
G1 X-31.4532 Y-15.2451 Z-3.0023
G1 X-31.4683 Y-15.2475 Z-3.0024
G1 X-31.4846 Y-15.249 Z-3.0025
G1 X-31.5 Y-15.2495 Z-3.0026
G1 X-31.5154 Y-15.249 Z-3.0027
G1 X-31.5317 Y-15.2475 Z-3.0029
G1 X-31.5468 Y-15.2451 Z-3.003
G1 X-31.5618 Y-15.2417 Z-3.0031
G1 X-31.5772 Y-15.2373 Z-3.0032
G1 X-31.5917 Y-15.232 Z-3.0033
G1 X-31.6063 Y-15.2257 Z-3.0034
G1 X-31.6204 Y-15.2185 Z-3.0035
G1 X-31.6336 Y-15.2107 Z-3.0036
G1 X-31.6465 Y-15.2019 Z-3.0037
G1 X-31.6591 Y-15.1922 Z-3.0038
G1 X-31.6709 Y-15.1818 Z-3.0039
G1 X-31.6818 Y-15.1709 Z-3.004
G1 X-31.6922 Y-15.1591 Z-3.0041
G1 X-31.7019 Y-15.1465 Z-3.0042
G1 X-31.7107 Y-15.1336 Z-3.0043
G1 X-31.7185 Y-15.1204 Z-3.0044
G1 X-31.7257 Y-15.1063 Z-3.0045
G1 X-31.732 Y-15.0917 Z-3.0046
G1 X-31.7373 Y-15.0772 Z-3.0047
G1 X-31.7417 Y-15.0618 Z-3.0048
G1 X-31.7451 Y-15.0468 Z-3.0049
G1 X-31.7475 Y-15.0317 Z-3.005
G1 X-31.749 Y-15.0154 Z-3.0051
G1 X-31.75 Y-14.9841 Z-3.0053
G1 Y14.9841 Z-3.2
G1 X-31.749 Y15.0154 Z-3.2002
G1 X-31.7475 Y15.0317 Z-3.2003
G1 X-31.7451 Y15.0468 Z-3.2004
G1 X-31.7417 Y15.0618 Z-3.2005
G1 X-31.7373 Y15.0772 Z-3.2006
G1 X-31.732 Y15.0917 Z-3.2007
G1 X-31.7257 Y15.1063 Z-3.2008
G1 X-31.7185 Y15.1204 Z-3.2009
G1 X-31.7107 Y15.1336 Z-3.201
G1 X-31.7019 Y15.1465 Z-3.2011
G1 X-31.6922 Y15.1591 Z-3.2012
G1 X-31.6818 Y15.1709 Z-3.2013
G1 X-31.6709 Y15.1818 Z-3.2014
G1 X-31.6591 Y15.1922 Z-3.2015
G1 X-31.6465 Y15.2019 Z-3.2016
G1 X-31.6336 Y15.2107 Z-3.2017
G1 X-31.6204 Y15.2185 Z-3.2018
G1 X-31.6063 Y15.2257 Z-3.2019
G1 X-31.5917 Y15.232 Z-3.202
G1 X-31.5772 Y15.2373 Z-3.2021
G1 X-31.5618 Y15.2417 Z-3.2022
G1 X-31.5468 Y15.2451 Z-3.2023
G1 X-31.5317 Y15.2475 Z-3.2024
G1 X-31.5154 Y15.249 Z-3.2025
G1 X-31.5 Y15.2495 Z-3.2026
G1 X-31.4846 Y15.249 Z-3.2027
G1 X-31.4683 Y15.2475 Z-3.2029
G1 X-31.4532 Y15.2451 Z-3.203
G1 X-31.4382 Y15.2417 Z-3.2031
G1 X-31.4228 Y15.2373 Z-3.2032
G1 X-31.4083 Y15.232 Z-3.2033
G1 X-31.3937 Y15.2257 Z-3.2034
G1 X-31.3796 Y15.2185 Z-3.2035
G1 X-31.3664 Y15.2107 Z-3.2036
G1 X-31.3535 Y15.2019 Z-3.2037
G1 X-31.3409 Y15.1922 Z-3.2038
G1 X-31.3291 Y15.1818 Z-3.2039
G1 X-31.3182 Y15.1709 Z-3.204
G1 X-31.3078 Y15.1591 Z-3.2041
G1 X-31.2981 Y15.1465 Z-3.2042
G1 X-31.2893 Y15.1336 Z-3.2043
G1 X-31.2815 Y15.1204 Z-3.2044
G1 X-31.2743 Y15.1063 Z-3.2045
G1 X-31.268 Y15.0917 Z-3.2046
G1 X-31.2627 Y15.0772 Z-3.2047
G1 X-31.2583 Y15.0618 Z-3.2048
G1 X-31.2549 Y15.0468 Z-3.2049
G1 X-31.2525 Y15.0317 Z-3.205
G1 X-31.251 Y15.0154 Z-3.2051
G1 X-31.25 Y14.9841 Z-3.2053
G1 Y-14.9841 Z-3.4
G1 X-31.251 Y-15.0154 Z-3.4002
G1 X-31.2525 Y-15.0317 Z-3.4003
G1 X-31.2549 Y-15.0468 Z-3.4004
G1 X-31.2583 Y-15.0618 Z-3.4005
G1 X-31.2627 Y-15.0772 Z-3.4006
G1 X-31.268 Y-15.0917 Z-3.4007
G1 X-31.2743 Y-15.1063 Z-3.4008
G1 X-31.2815 Y-15.1204 Z-3.4009
G1 X-31.2893 Y-15.1336 Z-3.401
G1 X-31.2981 Y-15.1465 Z-3.4011
G1 X-31.3078 Y-15.1591 Z-3.4012
G1 X-31.3182 Y-15.1709 Z-3.4013
G1 X-31.3291 Y-15.1818 Z-3.4014
G1 X-31.3409 Y-15.1922 Z-3.4015
G1 X-31.3535 Y-15.2019 Z-3.4016
G1 X-31.3664 Y-15.2107 Z-3.4017
G1 X-31.3796 Y-15.2185 Z-3.4018
G1 X-31.3937 Y-15.2257 Z-3.4019
G1 X-31.4083 Y-15.232 Z-3.402
G1 X-31.4228 Y-15.2373 Z-3.4021
G1 X-31.4382 Y-15.2417 Z-3.4022
G1 X-31.4532 Y-15.2451 Z-3.4023
G1 X-31.4683 Y-15.2475 Z-3.4024
G1 X-31.4846 Y-15.249 Z-3.4025
G1 X-31.5 Y-15.2495 Z-3.4026
G1 X-31.5154 Y-15.249 Z-3.4027
G1 X-31.5317 Y-15.2475 Z-3.4029
G1 X-31.5468 Y-15.2451 Z-3.403
G1 X-31.5618 Y-15.2417 Z-3.4031
G1 X-31.5772 Y-15.2373 Z-3.4032
G1 X-31.5917 Y-15.232 Z-3.4033
G1 X-31.6063 Y-15.2257 Z-3.4034
G1 X-31.6204 Y-15.2185 Z-3.4035
G1 X-31.6336 Y-15.2107 Z-3.4036
G1 X-31.6465 Y-15.2019 Z-3.4037
G1 X-31.6591 Y-15.1922 Z-3.4038
G1 X-31.6709 Y-15.1818 Z-3.4039
G1 X-31.6818 Y-15.1709 Z-3.404
G1 X-31.6922 Y-15.1591 Z-3.4041
G1 X-31.7019 Y-15.1465 Z-3.4042
G1 X-31.7107 Y-15.1336 Z-3.4043
G1 X-31.7185 Y-15.1204 Z-3.4044
G1 X-31.7257 Y-15.1063 Z-3.4045
G1 X-31.732 Y-15.0917 Z-3.4046
G1 X-31.7373 Y-15.0772 Z-3.4047
G1 X-31.7417 Y-15.0618 Z-3.4048
G1 X-31.7451 Y-15.0468 Z-3.4049
G1 X-31.7475 Y-15.0317 Z-3.405
G1 X-31.749 Y-15.0154 Z-3.4051
G1 X-31.75 Y-14.9841 Z-3.4053
G1 Y14.9841 Z-3.6
G1 X-31.749 Y15.0154 Z-3.6002
G1 X-31.7475 Y15.0317 Z-3.6003
G1 X-31.7451 Y15.0468 Z-3.6004
G1 X-31.7417 Y15.0618 Z-3.6005
G1 X-31.7373 Y15.0772 Z-3.6006
G1 X-31.732 Y15.0917 Z-3.6007
G1 X-31.7257 Y15.1063 Z-3.6008
G1 X-31.7185 Y15.1204 Z-3.6009
G1 X-31.7107 Y15.1336 Z-3.601
G1 X-31.7019 Y15.1465 Z-3.6011
G1 X-31.6922 Y15.1591 Z-3.6012
G1 X-31.6818 Y15.1709 Z-3.6013
G1 X-31.6709 Y15.1818 Z-3.6014
G1 X-31.6591 Y15.1922 Z-3.6015
G1 X-31.6465 Y15.2019 Z-3.6016
G1 X-31.6336 Y15.2107 Z-3.6017
G1 X-31.6204 Y15.2185 Z-3.6018
G1 X-31.6063 Y15.2257 Z-3.6019
G1 X-31.5917 Y15.232 Z-3.602
G1 X-31.5772 Y15.2373 Z-3.6021
G1 X-31.5618 Y15.2417 Z-3.6022
G1 X-31.5468 Y15.2451 Z-3.6023
G1 X-31.5317 Y15.2475 Z-3.6024
G1 X-31.5154 Y15.249 Z-3.6025
G1 X-31.5 Y15.2495 Z-3.6026
G1 X-31.4846 Y15.249 Z-3.6027
G1 X-31.4683 Y15.2475 Z-3.6029
G1 X-31.4532 Y15.2451 Z-3.603
G1 X-31.4382 Y15.2417 Z-3.6031
G1 X-31.4228 Y15.2373 Z-3.6032
G1 X-31.4083 Y15.232 Z-3.6033
G1 X-31.3937 Y15.2257 Z-3.6034
G1 X-31.3796 Y15.2185 Z-3.6035
G1 X-31.3664 Y15.2107 Z-3.6036
G1 X-31.3535 Y15.2019 Z-3.6037
G1 X-31.3409 Y15.1922 Z-3.6038
G1 X-31.3291 Y15.1818 Z-3.6039
G1 X-31.3182 Y15.1709 Z-3.604
G1 X-31.3078 Y15.1591 Z-3.6041
G1 X-31.2981 Y15.1465 Z-3.6042
G1 X-31.2893 Y15.1336 Z-3.6043
G1 X-31.2815 Y15.1204 Z-3.6044
G1 X-31.2743 Y15.1063 Z-3.6045
G1 X-31.268 Y15.0917 Z-3.6046
G1 X-31.2627 Y15.0772 Z-3.6047
G1 X-31.2583 Y15.0618 Z-3.6048
G1 X-31.2549 Y15.0468 Z-3.6049
G1 X-31.2525 Y15.0317 Z-3.605
G1 X-31.251 Y15.0154 Z-3.6051
G1 X-31.25 Y14.9841 Z-3.6053
G1 Y-14.9841 Z-3.8
G1 X-31.251 Y-15.0154 Z-3.8002
G1 X-31.2525 Y-15.0317 Z-3.8003
G1 X-31.2549 Y-15.0468 Z-3.8004
G1 X-31.2583 Y-15.0618 Z-3.8005
G1 X-31.2627 Y-15.0772 Z-3.8006
G1 X-31.268 Y-15.0917 Z-3.8007
G1 X-31.2743 Y-15.1063 Z-3.8008
G1 X-31.2815 Y-15.1204 Z-3.8009
G1 X-31.2893 Y-15.1336 Z-3.801
G1 X-31.2981 Y-15.1465 Z-3.8011
G1 X-31.3078 Y-15.1591 Z-3.8012
G1 X-31.3182 Y-15.1709 Z-3.8013
G1 X-31.3291 Y-15.1818 Z-3.8014
G1 X-31.3409 Y-15.1922 Z-3.8015
G1 X-31.3535 Y-15.2019 Z-3.8016
G1 X-31.3664 Y-15.2107 Z-3.8017
G1 X-31.3796 Y-15.2185 Z-3.8018
G1 X-31.3937 Y-15.2257 Z-3.8019
G1 X-31.4083 Y-15.232 Z-3.802
G1 X-31.4228 Y-15.2373 Z-3.8021
G1 X-31.4382 Y-15.2417 Z-3.8022
G1 X-31.4532 Y-15.2451 Z-3.8023
G1 X-31.4683 Y-15.2475 Z-3.8024
G1 X-31.4846 Y-15.249 Z-3.8025
G1 X-31.5 Y-15.2495 Z-3.8026
G1 X-31.5154 Y-15.249 Z-3.8027
G1 X-31.5317 Y-15.2475 Z-3.8029
G1 X-31.5468 Y-15.2451 Z-3.803
G1 X-31.5618 Y-15.2417 Z-3.8031
G1 X-31.5772 Y-15.2373 Z-3.8032
G1 X-31.5917 Y-15.232 Z-3.8033
G1 X-31.6063 Y-15.2257 Z-3.8034
G1 X-31.6204 Y-15.2185 Z-3.8035
G1 X-31.6336 Y-15.2107 Z-3.8036
G1 X-31.6465 Y-15.2019 Z-3.8037
G1 X-31.6591 Y-15.1922 Z-3.8038
G1 X-31.6709 Y-15.1818 Z-3.8039
G1 X-31.6818 Y-15.1709 Z-3.804
G1 X-31.6922 Y-15.1591 Z-3.8041
G1 X-31.7019 Y-15.1465 Z-3.8042
G1 X-31.7107 Y-15.1336 Z-3.8043
G1 X-31.7185 Y-15.1204 Z-3.8044
G1 X-31.7257 Y-15.1063 Z-3.8045
G1 X-31.732 Y-15.0917 Z-3.8046
G1 X-31.7373 Y-15.0772 Z-3.8047
G1 X-31.7417 Y-15.0618 Z-3.8048
G1 X-31.7451 Y-15.0468 Z-3.8049
G1 X-31.7475 Y-15.0317 Z-3.805
G1 X-31.749 Y-15.0154 Z-3.8051
G1 X-31.75 Y-14.9841 Z-3.8053
G1 Y14.9841 Z-4.0
G1 X-31.749 Y15.0154 Z-4.0002
G1 X-31.7475 Y15.0317
G1 X-31.7451 Y15.0468 Z-4.0003
G1 X-31.7417 Y15.0618 Z-4.0004
G1 X-31.7373 Y15.0772 Z-4.0005
G1 X-31.732 Y15.0917
G1 X-31.7257 Y15.1063 Z-4.0006
G1 X-31.7185 Y15.1204 Z-4.0007
G1 X-31.7107 Y15.1336 Z-4.0008
G1 X-31.7019 Y15.1465
G1 X-31.6922 Y15.1591 Z-4.0009
G1 X-31.6818 Y15.1709 Z-4.001
G1 X-31.6709 Y15.1818 Z-4.0011
G1 X-31.6591 Y15.1922
G1 X-31.6465 Y15.2019 Z-4.0012
G1 X-31.6336 Y15.2107 Z-4.0013
G1 X-31.6204 Y15.2185 Z-4.0014
G1 X-31.6063 Y15.2257 Z-4.0015
G1 X-31.5917 Y15.232
G1 X-31.5772 Y15.2373 Z-4.0016
G1 X-31.5618 Y15.2417 Z-4.0017
G1 X-31.5468 Y15.2451 Z-4.0018
G1 X-31.5317 Y15.2475
G1 X-31.5154 Y15.249 Z-4.0019
G1 X-31.5 Y15.2495 Z-4.002
G1 X-31.4846 Y15.249 Z-4.0021
G1 X-31.4683 Y15.2475
G1 X-31.4532 Y15.2451 Z-4.0022
G1 X-31.4382 Y15.2417 Z-4.0023
G1 X-31.4228 Y15.2373 Z-4.0024
G1 X-31.4083 Y15.232
G1 X-31.3937 Y15.2257 Z-4.0025
G1 X-31.3796 Y15.2185 Z-4.0026
G1 X-31.3664 Y15.2107 Z-4.0027
G1 X-31.3535 Y15.2019
G1 X-31.3409 Y15.1922 Z-4.0028
G1 X-31.3291 Y15.1818 Z-4.0029
G1 X-31.3182 Y15.1709 Z-4.003
G1 X-31.3078 Y15.1591 Z-4.0031
G1 X-31.2981 Y15.1465
G1 X-31.2893 Y15.1336 Z-4.0032
G1 X-31.2815 Y15.1204 Z-4.0033
G1 X-31.2743 Y15.1063 Z-4.0034
G1 X-31.268 Y15.0917
G1 X-31.2627 Y15.0772 Z-4.0035
G1 X-31.2583 Y15.0618 Z-4.0036
G1 X-31.2549 Y15.0468 Z-4.0037
G1 X-31.2525 Y15.0317
G1 X-31.251 Y15.0154 Z-4.0038
G1 X-31.25 Y14.9841 Z-4.004
G1 Y-14.9841 Z-4.15
G1 X-31.251 Y-15.0154 Z-4.1502
G1 X-31.2525 Y-15.0317
G1 X-31.2549 Y-15.0468 Z-4.1503
G1 X-31.2583 Y-15.0618 Z-4.1504
G1 X-31.2627 Y-15.0772 Z-4.1505
G1 X-31.268 Y-15.0917
G1 X-31.2743 Y-15.1063 Z-4.1506
G1 X-31.2815 Y-15.1204 Z-4.1507
G1 X-31.2893 Y-15.1336 Z-4.1508
G1 X-31.2981 Y-15.1465
G1 X-31.3078 Y-15.1591 Z-4.1509
G1 X-31.3182 Y-15.1709 Z-4.151
G1 X-31.3291 Y-15.1818 Z-4.1511
G1 X-31.3409 Y-15.1922
G1 X-31.3535 Y-15.2019 Z-4.1512
G1 X-31.3664 Y-15.2107 Z-4.1513
G1 X-31.3796 Y-15.2185 Z-4.1514
G1 X-31.3937 Y-15.2257 Z-4.1515
G1 X-31.4083 Y-15.232
G1 X-31.4228 Y-15.2373 Z-4.1516
G1 X-31.4382 Y-15.2417 Z-4.1517
G1 X-31.4532 Y-15.2451 Z-4.1518
G1 X-31.4683 Y-15.2475
G1 X-31.4846 Y-15.249 Z-4.1519
G1 X-31.5 Y-15.2495 Z-4.152
G1 X-31.5154 Y-15.249 Z-4.1521
G1 X-31.5317 Y-15.2475
G1 X-31.5468 Y-15.2451 Z-4.1522
G1 X-31.5618 Y-15.2417 Z-4.1523
G1 X-31.5772 Y-15.2373 Z-4.1524
G1 X-31.5917 Y-15.232
G1 X-31.6063 Y-15.2257 Z-4.1525
G1 X-31.6204 Y-15.2185 Z-4.1526
G1 X-31.6336 Y-15.2107 Z-4.1527
G1 X-31.6465 Y-15.2019
G1 X-31.6591 Y-15.1922 Z-4.1528
G1 X-31.6709 Y-15.1818 Z-4.1529
G1 X-31.6818 Y-15.1709 Z-4.153
G1 X-31.6922 Y-15.1591 Z-4.1531
G1 X-31.7019 Y-15.1465
G1 X-31.7107 Y-15.1336 Z-4.1532
G1 X-31.7185 Y-15.1204 Z-4.1533
G1 X-31.7257 Y-15.1063 Z-4.1534
G1 X-31.732 Y-15.0917
G1 X-31.7373 Y-15.0772 Z-4.1535
G1 X-31.7417 Y-15.0618 Z-4.1536
G1 X-31.7451 Y-15.0468 Z-4.1537
G1 X-31.7475 Y-15.0317
G1 X-31.749 Y-15.0154 Z-4.1538
G1 X-31.75 Y-14.9841 Z-4.154
G1 Y14.9841 Z-4.3
G1 X-31.749 Y15.0154
G1 X-31.7475 Y15.0317
G1 X-31.7451 Y15.0468
G1 X-31.7417 Y15.0618
G1 X-31.7373 Y15.0772
G1 X-31.732 Y15.0917
G1 X-31.7257 Y15.1063
G1 X-31.7185 Y15.1204
G1 X-31.7107 Y15.1336
G1 X-31.7019 Y15.1465
G1 X-31.6922 Y15.1591
G1 X-31.6818 Y15.1709
G1 X-31.6709 Y15.1818
G1 X-31.6591 Y15.1922
G1 X-31.6465 Y15.2019
G1 X-31.6336 Y15.2107
G1 X-31.6204 Y15.2185
G1 X-31.6063 Y15.2257
G1 X-31.5917 Y15.232
G1 X-31.5772 Y15.2373
G1 X-31.5618 Y15.2417
G1 X-31.5468 Y15.2451
G1 X-31.5317 Y15.2475
G1 X-31.5154 Y15.249
G1 X-31.5 Y15.2495
G1 X-31.4846 Y15.249
G1 X-31.4683 Y15.2475
G1 X-31.4532 Y15.2451
G1 X-31.4382 Y15.2417
G1 X-31.4228 Y15.2373
G1 X-31.4083 Y15.232
G1 X-31.3937 Y15.2257
G1 X-31.3796 Y15.2185
G1 X-31.3664 Y15.2107
G1 X-31.3535 Y15.2019
G1 X-31.3409 Y15.1922
G1 X-31.3291 Y15.1818
G1 X-31.3182 Y15.1709
G1 X-31.3078 Y15.1591
G1 X-31.2981 Y15.1465
G1 X-31.2893 Y15.1336
G1 X-31.2815 Y15.1204
G1 X-31.2743 Y15.1063
G1 X-31.268 Y15.0917
G1 X-31.2627 Y15.0772
G1 X-31.2583 Y15.0618
G1 X-31.2549 Y15.0468
G1 X-31.2525 Y15.0317
G1 X-31.251 Y15.0154
G1 X-31.25 Y14.9841
G1 Y-14.9841
G1 X-31.251 Y-15.0154
G1 X-31.2525 Y-15.0317
G1 X-31.2549 Y-15.0468
G1 X-31.2583 Y-15.0618
G1 X-31.2627 Y-15.0772
G1 X-31.268 Y-15.0917
G1 X-31.2743 Y-15.1063
G1 X-31.2815 Y-15.1204
G1 X-31.2893 Y-15.1336
G1 X-31.2981 Y-15.1465
G1 X-31.3078 Y-15.1591
G1 X-31.3182 Y-15.1709
G1 X-31.3291 Y-15.1818
G1 X-31.3409 Y-15.1922
G1 X-31.3535 Y-15.2019
G1 X-31.3664 Y-15.2107
G1 X-31.3796 Y-15.2185
G1 X-31.3937 Y-15.2257
G1 X-31.4083 Y-15.232
G1 X-31.4228 Y-15.2373
G1 X-31.4382 Y-15.2417
G1 X-31.4532 Y-15.2451
G1 X-31.4683 Y-15.2475
G1 X-31.4846 Y-15.249
G1 X-31.5 Y-15.2495
G1 X-31.5154 Y-15.249
G1 X-31.5317 Y-15.2475
G1 X-31.5468 Y-15.2451
G1 X-31.5618 Y-15.2417
G1 X-31.5772 Y-15.2373
G1 X-31.5917 Y-15.232
G1 X-31.6063 Y-15.2257
G1 X-31.6204 Y-15.2185
G1 X-31.6336 Y-15.2107
G1 X-31.6465 Y-15.2019
G1 X-31.6591 Y-15.1922
G1 X-31.6709 Y-15.1818
G1 X-31.6818 Y-15.1709
G1 X-31.6922 Y-15.1591
G1 X-31.7019 Y-15.1465
G1 X-31.7107 Y-15.1336
G1 X-31.7185 Y-15.1204
G1 X-31.7257 Y-15.1063
G1 X-31.732 Y-15.0917
G1 X-31.7373 Y-15.0772
G1 X-31.7417 Y-15.0618
G1 X-31.7451 Y-15.0468
G1 X-31.7475 Y-15.0317
G1 X-31.749 Y-15.0154
G1 X-31.75 Y-14.9841
G1 Y14.9841
G0 Z3.0
G0 X-15.75
G0 Z1.0
G1 F300.0 Z0.0
G1 F800.0 X-15.749 Y15.0154 Z-0.0002
G1 X-15.7475 Y15.0317 Z-0.0003
G1 X-15.7451 Y15.0468 Z-0.0004
G1 X-15.7417 Y15.0618 Z-0.0005
G1 X-15.7373 Y15.0772 Z-0.0006
G1 X-15.732 Y15.0917 Z-0.0007
G1 X-15.7257 Y15.1063 Z-0.0008
G1 X-15.7185 Y15.1204 Z-0.0009
G1 X-15.7107 Y15.1336 Z-0.001
G1 X-15.7019 Y15.1465 Z-0.0011
G1 X-15.6922 Y15.1591 Z-0.0012
G1 X-15.6818 Y15.1709 Z-0.0013
G1 X-15.6709 Y15.1818 Z-0.0014
G1 X-15.6591 Y15.1922 Z-0.0015
G1 X-15.6465 Y15.2019 Z-0.0016
G1 X-15.6336 Y15.2107 Z-0.0017
G1 X-15.6204 Y15.2185 Z-0.0018
G1 X-15.6063 Y15.2257 Z-0.0019
G1 X-15.5917 Y15.232 Z-0.002
G1 X-15.5772 Y15.2373 Z-0.0021
G1 X-15.5618 Y15.2417 Z-0.0022
G1 X-15.5468 Y15.2451 Z-0.0023
G1 X-15.5317 Y15.2475 Z-0.0024
G1 X-15.5154 Y15.249 Z-0.0025
G1 X-15.5 Y15.2495 Z-0.0026
G1 X-15.4846 Y15.249 Z-0.0027
G1 X-15.4683 Y15.2475 Z-0.0029
G1 X-15.4532 Y15.2451 Z-0.003
G1 X-15.4382 Y15.2417 Z-0.0031
G1 X-15.4228 Y15.2373 Z-0.0032
G1 X-15.4083 Y15.232 Z-0.0033
G1 X-15.3937 Y15.2257 Z-0.0034
G1 X-15.3796 Y15.2185 Z-0.0035
G1 X-15.3664 Y15.2107 Z-0.0036
G1 X-15.3535 Y15.2019 Z-0.0037
G1 X-15.3409 Y15.1922 Z-0.0038
G1 X-15.3291 Y15.1818 Z-0.0039
G1 X-15.3182 Y15.1709 Z-0.004
G1 X-15.3078 Y15.1591 Z-0.0041
G1 X-15.2981 Y15.1465 Z-0.0042
G1 X-15.2893 Y15.1336 Z-0.0043
G1 X-15.2815 Y15.1204 Z-0.0044
G1 X-15.2743 Y15.1063 Z-0.0045
G1 X-15.268 Y15.0917 Z-0.0046
G1 X-15.2627 Y15.0772 Z-0.0047
G1 X-15.2583 Y15.0618 Z-0.0048
G1 X-15.2549 Y15.0468 Z-0.0049
G1 X-15.2525 Y15.0317 Z-0.005
G1 X-15.251 Y15.0154 Z-0.0051
G1 X-15.25 Y14.9841 Z-0.0053
G1 Y-14.9841 Z-0.2
G1 X-15.251 Y-15.0154 Z-0.2002
G1 X-15.2525 Y-15.0317 Z-0.2003
G1 X-15.2549 Y-15.0468 Z-0.2004
G1 X-15.2583 Y-15.0618 Z-0.2005
G1 X-15.2627 Y-15.0772 Z-0.2006
G1 X-15.268 Y-15.0917 Z-0.2007
G1 X-15.2743 Y-15.1063 Z-0.2008
G1 X-15.2815 Y-15.1204 Z-0.2009
G1 X-15.2893 Y-15.1336 Z-0.201
G1 X-15.2981 Y-15.1465 Z-0.2011
G1 X-15.3078 Y-15.1591 Z-0.2012
G1 X-15.3182 Y-15.1709 Z-0.2013
G1 X-15.3291 Y-15.1818 Z-0.2014
G1 X-15.3409 Y-15.1922 Z-0.2015
G1 X-15.3535 Y-15.2019 Z-0.2016
G1 X-15.3664 Y-15.2107 Z-0.2017
G1 X-15.3796 Y-15.2185 Z-0.2018
G1 X-15.3937 Y-15.2257 Z-0.2019
G1 X-15.4083 Y-15.232 Z-0.202
G1 X-15.4228 Y-15.2373 Z-0.2021
G1 X-15.4382 Y-15.2417 Z-0.2022
G1 X-15.4532 Y-15.2451 Z-0.2023
G1 X-15.4683 Y-15.2475 Z-0.2024
G1 X-15.4846 Y-15.249 Z-0.2025
G1 X-15.5 Y-15.2495 Z-0.2026
G1 X-15.5154 Y-15.249 Z-0.2027
G1 X-15.5317 Y-15.2475 Z-0.2029
G1 X-15.5468 Y-15.2451 Z-0.203
G1 X-15.5618 Y-15.2417 Z-0.2031
G1 X-15.5772 Y-15.2373 Z-0.2032
G1 X-15.5917 Y-15.232 Z-0.2033
G1 X-15.6063 Y-15.2257 Z-0.2034
G1 X-15.6204 Y-15.2185 Z-0.2035
G1 X-15.6336 Y-15.2107 Z-0.2036
G1 X-15.6465 Y-15.2019 Z-0.2037
G1 X-15.6591 Y-15.1922 Z-0.2038
G1 X-15.6709 Y-15.1818 Z-0.2039
G1 X-15.6818 Y-15.1709 Z-0.204
G1 X-15.6922 Y-15.1591 Z-0.2041
G1 X-15.7019 Y-15.1465 Z-0.2042
G1 X-15.7107 Y-15.1336 Z-0.2043
G1 X-15.7185 Y-15.1204 Z-0.2044
G1 X-15.7257 Y-15.1063 Z-0.2045
G1 X-15.732 Y-15.0917 Z-0.2046
G1 X-15.7373 Y-15.0772 Z-0.2047
G1 X-15.7417 Y-15.0618 Z-0.2048
G1 X-15.7451 Y-15.0468 Z-0.2049
G1 X-15.7475 Y-15.0317 Z-0.205
G1 X-15.749 Y-15.0154 Z-0.2051
G1 X-15.75 Y-14.9841 Z-0.2053
G1 Y14.9841 Z-0.4
G1 X-15.749 Y15.0154 Z-0.4002
G1 X-15.7475 Y15.0317 Z-0.4003
G1 X-15.7451 Y15.0468 Z-0.4004
G1 X-15.7417 Y15.0618 Z-0.4005
G1 X-15.7373 Y15.0772 Z-0.4006
G1 X-15.732 Y15.0917 Z-0.4007
G1 X-15.7257 Y15.1063 Z-0.4008
G1 X-15.7185 Y15.1204 Z-0.4009
G1 X-15.7107 Y15.1336 Z-0.401
G1 X-15.7019 Y15.1465 Z-0.4011
G1 X-15.6922 Y15.1591 Z-0.4012
G1 X-15.6818 Y15.1709 Z-0.4013
G1 X-15.6709 Y15.1818 Z-0.4014
G1 X-15.6591 Y15.1922 Z-0.4015
G1 X-15.6465 Y15.2019 Z-0.4016
G1 X-15.6336 Y15.2107 Z-0.4017
G1 X-15.6204 Y15.2185 Z-0.4018
G1 X-15.6063 Y15.2257 Z-0.4019
G1 X-15.5917 Y15.232 Z-0.402
G1 X-15.5772 Y15.2373 Z-0.4021
G1 X-15.5618 Y15.2417 Z-0.4022
G1 X-15.5468 Y15.2451 Z-0.4023
G1 X-15.5317 Y15.2475 Z-0.4024
G1 X-15.5154 Y15.249 Z-0.4025
G1 X-15.5 Y15.2495 Z-0.4026
G1 X-15.4846 Y15.249 Z-0.4027
G1 X-15.4683 Y15.2475 Z-0.4029
G1 X-15.4532 Y15.2451 Z-0.403
G1 X-15.4382 Y15.2417 Z-0.4031
G1 X-15.4228 Y15.2373 Z-0.4032
G1 X-15.4083 Y15.232 Z-0.4033
G1 X-15.3937 Y15.2257 Z-0.4034
G1 X-15.3796 Y15.2185 Z-0.4035
G1 X-15.3664 Y15.2107 Z-0.4036
G1 X-15.3535 Y15.2019 Z-0.4037
G1 X-15.3409 Y15.1922 Z-0.4038
G1 X-15.3291 Y15.1818 Z-0.4039
G1 X-15.3182 Y15.1709 Z-0.404
G1 X-15.3078 Y15.1591 Z-0.4041
G1 X-15.2981 Y15.1465 Z-0.4042
G1 X-15.2893 Y15.1336 Z-0.4043
G1 X-15.2815 Y15.1204 Z-0.4044
G1 X-15.2743 Y15.1063 Z-0.4045
G1 X-15.268 Y15.0917 Z-0.4046
G1 X-15.2627 Y15.0772 Z-0.4047
G1 X-15.2583 Y15.0618 Z-0.4048
G1 X-15.2549 Y15.0468 Z-0.4049
G1 X-15.2525 Y15.0317 Z-0.405
G1 X-15.251 Y15.0154 Z-0.4051
G1 X-15.25 Y14.9841 Z-0.4053
G1 Y-14.9841 Z-0.6
G1 X-15.251 Y-15.0154 Z-0.6002
G1 X-15.2525 Y-15.0317 Z-0.6003
G1 X-15.2549 Y-15.0468 Z-0.6004
G1 X-15.2583 Y-15.0618 Z-0.6005
G1 X-15.2627 Y-15.0772 Z-0.6006
G1 X-15.268 Y-15.0917 Z-0.6007
G1 X-15.2743 Y-15.1063 Z-0.6008
G1 X-15.2815 Y-15.1204 Z-0.6009
G1 X-15.2893 Y-15.1336 Z-0.601
G1 X-15.2981 Y-15.1465 Z-0.6011
G1 X-15.3078 Y-15.1591 Z-0.6012
G1 X-15.3182 Y-15.1709 Z-0.6013
G1 X-15.3291 Y-15.1818 Z-0.6014
G1 X-15.3409 Y-15.1922 Z-0.6015
G1 X-15.3535 Y-15.2019 Z-0.6016
G1 X-15.3664 Y-15.2107 Z-0.6017
G1 X-15.3796 Y-15.2185 Z-0.6018
G1 X-15.3937 Y-15.2257 Z-0.6019
G1 X-15.4083 Y-15.232 Z-0.602
G1 X-15.4228 Y-15.2373 Z-0.6021
G1 X-15.4382 Y-15.2417 Z-0.6022
G1 X-15.4532 Y-15.2451 Z-0.6023
G1 X-15.4683 Y-15.2475 Z-0.6024
G1 X-15.4846 Y-15.249 Z-0.6025
G1 X-15.5 Y-15.2495 Z-0.6026
G1 X-15.5154 Y-15.249 Z-0.6027
G1 X-15.5317 Y-15.2475 Z-0.6029
G1 X-15.5468 Y-15.2451 Z-0.603
G1 X-15.5618 Y-15.2417 Z-0.6031
G1 X-15.5772 Y-15.2373 Z-0.6032
G1 X-15.5917 Y-15.232 Z-0.6033
G1 X-15.6063 Y-15.2257 Z-0.6034
G1 X-15.6204 Y-15.2185 Z-0.6035
G1 X-15.6336 Y-15.2107 Z-0.6036
G1 X-15.6465 Y-15.2019 Z-0.6037
G1 X-15.6591 Y-15.1922 Z-0.6038
G1 X-15.6709 Y-15.1818 Z-0.6039
G1 X-15.6818 Y-15.1709 Z-0.604
G1 X-15.6922 Y-15.1591 Z-0.6041
G1 X-15.7019 Y-15.1465 Z-0.6042
G1 X-15.7107 Y-15.1336 Z-0.6043
G1 X-15.7185 Y-15.1204 Z-0.6044
G1 X-15.7257 Y-15.1063 Z-0.6045
G1 X-15.732 Y-15.0917 Z-0.6046
G1 X-15.7373 Y-15.0772 Z-0.6047
G1 X-15.7417 Y-15.0618 Z-0.6048
G1 X-15.7451 Y-15.0468 Z-0.6049
G1 X-15.7475 Y-15.0317 Z-0.605
G1 X-15.749 Y-15.0154 Z-0.6051
G1 X-15.75 Y-14.9841 Z-0.6053
G1 Y14.9841 Z-0.8
G1 X-15.749 Y15.0154 Z-0.8002
G1 X-15.7475 Y15.0317 Z-0.8003
G1 X-15.7451 Y15.0468 Z-0.8004
G1 X-15.7417 Y15.0618 Z-0.8005
G1 X-15.7373 Y15.0772 Z-0.8006
G1 X-15.732 Y15.0917 Z-0.8007
G1 X-15.7257 Y15.1063 Z-0.8008
G1 X-15.7185 Y15.1204 Z-0.8009
G1 X-15.7107 Y15.1336 Z-0.801
G1 X-15.7019 Y15.1465 Z-0.8011
G1 X-15.6922 Y15.1591 Z-0.8012
G1 X-15.6818 Y15.1709 Z-0.8013
G1 X-15.6709 Y15.1818 Z-0.8014
G1 X-15.6591 Y15.1922 Z-0.8015
G1 X-15.6465 Y15.2019 Z-0.8016
G1 X-15.6336 Y15.2107 Z-0.8017
G1 X-15.6204 Y15.2185 Z-0.8018
G1 X-15.6063 Y15.2257 Z-0.8019
G1 X-15.5917 Y15.232 Z-0.802
G1 X-15.5772 Y15.2373 Z-0.8021
G1 X-15.5618 Y15.2417 Z-0.8022
G1 X-15.5468 Y15.2451 Z-0.8023
G1 X-15.5317 Y15.2475 Z-0.8024
G1 X-15.5154 Y15.249 Z-0.8025
G1 X-15.5 Y15.2495 Z-0.8026
G1 X-15.4846 Y15.249 Z-0.8027
G1 X-15.4683 Y15.2475 Z-0.8029
G1 X-15.4532 Y15.2451 Z-0.803
G1 X-15.4382 Y15.2417 Z-0.8031
G1 X-15.4228 Y15.2373 Z-0.8032
G1 X-15.4083 Y15.232 Z-0.8033
G1 X-15.3937 Y15.2257 Z-0.8034
G1 X-15.3796 Y15.2185 Z-0.8035
G1 X-15.3664 Y15.2107 Z-0.8036
G1 X-15.3535 Y15.2019 Z-0.8037
G1 X-15.3409 Y15.1922 Z-0.8038
G1 X-15.3291 Y15.1818 Z-0.8039
G1 X-15.3182 Y15.1709 Z-0.804
G1 X-15.3078 Y15.1591 Z-0.8041
G1 X-15.2981 Y15.1465 Z-0.8042
G1 X-15.2893 Y15.1336 Z-0.8043
G1 X-15.2815 Y15.1204 Z-0.8044
G1 X-15.2743 Y15.1063 Z-0.8045
G1 X-15.268 Y15.0917 Z-0.8046
G1 X-15.2627 Y15.0772 Z-0.8047
G1 X-15.2583 Y15.0618 Z-0.8048
G1 X-15.2549 Y15.0468 Z-0.8049
G1 X-15.2525 Y15.0317 Z-0.805
G1 X-15.251 Y15.0154 Z-0.8051
G1 X-15.25 Y14.9841 Z-0.8053
G1 Y-14.9841 Z-1.0
G1 X-15.251 Y-15.0154 Z-1.0002
G1 X-15.2525 Y-15.0317 Z-1.0003
G1 X-15.2549 Y-15.0468 Z-1.0004
G1 X-15.2583 Y-15.0618 Z-1.0005
G1 X-15.2627 Y-15.0772 Z-1.0006
G1 X-15.268 Y-15.0917 Z-1.0007
G1 X-15.2743 Y-15.1063 Z-1.0008
G1 X-15.2815 Y-15.1204 Z-1.0009
G1 X-15.2893 Y-15.1336 Z-1.001
G1 X-15.2981 Y-15.1465 Z-1.0011
G1 X-15.3078 Y-15.1591 Z-1.0012
G1 X-15.3182 Y-15.1709 Z-1.0013
G1 X-15.3291 Y-15.1818 Z-1.0014
G1 X-15.3409 Y-15.1922 Z-1.0015
G1 X-15.3535 Y-15.2019 Z-1.0016
G1 X-15.3664 Y-15.2107 Z-1.0017
G1 X-15.3796 Y-15.2185 Z-1.0018
G1 X-15.3937 Y-15.2257 Z-1.0019
G1 X-15.4083 Y-15.232 Z-1.002
G1 X-15.4228 Y-15.2373 Z-1.0021
G1 X-15.4382 Y-15.2417 Z-1.0022
G1 X-15.4532 Y-15.2451 Z-1.0023
G1 X-15.4683 Y-15.2475 Z-1.0024
G1 X-15.4846 Y-15.249 Z-1.0025
G1 X-15.5 Y-15.2495 Z-1.0026
G1 X-15.5154 Y-15.249 Z-1.0027
G1 X-15.5317 Y-15.2475 Z-1.0029
G1 X-15.5468 Y-15.2451 Z-1.003
G1 X-15.5618 Y-15.2417 Z-1.0031
G1 X-15.5772 Y-15.2373 Z-1.0032
G1 X-15.5917 Y-15.232 Z-1.0033
G1 X-15.6063 Y-15.2257 Z-1.0034
G1 X-15.6204 Y-15.2185 Z-1.0035
G1 X-15.6336 Y-15.2107 Z-1.0036
G1 X-15.6465 Y-15.2019 Z-1.0037
G1 X-15.6591 Y-15.1922 Z-1.0038
G1 X-15.6709 Y-15.1818 Z-1.0039
G1 X-15.6818 Y-15.1709 Z-1.004
G1 X-15.6922 Y-15.1591 Z-1.0041
G1 X-15.7019 Y-15.1465 Z-1.0042
G1 X-15.7107 Y-15.1336 Z-1.0043
G1 X-15.7185 Y-15.1204 Z-1.0044
G1 X-15.7257 Y-15.1063 Z-1.0045
G1 X-15.732 Y-15.0917 Z-1.0046
G1 X-15.7373 Y-15.0772 Z-1.0047
G1 X-15.7417 Y-15.0618 Z-1.0048
G1 X-15.7451 Y-15.0468 Z-1.0049
G1 X-15.7475 Y-15.0317 Z-1.005
G1 X-15.749 Y-15.0154 Z-1.0051
G1 X-15.75 Y-14.9841 Z-1.0053
G1 Y14.9841 Z-1.2
G1 X-15.749 Y15.0154 Z-1.2002
G1 X-15.7475 Y15.0317 Z-1.2003
G1 X-15.7451 Y15.0468 Z-1.2004
G1 X-15.7417 Y15.0618 Z-1.2005
G1 X-15.7373 Y15.0772 Z-1.2006
G1 X-15.732 Y15.0917 Z-1.2007
G1 X-15.7257 Y15.1063 Z-1.2008
G1 X-15.7185 Y15.1204 Z-1.2009
G1 X-15.7107 Y15.1336 Z-1.201
G1 X-15.7019 Y15.1465 Z-1.2011
G1 X-15.6922 Y15.1591 Z-1.2012
G1 X-15.6818 Y15.1709 Z-1.2013
G1 X-15.6709 Y15.1818 Z-1.2014
G1 X-15.6591 Y15.1922 Z-1.2015
G1 X-15.6465 Y15.2019 Z-1.2016
G1 X-15.6336 Y15.2107 Z-1.2017
G1 X-15.6204 Y15.2185 Z-1.2018
G1 X-15.6063 Y15.2257 Z-1.2019
G1 X-15.5917 Y15.232 Z-1.202
G1 X-15.5772 Y15.2373 Z-1.2021
G1 X-15.5618 Y15.2417 Z-1.2022
G1 X-15.5468 Y15.2451 Z-1.2023
G1 X-15.5317 Y15.2475 Z-1.2024
G1 X-15.5154 Y15.249 Z-1.2025
G1 X-15.5 Y15.2495 Z-1.2026
G1 X-15.4846 Y15.249 Z-1.2027
G1 X-15.4683 Y15.2475 Z-1.2029
G1 X-15.4532 Y15.2451 Z-1.203
G1 X-15.4382 Y15.2417 Z-1.2031
G1 X-15.4228 Y15.2373 Z-1.2032
G1 X-15.4083 Y15.232 Z-1.2033
G1 X-15.3937 Y15.2257 Z-1.2034
G1 X-15.3796 Y15.2185 Z-1.2035
G1 X-15.3664 Y15.2107 Z-1.2036
G1 X-15.3535 Y15.2019 Z-1.2037
G1 X-15.3409 Y15.1922 Z-1.2038
G1 X-15.3291 Y15.1818 Z-1.2039
G1 X-15.3182 Y15.1709 Z-1.204
G1 X-15.3078 Y15.1591 Z-1.2041
G1 X-15.2981 Y15.1465 Z-1.2042
G1 X-15.2893 Y15.1336 Z-1.2043
G1 X-15.2815 Y15.1204 Z-1.2044
G1 X-15.2743 Y15.1063 Z-1.2045
G1 X-15.268 Y15.0917 Z-1.2046
G1 X-15.2627 Y15.0772 Z-1.2047
G1 X-15.2583 Y15.0618 Z-1.2048
G1 X-15.2549 Y15.0468 Z-1.2049
G1 X-15.2525 Y15.0317 Z-1.205
G1 X-15.251 Y15.0154 Z-1.2051
G1 X-15.25 Y14.9841 Z-1.2053
G1 Y-14.9841 Z-1.4
G1 X-15.251 Y-15.0154 Z-1.4002
G1 X-15.2525 Y-15.0317 Z-1.4003
G1 X-15.2549 Y-15.0468 Z-1.4004
G1 X-15.2583 Y-15.0618 Z-1.4005
G1 X-15.2627 Y-15.0772 Z-1.4006
G1 X-15.268 Y-15.0917 Z-1.4007
G1 X-15.2743 Y-15.1063 Z-1.4008
G1 X-15.2815 Y-15.1204 Z-1.4009
G1 X-15.2893 Y-15.1336 Z-1.401
G1 X-15.2981 Y-15.1465 Z-1.4011
G1 X-15.3078 Y-15.1591 Z-1.4012
G1 X-15.3182 Y-15.1709 Z-1.4013
G1 X-15.3291 Y-15.1818 Z-1.4014
G1 X-15.3409 Y-15.1922 Z-1.4015
G1 X-15.3535 Y-15.2019 Z-1.4016
G1 X-15.3664 Y-15.2107 Z-1.4017
G1 X-15.3796 Y-15.2185 Z-1.4018
G1 X-15.3937 Y-15.2257 Z-1.4019
G1 X-15.4083 Y-15.232 Z-1.402
G1 X-15.4228 Y-15.2373 Z-1.4021
G1 X-15.4382 Y-15.2417 Z-1.4022
G1 X-15.4532 Y-15.2451 Z-1.4023
G1 X-15.4683 Y-15.2475 Z-1.4024
G1 X-15.4846 Y-15.249 Z-1.4025
G1 X-15.5 Y-15.2495 Z-1.4026
G1 X-15.5154 Y-15.249 Z-1.4027
G1 X-15.5317 Y-15.2475 Z-1.4029
G1 X-15.5468 Y-15.2451 Z-1.403
G1 X-15.5618 Y-15.2417 Z-1.4031
G1 X-15.5772 Y-15.2373 Z-1.4032
G1 X-15.5917 Y-15.232 Z-1.4033
G1 X-15.6063 Y-15.2257 Z-1.4034
G1 X-15.6204 Y-15.2185 Z-1.4035
G1 X-15.6336 Y-15.2107 Z-1.4036
G1 X-15.6465 Y-15.2019 Z-1.4037
G1 X-15.6591 Y-15.1922 Z-1.4038
G1 X-15.6709 Y-15.1818 Z-1.4039
G1 X-15.6818 Y-15.1709 Z-1.404
G1 X-15.6922 Y-15.1591 Z-1.4041
G1 X-15.7019 Y-15.1465 Z-1.4042
G1 X-15.7107 Y-15.1336 Z-1.4043
G1 X-15.7185 Y-15.1204 Z-1.4044
G1 X-15.7257 Y-15.1063 Z-1.4045
G1 X-15.732 Y-15.0917 Z-1.4046
G1 X-15.7373 Y-15.0772 Z-1.4047
G1 X-15.7417 Y-15.0618 Z-1.4048
G1 X-15.7451 Y-15.0468 Z-1.4049
G1 X-15.7475 Y-15.0317 Z-1.405
G1 X-15.749 Y-15.0154 Z-1.4051
G1 X-15.75 Y-14.9841 Z-1.4053
G1 Y14.9841 Z-1.6
G1 X-15.749 Y15.0154 Z-1.6002
G1 X-15.7475 Y15.0317 Z-1.6003
G1 X-15.7451 Y15.0468 Z-1.6004
G1 X-15.7417 Y15.0618 Z-1.6005
G1 X-15.7373 Y15.0772 Z-1.6006
G1 X-15.732 Y15.0917 Z-1.6007
G1 X-15.7257 Y15.1063 Z-1.6008
G1 X-15.7185 Y15.1204 Z-1.6009
G1 X-15.7107 Y15.1336 Z-1.601
G1 X-15.7019 Y15.1465 Z-1.6011
G1 X-15.6922 Y15.1591 Z-1.6012
G1 X-15.6818 Y15.1709 Z-1.6013
G1 X-15.6709 Y15.1818 Z-1.6014
G1 X-15.6591 Y15.1922 Z-1.6015
G1 X-15.6465 Y15.2019 Z-1.6016
G1 X-15.6336 Y15.2107 Z-1.6017
G1 X-15.6204 Y15.2185 Z-1.6018
G1 X-15.6063 Y15.2257 Z-1.6019
G1 X-15.5917 Y15.232 Z-1.602
G1 X-15.5772 Y15.2373 Z-1.6021
G1 X-15.5618 Y15.2417 Z-1.6022
G1 X-15.5468 Y15.2451 Z-1.6023
G1 X-15.5317 Y15.2475 Z-1.6024
G1 X-15.5154 Y15.249 Z-1.6025
G1 X-15.5 Y15.2495 Z-1.6026
G1 X-15.4846 Y15.249 Z-1.6027
G1 X-15.4683 Y15.2475 Z-1.6029
G1 X-15.4532 Y15.2451 Z-1.603
G1 X-15.4382 Y15.2417 Z-1.6031
G1 X-15.4228 Y15.2373 Z-1.6032
G1 X-15.4083 Y15.232 Z-1.6033
G1 X-15.3937 Y15.2257 Z-1.6034
G1 X-15.3796 Y15.2185 Z-1.6035
G1 X-15.3664 Y15.2107 Z-1.6036
G1 X-15.3535 Y15.2019 Z-1.6037
G1 X-15.3409 Y15.1922 Z-1.6038
G1 X-15.3291 Y15.1818 Z-1.6039
G1 X-15.3182 Y15.1709 Z-1.604
G1 X-15.3078 Y15.1591 Z-1.6041
G1 X-15.2981 Y15.1465 Z-1.6042
G1 X-15.2893 Y15.1336 Z-1.6043
G1 X-15.2815 Y15.1204 Z-1.6044
G1 X-15.2743 Y15.1063 Z-1.6045
G1 X-15.268 Y15.0917 Z-1.6046
G1 X-15.2627 Y15.0772 Z-1.6047
G1 X-15.2583 Y15.0618 Z-1.6048
G1 X-15.2549 Y15.0468 Z-1.6049
G1 X-15.2525 Y15.0317 Z-1.605
G1 X-15.251 Y15.0154 Z-1.6051
G1 X-15.25 Y14.9841 Z-1.6053
G1 Y-14.9841 Z-1.8
G1 X-15.251 Y-15.0154 Z-1.8002
G1 X-15.2525 Y-15.0317 Z-1.8003
G1 X-15.2549 Y-15.0468 Z-1.8004
G1 X-15.2583 Y-15.0618 Z-1.8005
G1 X-15.2627 Y-15.0772 Z-1.8006
G1 X-15.268 Y-15.0917 Z-1.8007
G1 X-15.2743 Y-15.1063 Z-1.8008
G1 X-15.2815 Y-15.1204 Z-1.8009
G1 X-15.2893 Y-15.1336 Z-1.801
G1 X-15.2981 Y-15.1465 Z-1.8011
G1 X-15.3078 Y-15.1591 Z-1.8012
G1 X-15.3182 Y-15.1709 Z-1.8013
G1 X-15.3291 Y-15.1818 Z-1.8014
G1 X-15.3409 Y-15.1922 Z-1.8015
G1 X-15.3535 Y-15.2019 Z-1.8016
G1 X-15.3664 Y-15.2107 Z-1.8017
G1 X-15.3796 Y-15.2185 Z-1.8018
G1 X-15.3937 Y-15.2257 Z-1.8019
G1 X-15.4083 Y-15.232 Z-1.802
G1 X-15.4228 Y-15.2373 Z-1.8021
G1 X-15.4382 Y-15.2417 Z-1.8022
G1 X-15.4532 Y-15.2451 Z-1.8023
G1 X-15.4683 Y-15.2475 Z-1.8024
G1 X-15.4846 Y-15.249 Z-1.8025
G1 X-15.5 Y-15.2495 Z-1.8026
G1 X-15.5154 Y-15.249 Z-1.8027
G1 X-15.5317 Y-15.2475 Z-1.8029
G1 X-15.5468 Y-15.2451 Z-1.803
G1 X-15.5618 Y-15.2417 Z-1.8031
G1 X-15.5772 Y-15.2373 Z-1.8032
G1 X-15.5917 Y-15.232 Z-1.8033
G1 X-15.6063 Y-15.2257 Z-1.8034
G1 X-15.6204 Y-15.2185 Z-1.8035
G1 X-15.6336 Y-15.2107 Z-1.8036
G1 X-15.6465 Y-15.2019 Z-1.8037
G1 X-15.6591 Y-15.1922 Z-1.8038
G1 X-15.6709 Y-15.1818 Z-1.8039
G1 X-15.6818 Y-15.1709 Z-1.804
G1 X-15.6922 Y-15.1591 Z-1.8041
G1 X-15.7019 Y-15.1465 Z-1.8042
G1 X-15.7107 Y-15.1336 Z-1.8043
G1 X-15.7185 Y-15.1204 Z-1.8044
G1 X-15.7257 Y-15.1063 Z-1.8045
G1 X-15.732 Y-15.0917 Z-1.8046
G1 X-15.7373 Y-15.0772 Z-1.8047
G1 X-15.7417 Y-15.0618 Z-1.8048
G1 X-15.7451 Y-15.0468 Z-1.8049
G1 X-15.7475 Y-15.0317 Z-1.805
G1 X-15.749 Y-15.0154 Z-1.8051
G1 X-15.75 Y-14.9841 Z-1.8053
G1 Y14.9841 Z-2.0
G1 X-15.749 Y15.0154 Z-2.0002
G1 X-15.7475 Y15.0317 Z-2.0003
G1 X-15.7451 Y15.0468 Z-2.0004
G1 X-15.7417 Y15.0618 Z-2.0005
G1 X-15.7373 Y15.0772 Z-2.0006
G1 X-15.732 Y15.0917 Z-2.0007
G1 X-15.7257 Y15.1063 Z-2.0008
G1 X-15.7185 Y15.1204 Z-2.0009
G1 X-15.7107 Y15.1336 Z-2.001
G1 X-15.7019 Y15.1465 Z-2.0011
G1 X-15.6922 Y15.1591 Z-2.0012
G1 X-15.6818 Y15.1709 Z-2.0013
G1 X-15.6709 Y15.1818 Z-2.0014
G1 X-15.6591 Y15.1922 Z-2.0015
G1 X-15.6465 Y15.2019 Z-2.0016
G1 X-15.6336 Y15.2107 Z-2.0017
G1 X-15.6204 Y15.2185 Z-2.0018
G1 X-15.6063 Y15.2257 Z-2.0019
G1 X-15.5917 Y15.232 Z-2.002
G1 X-15.5772 Y15.2373 Z-2.0021
G1 X-15.5618 Y15.2417 Z-2.0022
G1 X-15.5468 Y15.2451 Z-2.0023
G1 X-15.5317 Y15.2475 Z-2.0024
G1 X-15.5154 Y15.249 Z-2.0025
G1 X-15.5 Y15.2495 Z-2.0026
G1 X-15.4846 Y15.249 Z-2.0027
G1 X-15.4683 Y15.2475 Z-2.0029
G1 X-15.4532 Y15.2451 Z-2.003
G1 X-15.4382 Y15.2417 Z-2.0031
G1 X-15.4228 Y15.2373 Z-2.0032
G1 X-15.4083 Y15.232 Z-2.0033
G1 X-15.3937 Y15.2257 Z-2.0034
G1 X-15.3796 Y15.2185 Z-2.0035
G1 X-15.3664 Y15.2107 Z-2.0036
G1 X-15.3535 Y15.2019 Z-2.0037
G1 X-15.3409 Y15.1922 Z-2.0038
G1 X-15.3291 Y15.1818 Z-2.0039
G1 X-15.3182 Y15.1709 Z-2.004
G1 X-15.3078 Y15.1591 Z-2.0041
G1 X-15.2981 Y15.1465 Z-2.0042
G1 X-15.2893 Y15.1336 Z-2.0043
G1 X-15.2815 Y15.1204 Z-2.0044
G1 X-15.2743 Y15.1063 Z-2.0045
G1 X-15.268 Y15.0917 Z-2.0046
G1 X-15.2627 Y15.0772 Z-2.0047
G1 X-15.2583 Y15.0618 Z-2.0048
G1 X-15.2549 Y15.0468 Z-2.0049
G1 X-15.2525 Y15.0317 Z-2.005
G1 X-15.251 Y15.0154 Z-2.0051
G1 X-15.25 Y14.9841 Z-2.0053
G1 Y-14.9841 Z-2.2
G1 X-15.251 Y-15.0154 Z-2.2002
G1 X-15.2525 Y-15.0317 Z-2.2003
G1 X-15.2549 Y-15.0468 Z-2.2004
G1 X-15.2583 Y-15.0618 Z-2.2005
G1 X-15.2627 Y-15.0772 Z-2.2006
G1 X-15.268 Y-15.0917 Z-2.2007
G1 X-15.2743 Y-15.1063 Z-2.2008
G1 X-15.2815 Y-15.1204 Z-2.2009
G1 X-15.2893 Y-15.1336 Z-2.201
G1 X-15.2981 Y-15.1465 Z-2.2011
G1 X-15.3078 Y-15.1591 Z-2.2012
G1 X-15.3182 Y-15.1709 Z-2.2013
G1 X-15.3291 Y-15.1818 Z-2.2014
G1 X-15.3409 Y-15.1922 Z-2.2015
G1 X-15.3535 Y-15.2019 Z-2.2016
G1 X-15.3664 Y-15.2107 Z-2.2017
G1 X-15.3796 Y-15.2185 Z-2.2018
G1 X-15.3937 Y-15.2257 Z-2.2019
G1 X-15.4083 Y-15.232 Z-2.202
G1 X-15.4228 Y-15.2373 Z-2.2021
G1 X-15.4382 Y-15.2417 Z-2.2022
G1 X-15.4532 Y-15.2451 Z-2.2023
G1 X-15.4683 Y-15.2475 Z-2.2024
G1 X-15.4846 Y-15.249 Z-2.2025
G1 X-15.5 Y-15.2495 Z-2.2026
G1 X-15.5154 Y-15.249 Z-2.2027
G1 X-15.5317 Y-15.2475 Z-2.2029
G1 X-15.5468 Y-15.2451 Z-2.203
G1 X-15.5618 Y-15.2417 Z-2.2031
G1 X-15.5772 Y-15.2373 Z-2.2032
G1 X-15.5917 Y-15.232 Z-2.2033
G1 X-15.6063 Y-15.2257 Z-2.2034
G1 X-15.6204 Y-15.2185 Z-2.2035
G1 X-15.6336 Y-15.2107 Z-2.2036
G1 X-15.6465 Y-15.2019 Z-2.2037
G1 X-15.6591 Y-15.1922 Z-2.2038
G1 X-15.6709 Y-15.1818 Z-2.2039
G1 X-15.6818 Y-15.1709 Z-2.204
G1 X-15.6922 Y-15.1591 Z-2.2041
G1 X-15.7019 Y-15.1465 Z-2.2042
G1 X-15.7107 Y-15.1336 Z-2.2043
G1 X-15.7185 Y-15.1204 Z-2.2044
G1 X-15.7257 Y-15.1063 Z-2.2045
G1 X-15.732 Y-15.0917 Z-2.2046
G1 X-15.7373 Y-15.0772 Z-2.2047
G1 X-15.7417 Y-15.0618 Z-2.2048
G1 X-15.7451 Y-15.0468 Z-2.2049
G1 X-15.7475 Y-15.0317 Z-2.205
G1 X-15.749 Y-15.0154 Z-2.2051
G1 X-15.75 Y-14.9841 Z-2.2053
G1 Y14.9841 Z-2.4
G1 X-15.749 Y15.0154 Z-2.4002
G1 X-15.7475 Y15.0317 Z-2.4003
G1 X-15.7451 Y15.0468 Z-2.4004
G1 X-15.7417 Y15.0618 Z-2.4005
G1 X-15.7373 Y15.0772 Z-2.4006
G1 X-15.732 Y15.0917 Z-2.4007
G1 X-15.7257 Y15.1063 Z-2.4008
G1 X-15.7185 Y15.1204 Z-2.4009
G1 X-15.7107 Y15.1336 Z-2.401
G1 X-15.7019 Y15.1465 Z-2.4011
G1 X-15.6922 Y15.1591 Z-2.4012
G1 X-15.6818 Y15.1709 Z-2.4013
G1 X-15.6709 Y15.1818 Z-2.4014
G1 X-15.6591 Y15.1922 Z-2.4015
G1 X-15.6465 Y15.2019 Z-2.4016
G1 X-15.6336 Y15.2107 Z-2.4017
G1 X-15.6204 Y15.2185 Z-2.4018
G1 X-15.6063 Y15.2257 Z-2.4019
G1 X-15.5917 Y15.232 Z-2.402
G1 X-15.5772 Y15.2373 Z-2.4021
G1 X-15.5618 Y15.2417 Z-2.4022
G1 X-15.5468 Y15.2451 Z-2.4023
G1 X-15.5317 Y15.2475 Z-2.4024
G1 X-15.5154 Y15.249 Z-2.4025
G1 X-15.5 Y15.2495 Z-2.4026
G1 X-15.4846 Y15.249 Z-2.4027
G1 X-15.4683 Y15.2475 Z-2.4029
G1 X-15.4532 Y15.2451 Z-2.403
G1 X-15.4382 Y15.2417 Z-2.4031
G1 X-15.4228 Y15.2373 Z-2.4032
G1 X-15.4083 Y15.232 Z-2.4033
G1 X-15.3937 Y15.2257 Z-2.4034
G1 X-15.3796 Y15.2185 Z-2.4035
G1 X-15.3664 Y15.2107 Z-2.4036
G1 X-15.3535 Y15.2019 Z-2.4037
G1 X-15.3409 Y15.1922 Z-2.4038
G1 X-15.3291 Y15.1818 Z-2.4039
G1 X-15.3182 Y15.1709 Z-2.404
G1 X-15.3078 Y15.1591 Z-2.4041
G1 X-15.2981 Y15.1465 Z-2.4042
G1 X-15.2893 Y15.1336 Z-2.4043
G1 X-15.2815 Y15.1204 Z-2.4044
G1 X-15.2743 Y15.1063 Z-2.4045
G1 X-15.268 Y15.0917 Z-2.4046
G1 X-15.2627 Y15.0772 Z-2.4047
G1 X-15.2583 Y15.0618 Z-2.4048
G1 X-15.2549 Y15.0468 Z-2.4049
G1 X-15.2525 Y15.0317 Z-2.405
G1 X-15.251 Y15.0154 Z-2.4051
G1 X-15.25 Y14.9841 Z-2.4053
G1 Y-14.9841 Z-2.6
G1 X-15.251 Y-15.0154 Z-2.6002
G1 X-15.2525 Y-15.0317 Z-2.6003
G1 X-15.2549 Y-15.0468 Z-2.6004
G1 X-15.2583 Y-15.0618 Z-2.6005
G1 X-15.2627 Y-15.0772 Z-2.6006
G1 X-15.268 Y-15.0917 Z-2.6007
G1 X-15.2743 Y-15.1063 Z-2.6008
G1 X-15.2815 Y-15.1204 Z-2.6009
G1 X-15.2893 Y-15.1336 Z-2.601
G1 X-15.2981 Y-15.1465 Z-2.6011
G1 X-15.3078 Y-15.1591 Z-2.6012
G1 X-15.3182 Y-15.1709 Z-2.6013
G1 X-15.3291 Y-15.1818 Z-2.6014
G1 X-15.3409 Y-15.1922 Z-2.6015
G1 X-15.3535 Y-15.2019 Z-2.6016
G1 X-15.3664 Y-15.2107 Z-2.6017
G1 X-15.3796 Y-15.2185 Z-2.6018
G1 X-15.3937 Y-15.2257 Z-2.6019
G1 X-15.4083 Y-15.232 Z-2.602
G1 X-15.4228 Y-15.2373 Z-2.6021
G1 X-15.4382 Y-15.2417 Z-2.6022
G1 X-15.4532 Y-15.2451 Z-2.6023
G1 X-15.4683 Y-15.2475 Z-2.6024
G1 X-15.4846 Y-15.249 Z-2.6025
G1 X-15.5 Y-15.2495 Z-2.6026
G1 X-15.5154 Y-15.249 Z-2.6027
G1 X-15.5317 Y-15.2475 Z-2.6029
G1 X-15.5468 Y-15.2451 Z-2.603
G1 X-15.5618 Y-15.2417 Z-2.6031
G1 X-15.5772 Y-15.2373 Z-2.6032
G1 X-15.5917 Y-15.232 Z-2.6033
G1 X-15.6063 Y-15.2257 Z-2.6034
G1 X-15.6204 Y-15.2185 Z-2.6035
G1 X-15.6336 Y-15.2107 Z-2.6036
G1 X-15.6465 Y-15.2019 Z-2.6037
G1 X-15.6591 Y-15.1922 Z-2.6038
G1 X-15.6709 Y-15.1818 Z-2.6039
G1 X-15.6818 Y-15.1709 Z-2.604
G1 X-15.6922 Y-15.1591 Z-2.6041
G1 X-15.7019 Y-15.1465 Z-2.6042
G1 X-15.7107 Y-15.1336 Z-2.6043
G1 X-15.7185 Y-15.1204 Z-2.6044
G1 X-15.7257 Y-15.1063 Z-2.6045
G1 X-15.732 Y-15.0917 Z-2.6046
G1 X-15.7373 Y-15.0772 Z-2.6047
G1 X-15.7417 Y-15.0618 Z-2.6048
G1 X-15.7451 Y-15.0468 Z-2.6049
G1 X-15.7475 Y-15.0317 Z-2.605
G1 X-15.749 Y-15.0154 Z-2.6051
G1 X-15.75 Y-14.9841 Z-2.6053
G1 Y14.9841 Z-2.8
G1 X-15.749 Y15.0154 Z-2.8002
G1 X-15.7475 Y15.0317 Z-2.8003
G1 X-15.7451 Y15.0468 Z-2.8004
G1 X-15.7417 Y15.0618 Z-2.8005
G1 X-15.7373 Y15.0772 Z-2.8006
G1 X-15.732 Y15.0917 Z-2.8007
G1 X-15.7257 Y15.1063 Z-2.8008
G1 X-15.7185 Y15.1204 Z-2.8009
G1 X-15.7107 Y15.1336 Z-2.801
G1 X-15.7019 Y15.1465 Z-2.8011
G1 X-15.6922 Y15.1591 Z-2.8012
G1 X-15.6818 Y15.1709 Z-2.8013
G1 X-15.6709 Y15.1818 Z-2.8014
G1 X-15.6591 Y15.1922 Z-2.8015
G1 X-15.6465 Y15.2019 Z-2.8016
G1 X-15.6336 Y15.2107 Z-2.8017
G1 X-15.6204 Y15.2185 Z-2.8018
G1 X-15.6063 Y15.2257 Z-2.8019
G1 X-15.5917 Y15.232 Z-2.802
G1 X-15.5772 Y15.2373 Z-2.8021
G1 X-15.5618 Y15.2417 Z-2.8022
G1 X-15.5468 Y15.2451 Z-2.8023
G1 X-15.5317 Y15.2475 Z-2.8024
G1 X-15.5154 Y15.249 Z-2.8025
G1 X-15.5 Y15.2495 Z-2.8026
G1 X-15.4846 Y15.249 Z-2.8027
G1 X-15.4683 Y15.2475 Z-2.8029
G1 X-15.4532 Y15.2451 Z-2.803
G1 X-15.4382 Y15.2417 Z-2.8031
G1 X-15.4228 Y15.2373 Z-2.8032
G1 X-15.4083 Y15.232 Z-2.8033
G1 X-15.3937 Y15.2257 Z-2.8034
G1 X-15.3796 Y15.2185 Z-2.8035
G1 X-15.3664 Y15.2107 Z-2.8036
G1 X-15.3535 Y15.2019 Z-2.8037
G1 X-15.3409 Y15.1922 Z-2.8038
G1 X-15.3291 Y15.1818 Z-2.8039
G1 X-15.3182 Y15.1709 Z-2.804
G1 X-15.3078 Y15.1591 Z-2.8041
G1 X-15.2981 Y15.1465 Z-2.8042
G1 X-15.2893 Y15.1336 Z-2.8043
G1 X-15.2815 Y15.1204 Z-2.8044
G1 X-15.2743 Y15.1063 Z-2.8045
G1 X-15.268 Y15.0917 Z-2.8046
G1 X-15.2627 Y15.0772 Z-2.8047
G1 X-15.2583 Y15.0618 Z-2.8048
G1 X-15.2549 Y15.0468 Z-2.8049
G1 X-15.2525 Y15.0317 Z-2.805
G1 X-15.251 Y15.0154 Z-2.8051
G1 X-15.25 Y14.9841 Z-2.8053
G1 Y-14.9841 Z-3.0
G1 X-15.251 Y-15.0154 Z-3.0002
G1 X-15.2525 Y-15.0317 Z-3.0003
G1 X-15.2549 Y-15.0468 Z-3.0004
G1 X-15.2583 Y-15.0618 Z-3.0005
G1 X-15.2627 Y-15.0772 Z-3.0006
G1 X-15.268 Y-15.0917 Z-3.0007
G1 X-15.2743 Y-15.1063 Z-3.0008
G1 X-15.2815 Y-15.1204 Z-3.0009
G1 X-15.2893 Y-15.1336 Z-3.001
G1 X-15.2981 Y-15.1465 Z-3.0011
G1 X-15.3078 Y-15.1591 Z-3.0012
G1 X-15.3182 Y-15.1709 Z-3.0013
G1 X-15.3291 Y-15.1818 Z-3.0014
G1 X-15.3409 Y-15.1922 Z-3.0015
G1 X-15.3535 Y-15.2019 Z-3.0016
G1 X-15.3664 Y-15.2107 Z-3.0017
G1 X-15.3796 Y-15.2185 Z-3.0018
G1 X-15.3937 Y-15.2257 Z-3.0019
G1 X-15.4083 Y-15.232 Z-3.002
G1 X-15.4228 Y-15.2373 Z-3.0021
G1 X-15.4382 Y-15.2417 Z-3.0022
G1 X-15.4532 Y-15.2451 Z-3.0023
G1 X-15.4683 Y-15.2475 Z-3.0024
G1 X-15.4846 Y-15.249 Z-3.0025
G1 X-15.5 Y-15.2495 Z-3.0026
G1 X-15.5154 Y-15.249 Z-3.0027
G1 X-15.5317 Y-15.2475 Z-3.0029
G1 X-15.5468 Y-15.2451 Z-3.003
G1 X-15.5618 Y-15.2417 Z-3.0031
G1 X-15.5772 Y-15.2373 Z-3.0032
G1 X-15.5917 Y-15.232 Z-3.0033
G1 X-15.6063 Y-15.2257 Z-3.0034
G1 X-15.6204 Y-15.2185 Z-3.0035
G1 X-15.6336 Y-15.2107 Z-3.0036
G1 X-15.6465 Y-15.2019 Z-3.0037
G1 X-15.6591 Y-15.1922 Z-3.0038
G1 X-15.6709 Y-15.1818 Z-3.0039
G1 X-15.6818 Y-15.1709 Z-3.004
G1 X-15.6922 Y-15.1591 Z-3.0041
G1 X-15.7019 Y-15.1465 Z-3.0042
G1 X-15.7107 Y-15.1336 Z-3.0043
G1 X-15.7185 Y-15.1204 Z-3.0044
G1 X-15.7257 Y-15.1063 Z-3.0045
G1 X-15.732 Y-15.0917 Z-3.0046
G1 X-15.7373 Y-15.0772 Z-3.0047
G1 X-15.7417 Y-15.0618 Z-3.0048
G1 X-15.7451 Y-15.0468 Z-3.0049
G1 X-15.7475 Y-15.0317 Z-3.005
G1 X-15.749 Y-15.0154 Z-3.0051
G1 X-15.75 Y-14.9841 Z-3.0053
G1 Y14.9841 Z-3.2
G1 X-15.749 Y15.0154 Z-3.2002
G1 X-15.7475 Y15.0317 Z-3.2003
G1 X-15.7451 Y15.0468 Z-3.2004
G1 X-15.7417 Y15.0618 Z-3.2005
G1 X-15.7373 Y15.0772 Z-3.2006
G1 X-15.732 Y15.0917 Z-3.2007
G1 X-15.7257 Y15.1063 Z-3.2008
G1 X-15.7185 Y15.1204 Z-3.2009
G1 X-15.7107 Y15.1336 Z-3.201
G1 X-15.7019 Y15.1465 Z-3.2011
G1 X-15.6922 Y15.1591 Z-3.2012
G1 X-15.6818 Y15.1709 Z-3.2013
G1 X-15.6709 Y15.1818 Z-3.2014
G1 X-15.6591 Y15.1922 Z-3.2015
G1 X-15.6465 Y15.2019 Z-3.2016
G1 X-15.6336 Y15.2107 Z-3.2017
G1 X-15.6204 Y15.2185 Z-3.2018
G1 X-15.6063 Y15.2257 Z-3.2019
G1 X-15.5917 Y15.232 Z-3.202
G1 X-15.5772 Y15.2373 Z-3.2021
G1 X-15.5618 Y15.2417 Z-3.2022
G1 X-15.5468 Y15.2451 Z-3.2023
G1 X-15.5317 Y15.2475 Z-3.2024
G1 X-15.5154 Y15.249 Z-3.2025
G1 X-15.5 Y15.2495 Z-3.2026
G1 X-15.4846 Y15.249 Z-3.2027
G1 X-15.4683 Y15.2475 Z-3.2029
G1 X-15.4532 Y15.2451 Z-3.203
