( Made using CamBam - http://www.cambam.co.uk )
( ssc_Front_PANELS_prod 2/3/2021 10:05:19 PM )
( T4 : 2.5 )
( CUTVIEWER )
( FROM/0,0,5 )
( Select dummy tool to avoid warnings )
( TOOL/MILL,1,0,20.0,0 )
( STOCK/BLOCK,180.0,100.0,6.0,90.0,50.0,6.0 )
G21 G90 G91.1 G64 G40
G0 Z3.0
( T4 : 2.5 )
( Tool Taper coming soon )
( TOOL/MILL,2.5,0.0,0.0,0 )
T4 M6
( M3_holes )
G17
M3 S1000
G0 X-75.8415 Y31.3196
G0 Z1.0
G1 F150.0 Z0.0
G1 F400.0 X-75.8467 Y31.3162 Z-0.004
G1 X-75.8521 Y31.3129 Z-0.008
G1 X-75.8578 Y31.31 Z-0.0121
G1 X-75.8634 Y31.3076 Z-0.016
G1 X-75.8692 Y31.3055 Z-0.02
G1 X-75.8756 Y31.3037 Z-0.0242
G1 X-75.8816 Y31.3023 Z-0.0282
G1 X-75.8872 Y31.3014 Z-0.0318
G1 X-75.8934 Y31.3008 Z-0.0358
G1 X-75.9 Y31.3006 Z-0.04
G1 X-75.9066 Y31.3008 Z-0.0443
G1 X-75.9128 Y31.3014 Z-0.0483
G1 X-75.9184 Y31.3023 Z-0.0519
G1 X-75.9244 Y31.3037 Z-0.0558
G1 X-75.9308 Y31.3055 Z-0.0601
G1 X-75.9366 Y31.3076 Z-0.064
G1 X-75.9422 Y31.31 Z-0.068
G1 X-75.9479 Y31.3129 Z-0.072
G1 X-75.9533 Y31.3162 Z-0.0761
G1 X-75.9585 Y31.3196 Z-0.0801
G1 X-75.9631 Y31.3232 Z-0.0838
G1 X-75.9679 Y31.3274 Z-0.0879
G1 X-75.9726 Y31.3321 Z-0.0921
G1 X-75.9768 Y31.3369 Z-0.0963
G1 X-75.9804 Y31.3415 Z-0.1
G1 X-75.9838 Y31.3467 Z-0.104
G1 X-75.9871 Y31.3521 Z-0.108
G1 X-75.99 Y31.3578 Z-0.1121
G1 X-75.9924 Y31.3634 Z-0.116
G1 X-75.9945 Y31.3692 Z-0.12
G1 X-75.9963 Y31.3756 Z-0.1242
G1 X-75.9977 Y31.3816 Z-0.1282
G1 X-75.9986 Y31.3872 Z-0.1318
G1 X-75.9992 Y31.3934 Z-0.1358
G1 X-75.9994 Y31.4 Z-0.14
G1 X-75.9992 Y31.4066 Z-0.1443
G1 X-75.9986 Y31.4128 Z-0.1483
G1 X-75.9977 Y31.4184 Z-0.1519
G1 X-75.9963 Y31.4244 Z-0.1558
G1 X-75.9945 Y31.4308 Z-0.1601
G1 X-75.9924 Y31.4366 Z-0.164
G1 X-75.99 Y31.4422 Z-0.168
G1 X-75.9871 Y31.4479 Z-0.172
G1 X-75.9838 Y31.4533 Z-0.1761
G1 X-75.9804 Y31.4585 Z-0.1801
G1 X-75.9768 Y31.4631 Z-0.1838
G1 X-75.9726 Y31.4679 Z-0.1879
G1 X-75.9679 Y31.4726 Z-0.1921
G1 X-75.9631 Y31.4768 Z-0.1963
G1 X-75.9585 Y31.4804 Z-0.2
G1 X-75.9533 Y31.4838 Z-0.204
G1 X-75.9479 Y31.4871 Z-0.208
G1 X-75.9422 Y31.49 Z-0.2121
G1 X-75.9366 Y31.4924 Z-0.216
G1 X-75.9308 Y31.4945 Z-0.22
G1 X-75.9244 Y31.4963 Z-0.2242
G1 X-75.9184 Y31.4977 Z-0.2282
G1 X-75.9128 Y31.4986 Z-0.2318
G1 X-75.9066 Y31.4992 Z-0.2358
G1 X-75.9 Y31.4994 Z-0.24
G1 X-75.8934 Y31.4992 Z-0.2443
G1 X-75.8872 Y31.4986 Z-0.2483
G1 X-75.8816 Y31.4977 Z-0.2519
G1 X-75.8756 Y31.4963 Z-0.2558
G1 X-75.8692 Y31.4945 Z-0.2601
G1 X-75.8634 Y31.4924 Z-0.264
G1 X-75.8578 Y31.49 Z-0.268
G1 X-75.8521 Y31.4871 Z-0.272
G1 X-75.8467 Y31.4838 Z-0.2761
G1 X-75.8415 Y31.4804 Z-0.2801
G1 X-75.8369 Y31.4768 Z-0.2838
G1 X-75.8321 Y31.4726 Z-0.2879
G1 X-75.8274 Y31.4679 Z-0.2921
G1 X-75.8232 Y31.4631 Z-0.2963
G1 X-75.8196 Y31.4585 Z-0.3
G1 X-75.8162 Y31.4533 Z-0.304
G1 X-75.8129 Y31.4479 Z-0.308
G1 X-75.81 Y31.4422 Z-0.3121
G1 X-75.8076 Y31.4366 Z-0.316
G1 X-75.8055 Y31.4308 Z-0.32
G1 X-75.8037 Y31.4244 Z-0.3242
G1 X-75.8023 Y31.4184 Z-0.3282
G1 X-75.8014 Y31.4128 Z-0.3318
G1 X-75.8008 Y31.4066 Z-0.3358
G1 X-75.8006 Y31.4 Z-0.34
G1 X-75.8008 Y31.3934 Z-0.3443
G1 X-75.8014 Y31.3872 Z-0.3483
G1 X-75.8023 Y31.3816 Z-0.3519
G1 X-75.8037 Y31.3756 Z-0.3558
G1 X-75.8055 Y31.3692 Z-0.3601
G1 X-75.8076 Y31.3634 Z-0.364
G1 X-75.81 Y31.3578 Z-0.368
G1 X-75.8129 Y31.3521 Z-0.372
G1 X-75.8162 Y31.3467 Z-0.3761
G1 X-75.8196 Y31.3415 Z-0.3801
G1 X-75.8232 Y31.3369 Z-0.3838
G1 X-75.8274 Y31.3321 Z-0.3879
G1 X-75.8321 Y31.3274 Z-0.3921
G1 X-75.8369 Y31.3232 Z-0.3963
G1 X-75.8415 Y31.3196 Z-0.4
G1 X-75.8467 Y31.3162 Z-0.404
G1 X-75.8521 Y31.3129 Z-0.408
G1 X-75.8578 Y31.31 Z-0.4121
G1 X-75.8634 Y31.3076 Z-0.416
G1 X-75.8692 Y31.3055 Z-0.42
G1 X-75.8756 Y31.3037 Z-0.4242
G1 X-75.8816 Y31.3023 Z-0.4282
G1 X-75.8872 Y31.3014 Z-0.4318
G1 X-75.8934 Y31.3008 Z-0.4358
G1 X-75.9 Y31.3006 Z-0.44
G1 X-75.9066 Y31.3008 Z-0.4443
G1 X-75.9128 Y31.3014 Z-0.4483
G1 X-75.9184 Y31.3023 Z-0.4519
G1 X-75.9244 Y31.3037 Z-0.4558
G1 X-75.9308 Y31.3055 Z-0.4601
G1 X-75.9366 Y31.3076 Z-0.464
G1 X-75.9422 Y31.31 Z-0.468
G1 X-75.9479 Y31.3129 Z-0.472
G1 X-75.9533 Y31.3162 Z-0.4761
G1 X-75.9585 Y31.3196 Z-0.4801
G1 X-75.9631 Y31.3232 Z-0.4838
G1 X-75.9679 Y31.3274 Z-0.4879
G1 X-75.9726 Y31.3321 Z-0.4921
G1 X-75.9768 Y31.3369 Z-0.4963
G1 X-75.9804 Y31.3415 Z-0.5
G1 X-75.9838 Y31.3467 Z-0.504
G1 X-75.9871 Y31.3521 Z-0.508
G1 X-75.99 Y31.3578 Z-0.5121
G1 X-75.9924 Y31.3634 Z-0.516
G1 X-75.9945 Y31.3692 Z-0.52
G1 X-75.9963 Y31.3756 Z-0.5242
G1 X-75.9977 Y31.3816 Z-0.5282
G1 X-75.9986 Y31.3872 Z-0.5318
G1 X-75.9992 Y31.3934 Z-0.5358
G1 X-75.9994 Y31.4 Z-0.54
G1 X-75.9992 Y31.4066 Z-0.5443
G1 X-75.9986 Y31.4128 Z-0.5483
G1 X-75.9977 Y31.4184 Z-0.5519
G1 X-75.9963 Y31.4244 Z-0.5558
G1 X-75.9945 Y31.4308 Z-0.5601
G1 X-75.9924 Y31.4366 Z-0.564
G1 X-75.99 Y31.4422 Z-0.568
G1 X-75.9871 Y31.4479 Z-0.572
G1 X-75.9838 Y31.4533 Z-0.5761
G1 X-75.9804 Y31.4585 Z-0.5801
G1 X-75.9768 Y31.4631 Z-0.5838
G1 X-75.9726 Y31.4679 Z-0.5879
G1 X-75.9679 Y31.4726 Z-0.5921
G1 X-75.9631 Y31.4768 Z-0.5963
G1 X-75.9585 Y31.4804 Z-0.6
G1 X-75.9533 Y31.4838 Z-0.604
G1 X-75.9479 Y31.4871 Z-0.608
G1 X-75.9422 Y31.49 Z-0.6121
G1 X-75.9366 Y31.4924 Z-0.616
G1 X-75.9308 Y31.4945 Z-0.62
G1 X-75.9244 Y31.4963 Z-0.6242
G1 X-75.9184 Y31.4977 Z-0.6282
G1 X-75.9128 Y31.4986 Z-0.6318
G1 X-75.9066 Y31.4992 Z-0.6358
G1 X-75.9 Y31.4994 Z-0.64
G1 X-75.8934 Y31.4992 Z-0.6443
G1 X-75.8872 Y31.4986 Z-0.6483
G1 X-75.8816 Y31.4977 Z-0.6519
G1 X-75.8756 Y31.4963 Z-0.6558
G1 X-75.8692 Y31.4945 Z-0.6601
G1 X-75.8634 Y31.4924 Z-0.664
G1 X-75.8578 Y31.49 Z-0.668
G1 X-75.8521 Y31.4871 Z-0.672
G1 X-75.8467 Y31.4838 Z-0.6761
G1 X-75.8415 Y31.4804 Z-0.6801
G1 X-75.8369 Y31.4768 Z-0.6838
G1 X-75.8321 Y31.4726 Z-0.6879
G1 X-75.8274 Y31.4679 Z-0.6921
G1 X-75.8232 Y31.4631 Z-0.6963
G1 X-75.8196 Y31.4585 Z-0.7
G1 X-75.8162 Y31.4533 Z-0.704
G1 X-75.8129 Y31.4479 Z-0.708
G1 X-75.81 Y31.4422 Z-0.7121
G1 X-75.8076 Y31.4366 Z-0.716
G1 X-75.8055 Y31.4308 Z-0.72
G1 X-75.8037 Y31.4244 Z-0.7242
G1 X-75.8023 Y31.4184 Z-0.7282
G1 X-75.8014 Y31.4128 Z-0.7318
G1 X-75.8008 Y31.4066 Z-0.7358
G1 X-75.8006 Y31.4 Z-0.74
G1 X-75.8008 Y31.3934 Z-0.7443
G1 X-75.8014 Y31.3872 Z-0.7483
G1 X-75.8023 Y31.3816 Z-0.7519
G1 X-75.8037 Y31.3756 Z-0.7558
G1 X-75.8055 Y31.3692 Z-0.7601
G1 X-75.8076 Y31.3634 Z-0.764
G1 X-75.81 Y31.3578 Z-0.768
G1 X-75.8129 Y31.3521 Z-0.772
G1 X-75.8162 Y31.3467 Z-0.7761
G1 X-75.8196 Y31.3415 Z-0.7801
G1 X-75.8232 Y31.3369 Z-0.7838
G1 X-75.8274 Y31.3321 Z-0.7879
G1 X-75.8321 Y31.3274 Z-0.7921
G1 X-75.8369 Y31.3232 Z-0.7963
G1 X-75.8415 Y31.3196 Z-0.8
G1 X-75.8467 Y31.3162 Z-0.804
G1 X-75.8521 Y31.3129 Z-0.808
G1 X-75.8578 Y31.31 Z-0.8121
G1 X-75.8634 Y31.3076 Z-0.816
G1 X-75.8692 Y31.3055 Z-0.82
G1 X-75.8756 Y31.3037 Z-0.8242
G1 X-75.8816 Y31.3023 Z-0.8282
G1 X-75.8872 Y31.3014 Z-0.8318
G1 X-75.8934 Y31.3008 Z-0.8358
G1 X-75.9 Y31.3006 Z-0.84
G1 X-75.9066 Y31.3008 Z-0.8443
G1 X-75.9128 Y31.3014 Z-0.8483
G1 X-75.9184 Y31.3023 Z-0.8519
G1 X-75.9244 Y31.3037 Z-0.8558
G1 X-75.9308 Y31.3055 Z-0.8601
G1 X-75.9366 Y31.3076 Z-0.864
G1 X-75.9422 Y31.31 Z-0.868
G1 X-75.9479 Y31.3129 Z-0.872
G1 X-75.9533 Y31.3162 Z-0.8761
G1 X-75.9585 Y31.3196 Z-0.8801
G1 X-75.9631 Y31.3232 Z-0.8838
G1 X-75.9679 Y31.3274 Z-0.8879
G1 X-75.9726 Y31.3321 Z-0.8921
G1 X-75.9768 Y31.3369 Z-0.8963
G1 X-75.9804 Y31.3415 Z-0.9
G1 X-75.9838 Y31.3467 Z-0.904
G1 X-75.9871 Y31.3521 Z-0.908
G1 X-75.99 Y31.3578 Z-0.9121
G1 X-75.9924 Y31.3634 Z-0.916
G1 X-75.9945 Y31.3692 Z-0.92
G1 X-75.9963 Y31.3756 Z-0.9242
G1 X-75.9977 Y31.3816 Z-0.9282
G1 X-75.9986 Y31.3872 Z-0.9318
G1 X-75.9992 Y31.3934 Z-0.9358
G1 X-75.9994 Y31.4 Z-0.94
G1 X-75.9992 Y31.4066 Z-0.9443
G1 X-75.9986 Y31.4128 Z-0.9483
G1 X-75.9977 Y31.4184 Z-0.9519
G1 X-75.9963 Y31.4244 Z-0.9558
G1 X-75.9945 Y31.4308 Z-0.9601
G1 X-75.9924 Y31.4366 Z-0.964
G1 X-75.99 Y31.4422 Z-0.968
G1 X-75.9871 Y31.4479 Z-0.972
G1 X-75.9838 Y31.4533 Z-0.9761
G1 X-75.9804 Y31.4585 Z-0.9801
G1 X-75.9768 Y31.4631 Z-0.9838
G1 X-75.9726 Y31.4679 Z-0.9879
G1 X-75.9679 Y31.4726 Z-0.9921
G1 X-75.9631 Y31.4768 Z-0.9963
G1 X-75.9585 Y31.4804 Z-1.0
G1 X-75.9533 Y31.4838 Z-1.004
G1 X-75.9479 Y31.4871 Z-1.008
G1 X-75.9422 Y31.49 Z-1.0121
G1 X-75.9366 Y31.4924 Z-1.016
G1 X-75.9308 Y31.4945 Z-1.02
G1 X-75.9244 Y31.4963 Z-1.0242
G1 X-75.9184 Y31.4977 Z-1.0282
G1 X-75.9128 Y31.4986 Z-1.0318
G1 X-75.9066 Y31.4992 Z-1.0358
G1 X-75.9 Y31.4994 Z-1.04
G1 X-75.8934 Y31.4992 Z-1.0443
G1 X-75.8872 Y31.4986 Z-1.0483
G1 X-75.8816 Y31.4977 Z-1.0519
G1 X-75.8756 Y31.4963 Z-1.0558
G1 X-75.8692 Y31.4945 Z-1.0601
G1 X-75.8634 Y31.4924 Z-1.064
G1 X-75.8578 Y31.49 Z-1.068
G1 X-75.8521 Y31.4871 Z-1.072
G1 X-75.8467 Y31.4838 Z-1.0761
G1 X-75.8415 Y31.4804 Z-1.0801
G1 X-75.8369 Y31.4768 Z-1.0838
G1 X-75.8321 Y31.4726 Z-1.0879
G1 X-75.8274 Y31.4679 Z-1.0921
G1 X-75.8232 Y31.4631 Z-1.0963
G1 X-75.8196 Y31.4585 Z-1.1
G1 X-75.8162 Y31.4533 Z-1.104
G1 X-75.8129 Y31.4479 Z-1.108
G1 X-75.81 Y31.4422 Z-1.1121
G1 X-75.8076 Y31.4366 Z-1.116
G1 X-75.8055 Y31.4308 Z-1.12
G1 X-75.8037 Y31.4244 Z-1.1242
G1 X-75.8023 Y31.4184 Z-1.1282
G1 X-75.8014 Y31.4128 Z-1.1318
G1 X-75.8008 Y31.4066 Z-1.1358
G1 X-75.8006 Y31.4 Z-1.14
G1 X-75.8008 Y31.3934 Z-1.1443
G1 X-75.8014 Y31.3872 Z-1.1483
G1 X-75.8023 Y31.3816 Z-1.1519
G1 X-75.8037 Y31.3756 Z-1.1558
G1 X-75.8055 Y31.3692 Z-1.1601
G1 X-75.8076 Y31.3634 Z-1.164
G1 X-75.81 Y31.3578 Z-1.168
G1 X-75.8129 Y31.3521 Z-1.172
G1 X-75.8162 Y31.3467 Z-1.1761
G1 X-75.8196 Y31.3415 Z-1.1801
G1 X-75.8232 Y31.3369 Z-1.1838
G1 X-75.8274 Y31.3321 Z-1.1879
G1 X-75.8321 Y31.3274 Z-1.1921
G1 X-75.8369 Y31.3232 Z-1.1963
G1 X-75.8415 Y31.3196 Z-1.2
G1 X-75.8467 Y31.3162 Z-1.204
G1 X-75.8521 Y31.3129 Z-1.208
G1 X-75.8578 Y31.31 Z-1.2121
G1 X-75.8634 Y31.3076 Z-1.216
G1 X-75.8692 Y31.3055 Z-1.22
G1 X-75.8756 Y31.3037 Z-1.2242
G1 X-75.8816 Y31.3023 Z-1.2282
G1 X-75.8872 Y31.3014 Z-1.2318
G1 X-75.8934 Y31.3008 Z-1.2358
G1 X-75.9 Y31.3006 Z-1.24
G1 X-75.9066 Y31.3008 Z-1.2443
G1 X-75.9128 Y31.3014 Z-1.2483
G1 X-75.9184 Y31.3023 Z-1.2519
G1 X-75.9244 Y31.3037 Z-1.2558
G1 X-75.9308 Y31.3055 Z-1.2601
G1 X-75.9366 Y31.3076 Z-1.264
G1 X-75.9422 Y31.31 Z-1.268
G1 X-75.9479 Y31.3129 Z-1.272
G1 X-75.9533 Y31.3162 Z-1.2761
G1 X-75.9585 Y31.3196 Z-1.2801
G1 X-75.9631 Y31.3232 Z-1.2838
G1 X-75.9679 Y31.3274 Z-1.2879
G1 X-75.9726 Y31.3321 Z-1.2921
G1 X-75.9768 Y31.3369 Z-1.2963
G1 X-75.9804 Y31.3415 Z-1.3
G1 X-75.9838 Y31.3467 Z-1.304
G1 X-75.9871 Y31.3521 Z-1.308
G1 X-75.99 Y31.3578 Z-1.3121
G1 X-75.9924 Y31.3634 Z-1.316
G1 X-75.9945 Y31.3692 Z-1.32
G1 X-75.9963 Y31.3756 Z-1.3242
G1 X-75.9977 Y31.3816 Z-1.3282
G1 X-75.9986 Y31.3872 Z-1.3318
G1 X-75.9992 Y31.3934 Z-1.3358
G1 X-75.9994 Y31.4 Z-1.34
G1 X-75.9992 Y31.4066 Z-1.3443
G1 X-75.9986 Y31.4128 Z-1.3483
G1 X-75.9977 Y31.4184 Z-1.3519
G1 X-75.9963 Y31.4244 Z-1.3558
G1 X-75.9945 Y31.4308 Z-1.3601
G1 X-75.9924 Y31.4366 Z-1.364
G1 X-75.99 Y31.4422 Z-1.368
G1 X-75.9871 Y31.4479 Z-1.372
G1 X-75.9838 Y31.4533 Z-1.3761
G1 X-75.9804 Y31.4585 Z-1.3801
G1 X-75.9768 Y31.4631 Z-1.3838
G1 X-75.9726 Y31.4679 Z-1.3879
G1 X-75.9679 Y31.4726 Z-1.3921
G1 X-75.9631 Y31.4768 Z-1.3963
G1 X-75.9585 Y31.4804 Z-1.4
G1 X-75.9533 Y31.4838 Z-1.404
G1 X-75.9479 Y31.4871 Z-1.408
G1 X-75.9422 Y31.49 Z-1.4121
G1 X-75.9366 Y31.4924 Z-1.416
G1 X-75.9308 Y31.4945 Z-1.42
G1 X-75.9244 Y31.4963 Z-1.4242
G1 X-75.9184 Y31.4977 Z-1.4282
G1 X-75.9128 Y31.4986 Z-1.4318
G1 X-75.9066 Y31.4992 Z-1.4358
G1 X-75.9 Y31.4994 Z-1.44
G1 X-75.8934 Y31.4992 Z-1.4443
G1 X-75.8872 Y31.4986 Z-1.4483
G1 X-75.8816 Y31.4977 Z-1.4519
G1 X-75.8756 Y31.4963 Z-1.4558
G1 X-75.8692 Y31.4945 Z-1.4601
G1 X-75.8634 Y31.4924 Z-1.464
G1 X-75.8578 Y31.49 Z-1.468
G1 X-75.8521 Y31.4871 Z-1.472
G1 X-75.8467 Y31.4838 Z-1.4761
G1 X-75.8415 Y31.4804 Z-1.4801
G1 X-75.8369 Y31.4768 Z-1.4838
G1 X-75.8321 Y31.4726 Z-1.4879
G1 X-75.8274 Y31.4679 Z-1.4921
G1 X-75.8232 Y31.4631 Z-1.4963
G1 X-75.8196 Y31.4585 Z-1.5
G1 X-75.8162 Y31.4533 Z-1.504
G1 X-75.8129 Y31.4479 Z-1.508
G1 X-75.81 Y31.4422 Z-1.5121
G1 X-75.8076 Y31.4366 Z-1.516
G1 X-75.8055 Y31.4308 Z-1.52
G1 X-75.8037 Y31.4244 Z-1.5242
G1 X-75.8023 Y31.4184 Z-1.5282
G1 X-75.8014 Y31.4128 Z-1.5318
G1 X-75.8008 Y31.4066 Z-1.5358
G1 X-75.8006 Y31.4 Z-1.54
G1 X-75.8008 Y31.3934 Z-1.5443
G1 X-75.8014 Y31.3872 Z-1.5483
G1 X-75.8023 Y31.3816 Z-1.5519
G1 X-75.8037 Y31.3756 Z-1.5558
G1 X-75.8055 Y31.3692 Z-1.5601
G1 X-75.8076 Y31.3634 Z-1.564
G1 X-75.81 Y31.3578 Z-1.568
G1 X-75.8129 Y31.3521 Z-1.572
G1 X-75.8162 Y31.3467 Z-1.5761
G1 X-75.8196 Y31.3415 Z-1.5801
G1 X-75.8232 Y31.3369 Z-1.5838
G1 X-75.8274 Y31.3321 Z-1.5879
G1 X-75.8321 Y31.3274 Z-1.5921
G1 X-75.8369 Y31.3232 Z-1.5963
G1 X-75.8415 Y31.3196 Z-1.6
G1 X-75.8467 Y31.3162 Z-1.604
G1 X-75.8521 Y31.3129 Z-1.608
G1 X-75.8578 Y31.31 Z-1.6121
G1 X-75.8634 Y31.3076 Z-1.616
G1 X-75.8692 Y31.3055 Z-1.62
G1 X-75.8756 Y31.3037 Z-1.6242
G1 X-75.8816 Y31.3023 Z-1.6282
G1 X-75.8872 Y31.3014 Z-1.6318
G1 X-75.8934 Y31.3008 Z-1.6358
G1 X-75.9 Y31.3006 Z-1.64
G1 X-75.9066 Y31.3008 Z-1.6443
G1 X-75.9128 Y31.3014 Z-1.6483
G1 X-75.9184 Y31.3023 Z-1.6519
G1 X-75.9244 Y31.3037 Z-1.6558
G1 X-75.9308 Y31.3055 Z-1.6601
G1 X-75.9366 Y31.3076 Z-1.664
G1 X-75.9422 Y31.31 Z-1.668
G1 X-75.9479 Y31.3129 Z-1.672
G1 X-75.9533 Y31.3162 Z-1.6761
G1 X-75.9585 Y31.3196 Z-1.6801
G1 X-75.9631 Y31.3232 Z-1.6838
G1 X-75.9679 Y31.3274 Z-1.6879
G1 X-75.9726 Y31.3321 Z-1.6921
G1 X-75.9768 Y31.3369 Z-1.6963
G1 X-75.9804 Y31.3415 Z-1.7
G1 X-75.9838 Y31.3467 Z-1.704
G1 X-75.9871 Y31.3521 Z-1.708
G1 X-75.99 Y31.3578 Z-1.7121
G1 X-75.9924 Y31.3634 Z-1.716
G1 X-75.9945 Y31.3692 Z-1.72
G1 X-75.9963 Y31.3756 Z-1.7242
G1 X-75.9977 Y31.3816 Z-1.7282
G1 X-75.9986 Y31.3872 Z-1.7318
G1 X-75.9992 Y31.3934 Z-1.7358
G1 X-75.9994 Y31.4 Z-1.74
G1 X-75.9992 Y31.4066 Z-1.7443
G1 X-75.9986 Y31.4128 Z-1.7483
G1 X-75.9977 Y31.4184 Z-1.7519
G1 X-75.9963 Y31.4244 Z-1.7558
G1 X-75.9945 Y31.4308 Z-1.7601
G1 X-75.9924 Y31.4366 Z-1.764
G1 X-75.99 Y31.4422 Z-1.768
G1 X-75.9871 Y31.4479 Z-1.772
G1 X-75.9838 Y31.4533 Z-1.7761
G1 X-75.9804 Y31.4585 Z-1.7801
G1 X-75.9768 Y31.4631 Z-1.7838
G1 X-75.9726 Y31.4679 Z-1.7879
G1 X-75.9679 Y31.4726 Z-1.7921
G1 X-75.9631 Y31.4768 Z-1.7963
G1 X-75.9585 Y31.4804 Z-1.8
G1 X-75.9533 Y31.4838 Z-1.804
G1 X-75.9479 Y31.4871 Z-1.808
G1 X-75.9422 Y31.49 Z-1.8121
G1 X-75.9366 Y31.4924 Z-1.816
G1 X-75.9308 Y31.4945 Z-1.82
G1 X-75.9244 Y31.4963 Z-1.8242
G1 X-75.9184 Y31.4977 Z-1.8282
G1 X-75.9128 Y31.4986 Z-1.8318
G1 X-75.9066 Y31.4992 Z-1.8358
G1 X-75.9 Y31.4994 Z-1.84
G1 X-75.8934 Y31.4992 Z-1.8443
G1 X-75.8872 Y31.4986 Z-1.8483
G1 X-75.8816 Y31.4977 Z-1.8519
G1 X-75.8756 Y31.4963 Z-1.8558
G1 X-75.8692 Y31.4945 Z-1.8601
G1 X-75.8634 Y31.4924 Z-1.864
G1 X-75.8578 Y31.49 Z-1.868
G1 X-75.8521 Y31.4871 Z-1.872
G1 X-75.8467 Y31.4838 Z-1.8761
G1 X-75.8415 Y31.4804 Z-1.8801
G1 X-75.8369 Y31.4768 Z-1.8838
G1 X-75.8321 Y31.4726 Z-1.8879
G1 X-75.8274 Y31.4679 Z-1.8921
G1 X-75.8232 Y31.4631 Z-1.8963
G1 X-75.8196 Y31.4585 Z-1.9
G1 X-75.8162 Y31.4533 Z-1.904
G1 X-75.8129 Y31.4479 Z-1.908
G1 X-75.81 Y31.4422 Z-1.9121
G1 X-75.8076 Y31.4366 Z-1.916
G1 X-75.8055 Y31.4308 Z-1.92
G1 X-75.8037 Y31.4244 Z-1.9242
G1 X-75.8023 Y31.4184 Z-1.9282
G1 X-75.8014 Y31.4128 Z-1.9318
G1 X-75.8008 Y31.4066 Z-1.9358
G1 X-75.8006 Y31.4 Z-1.94
G1 X-75.8008 Y31.3934 Z-1.9443
G1 X-75.8014 Y31.3872 Z-1.9483
G1 X-75.8023 Y31.3816 Z-1.9519
G1 X-75.8037 Y31.3756 Z-1.9558
G1 X-75.8055 Y31.3692 Z-1.9601
G1 X-75.8076 Y31.3634 Z-1.964
G1 X-75.81 Y31.3578 Z-1.968
G1 X-75.8129 Y31.3521 Z-1.972
G1 X-75.8162 Y31.3467 Z-1.9761
G1 X-75.8196 Y31.3415 Z-1.9801
G1 X-75.8232 Y31.3369 Z-1.9838
G1 X-75.8274 Y31.3321 Z-1.9879
G1 X-75.8321 Y31.3274 Z-1.9921
G1 X-75.8369 Y31.3232 Z-1.9963
G1 X-75.8415 Y31.3196 Z-2.0
G1 X-75.8467 Y31.3162 Z-2.004
G1 X-75.8521 Y31.3129 Z-2.008
G1 X-75.8578 Y31.31 Z-2.0121
G1 X-75.8634 Y31.3076 Z-2.016
G1 X-75.8692 Y31.3055 Z-2.02
G1 X-75.8756 Y31.3037 Z-2.0242
G1 X-75.8816 Y31.3023 Z-2.0282
G1 X-75.8872 Y31.3014 Z-2.0318
G1 X-75.8934 Y31.3008 Z-2.0358
G1 X-75.9 Y31.3006 Z-2.04
G1 X-75.9066 Y31.3008 Z-2.0443
G1 X-75.9128 Y31.3014 Z-2.0483
G1 X-75.9184 Y31.3023 Z-2.0519
G1 X-75.9244 Y31.3037 Z-2.0558
G1 X-75.9308 Y31.3055 Z-2.0601
G1 X-75.9366 Y31.3076 Z-2.064
G1 X-75.9422 Y31.31 Z-2.068
G1 X-75.9479 Y31.3129 Z-2.072
G1 X-75.9533 Y31.3162 Z-2.0761
G1 X-75.9585 Y31.3196 Z-2.0801
G1 X-75.9631 Y31.3232 Z-2.0838
G1 X-75.9679 Y31.3274 Z-2.0879
G1 X-75.9726 Y31.3321 Z-2.0921
G1 X-75.9768 Y31.3369 Z-2.0963
G1 X-75.9804 Y31.3415 Z-2.1
G1 X-75.9838 Y31.3467 Z-2.104
G1 X-75.9871 Y31.3521 Z-2.108
G1 X-75.99 Y31.3578 Z-2.1121
G1 X-75.9924 Y31.3634 Z-2.116
G1 X-75.9945 Y31.3692 Z-2.12
G1 X-75.9963 Y31.3756 Z-2.1242
G1 X-75.9977 Y31.3816 Z-2.1282
G1 X-75.9986 Y31.3872 Z-2.1318
G1 X-75.9992 Y31.3934 Z-2.1358
G1 X-75.9994 Y31.4 Z-2.14
G1 X-75.9992 Y31.4066 Z-2.1443
G1 X-75.9986 Y31.4128 Z-2.1483
G1 X-75.9977 Y31.4184 Z-2.1519
G1 X-75.9963 Y31.4244 Z-2.1558
G1 X-75.9945 Y31.4308 Z-2.1601
G1 X-75.9924 Y31.4366 Z-2.164
G1 X-75.99 Y31.4422 Z-2.168
G1 X-75.9871 Y31.4479 Z-2.172
G1 X-75.9838 Y31.4533 Z-2.1761
G1 X-75.9804 Y31.4585 Z-2.1801
G1 X-75.9768 Y31.4631 Z-2.1838
G1 X-75.9726 Y31.4679 Z-2.1879
G1 X-75.9679 Y31.4726 Z-2.1921
G1 X-75.9631 Y31.4768 Z-2.1963
G1 X-75.9585 Y31.4804 Z-2.2
G1 X-75.9533 Y31.4838 Z-2.204
G1 X-75.9479 Y31.4871 Z-2.208
G1 X-75.9422 Y31.49 Z-2.2121
G1 X-75.9366 Y31.4924 Z-2.216
G1 X-75.9308 Y31.4945 Z-2.22
G1 X-75.9244 Y31.4963 Z-2.2242
G1 X-75.9184 Y31.4977 Z-2.2282
G1 X-75.9128 Y31.4986 Z-2.2318
G1 X-75.9066 Y31.4992 Z-2.2358
G1 X-75.9 Y31.4994 Z-2.24
G1 X-75.8934 Y31.4992 Z-2.2443
G1 X-75.8872 Y31.4986 Z-2.2483
G1 X-75.8816 Y31.4977 Z-2.2519
G1 X-75.8756 Y31.4963 Z-2.2558
G1 X-75.8692 Y31.4945 Z-2.2601
G1 X-75.8634 Y31.4924 Z-2.264
G1 X-75.8578 Y31.49 Z-2.268
G1 X-75.8521 Y31.4871 Z-2.272
G1 X-75.8467 Y31.4838 Z-2.2761
G1 X-75.8415 Y31.4804 Z-2.2801
G1 X-75.8369 Y31.4768 Z-2.2838
G1 X-75.8321 Y31.4726 Z-2.2879
G1 X-75.8274 Y31.4679 Z-2.2921
G1 X-75.8232 Y31.4631 Z-2.2963
G1 X-75.8196 Y31.4585 Z-2.3
G1 X-75.8162 Y31.4533 Z-2.304
G1 X-75.8129 Y31.4479 Z-2.308
G1 X-75.81 Y31.4422 Z-2.3121
G1 X-75.8076 Y31.4366 Z-2.316
G1 X-75.8055 Y31.4308 Z-2.32
G1 X-75.8037 Y31.4244 Z-2.3242
G1 X-75.8023 Y31.4184 Z-2.3282
G1 X-75.8014 Y31.4128 Z-2.3318
G1 X-75.8008 Y31.4066 Z-2.3358
G1 X-75.8006 Y31.4 Z-2.34
G1 X-75.8008 Y31.3934 Z-2.3443
G1 X-75.8014 Y31.3872 Z-2.3483
G1 X-75.8023 Y31.3816 Z-2.3519
G1 X-75.8037 Y31.3756 Z-2.3558
G1 X-75.8055 Y31.3692 Z-2.3601
G1 X-75.8076 Y31.3634 Z-2.364
G1 X-75.81 Y31.3578 Z-2.368
G1 X-75.8129 Y31.3521 Z-2.372
G1 X-75.8162 Y31.3467 Z-2.3761
G1 X-75.8196 Y31.3415 Z-2.3801
G1 X-75.8232 Y31.3369 Z-2.3838
G1 X-75.8274 Y31.3321 Z-2.3879
G1 X-75.8321 Y31.3274 Z-2.3921
G1 X-75.8369 Y31.3232 Z-2.3963
G1 X-75.8415 Y31.3196 Z-2.4
G1 X-75.8467 Y31.3162 Z-2.404
G1 X-75.8521 Y31.3129 Z-2.408
G1 X-75.8578 Y31.31 Z-2.4121
G1 X-75.8634 Y31.3076 Z-2.416
G1 X-75.8692 Y31.3055 Z-2.42
G1 X-75.8756 Y31.3037 Z-2.4242
G1 X-75.8816 Y31.3023 Z-2.4282
G1 X-75.8872 Y31.3014 Z-2.4318
G1 X-75.8934 Y31.3008 Z-2.4358
G1 X-75.9 Y31.3006 Z-2.44
G1 X-75.9066 Y31.3008 Z-2.4443
G1 X-75.9128 Y31.3014 Z-2.4483
G1 X-75.9184 Y31.3023 Z-2.4519
G1 X-75.9244 Y31.3037 Z-2.4558
G1 X-75.9308 Y31.3055 Z-2.4601
G1 X-75.9366 Y31.3076 Z-2.464
G1 X-75.9422 Y31.31 Z-2.468
G1 X-75.9479 Y31.3129 Z-2.472
G1 X-75.9533 Y31.3162 Z-2.4761
G1 X-75.9585 Y31.3196 Z-2.4801
G1 X-75.9631 Y31.3232 Z-2.4838
G1 X-75.9679 Y31.3274 Z-2.4879
G1 X-75.9726 Y31.3321 Z-2.4921
G1 X-75.9768 Y31.3369 Z-2.4963
G1 X-75.9804 Y31.3415 Z-2.5
G1 X-75.9838 Y31.3467 Z-2.504
G1 X-75.9871 Y31.3521 Z-2.508
G1 X-75.99 Y31.3578 Z-2.5121
G1 X-75.9924 Y31.3634 Z-2.516
G1 X-75.9945 Y31.3692 Z-2.52
G1 X-75.9963 Y31.3756 Z-2.5242
G1 X-75.9977 Y31.3816 Z-2.5282
G1 X-75.9986 Y31.3872 Z-2.5318
G1 X-75.9992 Y31.3934 Z-2.5358
G1 X-75.9994 Y31.4 Z-2.54
G1 X-75.9992 Y31.4066 Z-2.5443
G1 X-75.9986 Y31.4128 Z-2.5483
G1 X-75.9977 Y31.4184 Z-2.5519
G1 X-75.9963 Y31.4244 Z-2.5558
G1 X-75.9945 Y31.4308 Z-2.5601
G1 X-75.9924 Y31.4366 Z-2.564
G1 X-75.99 Y31.4422 Z-2.568
G1 X-75.9871 Y31.4479 Z-2.572
G1 X-75.9838 Y31.4533 Z-2.5761
G1 X-75.9804 Y31.4585 Z-2.5801
G1 X-75.9768 Y31.4631 Z-2.5838
G1 X-75.9726 Y31.4679 Z-2.5879
G1 X-75.9679 Y31.4726 Z-2.5921
G1 X-75.9631 Y31.4768 Z-2.5963
G1 X-75.9585 Y31.4804 Z-2.6
G1 X-75.9533 Y31.4838 Z-2.604
G1 X-75.9479 Y31.4871 Z-2.608
G1 X-75.9422 Y31.49 Z-2.6121
G1 X-75.9366 Y31.4924 Z-2.616
G1 X-75.9308 Y31.4945 Z-2.62
G1 X-75.9244 Y31.4963 Z-2.6242
G1 X-75.9184 Y31.4977 Z-2.6282
G1 X-75.9128 Y31.4986 Z-2.6318
G1 X-75.9066 Y31.4992 Z-2.6358
G1 X-75.9 Y31.4994 Z-2.64
G1 X-75.8934 Y31.4992 Z-2.6443
G1 X-75.8872 Y31.4986 Z-2.6483
G1 X-75.8816 Y31.4977 Z-2.6519
G1 X-75.8756 Y31.4963 Z-2.6558
G1 X-75.8692 Y31.4945 Z-2.6601
G1 X-75.8634 Y31.4924 Z-2.664
G1 X-75.8578 Y31.49 Z-2.668
G1 X-75.8521 Y31.4871 Z-2.672
G1 X-75.8467 Y31.4838 Z-2.6761
G1 X-75.8415 Y31.4804 Z-2.6801
G1 X-75.8369 Y31.4768 Z-2.6838
G1 X-75.8321 Y31.4726 Z-2.6879
G1 X-75.8274 Y31.4679 Z-2.6921
G1 X-75.8232 Y31.4631 Z-2.6963
G1 X-75.8196 Y31.4585 Z-2.7
G1 X-75.8162 Y31.4533 Z-2.704
G1 X-75.8129 Y31.4479 Z-2.708
G1 X-75.81 Y31.4422 Z-2.7121
G1 X-75.8076 Y31.4366 Z-2.716
G1 X-75.8055 Y31.4308 Z-2.72
G1 X-75.8037 Y31.4244 Z-2.7242
G1 X-75.8023 Y31.4184 Z-2.7282
G1 X-75.8014 Y31.4128 Z-2.7318
G1 X-75.8008 Y31.4066 Z-2.7358
G1 X-75.8006 Y31.4 Z-2.74
G1 X-75.8008 Y31.3934 Z-2.7443
G1 X-75.8014 Y31.3872 Z-2.7483
G1 X-75.8023 Y31.3816 Z-2.7519
G1 X-75.8037 Y31.3756 Z-2.7558
G1 X-75.8055 Y31.3692 Z-2.7601
G1 X-75.8076 Y31.3634 Z-2.764
G1 X-75.81 Y31.3578 Z-2.768
G1 X-75.8129 Y31.3521 Z-2.772
G1 X-75.8162 Y31.3467 Z-2.7761
G1 X-75.8196 Y31.3415 Z-2.7801
G1 X-75.8232 Y31.3369 Z-2.7838
G1 X-75.8274 Y31.3321 Z-2.7879
G1 X-75.8321 Y31.3274 Z-2.7921
G1 X-75.8369 Y31.3232 Z-2.7963
G1 X-75.8415 Y31.3196 Z-2.8
G1 X-75.8467 Y31.3162 Z-2.804
G1 X-75.8521 Y31.3129 Z-2.808
G1 X-75.8578 Y31.31 Z-2.8121
G1 X-75.8634 Y31.3076 Z-2.816
G1 X-75.8692 Y31.3055 Z-2.82
G1 X-75.8756 Y31.3037 Z-2.8242
G1 X-75.8816 Y31.3023 Z-2.8282
G1 X-75.8872 Y31.3014 Z-2.8318
G1 X-75.8934 Y31.3008 Z-2.8358
G1 X-75.9 Y31.3006 Z-2.84
G1 X-75.9066 Y31.3008 Z-2.8443
G1 X-75.9128 Y31.3014 Z-2.8483
G1 X-75.9184 Y31.3023 Z-2.8519
G1 X-75.9244 Y31.3037 Z-2.8558
G1 X-75.9308 Y31.3055 Z-2.8601
G1 X-75.9366 Y31.3076 Z-2.864
G1 X-75.9422 Y31.31 Z-2.868
G1 X-75.9479 Y31.3129 Z-2.872
G1 X-75.9533 Y31.3162 Z-2.8761
G1 X-75.9585 Y31.3196 Z-2.8801
G1 X-75.9631 Y31.3232 Z-2.8838
G1 X-75.9679 Y31.3274 Z-2.8879
G1 X-75.9726 Y31.3321 Z-2.8921
G1 X-75.9768 Y31.3369 Z-2.8963
G1 X-75.9804 Y31.3415 Z-2.9
G1 X-75.9838 Y31.3467 Z-2.904
G1 X-75.9871 Y31.3521 Z-2.908
G1 X-75.99 Y31.3578 Z-2.9121
G1 X-75.9924 Y31.3634 Z-2.916
G1 X-75.9945 Y31.3692 Z-2.92
G1 X-75.9963 Y31.3756 Z-2.9242
G1 X-75.9977 Y31.3816 Z-2.9282
G1 X-75.9986 Y31.3872 Z-2.9318
G1 X-75.9992 Y31.3934 Z-2.9358
G1 X-75.9994 Y31.4 Z-2.94
G1 X-75.9992 Y31.4066 Z-2.9443
G1 X-75.9986 Y31.4128 Z-2.9483
G1 X-75.9977 Y31.4184 Z-2.9519
G1 X-75.9963 Y31.4244 Z-2.9558
G1 X-75.9945 Y31.4308 Z-2.9601
G1 X-75.9924 Y31.4366 Z-2.964
G1 X-75.99 Y31.4422 Z-2.968
G1 X-75.9871 Y31.4479 Z-2.972
G1 X-75.9838 Y31.4533 Z-2.9761
G1 X-75.9804 Y31.4585 Z-2.9801
G1 X-75.9768 Y31.4631 Z-2.9838
G1 X-75.9726 Y31.4679 Z-2.9879
G1 X-75.9679 Y31.4726 Z-2.9921
G1 X-75.9631 Y31.4768 Z-2.9963
G1 X-75.9585 Y31.4804 Z-3.0
G1 X-75.9533 Y31.4838 Z-3.004
G1 X-75.9479 Y31.4871 Z-3.008
G1 X-75.9422 Y31.49 Z-3.0121
G1 X-75.9366 Y31.4924 Z-3.016
G1 X-75.9308 Y31.4945 Z-3.02
G1 X-75.9244 Y31.4963 Z-3.0242
G1 X-75.9184 Y31.4977 Z-3.0282
G1 X-75.9128 Y31.4986 Z-3.0318
G1 X-75.9066 Y31.4992 Z-3.0358
G1 X-75.9 Y31.4994 Z-3.04
G1 X-75.8934 Y31.4992 Z-3.0443
G1 X-75.8872 Y31.4986 Z-3.0483
G1 X-75.8816 Y31.4977 Z-3.0519
G1 X-75.8756 Y31.4963 Z-3.0558
G1 X-75.8692 Y31.4945 Z-3.0601
G1 X-75.8634 Y31.4924 Z-3.064
G1 X-75.8578 Y31.49 Z-3.068
G1 X-75.8521 Y31.4871 Z-3.072
G1 X-75.8467 Y31.4838 Z-3.0761
G1 X-75.8415 Y31.4804 Z-3.0801
G1 X-75.8369 Y31.4768 Z-3.0838
G1 X-75.8321 Y31.4726 Z-3.0879
G1 X-75.8274 Y31.4679 Z-3.0921
G1 X-75.8232 Y31.4631 Z-3.0963
G1 X-75.8196 Y31.4585 Z-3.1
G1 X-75.8162 Y31.4533 Z-3.104
G1 X-75.8129 Y31.4479 Z-3.108
G1 X-75.81 Y31.4422 Z-3.1121
G1 X-75.8076 Y31.4366 Z-3.116
G1 X-75.8055 Y31.4308 Z-3.12
G1 X-75.8037 Y31.4244 Z-3.1242
G1 X-75.8023 Y31.4184 Z-3.1282
G1 X-75.8014 Y31.4128 Z-3.1318
G1 X-75.8008 Y31.4066 Z-3.1358
G1 X-75.8006 Y31.4 Z-3.14
G1 X-75.8008 Y31.3934 Z-3.1443
G1 X-75.8014 Y31.3872 Z-3.1483
G1 X-75.8023 Y31.3816 Z-3.1519
G1 X-75.8037 Y31.3756 Z-3.1558
G1 X-75.8055 Y31.3692 Z-3.1601
G1 X-75.8076 Y31.3634 Z-3.164
G1 X-75.81 Y31.3578 Z-3.168
G1 X-75.8129 Y31.3521 Z-3.172
G1 X-75.8162 Y31.3467 Z-3.1761
G1 X-75.8196 Y31.3415 Z-3.1801
G1 X-75.8232 Y31.3369 Z-3.1838
G1 X-75.8274 Y31.3321 Z-3.1879
G1 X-75.8321 Y31.3274 Z-3.1921
G1 X-75.8369 Y31.3232 Z-3.1963
G1 X-75.8415 Y31.3196 Z-3.2
G1 X-75.8467 Y31.3162 Z-3.204
G1 X-75.8521 Y31.3129 Z-3.208
G1 X-75.8578 Y31.31 Z-3.2121
G1 X-75.8634 Y31.3076 Z-3.216
G1 X-75.8692 Y31.3055 Z-3.22
G1 X-75.8756 Y31.3037 Z-3.2242
G1 X-75.8816 Y31.3023 Z-3.2282
G1 X-75.8872 Y31.3014 Z-3.2318
G1 X-75.8934 Y31.3008 Z-3.2358
G1 X-75.9 Y31.3006 Z-3.24
G1 X-75.9066 Y31.3008 Z-3.2443
G1 X-75.9128 Y31.3014 Z-3.2483
G1 X-75.9184 Y31.3023 Z-3.2519
G1 X-75.9244 Y31.3037 Z-3.2558
G1 X-75.9308 Y31.3055 Z-3.2601
G1 X-75.9366 Y31.3076 Z-3.264
G1 X-75.9422 Y31.31 Z-3.268
G1 X-75.9479 Y31.3129 Z-3.272
G1 X-75.9533 Y31.3162 Z-3.2761
G1 X-75.9585 Y31.3196 Z-3.2801
G1 X-75.9631 Y31.3232 Z-3.2838
G1 X-75.9679 Y31.3274 Z-3.2879
G1 X-75.9726 Y31.3321 Z-3.2921
G1 X-75.9768 Y31.3369 Z-3.2963
G1 X-75.9804 Y31.3415 Z-3.3
G1 X-75.9838 Y31.3467 Z-3.304
G1 X-75.9871 Y31.3521 Z-3.308
G1 X-75.99 Y31.3578 Z-3.3121
G1 X-75.9924 Y31.3634 Z-3.316
G1 X-75.9945 Y31.3692 Z-3.32
G1 X-75.9963 Y31.3756 Z-3.3242
G1 X-75.9977 Y31.3816 Z-3.3282
G1 X-75.9986 Y31.3872 Z-3.3318
G1 X-75.9992 Y31.3934 Z-3.3358
G1 X-75.9994 Y31.4 Z-3.34
G1 X-75.9992 Y31.4066 Z-3.3443
G1 X-75.9986 Y31.4128 Z-3.3483
G1 X-75.9977 Y31.4184 Z-3.3519
G1 X-75.9963 Y31.4244 Z-3.3558
G1 X-75.9945 Y31.4308 Z-3.3601
G1 X-75.9924 Y31.4366 Z-3.364
G1 X-75.99 Y31.4422 Z-3.368
G1 X-75.9871 Y31.4479 Z-3.372
G1 X-75.9838 Y31.4533 Z-3.3761
G1 X-75.9804 Y31.4585 Z-3.3801
G1 X-75.9768 Y31.4631 Z-3.3838
G1 X-75.9726 Y31.4679 Z-3.3879
G1 X-75.9679 Y31.4726 Z-3.3921
G1 X-75.9631 Y31.4768 Z-3.3963
G1 X-75.9585 Y31.4804 Z-3.4
G1 X-75.9533 Y31.4838 Z-3.404
G1 X-75.9479 Y31.4871 Z-3.408
G1 X-75.9422 Y31.49 Z-3.4121
G1 X-75.9366 Y31.4924 Z-3.416
G1 X-75.9308 Y31.4945 Z-3.42
G1 X-75.9244 Y31.4963 Z-3.4242
G1 X-75.9184 Y31.4977 Z-3.4282
G1 X-75.9128 Y31.4986 Z-3.4318
G1 X-75.9066 Y31.4992 Z-3.4358
G1 X-75.9 Y31.4994 Z-3.44
G1 X-75.8934 Y31.4992 Z-3.4443
G1 X-75.8872 Y31.4986 Z-3.4483
G1 X-75.8816 Y31.4977 Z-3.4519
G1 X-75.8756 Y31.4963 Z-3.4558
G1 X-75.8692 Y31.4945 Z-3.4601
G1 X-75.8634 Y31.4924 Z-3.464
G1 X-75.8578 Y31.49 Z-3.468
G1 X-75.8521 Y31.4871 Z-3.472
G1 X-75.8467 Y31.4838 Z-3.4761
G1 X-75.8415 Y31.4804 Z-3.4801
G1 X-75.8369 Y31.4768 Z-3.4838
G1 X-75.8321 Y31.4726 Z-3.4879
G1 X-75.8274 Y31.4679 Z-3.4921
G1 X-75.8232 Y31.4631 Z-3.4963
G1 X-75.8196 Y31.4585 Z-3.5
G1 X-75.8162 Y31.4533 Z-3.504
G1 X-75.8129 Y31.4479 Z-3.508
G1 X-75.81 Y31.4422 Z-3.5121
G1 X-75.8076 Y31.4366 Z-3.516
G1 X-75.8055 Y31.4308 Z-3.52
G1 X-75.8037 Y31.4244 Z-3.5242
G1 X-75.8023 Y31.4184 Z-3.5282
G1 X-75.8014 Y31.4128 Z-3.5318
G1 X-75.8008 Y31.4066 Z-3.5358
G1 X-75.8006 Y31.4 Z-3.54
G1 X-75.8008 Y31.3934 Z-3.5443
G1 X-75.8014 Y31.3872 Z-3.5483
G1 X-75.8023 Y31.3816 Z-3.5519
G1 X-75.8037 Y31.3756 Z-3.5558
G1 X-75.8055 Y31.3692 Z-3.5601
G1 X-75.8076 Y31.3634 Z-3.564
G1 X-75.81 Y31.3578 Z-3.568
G1 X-75.8129 Y31.3521 Z-3.572
G1 X-75.8162 Y31.3467 Z-3.5761
G1 X-75.8196 Y31.3415 Z-3.5801
G1 X-75.8232 Y31.3369 Z-3.5838
G1 X-75.8274 Y31.3321 Z-3.5879
G1 X-75.8321 Y31.3274 Z-3.5921
G1 X-75.8369 Y31.3232 Z-3.5963
G1 X-75.8415 Y31.3196 Z-3.6
G1 X-75.8467 Y31.3162 Z-3.604
G1 X-75.8521 Y31.3129 Z-3.608
G1 X-75.8578 Y31.31 Z-3.6121
G1 X-75.8634 Y31.3076 Z-3.616
G1 X-75.8692 Y31.3055 Z-3.62
G1 X-75.8756 Y31.3037 Z-3.6242
G1 X-75.8816 Y31.3023 Z-3.6282
G1 X-75.8872 Y31.3014 Z-3.6318
G1 X-75.8934 Y31.3008 Z-3.6358
G1 X-75.9 Y31.3006 Z-3.64
G1 X-75.9066 Y31.3008 Z-3.6443
G1 X-75.9128 Y31.3014 Z-3.6483
G1 X-75.9184 Y31.3023 Z-3.6519
G1 X-75.9244 Y31.3037 Z-3.6558
G1 X-75.9308 Y31.3055 Z-3.6601
G1 X-75.9366 Y31.3076 Z-3.664
G1 X-75.9422 Y31.31 Z-3.668
G1 X-75.9479 Y31.3129 Z-3.672
G1 X-75.9533 Y31.3162 Z-3.6761
G1 X-75.9585 Y31.3196 Z-3.6801
G1 X-75.9631 Y31.3232 Z-3.6838
G1 X-75.9679 Y31.3274 Z-3.6879
G1 X-75.9726 Y31.3321 Z-3.6921
G1 X-75.9768 Y31.3369 Z-3.6963
G1 X-75.9804 Y31.3415 Z-3.7
G1 X-75.9838 Y31.3467 Z-3.704
G1 X-75.9871 Y31.3521 Z-3.708
G1 X-75.99 Y31.3578 Z-3.7121
G1 X-75.9924 Y31.3634 Z-3.716
G1 X-75.9945 Y31.3692 Z-3.72
G1 X-75.9963 Y31.3756 Z-3.7242
G1 X-75.9977 Y31.3816 Z-3.7282
G1 X-75.9986 Y31.3872 Z-3.7318
G1 X-75.9992 Y31.3934 Z-3.7358
G1 X-75.9994 Y31.4 Z-3.74
G1 X-75.9992 Y31.4066 Z-3.7443
G1 X-75.9986 Y31.4128 Z-3.7483
G1 X-75.9977 Y31.4184 Z-3.7519
G1 X-75.9963 Y31.4244 Z-3.7558
G1 X-75.9945 Y31.4308 Z-3.7601
G1 X-75.9924 Y31.4366 Z-3.764
G1 X-75.99 Y31.4422 Z-3.768
G1 X-75.9871 Y31.4479 Z-3.772
G1 X-75.9838 Y31.4533 Z-3.7761
G1 X-75.9804 Y31.4585 Z-3.7801
G1 X-75.9768 Y31.4631 Z-3.7838
G1 X-75.9726 Y31.4679 Z-3.7879
G1 X-75.9679 Y31.4726 Z-3.7921
G1 X-75.9631 Y31.4768 Z-3.7963
G1 X-75.9585 Y31.4804 Z-3.8
G1 X-75.9533 Y31.4838 Z-3.804
G1 X-75.9479 Y31.4871 Z-3.808
G1 X-75.9422 Y31.49 Z-3.8121
G1 X-75.9366 Y31.4924 Z-3.816
G1 X-75.9308 Y31.4945 Z-3.82
G1 X-75.9244 Y31.4963 Z-3.8242
G1 X-75.9184 Y31.4977 Z-3.8282
G1 X-75.9128 Y31.4986 Z-3.8318
G1 X-75.9066 Y31.4992 Z-3.8358
G1 X-75.9 Y31.4994 Z-3.84
G1 X-75.8934 Y31.4992 Z-3.8443
G1 X-75.8872 Y31.4986 Z-3.8483
G1 X-75.8816 Y31.4977 Z-3.8519
G1 X-75.8756 Y31.4963 Z-3.8558
G1 X-75.8692 Y31.4945 Z-3.8601
G1 X-75.8634 Y31.4924 Z-3.864
G1 X-75.8578 Y31.49 Z-3.868
G1 X-75.8521 Y31.4871 Z-3.872
G1 X-75.8467 Y31.4838 Z-3.8761
G1 X-75.8415 Y31.4804 Z-3.8801
G1 X-75.8369 Y31.4768 Z-3.8838
G1 X-75.8321 Y31.4726 Z-3.8879
G1 X-75.8274 Y31.4679 Z-3.8921
G1 X-75.8232 Y31.4631 Z-3.8963
G1 X-75.8196 Y31.4585 Z-3.9
G1 X-75.8162 Y31.4533 Z-3.904
G1 X-75.8129 Y31.4479 Z-3.908
G1 X-75.81 Y31.4422 Z-3.9121
G1 X-75.8076 Y31.4366 Z-3.916
G1 X-75.8055 Y31.4308 Z-3.92
G1 X-75.8037 Y31.4244 Z-3.9242
G1 X-75.8023 Y31.4184 Z-3.9282
G1 X-75.8014 Y31.4128 Z-3.9318
G1 X-75.8008 Y31.4066 Z-3.9358
G1 X-75.8006 Y31.4 Z-3.94
G1 X-75.8008 Y31.3934 Z-3.9443
G1 X-75.8014 Y31.3872 Z-3.9483
G1 X-75.8023 Y31.3816 Z-3.9519
G1 X-75.8037 Y31.3756 Z-3.9558
G1 X-75.8055 Y31.3692 Z-3.9601
G1 X-75.8076 Y31.3634 Z-3.964
G1 X-75.81 Y31.3578 Z-3.968
G1 X-75.8129 Y31.3521 Z-3.972
G1 X-75.8162 Y31.3467 Z-3.9761
G1 X-75.8196 Y31.3415 Z-3.9801
G1 X-75.8232 Y31.3369 Z-3.9838
G1 X-75.8274 Y31.3321 Z-3.9879
G1 X-75.8321 Y31.3274 Z-3.9921
G1 X-75.8369 Y31.3232 Z-3.9963
G1 X-75.8415 Y31.3196 Z-4.0
G1 X-75.8467 Y31.3162
G1 X-75.8521 Y31.3129
G1 X-75.8578 Y31.31
G1 X-75.8634 Y31.3076
G1 X-75.8692 Y31.3055
G1 X-75.8756 Y31.3037
G1 X-75.8816 Y31.3023
G1 X-75.8872 Y31.3014
G1 X-75.8934 Y31.3008
G1 X-75.9 Y31.3006
G1 X-75.9066 Y31.3008
G1 X-75.9128 Y31.3014
G1 X-75.9184 Y31.3023
G1 X-75.9244 Y31.3037
G1 X-75.9308 Y31.3055
G1 X-75.9366 Y31.3076
G1 X-75.9422 Y31.31
G1 X-75.9479 Y31.3129
G1 X-75.9533 Y31.3162
G1 X-75.9585 Y31.3196
G1 X-75.9631 Y31.3232
G1 X-75.9679 Y31.3274
G1 X-75.9726 Y31.3321
G1 X-75.9768 Y31.3369
G1 X-75.9804 Y31.3415
G1 X-75.9838 Y31.3467
G1 X-75.9871 Y31.3521
G1 X-75.99 Y31.3578
G1 X-75.9924 Y31.3634
G1 X-75.9945 Y31.3692
G1 X-75.9963 Y31.3756
G1 X-75.9977 Y31.3816
G1 X-75.9986 Y31.3872
G1 X-75.9992 Y31.3934
G1 X-75.9994 Y31.4
G1 X-75.9992 Y31.4066
G1 X-75.9986 Y31.4128
G1 X-75.9977 Y31.4184
G1 X-75.9963 Y31.4244
G1 X-75.9945 Y31.4308
G1 X-75.9924 Y31.4366
G1 X-75.99 Y31.4422
G1 X-75.9871 Y31.4479
G1 X-75.9838 Y31.4533
G1 X-75.9804 Y31.4585
G1 X-75.9768 Y31.4631
G1 X-75.9726 Y31.4679
G1 X-75.9679 Y31.4726
G1 X-75.9631 Y31.4768
G1 X-75.9585 Y31.4804
G1 X-75.9533 Y31.4838
G1 X-75.9479 Y31.4871
G1 X-75.9422 Y31.49
G1 X-75.9366 Y31.4924
G1 X-75.9308 Y31.4945
G1 X-75.9244 Y31.4963
G1 X-75.9184 Y31.4977
G1 X-75.9128 Y31.4986
G1 X-75.9066 Y31.4992
G1 X-75.9 Y31.4994
G1 X-75.8934 Y31.4992
G1 X-75.8872 Y31.4986
G1 X-75.8816 Y31.4977
G1 X-75.8756 Y31.4963
G1 X-75.8692 Y31.4945
G1 X-75.8634 Y31.4924
G1 X-75.8578 Y31.49
G1 X-75.8521 Y31.4871
G1 X-75.8467 Y31.4838
G1 X-75.8415 Y31.4804
G1 X-75.8369 Y31.4768
G1 X-75.8321 Y31.4726
G1 X-75.8274 Y31.4679
G1 X-75.8232 Y31.4631
G1 X-75.8196 Y31.4585
G1 X-75.8162 Y31.4533
G1 X-75.8129 Y31.4479
G1 X-75.81 Y31.4422
G1 X-75.8076 Y31.4366
G1 X-75.8055 Y31.4308
G1 X-75.8037 Y31.4244
G1 X-75.8023 Y31.4184
G1 X-75.8014 Y31.4128
G1 X-75.8008 Y31.4066
G1 X-75.8006 Y31.4
G1 X-75.8008 Y31.3934
G1 X-75.8014 Y31.3872
G1 X-75.8023 Y31.3816
G1 X-75.8037 Y31.3756
G1 X-75.8055 Y31.3692
G1 X-75.8076 Y31.3634
G1 X-75.81 Y31.3578
G1 X-75.8129 Y31.3521
G1 X-75.8162 Y31.3467
G1 X-75.8196 Y31.3415
G1 X-75.8232 Y31.3369
G1 X-75.8274 Y31.3321
G1 X-75.8321 Y31.3274
G1 X-75.8369 Y31.3232
G1 X-75.8415 Y31.3196
G0 Z3.0
G0 X-72.9422 Y25.59
G0 Z1.0
G1 F150.0 Z0.0
G1 F400.0 X-72.9366 Y25.5924 Z-0.0039
G1 X-72.9308 Y25.5945 Z-0.0079
G1 X-72.9244 Y25.5963 Z-0.0121
G1 X-72.9184 Y25.5977 Z-0.0161
G1 X-72.9128 Y25.5986 Z-0.0197
G1 X-72.9066 Y25.5992 Z-0.0237
G1 X-72.9 Y25.5994 Z-0.0279
G1 X-72.8934 Y25.5992 Z-0.0322
G1 X-72.8872 Y25.5986 Z-0.0362
G1 X-72.8816 Y25.5977 Z-0.0398
G1 X-72.8756 Y25.5963 Z-0.0438
G1 X-72.8692 Y25.5945 Z-0.048
G1 X-72.8634 Y25.5924 Z-0.052
G1 X-72.8578 Y25.59 Z-0.0559
G1 X-72.8521 Y25.5871 Z-0.0599
G1 X-72.8467 Y25.5838 Z-0.064
G1 X-72.8415 Y25.5804 Z-0.068
G1 X-72.8369 Y25.5768 Z-0.0717
G1 X-72.8321 Y25.5726 Z-0.0758
G1 X-72.8274 Y25.5679 Z-0.0801
G1 X-72.8232 Y25.5631 Z-0.0842
G1 X-72.8196 Y25.5585 Z-0.0879
G1 X-72.8162 Y25.5533 Z-0.0919
G1 X-72.8129 Y25.5479 Z-0.096
G1 X-72.81 Y25.5422 Z-0.1
G1 X-72.8076 Y25.5366 Z-0.1039
G1 X-72.8055 Y25.5308 Z-0.1079
G1 X-72.8037 Y25.5244 Z-0.1121
G1 X-72.8023 Y25.5184 Z-0.1161
G1 X-72.8014 Y25.5128 Z-0.1197
G1 X-72.8008 Y25.5066 Z-0.1237
G1 X-72.8006 Y25.5 Z-0.1279
G1 X-72.8008 Y25.4934 Z-0.1322
G1 X-72.8014 Y25.4872 Z-0.1362
G1 X-72.8023 Y25.4816 Z-0.1398
G1 X-72.8037 Y25.4756 Z-0.1438
G1 X-72.8055 Y25.4692 Z-0.148
G1 X-72.8076 Y25.4634 Z-0.152
G1 X-72.81 Y25.4578 Z-0.1559
G1 X-72.8129 Y25.4521 Z-0.1599
G1 X-72.8162 Y25.4467 Z-0.164
G1 X-72.8196 Y25.4415 Z-0.168
G1 X-72.8232 Y25.4369 Z-0.1717
G1 X-72.8274 Y25.4321 Z-0.1758
G1 X-72.8321 Y25.4274 Z-0.1801
G1 X-72.8369 Y25.4232 Z-0.1842
G1 X-72.8415 Y25.4196 Z-0.1879
G1 X-72.8467 Y25.4162 Z-0.1919
G1 X-72.8521 Y25.4129 Z-0.196
G1 X-72.8578 Y25.41 Z-0.2
G1 X-72.8634 Y25.4076 Z-0.2039
G1 X-72.8692 Y25.4055 Z-0.2079
G1 X-72.8756 Y25.4037 Z-0.2121
G1 X-72.8816 Y25.4023 Z-0.2161
G1 X-72.8872 Y25.4014 Z-0.2197
G1 X-72.8934 Y25.4008 Z-0.2237
G1 X-72.9 Y25.4006 Z-0.2279
G1 X-72.9066 Y25.4008 Z-0.2322
G1 X-72.9128 Y25.4014 Z-0.2362
G1 X-72.9184 Y25.4023 Z-0.2398
G1 X-72.9244 Y25.4037 Z-0.2438
G1 X-72.9308 Y25.4055 Z-0.248
G1 X-72.9366 Y25.4076 Z-0.252
G1 X-72.9422 Y25.41 Z-0.2559
G1 X-72.9479 Y25.4129 Z-0.2599
G1 X-72.9533 Y25.4162 Z-0.264
G1 X-72.9585 Y25.4196 Z-0.268
G1 X-72.9631 Y25.4232 Z-0.2717
G1 X-72.9679 Y25.4274 Z-0.2758
G1 X-72.9726 Y25.4321 Z-0.2801
G1 X-72.9768 Y25.4369 Z-0.2842
G1 X-72.9804 Y25.4415 Z-0.2879
G1 X-72.9838 Y25.4467 Z-0.2919
G1 X-72.9871 Y25.4521 Z-0.296
G1 X-72.99 Y25.4578 Z-0.3
G1 X-72.9924 Y25.4634 Z-0.3039
G1 X-72.9945 Y25.4692 Z-0.3079
G1 X-72.9963 Y25.4756 Z-0.3121
G1 X-72.9977 Y25.4816 Z-0.3161
G1 X-72.9986 Y25.4872 Z-0.3197
G1 X-72.9992 Y25.4934 Z-0.3237
G1 X-72.9994 Y25.5 Z-0.3279
G1 X-72.9992 Y25.5066 Z-0.3322
G1 X-72.9986 Y25.5128 Z-0.3362
G1 X-72.9977 Y25.5184 Z-0.3398
G1 X-72.9963 Y25.5244 Z-0.3438
G1 X-72.9945 Y25.5308 Z-0.348
G1 X-72.9924 Y25.5366 Z-0.352
G1 X-72.99 Y25.5422 Z-0.3559
G1 X-72.9871 Y25.5479 Z-0.3599
G1 X-72.9838 Y25.5533 Z-0.364
G1 X-72.9804 Y25.5585 Z-0.368
G1 X-72.9768 Y25.5631 Z-0.3717
G1 X-72.9726 Y25.5679 Z-0.3758
G1 X-72.9679 Y25.5726 Z-0.3801
G1 X-72.9631 Y25.5768 Z-0.3842
G1 X-72.9585 Y25.5804 Z-0.3879
G1 X-72.9533 Y25.5838 Z-0.3919
G1 X-72.9479 Y25.5871 Z-0.396
G1 X-72.9422 Y25.59 Z-0.4
G1 X-72.9366 Y25.5924 Z-0.4039
G1 X-72.9308 Y25.5945 Z-0.4079
G1 X-72.9244 Y25.5963 Z-0.4121
G1 X-72.9184 Y25.5977 Z-0.4161
G1 X-72.9128 Y25.5986 Z-0.4197
G1 X-72.9066 Y25.5992 Z-0.4237
G1 X-72.9 Y25.5994 Z-0.4279
G1 X-72.8934 Y25.5992 Z-0.4322
G1 X-72.8872 Y25.5986 Z-0.4362
G1 X-72.8816 Y25.5977 Z-0.4398
G1 X-72.8756 Y25.5963 Z-0.4438
G1 X-72.8692 Y25.5945 Z-0.448
G1 X-72.8634 Y25.5924 Z-0.452
G1 X-72.8578 Y25.59 Z-0.4559
G1 X-72.8521 Y25.5871 Z-0.4599
G1 X-72.8467 Y25.5838 Z-0.464
G1 X-72.8415 Y25.5804 Z-0.468
G1 X-72.8369 Y25.5768 Z-0.4717
G1 X-72.8321 Y25.5726 Z-0.4758
G1 X-72.8274 Y25.5679 Z-0.4801
G1 X-72.8232 Y25.5631 Z-0.4842
G1 X-72.8196 Y25.5585 Z-0.4879
G1 X-72.8162 Y25.5533 Z-0.4919
G1 X-72.8129 Y25.5479 Z-0.496
G1 X-72.81 Y25.5422 Z-0.5
G1 X-72.8076 Y25.5366 Z-0.5039
G1 X-72.8055 Y25.5308 Z-0.5079
G1 X-72.8037 Y25.5244 Z-0.5121
G1 X-72.8023 Y25.5184 Z-0.5161
G1 X-72.8014 Y25.5128 Z-0.5197
G1 X-72.8008 Y25.5066 Z-0.5237
G1 X-72.8006 Y25.5 Z-0.5279
G1 X-72.8008 Y25.4934 Z-0.5322
G1 X-72.8014 Y25.4872 Z-0.5362
G1 X-72.8023 Y25.4816 Z-0.5398
G1 X-72.8037 Y25.4756 Z-0.5438
G1 X-72.8055 Y25.4692 Z-0.548
G1 X-72.8076 Y25.4634 Z-0.552
G1 X-72.81 Y25.4578 Z-0.5559
G1 X-72.8129 Y25.4521 Z-0.5599
G1 X-72.8162 Y25.4467 Z-0.564
G1 X-72.8196 Y25.4415 Z-0.568
G1 X-72.8232 Y25.4369 Z-0.5717
G1 X-72.8274 Y25.4321 Z-0.5758
G1 X-72.8321 Y25.4274 Z-0.5801
G1 X-72.8369 Y25.4232 Z-0.5842
G1 X-72.8415 Y25.4196 Z-0.5879
G1 X-72.8467 Y25.4162 Z-0.5919
G1 X-72.8521 Y25.4129 Z-0.596
G1 X-72.8578 Y25.41 Z-0.6
G1 X-72.8634 Y25.4076 Z-0.6039
G1 X-72.8692 Y25.4055 Z-0.6079
G1 X-72.8756 Y25.4037 Z-0.6121
G1 X-72.8816 Y25.4023 Z-0.6161
G1 X-72.8872 Y25.4014 Z-0.6197
G1 X-72.8934 Y25.4008 Z-0.6237
G1 X-72.9 Y25.4006 Z-0.6279
G1 X-72.9066 Y25.4008 Z-0.6322
G1 X-72.9128 Y25.4014 Z-0.6362
G1 X-72.9184 Y25.4023 Z-0.6398
G1 X-72.9244 Y25.4037 Z-0.6438
G1 X-72.9308 Y25.4055 Z-0.648
G1 X-72.9366 Y25.4076 Z-0.652
G1 X-72.9422 Y25.41 Z-0.6559
G1 X-72.9479 Y25.4129 Z-0.6599
G1 X-72.9533 Y25.4162 Z-0.664
G1 X-72.9585 Y25.4196 Z-0.668
G1 X-72.9631 Y25.4232 Z-0.6717
G1 X-72.9679 Y25.4274 Z-0.6758
G1 X-72.9726 Y25.4321 Z-0.6801
G1 X-72.9768 Y25.4369 Z-0.6842
G1 X-72.9804 Y25.4415 Z-0.6879
G1 X-72.9838 Y25.4467 Z-0.6919
G1 X-72.9871 Y25.4521 Z-0.696
G1 X-72.99 Y25.4578 Z-0.7
G1 X-72.9924 Y25.4634 Z-0.7039
G1 X-72.9945 Y25.4692 Z-0.7079
G1 X-72.9963 Y25.4756 Z-0.7121
G1 X-72.9977 Y25.4816 Z-0.7161
G1 X-72.9986 Y25.4872 Z-0.7197
G1 X-72.9992 Y25.4934 Z-0.7237
G1 X-72.9994 Y25.5 Z-0.7279
G1 X-72.9992 Y25.5066 Z-0.7322
G1 X-72.9986 Y25.5128 Z-0.7362
G1 X-72.9977 Y25.5184 Z-0.7398
G1 X-72.9963 Y25.5244 Z-0.7438
G1 X-72.9945 Y25.5308 Z-0.748
G1 X-72.9924 Y25.5366 Z-0.752
G1 X-72.99 Y25.5422 Z-0.7559
G1 X-72.9871 Y25.5479 Z-0.7599
G1 X-72.9838 Y25.5533 Z-0.764
G1 X-72.9804 Y25.5585 Z-0.768
G1 X-72.9768 Y25.5631 Z-0.7717
G1 X-72.9726 Y25.5679 Z-0.7758
G1 X-72.9679 Y25.5726 Z-0.7801
G1 X-72.9631 Y25.5768 Z-0.7842
G1 X-72.9585 Y25.5804 Z-0.7879
G1 X-72.9533 Y25.5838 Z-0.7919
G1 X-72.9479 Y25.5871 Z-0.796
G1 X-72.9422 Y25.59 Z-0.8
G1 X-72.9366 Y25.5924 Z-0.8039
G1 X-72.9308 Y25.5945 Z-0.8079
G1 X-72.9244 Y25.5963 Z-0.8121
G1 X-72.9184 Y25.5977 Z-0.8161
G1 X-72.9128 Y25.5986 Z-0.8197
G1 X-72.9066 Y25.5992 Z-0.8237
G1 X-72.9 Y25.5994 Z-0.8279
G1 X-72.8934 Y25.5992 Z-0.8322
G1 X-72.8872 Y25.5986 Z-0.8362
G1 X-72.8816 Y25.5977 Z-0.8398
G1 X-72.8756 Y25.5963 Z-0.8438
G1 X-72.8692 Y25.5945 Z-0.848
G1 X-72.8634 Y25.5924 Z-0.852
G1 X-72.8578 Y25.59 Z-0.8559
G1 X-72.8521 Y25.5871 Z-0.8599
G1 X-72.8467 Y25.5838 Z-0.864
G1 X-72.8415 Y25.5804 Z-0.868
G1 X-72.8369 Y25.5768 Z-0.8717
G1 X-72.8321 Y25.5726 Z-0.8758
G1 X-72.8274 Y25.5679 Z-0.8801
G1 X-72.8232 Y25.5631 Z-0.8842
G1 X-72.8196 Y25.5585 Z-0.8879
G1 X-72.8162 Y25.5533 Z-0.8919
G1 X-72.8129 Y25.5479 Z-0.896
G1 X-72.81 Y25.5422 Z-0.9
G1 X-72.8076 Y25.5366 Z-0.9039
G1 X-72.8055 Y25.5308 Z-0.9079
G1 X-72.8037 Y25.5244 Z-0.9121
G1 X-72.8023 Y25.5184 Z-0.9161
G1 X-72.8014 Y25.5128 Z-0.9197
G1 X-72.8008 Y25.5066 Z-0.9237
G1 X-72.8006 Y25.5 Z-0.9279
G1 X-72.8008 Y25.4934 Z-0.9322
G1 X-72.8014 Y25.4872 Z-0.9362
G1 X-72.8023 Y25.4816 Z-0.9398
G1 X-72.8037 Y25.4756 Z-0.9438
G1 X-72.8055 Y25.4692 Z-0.948
G1 X-72.8076 Y25.4634 Z-0.952
G1 X-72.81 Y25.4578 Z-0.9559
G1 X-72.8129 Y25.4521 Z-0.9599
G1 X-72.8162 Y25.4467 Z-0.964
G1 X-72.8196 Y25.4415 Z-0.968
G1 X-72.8232 Y25.4369 Z-0.9717
G1 X-72.8274 Y25.4321 Z-0.9758
G1 X-72.8321 Y25.4274 Z-0.9801
G1 X-72.8369 Y25.4232 Z-0.9842
G1 X-72.8415 Y25.4196 Z-0.9879
G1 X-72.8467 Y25.4162 Z-0.9919
G1 X-72.8521 Y25.4129 Z-0.996
G1 X-72.8578 Y25.41 Z-1.0
G1 X-72.8634 Y25.4076 Z-1.0039
G1 X-72.8692 Y25.4055 Z-1.0079
G1 X-72.8756 Y25.4037 Z-1.0121
G1 X-72.8816 Y25.4023 Z-1.0161
G1 X-72.8872 Y25.4014 Z-1.0197
G1 X-72.8934 Y25.4008 Z-1.0237
G1 X-72.9 Y25.4006 Z-1.0279
G1 X-72.9066 Y25.4008 Z-1.0322
G1 X-72.9128 Y25.4014 Z-1.0362
G1 X-72.9184 Y25.4023 Z-1.0398
G1 X-72.9244 Y25.4037 Z-1.0438
G1 X-72.9308 Y25.4055 Z-1.048
G1 X-72.9366 Y25.4076 Z-1.052
G1 X-72.9422 Y25.41 Z-1.0559
G1 X-72.9479 Y25.4129 Z-1.0599
G1 X-72.9533 Y25.4162 Z-1.064
G1 X-72.9585 Y25.4196 Z-1.068
G1 X-72.9631 Y25.4232 Z-1.0717
G1 X-72.9679 Y25.4274 Z-1.0758
G1 X-72.9726 Y25.4321 Z-1.0801
G1 X-72.9768 Y25.4369 Z-1.0842
G1 X-72.9804 Y25.4415 Z-1.0879
G1 X-72.9838 Y25.4467 Z-1.0919
G1 X-72.9871 Y25.4521 Z-1.096
G1 X-72.99 Y25.4578 Z-1.1
G1 X-72.9924 Y25.4634 Z-1.1039
G1 X-72.9945 Y25.4692 Z-1.1079
G1 X-72.9963 Y25.4756 Z-1.1121
G1 X-72.9977 Y25.4816 Z-1.1161
G1 X-72.9986 Y25.4872 Z-1.1197
G1 X-72.9992 Y25.4934 Z-1.1237
G1 X-72.9994 Y25.5 Z-1.1279
G1 X-72.9992 Y25.5066 Z-1.1322
G1 X-72.9986 Y25.5128 Z-1.1362
G1 X-72.9977 Y25.5184 Z-1.1398
G1 X-72.9963 Y25.5244 Z-1.1438
G1 X-72.9945 Y25.5308 Z-1.148
G1 X-72.9924 Y25.5366 Z-1.152
G1 X-72.99 Y25.5422 Z-1.1559
G1 X-72.9871 Y25.5479 Z-1.1599
G1 X-72.9838 Y25.5533 Z-1.164
G1 X-72.9804 Y25.5585 Z-1.168
G1 X-72.9768 Y25.5631 Z-1.1717
G1 X-72.9726 Y25.5679 Z-1.1758
G1 X-72.9679 Y25.5726 Z-1.1801
G1 X-72.9631 Y25.5768 Z-1.1842
G1 X-72.9585 Y25.5804 Z-1.1879
G1 X-72.9533 Y25.5838 Z-1.1919
G1 X-72.9479 Y25.5871 Z-1.196
G1 X-72.9422 Y25.59 Z-1.2
G1 X-72.9366 Y25.5924 Z-1.2039
G1 X-72.9308 Y25.5945 Z-1.2079
G1 X-72.9244 Y25.5963 Z-1.2121
G1 X-72.9184 Y25.5977 Z-1.2161
G1 X-72.9128 Y25.5986 Z-1.2197
G1 X-72.9066 Y25.5992 Z-1.2237
G1 X-72.9 Y25.5994 Z-1.2279
G1 X-72.8934 Y25.5992 Z-1.2322
G1 X-72.8872 Y25.5986 Z-1.2362
G1 X-72.8816 Y25.5977 Z-1.2398
G1 X-72.8756 Y25.5963 Z-1.2438
G1 X-72.8692 Y25.5945 Z-1.248
G1 X-72.8634 Y25.5924 Z-1.252
G1 X-72.8578 Y25.59 Z-1.2559
G1 X-72.8521 Y25.5871 Z-1.2599
G1 X-72.8467 Y25.5838 Z-1.264
G1 X-72.8415 Y25.5804 Z-1.268
G1 X-72.8369 Y25.5768 Z-1.2717
G1 X-72.8321 Y25.5726 Z-1.2758
G1 X-72.8274 Y25.5679 Z-1.2801
G1 X-72.8232 Y25.5631 Z-1.2842
G1 X-72.8196 Y25.5585 Z-1.2879
G1 X-72.8162 Y25.5533 Z-1.2919
G1 X-72.8129 Y25.5479 Z-1.296
G1 X-72.81 Y25.5422 Z-1.3
G1 X-72.8076 Y25.5366 Z-1.3039
G1 X-72.8055 Y25.5308 Z-1.3079
G1 X-72.8037 Y25.5244 Z-1.3121
G1 X-72.8023 Y25.5184 Z-1.3161
G1 X-72.8014 Y25.5128 Z-1.3197
G1 X-72.8008 Y25.5066 Z-1.3237
G1 X-72.8006 Y25.5 Z-1.3279
G1 X-72.8008 Y25.4934 Z-1.3322
G1 X-72.8014 Y25.4872 Z-1.3362
G1 X-72.8023 Y25.4816 Z-1.3398
G1 X-72.8037 Y25.4756 Z-1.3438
G1 X-72.8055 Y25.4692 Z-1.348
G1 X-72.8076 Y25.4634 Z-1.352
G1 X-72.81 Y25.4578 Z-1.3559
G1 X-72.8129 Y25.4521 Z-1.3599
G1 X-72.8162 Y25.4467 Z-1.364
G1 X-72.8196 Y25.4415 Z-1.368
G1 X-72.8232 Y25.4369 Z-1.3717
G1 X-72.8274 Y25.4321 Z-1.3758
G1 X-72.8321 Y25.4274 Z-1.3801
G1 X-72.8369 Y25.4232 Z-1.3842
G1 X-72.8415 Y25.4196 Z-1.3879
G1 X-72.8467 Y25.4162 Z-1.3919
G1 X-72.8521 Y25.4129 Z-1.396
G1 X-72.8578 Y25.41 Z-1.4
G1 X-72.8634 Y25.4076 Z-1.4039
G1 X-72.8692 Y25.4055 Z-1.4079
G1 X-72.8756 Y25.4037 Z-1.4121
G1 X-72.8816 Y25.4023 Z-1.4161
G1 X-72.8872 Y25.4014 Z-1.4197
G1 X-72.8934 Y25.4008 Z-1.4237
G1 X-72.9 Y25.4006 Z-1.4279
G1 X-72.9066 Y25.4008 Z-1.4322
G1 X-72.9128 Y25.4014 Z-1.4362
G1 X-72.9184 Y25.4023 Z-1.4398
G1 X-72.9244 Y25.4037 Z-1.4438
G1 X-72.9308 Y25.4055 Z-1.448
G1 X-72.9366 Y25.4076 Z-1.452
G1 X-72.9422 Y25.41 Z-1.4559
G1 X-72.9479 Y25.4129 Z-1.4599
G1 X-72.9533 Y25.4162 Z-1.464
G1 X-72.9585 Y25.4196 Z-1.468
G1 X-72.9631 Y25.4232 Z-1.4717
G1 X-72.9679 Y25.4274 Z-1.4758
G1 X-72.9726 Y25.4321 Z-1.4801
G1 X-72.9768 Y25.4369 Z-1.4842
G1 X-72.9804 Y25.4415 Z-1.4879
G1 X-72.9838 Y25.4467 Z-1.4919
G1 X-72.9871 Y25.4521 Z-1.496
G1 X-72.99 Y25.4578 Z-1.5
G1 X-72.9924 Y25.4634 Z-1.5039
G1 X-72.9945 Y25.4692 Z-1.5079
G1 X-72.9963 Y25.4756 Z-1.5121
G1 X-72.9977 Y25.4816 Z-1.5161
G1 X-72.9986 Y25.4872 Z-1.5197
G1 X-72.9992 Y25.4934 Z-1.5237
G1 X-72.9994 Y25.5 Z-1.5279
G1 X-72.9992 Y25.5066 Z-1.5322
G1 X-72.9986 Y25.5128 Z-1.5362
G1 X-72.9977 Y25.5184 Z-1.5398
G1 X-72.9963 Y25.5244 Z-1.5438
G1 X-72.9945 Y25.5308 Z-1.548
G1 X-72.9924 Y25.5366 Z-1.552
G1 X-72.99 Y25.5422 Z-1.5559
G1 X-72.9871 Y25.5479 Z-1.5599
G1 X-72.9838 Y25.5533 Z-1.564
G1 X-72.9804 Y25.5585 Z-1.568
G1 X-72.9768 Y25.5631 Z-1.5717
G1 X-72.9726 Y25.5679 Z-1.5758
G1 X-72.9679 Y25.5726 Z-1.5801
G1 X-72.9631 Y25.5768 Z-1.5842
G1 X-72.9585 Y25.5804 Z-1.5879
G1 X-72.9533 Y25.5838 Z-1.5919
G1 X-72.9479 Y25.5871 Z-1.596
G1 X-72.9422 Y25.59 Z-1.6
G1 X-72.9366 Y25.5924 Z-1.6039
G1 X-72.9308 Y25.5945 Z-1.6079
G1 X-72.9244 Y25.5963 Z-1.6121
G1 X-72.9184 Y25.5977 Z-1.6161
G1 X-72.9128 Y25.5986 Z-1.6197
G1 X-72.9066 Y25.5992 Z-1.6237
G1 X-72.9 Y25.5994 Z-1.6279
G1 X-72.8934 Y25.5992 Z-1.6322
G1 X-72.8872 Y25.5986 Z-1.6362
G1 X-72.8816 Y25.5977 Z-1.6398
G1 X-72.8756 Y25.5963 Z-1.6438
G1 X-72.8692 Y25.5945 Z-1.648
G1 X-72.8634 Y25.5924 Z-1.652
G1 X-72.8578 Y25.59 Z-1.6559
G1 X-72.8521 Y25.5871 Z-1.6599
G1 X-72.8467 Y25.5838 Z-1.664
G1 X-72.8415 Y25.5804 Z-1.668
G1 X-72.8369 Y25.5768 Z-1.6717
G1 X-72.8321 Y25.5726 Z-1.6758
G1 X-72.8274 Y25.5679 Z-1.6801
G1 X-72.8232 Y25.5631 Z-1.6842
G1 X-72.8196 Y25.5585 Z-1.6879
G1 X-72.8162 Y25.5533 Z-1.6919
G1 X-72.8129 Y25.5479 Z-1.696
G1 X-72.81 Y25.5422 Z-1.7
G1 X-72.8076 Y25.5366 Z-1.7039
G1 X-72.8055 Y25.5308 Z-1.7079
G1 X-72.8037 Y25.5244 Z-1.7121
G1 X-72.8023 Y25.5184 Z-1.7161
G1 X-72.8014 Y25.5128 Z-1.7197
G1 X-72.8008 Y25.5066 Z-1.7237
G1 X-72.8006 Y25.5 Z-1.7279
G1 X-72.8008 Y25.4934 Z-1.7322
G1 X-72.8014 Y25.4872 Z-1.7362
G1 X-72.8023 Y25.4816 Z-1.7398
G1 X-72.8037 Y25.4756 Z-1.7438
G1 X-72.8055 Y25.4692 Z-1.748
G1 X-72.8076 Y25.4634 Z-1.752
G1 X-72.81 Y25.4578 Z-1.7559
G1 X-72.8129 Y25.4521 Z-1.7599
G1 X-72.8162 Y25.4467 Z-1.764
G1 X-72.8196 Y25.4415 Z-1.768
G1 X-72.8232 Y25.4369 Z-1.7717
G1 X-72.8274 Y25.4321 Z-1.7758
G1 X-72.8321 Y25.4274 Z-1.7801
G1 X-72.8369 Y25.4232 Z-1.7842
G1 X-72.8415 Y25.4196 Z-1.7879
G1 X-72.8467 Y25.4162 Z-1.7919
G1 X-72.8521 Y25.4129 Z-1.796
G1 X-72.8578 Y25.41 Z-1.8
G1 X-72.8634 Y25.4076 Z-1.8039
G1 X-72.8692 Y25.4055 Z-1.8079
G1 X-72.8756 Y25.4037 Z-1.8121
G1 X-72.8816 Y25.4023 Z-1.8161
G1 X-72.8872 Y25.4014 Z-1.8197
G1 X-72.8934 Y25.4008 Z-1.8237
G1 X-72.9 Y25.4006 Z-1.8279
G1 X-72.9066 Y25.4008 Z-1.8322
G1 X-72.9128 Y25.4014 Z-1.8362
G1 X-72.9184 Y25.4023 Z-1.8398
G1 X-72.9244 Y25.4037 Z-1.8438
G1 X-72.9308 Y25.4055 Z-1.848
G1 X-72.9366 Y25.4076 Z-1.852
G1 X-72.9422 Y25.41 Z-1.8559
G1 X-72.9479 Y25.4129 Z-1.8599
G1 X-72.9533 Y25.4162 Z-1.864
G1 X-72.9585 Y25.4196 Z-1.868
G1 X-72.9631 Y25.4232 Z-1.8717
G1 X-72.9679 Y25.4274 Z-1.8758
G1 X-72.9726 Y25.4321 Z-1.8801
G1 X-72.9768 Y25.4369 Z-1.8842
G1 X-72.9804 Y25.4415 Z-1.8879
G1 X-72.9838 Y25.4467 Z-1.8919
G1 X-72.9871 Y25.4521 Z-1.896
G1 X-72.99 Y25.4578 Z-1.9
G1 X-72.9924 Y25.4634 Z-1.9039
G1 X-72.9945 Y25.4692 Z-1.9079
G1 X-72.9963 Y25.4756 Z-1.9121
G1 X-72.9977 Y25.4816 Z-1.9161
G1 X-72.9986 Y25.4872 Z-1.9197
G1 X-72.9992 Y25.4934 Z-1.9237
G1 X-72.9994 Y25.5 Z-1.9279
G1 X-72.9992 Y25.5066 Z-1.9322
G1 X-72.9986 Y25.5128 Z-1.9362
G1 X-72.9977 Y25.5184 Z-1.9398
G1 X-72.9963 Y25.5244 Z-1.9438
G1 X-72.9945 Y25.5308 Z-1.948
G1 X-72.9924 Y25.5366 Z-1.952
G1 X-72.99 Y25.5422 Z-1.9559
G1 X-72.9871 Y25.5479 Z-1.9599
G1 X-72.9838 Y25.5533 Z-1.964
G1 X-72.9804 Y25.5585 Z-1.968
G1 X-72.9768 Y25.5631 Z-1.9717
G1 X-72.9726 Y25.5679 Z-1.9758
G1 X-72.9679 Y25.5726 Z-1.9801
G1 X-72.9631 Y25.5768 Z-1.9842
G1 X-72.9585 Y25.5804 Z-1.9879
G1 X-72.9533 Y25.5838 Z-1.9919
G1 X-72.9479 Y25.5871 Z-1.996
G1 X-72.9422 Y25.59 Z-2.0
G1 X-72.9366 Y25.5924 Z-2.0039
G1 X-72.9308 Y25.5945 Z-2.0079
G1 X-72.9244 Y25.5963 Z-2.0121
G1 X-72.9184 Y25.5977 Z-2.0161
G1 X-72.9128 Y25.5986 Z-2.0197
G1 X-72.9066 Y25.5992 Z-2.0237
G1 X-72.9 Y25.5994 Z-2.0279
G1 X-72.8934 Y25.5992 Z-2.0322
G1 X-72.8872 Y25.5986 Z-2.0362
G1 X-72.8816 Y25.5977 Z-2.0398
G1 X-72.8756 Y25.5963 Z-2.0438
G1 X-72.8692 Y25.5945 Z-2.048
G1 X-72.8634 Y25.5924 Z-2.052
G1 X-72.8578 Y25.59 Z-2.0559
G1 X-72.8521 Y25.5871 Z-2.0599
G1 X-72.8467 Y25.5838 Z-2.064
G1 X-72.8415 Y25.5804 Z-2.068
G1 X-72.8369 Y25.5768 Z-2.0717
G1 X-72.8321 Y25.5726 Z-2.0758
G1 X-72.8274 Y25.5679 Z-2.0801
G1 X-72.8232 Y25.5631 Z-2.0842
G1 X-72.8196 Y25.5585 Z-2.0879
G1 X-72.8162 Y25.5533 Z-2.0919
G1 X-72.8129 Y25.5479 Z-2.096
G1 X-72.81 Y25.5422 Z-2.1
G1 X-72.8076 Y25.5366 Z-2.1039
G1 X-72.8055 Y25.5308 Z-2.1079
G1 X-72.8037 Y25.5244 Z-2.1121
G1 X-72.8023 Y25.5184 Z-2.1161
G1 X-72.8014 Y25.5128 Z-2.1197
G1 X-72.8008 Y25.5066 Z-2.1237
G1 X-72.8006 Y25.5 Z-2.1279
G1 X-72.8008 Y25.4934 Z-2.1322
G1 X-72.8014 Y25.4872 Z-2.1362
G1 X-72.8023 Y25.4816 Z-2.1398
G1 X-72.8037 Y25.4756 Z-2.1438
G1 X-72.8055 Y25.4692 Z-2.148
G1 X-72.8076 Y25.4634 Z-2.152
G1 X-72.81 Y25.4578 Z-2.1559
G1 X-72.8129 Y25.4521 Z-2.1599
G1 X-72.8162 Y25.4467 Z-2.164
G1 X-72.8196 Y25.4415 Z-2.168
G1 X-72.8232 Y25.4369 Z-2.1717
G1 X-72.8274 Y25.4321 Z-2.1758
G1 X-72.8321 Y25.4274 Z-2.1801
G1 X-72.8369 Y25.4232 Z-2.1842
G1 X-72.8415 Y25.4196 Z-2.1879
G1 X-72.8467 Y25.4162 Z-2.1919
G1 X-72.8521 Y25.4129 Z-2.196
G1 X-72.8578 Y25.41 Z-2.2
G1 X-72.8634 Y25.4076 Z-2.2039
G1 X-72.8692 Y25.4055 Z-2.2079
G1 X-72.8756 Y25.4037 Z-2.2121
G1 X-72.8816 Y25.4023 Z-2.2161
G1 X-72.8872 Y25.4014 Z-2.2197
G1 X-72.8934 Y25.4008 Z-2.2237
G1 X-72.9 Y25.4006 Z-2.2279
G1 X-72.9066 Y25.4008 Z-2.2322
G1 X-72.9128 Y25.4014 Z-2.2362
G1 X-72.9184 Y25.4023 Z-2.2398
G1 X-72.9244 Y25.4037 Z-2.2438
G1 X-72.9308 Y25.4055 Z-2.248
G1 X-72.9366 Y25.4076 Z-2.252
G1 X-72.9422 Y25.41 Z-2.2559
G1 X-72.9479 Y25.4129 Z-2.2599
G1 X-72.9533 Y25.4162 Z-2.264
G1 X-72.9585 Y25.4196 Z-2.268
G1 X-72.9631 Y25.4232 Z-2.2717
G1 X-72.9679 Y25.4274 Z-2.2758
G1 X-72.9726 Y25.4321 Z-2.2801
G1 X-72.9768 Y25.4369 Z-2.2842
G1 X-72.9804 Y25.4415 Z-2.2879
G1 X-72.9838 Y25.4467 Z-2.2919
G1 X-72.9871 Y25.4521 Z-2.296
G1 X-72.99 Y25.4578 Z-2.3
G1 X-72.9924 Y25.4634 Z-2.3039
G1 X-72.9945 Y25.4692 Z-2.3079
G1 X-72.9963 Y25.4756 Z-2.3121
G1 X-72.9977 Y25.4816 Z-2.3161
G1 X-72.9986 Y25.4872 Z-2.3197
G1 X-72.9992 Y25.4934 Z-2.3237
G1 X-72.9994 Y25.5 Z-2.3279
G1 X-72.9992 Y25.5066 Z-2.3322
G1 X-72.9986 Y25.5128 Z-2.3362
G1 X-72.9977 Y25.5184 Z-2.3398
G1 X-72.9963 Y25.5244 Z-2.3438
G1 X-72.9945 Y25.5308 Z-2.348
G1 X-72.9924 Y25.5366 Z-2.352
G1 X-72.99 Y25.5422 Z-2.3559
G1 X-72.9871 Y25.5479 Z-2.3599
G1 X-72.9838 Y25.5533 Z-2.364
G1 X-72.9804 Y25.5585 Z-2.368
G1 X-72.9768 Y25.5631 Z-2.3717
G1 X-72.9726 Y25.5679 Z-2.3758
G1 X-72.9679 Y25.5726 Z-2.3801
G1 X-72.9631 Y25.5768 Z-2.3842
G1 X-72.9585 Y25.5804 Z-2.3879
G1 X-72.9533 Y25.5838 Z-2.3919
G1 X-72.9479 Y25.5871 Z-2.396
G1 X-72.9422 Y25.59 Z-2.4
G1 X-72.9366 Y25.5924 Z-2.4039
G1 X-72.9308 Y25.5945 Z-2.4079
G1 X-72.9244 Y25.5963 Z-2.4121
G1 X-72.9184 Y25.5977 Z-2.4161
G1 X-72.9128 Y25.5986 Z-2.4197
G1 X-72.9066 Y25.5992 Z-2.4237
G1 X-72.9 Y25.5994 Z-2.4279
G1 X-72.8934 Y25.5992 Z-2.4322
G1 X-72.8872 Y25.5986 Z-2.4362
G1 X-72.8816 Y25.5977 Z-2.4398
G1 X-72.8756 Y25.5963 Z-2.4438
G1 X-72.8692 Y25.5945 Z-2.448
G1 X-72.8634 Y25.5924 Z-2.452
G1 X-72.8578 Y25.59 Z-2.4559
G1 X-72.8521 Y25.5871 Z-2.4599
G1 X-72.8467 Y25.5838 Z-2.464
G1 X-72.8415 Y25.5804 Z-2.468
G1 X-72.8369 Y25.5768 Z-2.4717
G1 X-72.8321 Y25.5726 Z-2.4758
G1 X-72.8274 Y25.5679 Z-2.4801
G1 X-72.8232 Y25.5631 Z-2.4842
G1 X-72.8196 Y25.5585 Z-2.4879
G1 X-72.8162 Y25.5533 Z-2.4919
G1 X-72.8129 Y25.5479 Z-2.496
G1 X-72.81 Y25.5422 Z-2.5
G1 X-72.8076 Y25.5366 Z-2.5039
G1 X-72.8055 Y25.5308 Z-2.5079
G1 X-72.8037 Y25.5244 Z-2.5121
G1 X-72.8023 Y25.5184 Z-2.5161
G1 X-72.8014 Y25.5128 Z-2.5197
G1 X-72.8008 Y25.5066 Z-2.5237
G1 X-72.8006 Y25.5 Z-2.5279
G1 X-72.8008 Y25.4934 Z-2.5322
G1 X-72.8014 Y25.4872 Z-2.5362
G1 X-72.8023 Y25.4816 Z-2.5398
G1 X-72.8037 Y25.4756 Z-2.5438
G1 X-72.8055 Y25.4692 Z-2.548
G1 X-72.8076 Y25.4634 Z-2.552
G1 X-72.81 Y25.4578 Z-2.5559
G1 X-72.8129 Y25.4521 Z-2.5599
G1 X-72.8162 Y25.4467 Z-2.564
G1 X-72.8196 Y25.4415 Z-2.568
G1 X-72.8232 Y25.4369 Z-2.5717
G1 X-72.8274 Y25.4321 Z-2.5758
G1 X-72.8321 Y25.4274 Z-2.5801
G1 X-72.8369 Y25.4232 Z-2.5842
G1 X-72.8415 Y25.4196 Z-2.5879
G1 X-72.8467 Y25.4162 Z-2.5919
G1 X-72.8521 Y25.4129 Z-2.596
G1 X-72.8578 Y25.41 Z-2.6
G1 X-72.8634 Y25.4076 Z-2.6039
G1 X-72.8692 Y25.4055 Z-2.6079
G1 X-72.8756 Y25.4037 Z-2.6121
G1 X-72.8816 Y25.4023 Z-2.6161
G1 X-72.8872 Y25.4014 Z-2.6197
G1 X-72.8934 Y25.4008 Z-2.6237
G1 X-72.9 Y25.4006 Z-2.6279
G1 X-72.9066 Y25.4008 Z-2.6322
G1 X-72.9128 Y25.4014 Z-2.6362
G1 X-72.9184 Y25.4023 Z-2.6398
G1 X-72.9244 Y25.4037 Z-2.6438
G1 X-72.9308 Y25.4055 Z-2.648
G1 X-72.9366 Y25.4076 Z-2.652
G1 X-72.9422 Y25.41 Z-2.6559
G1 X-72.9479 Y25.4129 Z-2.6599
G1 X-72.9533 Y25.4162 Z-2.664
G1 X-72.9585 Y25.4196 Z-2.668
G1 X-72.9631 Y25.4232 Z-2.6717
G1 X-72.9679 Y25.4274 Z-2.6758
G1 X-72.9726 Y25.4321 Z-2.6801
G1 X-72.9768 Y25.4369 Z-2.6842
G1 X-72.9804 Y25.4415 Z-2.6879
G1 X-72.9838 Y25.4467 Z-2.6919
G1 X-72.9871 Y25.4521 Z-2.696
G1 X-72.99 Y25.4578 Z-2.7
G1 X-72.9924 Y25.4634 Z-2.7039
G1 X-72.9945 Y25.4692 Z-2.7079
G1 X-72.9963 Y25.4756 Z-2.7121
G1 X-72.9977 Y25.4816 Z-2.7161
G1 X-72.9986 Y25.4872 Z-2.7197
G1 X-72.9992 Y25.4934 Z-2.7237
G1 X-72.9994 Y25.5 Z-2.7279
G1 X-72.9992 Y25.5066 Z-2.7322
G1 X-72.9986 Y25.5128 Z-2.7362
G1 X-72.9977 Y25.5184 Z-2.7398
G1 X-72.9963 Y25.5244 Z-2.7438
G1 X-72.9945 Y25.5308 Z-2.748
G1 X-72.9924 Y25.5366 Z-2.752
G1 X-72.99 Y25.5422 Z-2.7559
G1 X-72.9871 Y25.5479 Z-2.7599
G1 X-72.9838 Y25.5533 Z-2.764
G1 X-72.9804 Y25.5585 Z-2.768
G1 X-72.9768 Y25.5631 Z-2.7717
G1 X-72.9726 Y25.5679 Z-2.7758
G1 X-72.9679 Y25.5726 Z-2.7801
G1 X-72.9631 Y25.5768 Z-2.7842
G1 X-72.9585 Y25.5804 Z-2.7879
G1 X-72.9533 Y25.5838 Z-2.7919
G1 X-72.9479 Y25.5871 Z-2.796
G1 X-72.9422 Y25.59 Z-2.8
G1 X-72.9366 Y25.5924 Z-2.8039
G1 X-72.9308 Y25.5945 Z-2.8079
G1 X-72.9244 Y25.5963 Z-2.8121
G1 X-72.9184 Y25.5977 Z-2.8161
G1 X-72.9128 Y25.5986 Z-2.8197
G1 X-72.9066 Y25.5992 Z-2.8237
G1 X-72.9 Y25.5994 Z-2.8279
G1 X-72.8934 Y25.5992 Z-2.8322
G1 X-72.8872 Y25.5986 Z-2.8362
G1 X-72.8816 Y25.5977 Z-2.8398
G1 X-72.8756 Y25.5963 Z-2.8438
G1 X-72.8692 Y25.5945 Z-2.848
G1 X-72.8634 Y25.5924 Z-2.852
G1 X-72.8578 Y25.59 Z-2.8559
G1 X-72.8521 Y25.5871 Z-2.8599
G1 X-72.8467 Y25.5838 Z-2.864
G1 X-72.8415 Y25.5804 Z-2.868
G1 X-72.8369 Y25.5768 Z-2.8717
G1 X-72.8321 Y25.5726 Z-2.8758
G1 X-72.8274 Y25.5679 Z-2.8801
G1 X-72.8232 Y25.5631 Z-2.8842
G1 X-72.8196 Y25.5585 Z-2.8879
G1 X-72.8162 Y25.5533 Z-2.8919
G1 X-72.8129 Y25.5479 Z-2.896
G1 X-72.81 Y25.5422 Z-2.9
G1 X-72.8076 Y25.5366 Z-2.9039
G1 X-72.8055 Y25.5308 Z-2.9079
G1 X-72.8037 Y25.5244 Z-2.9121
G1 X-72.8023 Y25.5184 Z-2.9161
G1 X-72.8014 Y25.5128 Z-2.9197
G1 X-72.8008 Y25.5066 Z-2.9237
G1 X-72.8006 Y25.5 Z-2.9279
G1 X-72.8008 Y25.4934 Z-2.9322
G1 X-72.8014 Y25.4872 Z-2.9362
G1 X-72.8023 Y25.4816 Z-2.9398
G1 X-72.8037 Y25.4756 Z-2.9438
G1 X-72.8055 Y25.4692 Z-2.948
G1 X-72.8076 Y25.4634 Z-2.952
G1 X-72.81 Y25.4578 Z-2.9559
G1 X-72.8129 Y25.4521 Z-2.9599
G1 X-72.8162 Y25.4467 Z-2.964
G1 X-72.8196 Y25.4415 Z-2.968
G1 X-72.8232 Y25.4369 Z-2.9717
G1 X-72.8274 Y25.4321 Z-2.9758
G1 X-72.8321 Y25.4274 Z-2.9801
G1 X-72.8369 Y25.4232 Z-2.9842
G1 X-72.8415 Y25.4196 Z-2.9879
G1 X-72.8467 Y25.4162 Z-2.9919
G1 X-72.8521 Y25.4129 Z-2.996
G1 X-72.8578 Y25.41 Z-3.0
G1 X-72.8634 Y25.4076 Z-3.0039
G1 X-72.8692 Y25.4055 Z-3.0079
G1 X-72.8756 Y25.4037 Z-3.0121
G1 X-72.8816 Y25.4023 Z-3.0161
G1 X-72.8872 Y25.4014 Z-3.0197
G1 X-72.8934 Y25.4008 Z-3.0237
G1 X-72.9 Y25.4006 Z-3.0279
G1 X-72.9066 Y25.4008 Z-3.0322
G1 X-72.9128 Y25.4014 Z-3.0362
G1 X-72.9184 Y25.4023 Z-3.0398
G1 X-72.9244 Y25.4037 Z-3.0438
G1 X-72.9308 Y25.4055 Z-3.048
G1 X-72.9366 Y25.4076 Z-3.052
G1 X-72.9422 Y25.41 Z-3.0559
G1 X-72.9479 Y25.4129 Z-3.0599
G1 X-72.9533 Y25.4162 Z-3.064
G1 X-72.9585 Y25.4196 Z-3.068
G1 X-72.9631 Y25.4232 Z-3.0717
G1 X-72.9679 Y25.4274 Z-3.0758
G1 X-72.9726 Y25.4321 Z-3.0801
G1 X-72.9768 Y25.4369 Z-3.0842
G1 X-72.9804 Y25.4415 Z-3.0879
G1 X-72.9838 Y25.4467 Z-3.0919
G1 X-72.9871 Y25.4521 Z-3.096
G1 X-72.99 Y25.4578 Z-3.1
G1 X-72.9924 Y25.4634 Z-3.1039
G1 X-72.9945 Y25.4692 Z-3.1079
G1 X-72.9963 Y25.4756 Z-3.1121
G1 X-72.9977 Y25.4816 Z-3.1161
G1 X-72.9986 Y25.4872 Z-3.1197
G1 X-72.9992 Y25.4934 Z-3.1237
G1 X-72.9994 Y25.5 Z-3.1279
G1 X-72.9992 Y25.5066 Z-3.1322
G1 X-72.9986 Y25.5128 Z-3.1362
G1 X-72.9977 Y25.5184 Z-3.1398
G1 X-72.9963 Y25.5244 Z-3.1438
G1 X-72.9945 Y25.5308 Z-3.148
G1 X-72.9924 Y25.5366 Z-3.152
G1 X-72.99 Y25.5422 Z-3.1559
G1 X-72.9871 Y25.5479 Z-3.1599
G1 X-72.9838 Y25.5533 Z-3.164
G1 X-72.9804 Y25.5585 Z-3.168
G1 X-72.9768 Y25.5631 Z-3.1717
G1 X-72.9726 Y25.5679 Z-3.1758
G1 X-72.9679 Y25.5726 Z-3.1801
G1 X-72.9631 Y25.5768 Z-3.1842
G1 X-72.9585 Y25.5804 Z-3.1879
G1 X-72.9533 Y25.5838 Z-3.1919
G1 X-72.9479 Y25.5871 Z-3.196
G1 X-72.9422 Y25.59 Z-3.2
G1 X-72.9366 Y25.5924 Z-3.2039
G1 X-72.9308 Y25.5945 Z-3.2079
G1 X-72.9244 Y25.5963 Z-3.2121
G1 X-72.9184 Y25.5977 Z-3.2161
G1 X-72.9128 Y25.5986 Z-3.2197
G1 X-72.9066 Y25.5992 Z-3.2237
G1 X-72.9 Y25.5994 Z-3.2279
G1 X-72.8934 Y25.5992 Z-3.2322
G1 X-72.8872 Y25.5986 Z-3.2362
G1 X-72.8816 Y25.5977 Z-3.2398
G1 X-72.8756 Y25.5963 Z-3.2438
G1 X-72.8692 Y25.5945 Z-3.248
G1 X-72.8634 Y25.5924 Z-3.252
G1 X-72.8578 Y25.59 Z-3.2559
G1 X-72.8521 Y25.5871 Z-3.2599
G1 X-72.8467 Y25.5838 Z-3.264
G1 X-72.8415 Y25.5804 Z-3.268
G1 X-72.8369 Y25.5768 Z-3.2717
G1 X-72.8321 Y25.5726 Z-3.2758
G1 X-72.8274 Y25.5679 Z-3.2801
G1 X-72.8232 Y25.5631 Z-3.2842
G1 X-72.8196 Y25.5585 Z-3.2879
G1 X-72.8162 Y25.5533 Z-3.2919
G1 X-72.8129 Y25.5479 Z-3.296
G1 X-72.81 Y25.5422 Z-3.3
G1 X-72.8076 Y25.5366 Z-3.3039
G1 X-72.8055 Y25.5308 Z-3.3079
G1 X-72.8037 Y25.5244 Z-3.3121
G1 X-72.8023 Y25.5184 Z-3.3161
G1 X-72.8014 Y25.5128 Z-3.3197
G1 X-72.8008 Y25.5066 Z-3.3237
G1 X-72.8006 Y25.5 Z-3.3279
G1 X-72.8008 Y25.4934 Z-3.3322
G1 X-72.8014 Y25.4872 Z-3.3362
G1 X-72.8023 Y25.4816 Z-3.3398
G1 X-72.8037 Y25.4756 Z-3.3438
G1 X-72.8055 Y25.4692 Z-3.348
G1 X-72.8076 Y25.4634 Z-3.352
G1 X-72.81 Y25.4578 Z-3.3559
G1 X-72.8129 Y25.4521 Z-3.3599
G1 X-72.8162 Y25.4467 Z-3.364
G1 X-72.8196 Y25.4415 Z-3.368
G1 X-72.8232 Y25.4369 Z-3.3717
G1 X-72.8274 Y25.4321 Z-3.3758
G1 X-72.8321 Y25.4274 Z-3.3801
G1 X-72.8369 Y25.4232 Z-3.3842
G1 X-72.8415 Y25.4196 Z-3.3879
G1 X-72.8467 Y25.4162 Z-3.3919
G1 X-72.8521 Y25.4129 Z-3.396
G1 X-72.8578 Y25.41 Z-3.4
G1 X-72.8634 Y25.4076 Z-3.4039
G1 X-72.8692 Y25.4055 Z-3.4079
G1 X-72.8756 Y25.4037 Z-3.4121
G1 X-72.8816 Y25.4023 Z-3.4161
G1 X-72.8872 Y25.4014 Z-3.4197
G1 X-72.8934 Y25.4008 Z-3.4237
G1 X-72.9 Y25.4006 Z-3.4279
G1 X-72.9066 Y25.4008 Z-3.4322
G1 X-72.9128 Y25.4014 Z-3.4362
G1 X-72.9184 Y25.4023 Z-3.4398
G1 X-72.9244 Y25.4037 Z-3.4438
G1 X-72.9308 Y25.4055 Z-3.448
G1 X-72.9366 Y25.4076 Z-3.452
G1 X-72.9422 Y25.41 Z-3.4559
G1 X-72.9479 Y25.4129 Z-3.4599
G1 X-72.9533 Y25.4162 Z-3.464
G1 X-72.9585 Y25.4196 Z-3.468
G1 X-72.9631 Y25.4232 Z-3.4717
G1 X-72.9679 Y25.4274 Z-3.4758
G1 X-72.9726 Y25.4321 Z-3.4801
G1 X-72.9768 Y25.4369 Z-3.4842
G1 X-72.9804 Y25.4415 Z-3.4879
G1 X-72.9838 Y25.4467 Z-3.4919
G1 X-72.9871 Y25.4521 Z-3.496
G1 X-72.99 Y25.4578 Z-3.5
G1 X-72.9924 Y25.4634 Z-3.5039
G1 X-72.9945 Y25.4692 Z-3.5079
G1 X-72.9963 Y25.4756 Z-3.5121
G1 X-72.9977 Y25.4816 Z-3.5161
G1 X-72.9986 Y25.4872 Z-3.5197
G1 X-72.9992 Y25.4934 Z-3.5237
G1 X-72.9994 Y25.5 Z-3.5279
G1 X-72.9992 Y25.5066 Z-3.5322
G1 X-72.9986 Y25.5128 Z-3.5362
G1 X-72.9977 Y25.5184 Z-3.5398
G1 X-72.9963 Y25.5244 Z-3.5438
G1 X-72.9945 Y25.5308 Z-3.548
G1 X-72.9924 Y25.5366 Z-3.552
G1 X-72.99 Y25.5422 Z-3.5559
G1 X-72.9871 Y25.5479 Z-3.5599
G1 X-72.9838 Y25.5533 Z-3.564
G1 X-72.9804 Y25.5585 Z-3.568
G1 X-72.9768 Y25.5631 Z-3.5717
G1 X-72.9726 Y25.5679 Z-3.5758
G1 X-72.9679 Y25.5726 Z-3.5801
G1 X-72.9631 Y25.5768 Z-3.5842
G1 X-72.9585 Y25.5804 Z-3.5879
G1 X-72.9533 Y25.5838 Z-3.5919
G1 X-72.9479 Y25.5871 Z-3.596
G1 X-72.9422 Y25.59 Z-3.6
G1 X-72.9366 Y25.5924 Z-3.6039
G1 X-72.9308 Y25.5945 Z-3.6079
G1 X-72.9244 Y25.5963 Z-3.6121
G1 X-72.9184 Y25.5977 Z-3.6161
G1 X-72.9128 Y25.5986 Z-3.6197
G1 X-72.9066 Y25.5992 Z-3.6237
G1 X-72.9 Y25.5994 Z-3.6279
G1 X-72.8934 Y25.5992 Z-3.6322
G1 X-72.8872 Y25.5986 Z-3.6362
G1 X-72.8816 Y25.5977 Z-3.6398
G1 X-72.8756 Y25.5963 Z-3.6438
G1 X-72.8692 Y25.5945 Z-3.648
G1 X-72.8634 Y25.5924 Z-3.652
G1 X-72.8578 Y25.59 Z-3.6559
G1 X-72.8521 Y25.5871 Z-3.6599
G1 X-72.8467 Y25.5838 Z-3.664
G1 X-72.8415 Y25.5804 Z-3.668
G1 X-72.8369 Y25.5768 Z-3.6717
G1 X-72.8321 Y25.5726 Z-3.6758
G1 X-72.8274 Y25.5679 Z-3.6801
G1 X-72.8232 Y25.5631 Z-3.6842
G1 X-72.8196 Y25.5585 Z-3.6879
G1 X-72.8162 Y25.5533 Z-3.6919
G1 X-72.8129 Y25.5479 Z-3.696
G1 X-72.81 Y25.5422 Z-3.7
G1 X-72.8076 Y25.5366 Z-3.7039
G1 X-72.8055 Y25.5308 Z-3.7079
G1 X-72.8037 Y25.5244 Z-3.7121
G1 X-72.8023 Y25.5184 Z-3.7161
G1 X-72.8014 Y25.5128 Z-3.7197
G1 X-72.8008 Y25.5066 Z-3.7237
G1 X-72.8006 Y25.5 Z-3.7279
G1 X-72.8008 Y25.4934 Z-3.7322
G1 X-72.8014 Y25.4872 Z-3.7362
G1 X-72.8023 Y25.4816 Z-3.7398
G1 X-72.8037 Y25.4756 Z-3.7438
G1 X-72.8055 Y25.4692 Z-3.748
G1 X-72.8076 Y25.4634 Z-3.752
G1 X-72.81 Y25.4578 Z-3.7559
G1 X-72.8129 Y25.4521 Z-3.7599
G1 X-72.8162 Y25.4467 Z-3.764
G1 X-72.8196 Y25.4415 Z-3.768
G1 X-72.8232 Y25.4369 Z-3.7717
G1 X-72.8274 Y25.4321 Z-3.7758
G1 X-72.8321 Y25.4274 Z-3.7801
G1 X-72.8369 Y25.4232 Z-3.7842
G1 X-72.8415 Y25.4196 Z-3.7879
G1 X-72.8467 Y25.4162 Z-3.7919
G1 X-72.8521 Y25.4129 Z-3.796
G1 X-72.8578 Y25.41 Z-3.8
G1 X-72.8634 Y25.4076 Z-3.8039
G1 X-72.8692 Y25.4055 Z-3.8079
G1 X-72.8756 Y25.4037 Z-3.8121
G1 X-72.8816 Y25.4023 Z-3.8161
G1 X-72.8872 Y25.4014 Z-3.8197
G1 X-72.8934 Y25.4008 Z-3.8237
G1 X-72.9 Y25.4006 Z-3.8279
G1 X-72.9066 Y25.4008 Z-3.8322
G1 X-72.9128 Y25.4014 Z-3.8362
G1 X-72.9184 Y25.4023 Z-3.8398
G1 X-72.9244 Y25.4037 Z-3.8438
G1 X-72.9308 Y25.4055 Z-3.848
G1 X-72.9366 Y25.4076 Z-3.852
G1 X-72.9422 Y25.41 Z-3.8559
G1 X-72.9479 Y25.4129 Z-3.8599
G1 X-72.9533 Y25.4162 Z-3.864
G1 X-72.9585 Y25.4196 Z-3.868
G1 X-72.9631 Y25.4232 Z-3.8717
G1 X-72.9679 Y25.4274 Z-3.8758
G1 X-72.9726 Y25.4321 Z-3.8801
G1 X-72.9768 Y25.4369 Z-3.8842
G1 X-72.9804 Y25.4415 Z-3.8879
G1 X-72.9838 Y25.4467 Z-3.8919
G1 X-72.9871 Y25.4521 Z-3.896
G1 X-72.99 Y25.4578 Z-3.9
G1 X-72.9924 Y25.4634 Z-3.9039
G1 X-72.9945 Y25.4692 Z-3.9079
G1 X-72.9963 Y25.4756 Z-3.9121
G1 X-72.9977 Y25.4816 Z-3.9161
G1 X-72.9986 Y25.4872 Z-3.9197
G1 X-72.9992 Y25.4934 Z-3.9237
G1 X-72.9994 Y25.5 Z-3.9279
G1 X-72.9992 Y25.5066 Z-3.9322
G1 X-72.9986 Y25.5128 Z-3.9362
G1 X-72.9977 Y25.5184 Z-3.9398
G1 X-72.9963 Y25.5244 Z-3.9438
G1 X-72.9945 Y25.5308 Z-3.948
G1 X-72.9924 Y25.5366 Z-3.952
G1 X-72.99 Y25.5422 Z-3.9559
G1 X-72.9871 Y25.5479 Z-3.9599
G1 X-72.9838 Y25.5533 Z-3.964
G1 X-72.9804 Y25.5585 Z-3.968
G1 X-72.9768 Y25.5631 Z-3.9717
G1 X-72.9726 Y25.5679 Z-3.9758
G1 X-72.9679 Y25.5726 Z-3.9801
G1 X-72.9631 Y25.5768 Z-3.9842
G1 X-72.9585 Y25.5804 Z-3.9879
G1 X-72.9533 Y25.5838 Z-3.9919
G1 X-72.9479 Y25.5871 Z-3.996
G1 X-72.9422 Y25.59 Z-4.0
G1 X-72.9366 Y25.5924
G1 X-72.9308 Y25.5945
G1 X-72.9244 Y25.5963
G1 X-72.9184 Y25.5977
G1 X-72.9128 Y25.5986
G1 X-72.9066 Y25.5992
G1 X-72.9 Y25.5994
G1 X-72.8934 Y25.5992
G1 X-72.8872 Y25.5986
G1 X-72.8816 Y25.5977
G1 X-72.8756 Y25.5963
G1 X-72.8692 Y25.5945
G1 X-72.8634 Y25.5924
G1 X-72.8578 Y25.59
G1 X-72.8521 Y25.5871
G1 X-72.8467 Y25.5838
G1 X-72.8415 Y25.5804
G1 X-72.8369 Y25.5768
G1 X-72.8321 Y25.5726
G1 X-72.8274 Y25.5679
G1 X-72.8232 Y25.5631
G1 X-72.8196 Y25.5585
G1 X-72.8162 Y25.5533
G1 X-72.8129 Y25.5479
G1 X-72.81 Y25.5422
G1 X-72.8076 Y25.5366
G1 X-72.8055 Y25.5308
G1 X-72.8037 Y25.5244
G1 X-72.8023 Y25.5184
G1 X-72.8014 Y25.5128
G1 X-72.8008 Y25.5066
G1 X-72.8006 Y25.5
G1 X-72.8008 Y25.4934
G1 X-72.8014 Y25.4872
G1 X-72.8023 Y25.4816
G1 X-72.8037 Y25.4756
G1 X-72.8055 Y25.4692
G1 X-72.8076 Y25.4634
G1 X-72.81 Y25.4578
G1 X-72.8129 Y25.4521
G1 X-72.8162 Y25.4467
G1 X-72.8196 Y25.4415
G1 X-72.8232 Y25.4369
G1 X-72.8274 Y25.4321
G1 X-72.8321 Y25.4274
G1 X-72.8369 Y25.4232
G1 X-72.8415 Y25.4196
G1 X-72.8467 Y25.4162
G1 X-72.8521 Y25.4129
G1 X-72.8578 Y25.41
G1 X-72.8634 Y25.4076
G1 X-72.8692 Y25.4055
G1 X-72.8756 Y25.4037
G1 X-72.8816 Y25.4023
G1 X-72.8872 Y25.4014
G1 X-72.8934 Y25.4008
G1 X-72.9 Y25.4006
G1 X-72.9066 Y25.4008
G1 X-72.9128 Y25.4014
G1 X-72.9184 Y25.4023
G1 X-72.9244 Y25.4037
G1 X-72.9308 Y25.4055
G1 X-72.9366 Y25.4076
G1 X-72.9422 Y25.41
G1 X-72.9479 Y25.4129
G1 X-72.9533 Y25.4162
G1 X-72.9585 Y25.4196
G1 X-72.9631 Y25.4232
G1 X-72.9679 Y25.4274
G1 X-72.9726 Y25.4321
G1 X-72.9768 Y25.4369
G1 X-72.9804 Y25.4415
G1 X-72.9838 Y25.4467
G1 X-72.9871 Y25.4521
G1 X-72.99 Y25.4578
G1 X-72.9924 Y25.4634
G1 X-72.9945 Y25.4692
G1 X-72.9963 Y25.4756
G1 X-72.9977 Y25.4816
G1 X-72.9986 Y25.4872
G1 X-72.9992 Y25.4934
G1 X-72.9994 Y25.5
G1 X-72.9992 Y25.5066
G1 X-72.9986 Y25.5128
G1 X-72.9977 Y25.5184
G1 X-72.9963 Y25.5244
G1 X-72.9945 Y25.5308
G1 X-72.9924 Y25.5366
G1 X-72.99 Y25.5422
G1 X-72.9871 Y25.5479
G1 X-72.9838 Y25.5533
G1 X-72.9804 Y25.5585
G1 X-72.9768 Y25.5631
G1 X-72.9726 Y25.5679
G1 X-72.9679 Y25.5726
G1 X-72.9631 Y25.5768
G1 X-72.9585 Y25.5804
G1 X-72.9533 Y25.5838
G1 X-72.9479 Y25.5871
G1 X-72.9422 Y25.59
G0 Z3.0
G0 X-66.5585 Y17.0804
G0 Z1.0
G1 F150.0 Z0.0
G1 F400.0 X-66.5533 Y17.0838 Z-0.004
G1 X-66.5479 Y17.0871 Z-0.008
G1 X-66.5422 Y17.09 Z-0.0121
G1 X-66.5366 Y17.0924 Z-0.016
G1 X-66.5308 Y17.0945 Z-0.02
G1 X-66.5244 Y17.0963 Z-0.0242
G1 X-66.5184 Y17.0977 Z-0.0282
G1 X-66.5128 Y17.0986 Z-0.0318
G1 X-66.5066 Y17.0992 Z-0.0358
G1 X-66.5 Y17.0994 Z-0.04
G1 X-66.4934 Y17.0992 Z-0.0443
G1 X-66.4872 Y17.0986 Z-0.0483
G1 X-66.4816 Y17.0977 Z-0.0519
G1 X-66.4756 Y17.0963 Z-0.0558
G1 X-66.4692 Y17.0945 Z-0.0601
G1 X-66.4634 Y17.0924 Z-0.064
G1 X-66.4578 Y17.09 Z-0.068
G1 X-66.4521 Y17.0871 Z-0.072
G1 X-66.4467 Y17.0838 Z-0.0761
G1 X-66.4415 Y17.0804 Z-0.0801
G1 X-66.4369 Y17.0768 Z-0.0838
G1 X-66.4321 Y17.0726 Z-0.0879
G1 X-66.4274 Y17.0679 Z-0.0921
G1 X-66.4232 Y17.0631 Z-0.0963
G1 X-66.4196 Y17.0585 Z-0.1
G1 X-66.4162 Y17.0533 Z-0.104
G1 X-66.4129 Y17.0479 Z-0.108
G1 X-66.41 Y17.0422 Z-0.1121
G1 X-66.4076 Y17.0366 Z-0.116
G1 X-66.4055 Y17.0308 Z-0.12
G1 X-66.4037 Y17.0244 Z-0.1242
G1 X-66.4023 Y17.0184 Z-0.1282
G1 X-66.4014 Y17.0128 Z-0.1318
G1 X-66.4008 Y17.0066 Z-0.1358
G1 X-66.4006 Y17.0 Z-0.14
G1 X-66.4008 Y16.9934 Z-0.1443
G1 X-66.4014 Y16.9872 Z-0.1483
G1 X-66.4023 Y16.9816 Z-0.1519
G1 X-66.4037 Y16.9756 Z-0.1558
G1 X-66.4055 Y16.9692 Z-0.1601
G1 X-66.4076 Y16.9634 Z-0.164
G1 X-66.41 Y16.9578 Z-0.168
G1 X-66.4129 Y16.9521 Z-0.172
G1 X-66.4162 Y16.9467 Z-0.1761
G1 X-66.4196 Y16.9415 Z-0.1801
G1 X-66.4232 Y16.9369 Z-0.1838
G1 X-66.4274 Y16.9321 Z-0.1879
G1 X-66.4321 Y16.9274 Z-0.1921
G1 X-66.4369 Y16.9232 Z-0.1963
G1 X-66.4415 Y16.9196 Z-0.2
G1 X-66.4467 Y16.9162 Z-0.204
G1 X-66.4521 Y16.9129 Z-0.208
G1 X-66.4578 Y16.91 Z-0.2121
G1 X-66.4634 Y16.9076 Z-0.216
G1 X-66.4692 Y16.9055 Z-0.22
G1 X-66.4756 Y16.9037 Z-0.2242
G1 X-66.4816 Y16.9023 Z-0.2282
G1 X-66.4872 Y16.9014 Z-0.2318
G1 X-66.4934 Y16.9008 Z-0.2358
G1 X-66.5 Y16.9006 Z-0.24
G1 X-66.5066 Y16.9008 Z-0.2443
G1 X-66.5128 Y16.9014 Z-0.2483
G1 X-66.5184 Y16.9023 Z-0.2519
G1 X-66.5244 Y16.9037 Z-0.2558
G1 X-66.5308 Y16.9055 Z-0.2601
G1 X-66.5366 Y16.9076 Z-0.264
G1 X-66.5422 Y16.91 Z-0.268
G1 X-66.5479 Y16.9129 Z-0.272
G1 X-66.5533 Y16.9162 Z-0.2761
G1 X-66.5585 Y16.9196 Z-0.2801
G1 X-66.5631 Y16.9232 Z-0.2838
G1 X-66.5679 Y16.9274 Z-0.2879
G1 X-66.5726 Y16.9321 Z-0.2921
G1 X-66.5768 Y16.9369 Z-0.2963
G1 X-66.5804 Y16.9415 Z-0.3
G1 X-66.5838 Y16.9467 Z-0.304
G1 X-66.5871 Y16.9521 Z-0.308
G1 X-66.59 Y16.9578 Z-0.3121
G1 X-66.5924 Y16.9634 Z-0.316
G1 X-66.5945 Y16.9692 Z-0.32
G1 X-66.5963 Y16.9756 Z-0.3242
G1 X-66.5977 Y16.9816 Z-0.3282
G1 X-66.5986 Y16.9872 Z-0.3318
G1 X-66.5992 Y16.9934 Z-0.3358
G1 X-66.5994 Y17.0 Z-0.34
G1 X-66.5992 Y17.0066 Z-0.3443
G1 X-66.5986 Y17.0128 Z-0.3483
G1 X-66.5977 Y17.0184 Z-0.3519
G1 X-66.5963 Y17.0244 Z-0.3558
G1 X-66.5945 Y17.0308 Z-0.3601
G1 X-66.5924 Y17.0366 Z-0.364
G1 X-66.59 Y17.0422 Z-0.368
G1 X-66.5871 Y17.0479 Z-0.372
G1 X-66.5838 Y17.0533 Z-0.3761
G1 X-66.5804 Y17.0585 Z-0.3801
G1 X-66.5768 Y17.0631 Z-0.3838
G1 X-66.5726 Y17.0679 Z-0.3879
G1 X-66.5679 Y17.0726 Z-0.3921
G1 X-66.5631 Y17.0768 Z-0.3963
G1 X-66.5585 Y17.0804 Z-0.4
G1 X-66.5533 Y17.0838 Z-0.404
G1 X-66.5479 Y17.0871 Z-0.408
G1 X-66.5422 Y17.09 Z-0.4121
G1 X-66.5366 Y17.0924 Z-0.416
G1 X-66.5308 Y17.0945 Z-0.42
G1 X-66.5244 Y17.0963 Z-0.4242
G1 X-66.5184 Y17.0977 Z-0.4282
G1 X-66.5128 Y17.0986 Z-0.4318
G1 X-66.5066 Y17.0992 Z-0.4358
G1 X-66.5 Y17.0994 Z-0.44
G1 X-66.4934 Y17.0992 Z-0.4443
G1 X-66.4872 Y17.0986 Z-0.4483
G1 X-66.4816 Y17.0977 Z-0.4519
G1 X-66.4756 Y17.0963 Z-0.4558
G1 X-66.4692 Y17.0945 Z-0.4601
G1 X-66.4634 Y17.0924 Z-0.464
G1 X-66.4578 Y17.09 Z-0.468
G1 X-66.4521 Y17.0871 Z-0.472
G1 X-66.4467 Y17.0838 Z-0.4761
G1 X-66.4415 Y17.0804 Z-0.4801
G1 X-66.4369 Y17.0768 Z-0.4838
G1 X-66.4321 Y17.0726 Z-0.4879
G1 X-66.4274 Y17.0679 Z-0.4921
G1 X-66.4232 Y17.0631 Z-0.4963
G1 X-66.4196 Y17.0585 Z-0.5
G1 X-66.4162 Y17.0533 Z-0.504
G1 X-66.4129 Y17.0479 Z-0.508
G1 X-66.41 Y17.0422 Z-0.5121
G1 X-66.4076 Y17.0366 Z-0.516
G1 X-66.4055 Y17.0308 Z-0.52
G1 X-66.4037 Y17.0244 Z-0.5242
G1 X-66.4023 Y17.0184 Z-0.5282
G1 X-66.4014 Y17.0128 Z-0.5318
G1 X-66.4008 Y17.0066 Z-0.5358
G1 X-66.4006 Y17.0 Z-0.54
G1 X-66.4008 Y16.9934 Z-0.5443
G1 X-66.4014 Y16.9872 Z-0.5483
G1 X-66.4023 Y16.9816 Z-0.5519
G1 X-66.4037 Y16.9756 Z-0.5558
G1 X-66.4055 Y16.9692 Z-0.5601
G1 X-66.4076 Y16.9634 Z-0.564
G1 X-66.41 Y16.9578 Z-0.568
G1 X-66.4129 Y16.9521 Z-0.572
G1 X-66.4162 Y16.9467 Z-0.5761
G1 X-66.4196 Y16.9415 Z-0.5801
G1 X-66.4232 Y16.9369 Z-0.5838
G1 X-66.4274 Y16.9321 Z-0.5879
G1 X-66.4321 Y16.9274 Z-0.5921
G1 X-66.4369 Y16.9232 Z-0.5963
G1 X-66.4415 Y16.9196 Z-0.6
G1 X-66.4467 Y16.9162 Z-0.604
G1 X-66.4521 Y16.9129 Z-0.608
G1 X-66.4578 Y16.91 Z-0.6121
G1 X-66.4634 Y16.9076 Z-0.616
G1 X-66.4692 Y16.9055 Z-0.62
G1 X-66.4756 Y16.9037 Z-0.6242
G1 X-66.4816 Y16.9023 Z-0.6282
G1 X-66.4872 Y16.9014 Z-0.6318
G1 X-66.4934 Y16.9008 Z-0.6358
G1 X-66.5 Y16.9006 Z-0.64
G1 X-66.5066 Y16.9008 Z-0.6443
G1 X-66.5128 Y16.9014 Z-0.6483
G1 X-66.5184 Y16.9023 Z-0.6519
G1 X-66.5244 Y16.9037 Z-0.6558
G1 X-66.5308 Y16.9055 Z-0.6601
G1 X-66.5366 Y16.9076 Z-0.664
G1 X-66.5422 Y16.91 Z-0.668
G1 X-66.5479 Y16.9129 Z-0.672
G1 X-66.5533 Y16.9162 Z-0.6761
G1 X-66.5585 Y16.9196 Z-0.6801
G1 X-66.5631 Y16.9232 Z-0.6838
G1 X-66.5679 Y16.9274 Z-0.6879
G1 X-66.5726 Y16.9321 Z-0.6921
G1 X-66.5768 Y16.9369 Z-0.6963
G1 X-66.5804 Y16.9415 Z-0.7
G1 X-66.5838 Y16.9467 Z-0.704
G1 X-66.5871 Y16.9521 Z-0.708
G1 X-66.59 Y16.9578 Z-0.7121
G1 X-66.5924 Y16.9634 Z-0.716
G1 X-66.5945 Y16.9692 Z-0.72
G1 X-66.5963 Y16.9756 Z-0.7242
G1 X-66.5977 Y16.9816 Z-0.7282
G1 X-66.5986 Y16.9872 Z-0.7318
G1 X-66.5992 Y16.9934 Z-0.7358
G1 X-66.5994 Y17.0 Z-0.74
G1 X-66.5992 Y17.0066 Z-0.7443
G1 X-66.5986 Y17.0128 Z-0.7483
G1 X-66.5977 Y17.0184 Z-0.7519
G1 X-66.5963 Y17.0244 Z-0.7558
G1 X-66.5945 Y17.0308 Z-0.7601
G1 X-66.5924 Y17.0366 Z-0.764
G1 X-66.59 Y17.0422 Z-0.768
G1 X-66.5871 Y17.0479 Z-0.772
G1 X-66.5838 Y17.0533 Z-0.7761
G1 X-66.5804 Y17.0585 Z-0.7801
G1 X-66.5768 Y17.0631 Z-0.7838
G1 X-66.5726 Y17.0679 Z-0.7879
G1 X-66.5679 Y17.0726 Z-0.7921
G1 X-66.5631 Y17.0768 Z-0.7963
G1 X-66.5585 Y17.0804 Z-0.8
G1 X-66.5533 Y17.0838 Z-0.804
G1 X-66.5479 Y17.0871 Z-0.808
G1 X-66.5422 Y17.09 Z-0.8121
G1 X-66.5366 Y17.0924 Z-0.816
G1 X-66.5308 Y17.0945 Z-0.82
G1 X-66.5244 Y17.0963 Z-0.8242
G1 X-66.5184 Y17.0977 Z-0.8282
G1 X-66.5128 Y17.0986 Z-0.8318
G1 X-66.5066 Y17.0992 Z-0.8358
G1 X-66.5 Y17.0994 Z-0.84
G1 X-66.4934 Y17.0992 Z-0.8443
G1 X-66.4872 Y17.0986 Z-0.8483
G1 X-66.4816 Y17.0977 Z-0.8519
G1 X-66.4756 Y17.0963 Z-0.8558
G1 X-66.4692 Y17.0945 Z-0.8601
G1 X-66.4634 Y17.0924 Z-0.864
G1 X-66.4578 Y17.09 Z-0.868
G1 X-66.4521 Y17.0871 Z-0.872
G1 X-66.4467 Y17.0838 Z-0.8761
G1 X-66.4415 Y17.0804 Z-0.8801
G1 X-66.4369 Y17.0768 Z-0.8838
G1 X-66.4321 Y17.0726 Z-0.8879
G1 X-66.4274 Y17.0679 Z-0.8921
G1 X-66.4232 Y17.0631 Z-0.8963
G1 X-66.4196 Y17.0585 Z-0.9
G1 X-66.4162 Y17.0533 Z-0.904
G1 X-66.4129 Y17.0479 Z-0.908
G1 X-66.41 Y17.0422 Z-0.9121
G1 X-66.4076 Y17.0366 Z-0.916
G1 X-66.4055 Y17.0308 Z-0.92
G1 X-66.4037 Y17.0244 Z-0.9242
G1 X-66.4023 Y17.0184 Z-0.9282
G1 X-66.4014 Y17.0128 Z-0.9318
G1 X-66.4008 Y17.0066 Z-0.9358
G1 X-66.4006 Y17.0 Z-0.94
G1 X-66.4008 Y16.9934 Z-0.9443
G1 X-66.4014 Y16.9872 Z-0.9483
G1 X-66.4023 Y16.9816 Z-0.9519
G1 X-66.4037 Y16.9756 Z-0.9558
G1 X-66.4055 Y16.9692 Z-0.9601
G1 X-66.4076 Y16.9634 Z-0.964
G1 X-66.41 Y16.9578 Z-0.968
G1 X-66.4129 Y16.9521 Z-0.972
G1 X-66.4162 Y16.9467 Z-0.9761
G1 X-66.4196 Y16.9415 Z-0.9801
G1 X-66.4232 Y16.9369 Z-0.9838
G1 X-66.4274 Y16.9321 Z-0.9879
G1 X-66.4321 Y16.9274 Z-0.9921
G1 X-66.4369 Y16.9232 Z-0.9963
G1 X-66.4415 Y16.9196 Z-1.0
G1 X-66.4467 Y16.9162 Z-1.004
G1 X-66.4521 Y16.9129 Z-1.008
G1 X-66.4578 Y16.91 Z-1.0121
G1 X-66.4634 Y16.9076 Z-1.016
G1 X-66.4692 Y16.9055 Z-1.02
G1 X-66.4756 Y16.9037 Z-1.0242
G1 X-66.4816 Y16.9023 Z-1.0282
G1 X-66.4872 Y16.9014 Z-1.0318
G1 X-66.4934 Y16.9008 Z-1.0358
G1 X-66.5 Y16.9006 Z-1.04
G1 X-66.5066 Y16.9008 Z-1.0443
G1 X-66.5128 Y16.9014 Z-1.0483
G1 X-66.5184 Y16.9023 Z-1.0519
G1 X-66.5244 Y16.9037 Z-1.0558
G1 X-66.5308 Y16.9055 Z-1.0601
G1 X-66.5366 Y16.9076 Z-1.064
G1 X-66.5422 Y16.91 Z-1.068
G1 X-66.5479 Y16.9129 Z-1.072
G1 X-66.5533 Y16.9162 Z-1.0761
G1 X-66.5585 Y16.9196 Z-1.0801
G1 X-66.5631 Y16.9232 Z-1.0838
G1 X-66.5679 Y16.9274 Z-1.0879
G1 X-66.5726 Y16.9321 Z-1.0921
G1 X-66.5768 Y16.9369 Z-1.0963
G1 X-66.5804 Y16.9415 Z-1.1
G1 X-66.5838 Y16.9467 Z-1.104
G1 X-66.5871 Y16.9521 Z-1.108
G1 X-66.59 Y16.9578 Z-1.1121
G1 X-66.5924 Y16.9634 Z-1.116
G1 X-66.5945 Y16.9692 Z-1.12
G1 X-66.5963 Y16.9756 Z-1.1242
G1 X-66.5977 Y16.9816 Z-1.1282
G1 X-66.5986 Y16.9872 Z-1.1318
G1 X-66.5992 Y16.9934 Z-1.1358
G1 X-66.5994 Y17.0 Z-1.14
G1 X-66.5992 Y17.0066 Z-1.1443
G1 X-66.5986 Y17.0128 Z-1.1483
G1 X-66.5977 Y17.0184 Z-1.1519
G1 X-66.5963 Y17.0244 Z-1.1558
G1 X-66.5945 Y17.0308 Z-1.1601
G1 X-66.5924 Y17.0366 Z-1.164
G1 X-66.59 Y17.0422 Z-1.168
G1 X-66.5871 Y17.0479 Z-1.172
G1 X-66.5838 Y17.0533 Z-1.1761
G1 X-66.5804 Y17.0585 Z-1.1801
G1 X-66.5768 Y17.0631 Z-1.1838
G1 X-66.5726 Y17.0679 Z-1.1879
G1 X-66.5679 Y17.0726 Z-1.1921
G1 X-66.5631 Y17.0768 Z-1.1963
G1 X-66.5585 Y17.0804 Z-1.2
G1 X-66.5533 Y17.0838 Z-1.204
G1 X-66.5479 Y17.0871 Z-1.208
G1 X-66.5422 Y17.09 Z-1.2121
G1 X-66.5366 Y17.0924 Z-1.216
G1 X-66.5308 Y17.0945 Z-1.22
G1 X-66.5244 Y17.0963 Z-1.2242
G1 X-66.5184 Y17.0977 Z-1.2282
G1 X-66.5128 Y17.0986 Z-1.2318
G1 X-66.5066 Y17.0992 Z-1.2358
G1 X-66.5 Y17.0994 Z-1.24
G1 X-66.4934 Y17.0992 Z-1.2443
G1 X-66.4872 Y17.0986 Z-1.2483
G1 X-66.4816 Y17.0977 Z-1.2519
G1 X-66.4756 Y17.0963 Z-1.2558
G1 X-66.4692 Y17.0945 Z-1.2601
G1 X-66.4634 Y17.0924 Z-1.264
G1 X-66.4578 Y17.09 Z-1.268
G1 X-66.4521 Y17.0871 Z-1.272
G1 X-66.4467 Y17.0838 Z-1.2761
G1 X-66.4415 Y17.0804 Z-1.2801
G1 X-66.4369 Y17.0768 Z-1.2838
G1 X-66.4321 Y17.0726 Z-1.2879
G1 X-66.4274 Y17.0679 Z-1.2921
G1 X-66.4232 Y17.0631 Z-1.2963
G1 X-66.4196 Y17.0585 Z-1.3
G1 X-66.4162 Y17.0533 Z-1.304
G1 X-66.4129 Y17.0479 Z-1.308
G1 X-66.41 Y17.0422 Z-1.3121
G1 X-66.4076 Y17.0366 Z-1.316
G1 X-66.4055 Y17.0308 Z-1.32
G1 X-66.4037 Y17.0244 Z-1.3242
G1 X-66.4023 Y17.0184 Z-1.3282
G1 X-66.4014 Y17.0128 Z-1.3318
G1 X-66.4008 Y17.0066 Z-1.3358
G1 X-66.4006 Y17.0 Z-1.34
G1 X-66.4008 Y16.9934 Z-1.3443
G1 X-66.4014 Y16.9872 Z-1.3483
G1 X-66.4023 Y16.9816 Z-1.3519
G1 X-66.4037 Y16.9756 Z-1.3558
G1 X-66.4055 Y16.9692 Z-1.3601
G1 X-66.4076 Y16.9634 Z-1.364
G1 X-66.41 Y16.9578 Z-1.368
G1 X-66.4129 Y16.9521 Z-1.372
G1 X-66.4162 Y16.9467 Z-1.3761
G1 X-66.4196 Y16.9415 Z-1.3801
G1 X-66.4232 Y16.9369 Z-1.3838
G1 X-66.4274 Y16.9321 Z-1.3879
G1 X-66.4321 Y16.9274 Z-1.3921
G1 X-66.4369 Y16.9232 Z-1.3963
G1 X-66.4415 Y16.9196 Z-1.4
G1 X-66.4467 Y16.9162 Z-1.404
G1 X-66.4521 Y16.9129 Z-1.408
G1 X-66.4578 Y16.91 Z-1.4121
G1 X-66.4634 Y16.9076 Z-1.416
G1 X-66.4692 Y16.9055 Z-1.42
G1 X-66.4756 Y16.9037 Z-1.4242
G1 X-66.4816 Y16.9023 Z-1.4282
G1 X-66.4872 Y16.9014 Z-1.4318
G1 X-66.4934 Y16.9008 Z-1.4358
G1 X-66.5 Y16.9006 Z-1.44
G1 X-66.5066 Y16.9008 Z-1.4443
G1 X-66.5128 Y16.9014 Z-1.4483
G1 X-66.5184 Y16.9023 Z-1.4519
G1 X-66.5244 Y16.9037 Z-1.4558
G1 X-66.5308 Y16.9055 Z-1.4601
G1 X-66.5366 Y16.9076 Z-1.464
G1 X-66.5422 Y16.91 Z-1.468
G1 X-66.5479 Y16.9129 Z-1.472
G1 X-66.5533 Y16.9162 Z-1.4761
G1 X-66.5585 Y16.9196 Z-1.4801
G1 X-66.5631 Y16.9232 Z-1.4838
G1 X-66.5679 Y16.9274 Z-1.4879
G1 X-66.5726 Y16.9321 Z-1.4921
G1 X-66.5768 Y16.9369 Z-1.4963
G1 X-66.5804 Y16.9415 Z-1.5
G1 X-66.5838 Y16.9467 Z-1.504
G1 X-66.5871 Y16.9521 Z-1.508
G1 X-66.59 Y16.9578 Z-1.5121
G1 X-66.5924 Y16.9634 Z-1.516
G1 X-66.5945 Y16.9692 Z-1.52
G1 X-66.5963 Y16.9756 Z-1.5242
G1 X-66.5977 Y16.9816 Z-1.5282
G1 X-66.5986 Y16.9872 Z-1.5318
G1 X-66.5992 Y16.9934 Z-1.5358
G1 X-66.5994 Y17.0 Z-1.54
G1 X-66.5992 Y17.0066 Z-1.5443
G1 X-66.5986 Y17.0128 Z-1.5483
G1 X-66.5977 Y17.0184 Z-1.5519
G1 X-66.5963 Y17.0244 Z-1.5558
G1 X-66.5945 Y17.0308 Z-1.5601
G1 X-66.5924 Y17.0366 Z-1.564
G1 X-66.59 Y17.0422 Z-1.568
G1 X-66.5871 Y17.0479 Z-1.572
G1 X-66.5838 Y17.0533 Z-1.5761
G1 X-66.5804 Y17.0585 Z-1.5801
G1 X-66.5768 Y17.0631 Z-1.5838
G1 X-66.5726 Y17.0679 Z-1.5879
G1 X-66.5679 Y17.0726 Z-1.5921
G1 X-66.5631 Y17.0768 Z-1.5963
G1 X-66.5585 Y17.0804 Z-1.6
G1 X-66.5533 Y17.0838 Z-1.604
G1 X-66.5479 Y17.0871 Z-1.608
G1 X-66.5422 Y17.09 Z-1.6121
G1 X-66.5366 Y17.0924 Z-1.616
G1 X-66.5308 Y17.0945 Z-1.62
G1 X-66.5244 Y17.0963 Z-1.6242
G1 X-66.5184 Y17.0977 Z-1.6282
G1 X-66.5128 Y17.0986 Z-1.6318
G1 X-66.5066 Y17.0992 Z-1.6358
G1 X-66.5 Y17.0994 Z-1.64
G1 X-66.4934 Y17.0992 Z-1.6443
G1 X-66.4872 Y17.0986 Z-1.6483
G1 X-66.4816 Y17.0977 Z-1.6519
G1 X-66.4756 Y17.0963 Z-1.6558
G1 X-66.4692 Y17.0945 Z-1.6601
G1 X-66.4634 Y17.0924 Z-1.664
G1 X-66.4578 Y17.09 Z-1.668
G1 X-66.4521 Y17.0871 Z-1.672
G1 X-66.4467 Y17.0838 Z-1.6761
G1 X-66.4415 Y17.0804 Z-1.6801
G1 X-66.4369 Y17.0768 Z-1.6838
G1 X-66.4321 Y17.0726 Z-1.6879
G1 X-66.4274 Y17.0679 Z-1.6921
G1 X-66.4232 Y17.0631 Z-1.6963
G1 X-66.4196 Y17.0585 Z-1.7
G1 X-66.4162 Y17.0533 Z-1.704
G1 X-66.4129 Y17.0479 Z-1.708
G1 X-66.41 Y17.0422 Z-1.7121
G1 X-66.4076 Y17.0366 Z-1.716
G1 X-66.4055 Y17.0308 Z-1.72
G1 X-66.4037 Y17.0244 Z-1.7242
G1 X-66.4023 Y17.0184 Z-1.7282
G1 X-66.4014 Y17.0128 Z-1.7318
G1 X-66.4008 Y17.0066 Z-1.7358
G1 X-66.4006 Y17.0 Z-1.74
G1 X-66.4008 Y16.9934 Z-1.7443
G1 X-66.4014 Y16.9872 Z-1.7483
G1 X-66.4023 Y16.9816 Z-1.7519
G1 X-66.4037 Y16.9756 Z-1.7558
G1 X-66.4055 Y16.9692 Z-1.7601
G1 X-66.4076 Y16.9634 Z-1.764
G1 X-66.41 Y16.9578 Z-1.768
G1 X-66.4129 Y16.9521 Z-1.772
G1 X-66.4162 Y16.9467 Z-1.7761
G1 X-66.4196 Y16.9415 Z-1.7801
G1 X-66.4232 Y16.9369 Z-1.7838
G1 X-66.4274 Y16.9321 Z-1.7879
G1 X-66.4321 Y16.9274 Z-1.7921
G1 X-66.4369 Y16.9232 Z-1.7963
G1 X-66.4415 Y16.9196 Z-1.8
G1 X-66.4467 Y16.9162 Z-1.804
G1 X-66.4521 Y16.9129 Z-1.808
G1 X-66.4578 Y16.91 Z-1.8121
G1 X-66.4634 Y16.9076 Z-1.816
G1 X-66.4692 Y16.9055 Z-1.82
G1 X-66.4756 Y16.9037 Z-1.8242
G1 X-66.4816 Y16.9023 Z-1.8282
G1 X-66.4872 Y16.9014 Z-1.8318
G1 X-66.4934 Y16.9008 Z-1.8358
G1 X-66.5 Y16.9006 Z-1.84
G1 X-66.5066 Y16.9008 Z-1.8443
G1 X-66.5128 Y16.9014 Z-1.8483
G1 X-66.5184 Y16.9023 Z-1.8519
G1 X-66.5244 Y16.9037 Z-1.8558
G1 X-66.5308 Y16.9055 Z-1.8601
G1 X-66.5366 Y16.9076 Z-1.864
G1 X-66.5422 Y16.91 Z-1.868
G1 X-66.5479 Y16.9129 Z-1.872
G1 X-66.5533 Y16.9162 Z-1.8761
G1 X-66.5585 Y16.9196 Z-1.8801
G1 X-66.5631 Y16.9232 Z-1.8838
G1 X-66.5679 Y16.9274 Z-1.8879
G1 X-66.5726 Y16.9321 Z-1.8921
G1 X-66.5768 Y16.9369 Z-1.8963
G1 X-66.5804 Y16.9415 Z-1.9
G1 X-66.5838 Y16.9467 Z-1.904
G1 X-66.5871 Y16.9521 Z-1.908
G1 X-66.59 Y16.9578 Z-1.9121
G1 X-66.5924 Y16.9634 Z-1.916
G1 X-66.5945 Y16.9692 Z-1.92
G1 X-66.5963 Y16.9756 Z-1.9242
G1 X-66.5977 Y16.9816 Z-1.9282
G1 X-66.5986 Y16.9872 Z-1.9318
G1 X-66.5992 Y16.9934 Z-1.9358
G1 X-66.5994 Y17.0 Z-1.94
G1 X-66.5992 Y17.0066 Z-1.9443
G1 X-66.5986 Y17.0128 Z-1.9483
G1 X-66.5977 Y17.0184 Z-1.9519
G1 X-66.5963 Y17.0244 Z-1.9558
G1 X-66.5945 Y17.0308 Z-1.9601
G1 X-66.5924 Y17.0366 Z-1.964
G1 X-66.59 Y17.0422 Z-1.968
G1 X-66.5871 Y17.0479 Z-1.972
G1 X-66.5838 Y17.0533 Z-1.9761
G1 X-66.5804 Y17.0585 Z-1.9801
G1 X-66.5768 Y17.0631 Z-1.9838
G1 X-66.5726 Y17.0679 Z-1.9879
G1 X-66.5679 Y17.0726 Z-1.9921
G1 X-66.5631 Y17.0768 Z-1.9963
G1 X-66.5585 Y17.0804 Z-2.0
G1 X-66.5533 Y17.0838 Z-2.004
G1 X-66.5479 Y17.0871 Z-2.008
G1 X-66.5422 Y17.09 Z-2.0121
G1 X-66.5366 Y17.0924 Z-2.016
G1 X-66.5308 Y17.0945 Z-2.02
G1 X-66.5244 Y17.0963 Z-2.0242
G1 X-66.5184 Y17.0977 Z-2.0282
G1 X-66.5128 Y17.0986 Z-2.0318
G1 X-66.5066 Y17.0992 Z-2.0358
G1 X-66.5 Y17.0994 Z-2.04
G1 X-66.4934 Y17.0992 Z-2.0443
G1 X-66.4872 Y17.0986 Z-2.0483
G1 X-66.4816 Y17.0977 Z-2.0519
G1 X-66.4756 Y17.0963 Z-2.0558
G1 X-66.4692 Y17.0945 Z-2.0601
G1 X-66.4634 Y17.0924 Z-2.064
G1 X-66.4578 Y17.09 Z-2.068
G1 X-66.4521 Y17.0871 Z-2.072
G1 X-66.4467 Y17.0838 Z-2.0761
G1 X-66.4415 Y17.0804 Z-2.0801
G1 X-66.4369 Y17.0768 Z-2.0838
G1 X-66.4321 Y17.0726 Z-2.0879
G1 X-66.4274 Y17.0679 Z-2.0921
G1 X-66.4232 Y17.0631 Z-2.0963
G1 X-66.4196 Y17.0585 Z-2.1
G1 X-66.4162 Y17.0533 Z-2.104
G1 X-66.4129 Y17.0479 Z-2.108
G1 X-66.41 Y17.0422 Z-2.1121
G1 X-66.4076 Y17.0366 Z-2.116
G1 X-66.4055 Y17.0308 Z-2.12
G1 X-66.4037 Y17.0244 Z-2.1242
G1 X-66.4023 Y17.0184 Z-2.1282
G1 X-66.4014 Y17.0128 Z-2.1318
G1 X-66.4008 Y17.0066 Z-2.1358
G1 X-66.4006 Y17.0 Z-2.14
G1 X-66.4008 Y16.9934 Z-2.1443
G1 X-66.4014 Y16.9872 Z-2.1483
G1 X-66.4023 Y16.9816 Z-2.1519
G1 X-66.4037 Y16.9756 Z-2.1558
G1 X-66.4055 Y16.9692 Z-2.1601
G1 X-66.4076 Y16.9634 Z-2.164
G1 X-66.41 Y16.9578 Z-2.168
G1 X-66.4129 Y16.9521 Z-2.172
G1 X-66.4162 Y16.9467 Z-2.1761
G1 X-66.4196 Y16.9415 Z-2.1801
G1 X-66.4232 Y16.9369 Z-2.1838
G1 X-66.4274 Y16.9321 Z-2.1879
G1 X-66.4321 Y16.9274 Z-2.1921
G1 X-66.4369 Y16.9232 Z-2.1963
G1 X-66.4415 Y16.9196 Z-2.2
G1 X-66.4467 Y16.9162 Z-2.204
G1 X-66.4521 Y16.9129 Z-2.208
G1 X-66.4578 Y16.91 Z-2.2121
G1 X-66.4634 Y16.9076 Z-2.216
G1 X-66.4692 Y16.9055 Z-2.22
G1 X-66.4756 Y16.9037 Z-2.2242
G1 X-66.4816 Y16.9023 Z-2.2282
G1 X-66.4872 Y16.9014 Z-2.2318
G1 X-66.4934 Y16.9008 Z-2.2358
G1 X-66.5 Y16.9006 Z-2.24
G1 X-66.5066 Y16.9008 Z-2.2443
G1 X-66.5128 Y16.9014 Z-2.2483
G1 X-66.5184 Y16.9023 Z-2.2519
G1 X-66.5244 Y16.9037 Z-2.2558
G1 X-66.5308 Y16.9055 Z-2.2601
G1 X-66.5366 Y16.9076 Z-2.264
G1 X-66.5422 Y16.91 Z-2.268
G1 X-66.5479 Y16.9129 Z-2.272
G1 X-66.5533 Y16.9162 Z-2.2761
G1 X-66.5585 Y16.9196 Z-2.2801
G1 X-66.5631 Y16.9232 Z-2.2838
G1 X-66.5679 Y16.9274 Z-2.2879
G1 X-66.5726 Y16.9321 Z-2.2921
G1 X-66.5768 Y16.9369 Z-2.2963
G1 X-66.5804 Y16.9415 Z-2.3
G1 X-66.5838 Y16.9467 Z-2.304
G1 X-66.5871 Y16.9521 Z-2.308
G1 X-66.59 Y16.9578 Z-2.3121
G1 X-66.5924 Y16.9634 Z-2.316
G1 X-66.5945 Y16.9692 Z-2.32
G1 X-66.5963 Y16.9756 Z-2.3242
G1 X-66.5977 Y16.9816 Z-2.3282
G1 X-66.5986 Y16.9872 Z-2.3318
G1 X-66.5992 Y16.9934 Z-2.3358
G1 X-66.5994 Y17.0 Z-2.34
G1 X-66.5992 Y17.0066 Z-2.3443
G1 X-66.5986 Y17.0128 Z-2.3483
G1 X-66.5977 Y17.0184 Z-2.3519
G1 X-66.5963 Y17.0244 Z-2.3558
G1 X-66.5945 Y17.0308 Z-2.3601
G1 X-66.5924 Y17.0366 Z-2.364
G1 X-66.59 Y17.0422 Z-2.368
G1 X-66.5871 Y17.0479 Z-2.372
G1 X-66.5838 Y17.0533 Z-2.3761
G1 X-66.5804 Y17.0585 Z-2.3801
G1 X-66.5768 Y17.0631 Z-2.3838
G1 X-66.5726 Y17.0679 Z-2.3879
G1 X-66.5679 Y17.0726 Z-2.3921
G1 X-66.5631 Y17.0768 Z-2.3963
G1 X-66.5585 Y17.0804 Z-2.4
G1 X-66.5533 Y17.0838 Z-2.404
G1 X-66.5479 Y17.0871 Z-2.408
G1 X-66.5422 Y17.09 Z-2.4121
G1 X-66.5366 Y17.0924 Z-2.416
G1 X-66.5308 Y17.0945 Z-2.42
G1 X-66.5244 Y17.0963 Z-2.4242
G1 X-66.5184 Y17.0977 Z-2.4282
G1 X-66.5128 Y17.0986 Z-2.4318
G1 X-66.5066 Y17.0992 Z-2.4358
G1 X-66.5 Y17.0994 Z-2.44
G1 X-66.4934 Y17.0992 Z-2.4443
G1 X-66.4872 Y17.0986 Z-2.4483
G1 X-66.4816 Y17.0977 Z-2.4519
G1 X-66.4756 Y17.0963 Z-2.4558
G1 X-66.4692 Y17.0945 Z-2.4601
G1 X-66.4634 Y17.0924 Z-2.464
G1 X-66.4578 Y17.09 Z-2.468
G1 X-66.4521 Y17.0871 Z-2.472
G1 X-66.4467 Y17.0838 Z-2.4761
G1 X-66.4415 Y17.0804 Z-2.4801
G1 X-66.4369 Y17.0768 Z-2.4838
G1 X-66.4321 Y17.0726 Z-2.4879
G1 X-66.4274 Y17.0679 Z-2.4921
G1 X-66.4232 Y17.0631 Z-2.4963
G1 X-66.4196 Y17.0585 Z-2.5
G1 X-66.4162 Y17.0533 Z-2.504
G1 X-66.4129 Y17.0479 Z-2.508
G1 X-66.41 Y17.0422 Z-2.5121
G1 X-66.4076 Y17.0366 Z-2.516
G1 X-66.4055 Y17.0308 Z-2.52
G1 X-66.4037 Y17.0244 Z-2.5242
G1 X-66.4023 Y17.0184 Z-2.5282
G1 X-66.4014 Y17.0128 Z-2.5318
G1 X-66.4008 Y17.0066 Z-2.5358
G1 X-66.4006 Y17.0 Z-2.54
G1 X-66.4008 Y16.9934 Z-2.5443
G1 X-66.4014 Y16.9872 Z-2.5483
G1 X-66.4023 Y16.9816 Z-2.5519
G1 X-66.4037 Y16.9756 Z-2.5558
G1 X-66.4055 Y16.9692 Z-2.5601
G1 X-66.4076 Y16.9634 Z-2.564
G1 X-66.41 Y16.9578 Z-2.568
G1 X-66.4129 Y16.9521 Z-2.572
G1 X-66.4162 Y16.9467 Z-2.5761
G1 X-66.4196 Y16.9415 Z-2.5801
G1 X-66.4232 Y16.9369 Z-2.5838
G1 X-66.4274 Y16.9321 Z-2.5879
G1 X-66.4321 Y16.9274 Z-2.5921
G1 X-66.4369 Y16.9232 Z-2.5963
G1 X-66.4415 Y16.9196 Z-2.6
G1 X-66.4467 Y16.9162 Z-2.604
G1 X-66.4521 Y16.9129 Z-2.608
G1 X-66.4578 Y16.91 Z-2.6121
G1 X-66.4634 Y16.9076 Z-2.616
G1 X-66.4692 Y16.9055 Z-2.62
G1 X-66.4756 Y16.9037 Z-2.6242
G1 X-66.4816 Y16.9023 Z-2.6282
G1 X-66.4872 Y16.9014 Z-2.6318
G1 X-66.4934 Y16.9008 Z-2.6358
G1 X-66.5 Y16.9006 Z-2.64
G1 X-66.5066 Y16.9008 Z-2.6443
G1 X-66.5128 Y16.9014 Z-2.6483
G1 X-66.5184 Y16.9023 Z-2.6519
G1 X-66.5244 Y16.9037 Z-2.6558
G1 X-66.5308 Y16.9055 Z-2.6601
G1 X-66.5366 Y16.9076 Z-2.664
G1 X-66.5422 Y16.91 Z-2.668
G1 X-66.5479 Y16.9129 Z-2.672
G1 X-66.5533 Y16.9162 Z-2.6761
G1 X-66.5585 Y16.9196 Z-2.6801
G1 X-66.5631 Y16.9232 Z-2.6838
G1 X-66.5679 Y16.9274 Z-2.6879
G1 X-66.5726 Y16.9321 Z-2.6921
G1 X-66.5768 Y16.9369 Z-2.6963
G1 X-66.5804 Y16.9415 Z-2.7
G1 X-66.5838 Y16.9467 Z-2.704
G1 X-66.5871 Y16.9521 Z-2.708
G1 X-66.59 Y16.9578 Z-2.7121
G1 X-66.5924 Y16.9634 Z-2.716
G1 X-66.5945 Y16.9692 Z-2.72
G1 X-66.5963 Y16.9756 Z-2.7242
G1 X-66.5977 Y16.9816 Z-2.7282
G1 X-66.5986 Y16.9872 Z-2.7318
G1 X-66.5992 Y16.9934 Z-2.7358
G1 X-66.5994 Y17.0 Z-2.74
G1 X-66.5992 Y17.0066 Z-2.7443
G1 X-66.5986 Y17.0128 Z-2.7483
G1 X-66.5977 Y17.0184 Z-2.7519
G1 X-66.5963 Y17.0244 Z-2.7558
G1 X-66.5945 Y17.0308 Z-2.7601
G1 X-66.5924 Y17.0366 Z-2.764
G1 X-66.59 Y17.0422 Z-2.768
G1 X-66.5871 Y17.0479 Z-2.772
G1 X-66.5838 Y17.0533 Z-2.7761
G1 X-66.5804 Y17.0585 Z-2.7801
G1 X-66.5768 Y17.0631 Z-2.7838
G1 X-66.5726 Y17.0679 Z-2.7879
G1 X-66.5679 Y17.0726 Z-2.7921
G1 X-66.5631 Y17.0768 Z-2.7963
G1 X-66.5585 Y17.0804 Z-2.8
G1 X-66.5533 Y17.0838 Z-2.804
G1 X-66.5479 Y17.0871 Z-2.808
G1 X-66.5422 Y17.09 Z-2.8121
G1 X-66.5366 Y17.0924 Z-2.816
G1 X-66.5308 Y17.0945 Z-2.82
G1 X-66.5244 Y17.0963 Z-2.8242
G1 X-66.5184 Y17.0977 Z-2.8282
G1 X-66.5128 Y17.0986 Z-2.8318
G1 X-66.5066 Y17.0992 Z-2.8358
G1 X-66.5 Y17.0994 Z-2.84
G1 X-66.4934 Y17.0992 Z-2.8443
G1 X-66.4872 Y17.0986 Z-2.8483
G1 X-66.4816 Y17.0977 Z-2.8519
G1 X-66.4756 Y17.0963 Z-2.8558
G1 X-66.4692 Y17.0945 Z-2.8601
G1 X-66.4634 Y17.0924 Z-2.864
G1 X-66.4578 Y17.09 Z-2.868
G1 X-66.4521 Y17.0871 Z-2.872
G1 X-66.4467 Y17.0838 Z-2.8761
G1 X-66.4415 Y17.0804 Z-2.8801
G1 X-66.4369 Y17.0768 Z-2.8838
G1 X-66.4321 Y17.0726 Z-2.8879
G1 X-66.4274 Y17.0679 Z-2.8921
G1 X-66.4232 Y17.0631 Z-2.8963
G1 X-66.4196 Y17.0585 Z-2.9
G1 X-66.4162 Y17.0533 Z-2.904
G1 X-66.4129 Y17.0479 Z-2.908
G1 X-66.41 Y17.0422 Z-2.9121
G1 X-66.4076 Y17.0366 Z-2.916
G1 X-66.4055 Y17.0308 Z-2.92
G1 X-66.4037 Y17.0244 Z-2.9242
G1 X-66.4023 Y17.0184 Z-2.9282
G1 X-66.4014 Y17.0128 Z-2.9318
G1 X-66.4008 Y17.0066 Z-2.9358
G1 X-66.4006 Y17.0 Z-2.94
G1 X-66.4008 Y16.9934 Z-2.9443
G1 X-66.4014 Y16.9872 Z-2.9483
G1 X-66.4023 Y16.9816 Z-2.9519
G1 X-66.4037 Y16.9756 Z-2.9558
G1 X-66.4055 Y16.9692 Z-2.9601
G1 X-66.4076 Y16.9634 Z-2.964
G1 X-66.41 Y16.9578 Z-2.968
G1 X-66.4129 Y16.9521 Z-2.972
G1 X-66.4162 Y16.9467 Z-2.9761
G1 X-66.4196 Y16.9415 Z-2.9801
G1 X-66.4232 Y16.9369 Z-2.9838
G1 X-66.4274 Y16.9321 Z-2.9879
G1 X-66.4321 Y16.9274 Z-2.9921
G1 X-66.4369 Y16.9232 Z-2.9963
G1 X-66.4415 Y16.9196 Z-3.0
G1 X-66.4467 Y16.9162 Z-3.004
G1 X-66.4521 Y16.9129 Z-3.008
G1 X-66.4578 Y16.91 Z-3.0121
G1 X-66.4634 Y16.9076 Z-3.016
G1 X-66.4692 Y16.9055 Z-3.02
G1 X-66.4756 Y16.9037 Z-3.0242
G1 X-66.4816 Y16.9023 Z-3.0282
G1 X-66.4872 Y16.9014 Z-3.0318
G1 X-66.4934 Y16.9008 Z-3.0358
G1 X-66.5 Y16.9006 Z-3.04
G1 X-66.5066 Y16.9008 Z-3.0443
G1 X-66.5128 Y16.9014 Z-3.0483
G1 X-66.5184 Y16.9023 Z-3.0519
G1 X-66.5244 Y16.9037 Z-3.0558
G1 X-66.5308 Y16.9055 Z-3.0601
G1 X-66.5366 Y16.9076 Z-3.064
G1 X-66.5422 Y16.91 Z-3.068
G1 X-66.5479 Y16.9129 Z-3.072
G1 X-66.5533 Y16.9162 Z-3.0761
G1 X-66.5585 Y16.9196 Z-3.0801
G1 X-66.5631 Y16.9232 Z-3.0838
G1 X-66.5679 Y16.9274 Z-3.0879
G1 X-66.5726 Y16.9321 Z-3.0921
G1 X-66.5768 Y16.9369 Z-3.0963
G1 X-66.5804 Y16.9415 Z-3.1
G1 X-66.5838 Y16.9467 Z-3.104
G1 X-66.5871 Y16.9521 Z-3.108
G1 X-66.59 Y16.9578 Z-3.1121
G1 X-66.5924 Y16.9634 Z-3.116
G1 X-66.5945 Y16.9692 Z-3.12
G1 X-66.5963 Y16.9756 Z-3.1242
G1 X-66.5977 Y16.9816 Z-3.1282
G1 X-66.5986 Y16.9872 Z-3.1318
G1 X-66.5992 Y16.9934 Z-3.1358
G1 X-66.5994 Y17.0 Z-3.14
G1 X-66.5992 Y17.0066 Z-3.1443
G1 X-66.5986 Y17.0128 Z-3.1483
G1 X-66.5977 Y17.0184 Z-3.1519
G1 X-66.5963 Y17.0244 Z-3.1558
G1 X-66.5945 Y17.0308 Z-3.1601
G1 X-66.5924 Y17.0366 Z-3.164
G1 X-66.59 Y17.0422 Z-3.168
G1 X-66.5871 Y17.0479 Z-3.172
G1 X-66.5838 Y17.0533 Z-3.1761
G1 X-66.5804 Y17.0585 Z-3.1801
G1 X-66.5768 Y17.0631 Z-3.1838
G1 X-66.5726 Y17.0679 Z-3.1879
G1 X-66.5679 Y17.0726 Z-3.1921
G1 X-66.5631 Y17.0768 Z-3.1963
G1 X-66.5585 Y17.0804 Z-3.2
G1 X-66.5533 Y17.0838 Z-3.204
G1 X-66.5479 Y17.0871 Z-3.208
G1 X-66.5422 Y17.09 Z-3.2121
G1 X-66.5366 Y17.0924 Z-3.216
G1 X-66.5308 Y17.0945 Z-3.22
G1 X-66.5244 Y17.0963 Z-3.2242
G1 X-66.5184 Y17.0977 Z-3.2282
G1 X-66.5128 Y17.0986 Z-3.2318
G1 X-66.5066 Y17.0992 Z-3.2358
G1 X-66.5 Y17.0994 Z-3.24
G1 X-66.4934 Y17.0992 Z-3.2443
G1 X-66.4872 Y17.0986 Z-3.2483
G1 X-66.4816 Y17.0977 Z-3.2519
G1 X-66.4756 Y17.0963 Z-3.2558
G1 X-66.4692 Y17.0945 Z-3.2601
G1 X-66.4634 Y17.0924 Z-3.264
G1 X-66.4578 Y17.09 Z-3.268
G1 X-66.4521 Y17.0871 Z-3.272
G1 X-66.4467 Y17.0838 Z-3.2761
G1 X-66.4415 Y17.0804 Z-3.2801
G1 X-66.4369 Y17.0768 Z-3.2838
G1 X-66.4321 Y17.0726 Z-3.2879
G1 X-66.4274 Y17.0679 Z-3.2921
G1 X-66.4232 Y17.0631 Z-3.2963
G1 X-66.4196 Y17.0585 Z-3.3
G1 X-66.4162 Y17.0533 Z-3.304
G1 X-66.4129 Y17.0479 Z-3.308
G1 X-66.41 Y17.0422 Z-3.3121
G1 X-66.4076 Y17.0366 Z-3.316
G1 X-66.4055 Y17.0308 Z-3.32
G1 X-66.4037 Y17.0244 Z-3.3242
G1 X-66.4023 Y17.0184 Z-3.3282
G1 X-66.4014 Y17.0128 Z-3.3318
G1 X-66.4008 Y17.0066 Z-3.3358
G1 X-66.4006 Y17.0 Z-3.34
G1 X-66.4008 Y16.9934 Z-3.3443
G1 X-66.4014 Y16.9872 Z-3.3483
G1 X-66.4023 Y16.9816 Z-3.3519
G1 X-66.4037 Y16.9756 Z-3.3558
G1 X-66.4055 Y16.9692 Z-3.3601
G1 X-66.4076 Y16.9634 Z-3.364
G1 X-66.41 Y16.9578 Z-3.368
G1 X-66.4129 Y16.9521 Z-3.372
G1 X-66.4162 Y16.9467 Z-3.3761
G1 X-66.4196 Y16.9415 Z-3.3801
G1 X-66.4232 Y16.9369 Z-3.3838
G1 X-66.4274 Y16.9321 Z-3.3879
G1 X-66.4321 Y16.9274 Z-3.3921
G1 X-66.4369 Y16.9232 Z-3.3963
G1 X-66.4415 Y16.9196 Z-3.4
G1 X-66.4467 Y16.9162 Z-3.404
G1 X-66.4521 Y16.9129 Z-3.408
G1 X-66.4578 Y16.91 Z-3.4121
G1 X-66.4634 Y16.9076 Z-3.416
G1 X-66.4692 Y16.9055 Z-3.42
G1 X-66.4756 Y16.9037 Z-3.4242
G1 X-66.4816 Y16.9023 Z-3.4282
G1 X-66.4872 Y16.9014 Z-3.4318
G1 X-66.4934 Y16.9008 Z-3.4358
G1 X-66.5 Y16.9006 Z-3.44
G1 X-66.5066 Y16.9008 Z-3.4443
G1 X-66.5128 Y16.9014 Z-3.4483
G1 X-66.5184 Y16.9023 Z-3.4519
G1 X-66.5244 Y16.9037 Z-3.4558
G1 X-66.5308 Y16.9055 Z-3.4601
G1 X-66.5366 Y16.9076 Z-3.464
G1 X-66.5422 Y16.91 Z-3.468
G1 X-66.5479 Y16.9129 Z-3.472
G1 X-66.5533 Y16.9162 Z-3.4761
G1 X-66.5585 Y16.9196 Z-3.4801
G1 X-66.5631 Y16.9232 Z-3.4838
G1 X-66.5679 Y16.9274 Z-3.4879
G1 X-66.5726 Y16.9321 Z-3.4921
G1 X-66.5768 Y16.9369 Z-3.4963
G1 X-66.5804 Y16.9415 Z-3.5
G1 X-66.5838 Y16.9467 Z-3.504
G1 X-66.5871 Y16.9521 Z-3.508
G1 X-66.59 Y16.9578 Z-3.5121
G1 X-66.5924 Y16.9634 Z-3.516
G1 X-66.5945 Y16.9692 Z-3.52
G1 X-66.5963 Y16.9756 Z-3.5242
G1 X-66.5977 Y16.9816 Z-3.5282
G1 X-66.5986 Y16.9872 Z-3.5318
G1 X-66.5992 Y16.9934 Z-3.5358
G1 X-66.5994 Y17.0 Z-3.54
G1 X-66.5992 Y17.0066 Z-3.5443
G1 X-66.5986 Y17.0128 Z-3.5483
G1 X-66.5977 Y17.0184 Z-3.5519
G1 X-66.5963 Y17.0244 Z-3.5558
G1 X-66.5945 Y17.0308 Z-3.5601
G1 X-66.5924 Y17.0366 Z-3.564
G1 X-66.59 Y17.0422 Z-3.568
G1 X-66.5871 Y17.0479 Z-3.572
G1 X-66.5838 Y17.0533 Z-3.5761
G1 X-66.5804 Y17.0585 Z-3.5801
G1 X-66.5768 Y17.0631 Z-3.5838
G1 X-66.5726 Y17.0679 Z-3.5879
G1 X-66.5679 Y17.0726 Z-3.5921
G1 X-66.5631 Y17.0768 Z-3.5963
G1 X-66.5585 Y17.0804 Z-3.6
G1 X-66.5533 Y17.0838 Z-3.604
G1 X-66.5479 Y17.0871 Z-3.608
G1 X-66.5422 Y17.09 Z-3.6121
G1 X-66.5366 Y17.0924 Z-3.616
G1 X-66.5308 Y17.0945 Z-3.62
G1 X-66.5244 Y17.0963 Z-3.6242
G1 X-66.5184 Y17.0977 Z-3.6282
G1 X-66.5128 Y17.0986 Z-3.6318
G1 X-66.5066 Y17.0992 Z-3.6358
G1 X-66.5 Y17.0994 Z-3.64
G1 X-66.4934 Y17.0992 Z-3.6443
G1 X-66.4872 Y17.0986 Z-3.6483
G1 X-66.4816 Y17.0977 Z-3.6519
G1 X-66.4756 Y17.0963 Z-3.6558
G1 X-66.4692 Y17.0945 Z-3.6601
G1 X-66.4634 Y17.0924 Z-3.664
G1 X-66.4578 Y17.09 Z-3.668
G1 X-66.4521 Y17.0871 Z-3.672
G1 X-66.4467 Y17.0838 Z-3.6761
G1 X-66.4415 Y17.0804 Z-3.6801
G1 X-66.4369 Y17.0768 Z-3.6838
G1 X-66.4321 Y17.0726 Z-3.6879
G1 X-66.4274 Y17.0679 Z-3.6921
G1 X-66.4232 Y17.0631 Z-3.6963
G1 X-66.4196 Y17.0585 Z-3.7
G1 X-66.4162 Y17.0533 Z-3.704
G1 X-66.4129 Y17.0479 Z-3.708
G1 X-66.41 Y17.0422 Z-3.7121
G1 X-66.4076 Y17.0366 Z-3.716
G1 X-66.4055 Y17.0308 Z-3.72
G1 X-66.4037 Y17.0244 Z-3.7242
G1 X-66.4023 Y17.0184 Z-3.7282
G1 X-66.4014 Y17.0128 Z-3.7318
G1 X-66.4008 Y17.0066 Z-3.7358
G1 X-66.4006 Y17.0 Z-3.74
G1 X-66.4008 Y16.9934 Z-3.7443
G1 X-66.4014 Y16.9872 Z-3.7483
G1 X-66.4023 Y16.9816 Z-3.7519
G1 X-66.4037 Y16.9756 Z-3.7558
G1 X-66.4055 Y16.9692 Z-3.7601
G1 X-66.4076 Y16.9634 Z-3.764
G1 X-66.41 Y16.9578 Z-3.768
G1 X-66.4129 Y16.9521 Z-3.772
G1 X-66.4162 Y16.9467 Z-3.7761
G1 X-66.4196 Y16.9415 Z-3.7801
G1 X-66.4232 Y16.9369 Z-3.7838
G1 X-66.4274 Y16.9321 Z-3.7879
G1 X-66.4321 Y16.9274 Z-3.7921
G1 X-66.4369 Y16.9232 Z-3.7963
G1 X-66.4415 Y16.9196 Z-3.8
G1 X-66.4467 Y16.9162 Z-3.804
G1 X-66.4521 Y16.9129 Z-3.808
G1 X-66.4578 Y16.91 Z-3.8121
G1 X-66.4634 Y16.9076 Z-3.816
G1 X-66.4692 Y16.9055 Z-3.82
G1 X-66.4756 Y16.9037 Z-3.8242
G1 X-66.4816 Y16.9023 Z-3.8282
G1 X-66.4872 Y16.9014 Z-3.8318
G1 X-66.4934 Y16.9008 Z-3.8358
G1 X-66.5 Y16.9006 Z-3.84
G1 X-66.5066 Y16.9008 Z-3.8443
G1 X-66.5128 Y16.9014 Z-3.8483
G1 X-66.5184 Y16.9023 Z-3.8519
G1 X-66.5244 Y16.9037 Z-3.8558
G1 X-66.5308 Y16.9055 Z-3.8601
G1 X-66.5366 Y16.9076 Z-3.864
G1 X-66.5422 Y16.91 Z-3.868
G1 X-66.5479 Y16.9129 Z-3.872
G1 X-66.5533 Y16.9162 Z-3.8761
G1 X-66.5585 Y16.9196 Z-3.8801
G1 X-66.5631 Y16.9232 Z-3.8838
G1 X-66.5679 Y16.9274 Z-3.8879
G1 X-66.5726 Y16.9321 Z-3.8921
G1 X-66.5768 Y16.9369 Z-3.8963
G1 X-66.5804 Y16.9415 Z-3.9
G1 X-66.5838 Y16.9467 Z-3.904
G1 X-66.5871 Y16.9521 Z-3.908
G1 X-66.59 Y16.9578 Z-3.9121
G1 X-66.5924 Y16.9634 Z-3.916
G1 X-66.5945 Y16.9692 Z-3.92
G1 X-66.5963 Y16.9756 Z-3.9242
G1 X-66.5977 Y16.9816 Z-3.9282
G1 X-66.5986 Y16.9872 Z-3.9318
G1 X-66.5992 Y16.9934 Z-3.9358
G1 X-66.5994 Y17.0 Z-3.94
G1 X-66.5992 Y17.0066 Z-3.9443
G1 X-66.5986 Y17.0128 Z-3.9483
G1 X-66.5977 Y17.0184 Z-3.9519
G1 X-66.5963 Y17.0244 Z-3.9558
G1 X-66.5945 Y17.0308 Z-3.9601
G1 X-66.5924 Y17.0366 Z-3.964
G1 X-66.59 Y17.0422 Z-3.968
G1 X-66.5871 Y17.0479 Z-3.972
G1 X-66.5838 Y17.0533 Z-3.9761
G1 X-66.5804 Y17.0585 Z-3.9801
G1 X-66.5768 Y17.0631 Z-3.9838
G1 X-66.5726 Y17.0679 Z-3.9879
G1 X-66.5679 Y17.0726 Z-3.9921
G1 X-66.5631 Y17.0768 Z-3.9963
G1 X-66.5585 Y17.0804 Z-4.0
G1 X-66.5533 Y17.0838
G1 X-66.5479 Y17.0871
G1 X-66.5422 Y17.09
G1 X-66.5366 Y17.0924
G1 X-66.5308 Y17.0945
G1 X-66.5244 Y17.0963
G1 X-66.5184 Y17.0977
G1 X-66.5128 Y17.0986
G1 X-66.5066 Y17.0992
G1 X-66.5 Y17.0994
G1 X-66.4934 Y17.0992
G1 X-66.4872 Y17.0986
G1 X-66.4816 Y17.0977
G1 X-66.4756 Y17.0963
G1 X-66.4692 Y17.0945
G1 X-66.4634 Y17.0924
G1 X-66.4578 Y17.09
G1 X-66.4521 Y17.0871
G1 X-66.4467 Y17.0838
G1 X-66.4415 Y17.0804
G1 X-66.4369 Y17.0768
G1 X-66.4321 Y17.0726
G1 X-66.4274 Y17.0679
G1 X-66.4232 Y17.0631
G1 X-66.4196 Y17.0585
G1 X-66.4162 Y17.0533
G1 X-66.4129 Y17.0479
G1 X-66.41 Y17.0422
G1 X-66.4076 Y17.0366
G1 X-66.4055 Y17.0308
G1 X-66.4037 Y17.0244
G1 X-66.4023 Y17.0184
G1 X-66.4014 Y17.0128
G1 X-66.4008 Y17.0066
G1 X-66.4006 Y17.0
G1 X-66.4008 Y16.9934
G1 X-66.4014 Y16.9872
G1 X-66.4023 Y16.9816
G1 X-66.4037 Y16.9756
G1 X-66.4055 Y16.9692
G1 X-66.4076 Y16.9634
G1 X-66.41 Y16.9578
G1 X-66.4129 Y16.9521
G1 X-66.4162 Y16.9467
G1 X-66.4196 Y16.9415
G1 X-66.4232 Y16.9369
G1 X-66.4274 Y16.9321
G1 X-66.4321 Y16.9274
G1 X-66.4369 Y16.9232
G1 X-66.4415 Y16.9196
G1 X-66.4467 Y16.9162
G1 X-66.4521 Y16.9129
G1 X-66.4578 Y16.91
G1 X-66.4634 Y16.9076
G1 X-66.4692 Y16.9055
G1 X-66.4756 Y16.9037
G1 X-66.4816 Y16.9023
G1 X-66.4872 Y16.9014
G1 X-66.4934 Y16.9008
G1 X-66.5 Y16.9006
G1 X-66.5066 Y16.9008
G1 X-66.5128 Y16.9014
G1 X-66.5184 Y16.9023
G1 X-66.5244 Y16.9037
G1 X-66.5308 Y16.9055
G1 X-66.5366 Y16.9076
G1 X-66.5422 Y16.91
G1 X-66.5479 Y16.9129
G1 X-66.5533 Y16.9162
G1 X-66.5585 Y16.9196
G1 X-66.5631 Y16.9232
G1 X-66.5679 Y16.9274
G1 X-66.5726 Y16.9321
G1 X-66.5768 Y16.9369
G1 X-66.5804 Y16.9415
G1 X-66.5838 Y16.9467
G1 X-66.5871 Y16.9521
G1 X-66.59 Y16.9578
G1 X-66.5924 Y16.9634
G1 X-66.5945 Y16.9692
G1 X-66.5963 Y16.9756
G1 X-66.5977 Y16.9816
G1 X-66.5986 Y16.9872
G1 X-66.5992 Y16.9934
G1 X-66.5994 Y17.0
G1 X-66.5992 Y17.0066
G1 X-66.5986 Y17.0128
G1 X-66.5977 Y17.0184
G1 X-66.5963 Y17.0244
G1 X-66.5945 Y17.0308
G1 X-66.5924 Y17.0366
G1 X-66.59 Y17.0422
G1 X-66.5871 Y17.0479
G1 X-66.5838 Y17.0533
G1 X-66.5804 Y17.0585
G1 X-66.5768 Y17.0631
G1 X-66.5726 Y17.0679
G1 X-66.5679 Y17.0726
G1 X-66.5631 Y17.0768
G1 X-66.5585 Y17.0804
G0 Z3.0
G0 X-66.5 Y-2.9006
G0 Z1.0
G1 F150.0 Z0.0
G1 F400.0 X-66.4937 Y-2.9008 Z-0.004
G1 X-66.4875 Y-2.9014 Z-0.008
G1 X-66.4814 Y-2.9024 Z-0.012
G1 X-66.4753 Y-2.9037 Z-0.016
G1 X-66.4691 Y-2.9055 Z-0.0201
G1 X-66.4635 Y-2.9076 Z-0.024
G1 X-66.4577 Y-2.9101 Z-0.028
G1 X-66.452 Y-2.913 Z-0.0321
G1 X-66.4469 Y-2.916 Z-0.0359
G1 X-66.4418 Y-2.9195 Z-0.0398
G1 X-66.4368 Y-2.9234 Z-0.0439
G1 X-66.4319 Y-2.9276 Z-0.0481
G1 X-66.4274 Y-2.9321 Z-0.0521
G1 X-66.4233 Y-2.9368 Z-0.0561
G1 X-66.4198 Y-2.9414 Z-0.0598
G1 X-66.4162 Y-2.9465 Z-0.0638
G1 X-66.4129 Y-2.9522 Z-0.0681
G1 X-66.41 Y-2.9578 Z-0.0721
G1 X-66.4076 Y-2.9634 Z-0.076
G1 X-66.4055 Y-2.9694 Z-0.08
G1 X-66.4037 Y-2.9755 Z-0.0842
G1 X-66.4023 Y-2.9816 Z-0.0882
G1 X-66.4014 Y-2.9872 Z-0.0918
G1 X-66.4008 Y-2.9934 Z-0.0958
G1 X-66.4006 Y-3.0 Z-0.1
G1 X-66.4008 Y-3.0066 Z-0.1042
G1 X-66.4014 Y-3.0128 Z-0.1082
G1 X-66.4023 Y-3.0184 Z-0.1118
G1 X-66.4037 Y-3.0245 Z-0.1158
G1 X-66.4055 Y-3.0306 Z-0.12
G1 X-66.4076 Y-3.0366 Z-0.124
G1 X-66.41 Y-3.0422 Z-0.1279
G1 X-66.4129 Y-3.0478 Z-0.1319
G1 X-66.4162 Y-3.0535 Z-0.1362
G1 X-66.4198 Y-3.0586 Z-0.1402
G1 X-66.4233 Y-3.0632 Z-0.1439
G1 X-66.4274 Y-3.0679 Z-0.1479
G1 X-66.4319 Y-3.0724 Z-0.1519
G1 X-66.4368 Y-3.0766 Z-0.1561
G1 X-66.4418 Y-3.0805 Z-0.1602
G1 X-66.4469 Y-3.084 Z-0.1641
G1 X-66.452 Y-3.087 Z-0.1679
G1 X-66.4577 Y-3.0899 Z-0.172
G1 X-66.4635 Y-3.0924 Z-0.176
G1 X-66.4691 Y-3.0945 Z-0.1799
G1 X-66.4753 Y-3.0963 Z-0.184
G1 X-66.4814 Y-3.0976 Z-0.188
G1 X-66.4875 Y-3.0986 Z-0.192
G1 X-66.4938 Y-3.0992 Z-0.196
G1 X-66.5 Y-3.0994 Z-0.2
G1 X-66.5062 Y-3.0992 Z-0.204
G1 X-66.5125 Y-3.0986 Z-0.208
G1 X-66.5186 Y-3.0976 Z-0.212
G1 X-66.5247 Y-3.0963 Z-0.216
G1 X-66.5309 Y-3.0945 Z-0.2201
G1 X-66.5365 Y-3.0924 Z-0.224
G1 X-66.5423 Y-3.0899 Z-0.228
G1 X-66.548 Y-3.087 Z-0.2321
G1 X-66.5531 Y-3.084 Z-0.2359
G1 X-66.5582 Y-3.0805 Z-0.2398
G1 X-66.5632 Y-3.0766 Z-0.2439
G1 X-66.5681 Y-3.0724 Z-0.2481
G1 X-66.5726 Y-3.0679 Z-0.2521
G1 X-66.5767 Y-3.0632 Z-0.2561
G1 X-66.5802 Y-3.0586 Z-0.2598
G1 X-66.5838 Y-3.0535 Z-0.2638
G1 X-66.5871 Y-3.0478 Z-0.2681
G1 X-66.59 Y-3.0422 Z-0.2721
