( Made using CamBam - http://www.cambam.co.uk )
( ssc_Front_PANELS_prod_v2 2/4/2021 9:02:32 AM )
( T4 : 2.5 )
( CUTVIEWER )
( FROM/0,0,5 )
( Select dummy tool to avoid warnings )
( TOOL/MILL,1,0,20.0,0 )
( STOCK/BLOCK,180.0,100.0,6.0,90.0,50.0,6.0 )
G21 G90 G91.1 G64 G40
G0 Z6.0
( T4 : 2.5 )
( Tool Taper coming soon )
( TOOL/MILL,2.5,0.0,0.0,0 )
T4 M6
( M3_holes )
G17
M3 S1000
G0 X-75.8415 Y31.3196
G0 Z1.0
G1 F150.0 Z0.0
G1 F400.0 X-75.8467 Y31.3162 Z-0.003
G1 X-75.8521 Y31.3129 Z-0.006
G1 X-75.8578 Y31.31 Z-0.0091
G1 X-75.8634 Y31.3076 Z-0.012
G1 X-75.8692 Y31.3055 Z-0.015
G1 X-75.8756 Y31.3037 Z-0.0182
G1 X-75.8816 Y31.3023 Z-0.0212
G1 X-75.8872 Y31.3014 Z-0.0238
G1 X-75.8934 Y31.3008 Z-0.0269
G1 X-75.9 Y31.3006 Z-0.03
G1 X-75.9066 Y31.3008 Z-0.0332
G1 X-75.9128 Y31.3014 Z-0.0362
G1 X-75.9184 Y31.3023 Z-0.0389
G1 X-75.9244 Y31.3037 Z-0.0419
G1 X-75.9308 Y31.3055 Z-0.0451
G1 X-75.9366 Y31.3076 Z-0.048
G1 X-75.9422 Y31.31 Z-0.051
G1 X-75.9479 Y31.3129 Z-0.054
G1 X-75.9533 Y31.3162 Z-0.0571
G1 X-75.9585 Y31.3196 Z-0.06
G1 X-75.9631 Y31.3232 Z-0.0629
G1 X-75.9679 Y31.3274 Z-0.0659
G1 X-75.9726 Y31.3321 Z-0.0691
G1 X-75.9768 Y31.3369 Z-0.0722
G1 X-75.9804 Y31.3415 Z-0.075
G1 X-75.9838 Y31.3467 Z-0.078
G1 X-75.9871 Y31.3521 Z-0.081
G1 X-75.99 Y31.3578 Z-0.0841
G1 X-75.9924 Y31.3634 Z-0.087
G1 X-75.9945 Y31.3692 Z-0.09
G1 X-75.9963 Y31.3756 Z-0.0932
G1 X-75.9977 Y31.3816 Z-0.0962
G1 X-75.9986 Y31.3872 Z-0.0988
G1 X-75.9992 Y31.3934 Z-0.1019
G1 X-75.9994 Y31.4 Z-0.105
G1 X-75.9992 Y31.4066 Z-0.1082
G1 X-75.9986 Y31.4128 Z-0.1112
G1 X-75.9977 Y31.4184 Z-0.1139
G1 X-75.9963 Y31.4244 Z-0.1169
G1 X-75.9945 Y31.4308 Z-0.1201
G1 X-75.9924 Y31.4366 Z-0.123
G1 X-75.99 Y31.4422 Z-0.126
G1 X-75.9871 Y31.4479 Z-0.129
G1 X-75.9838 Y31.4533 Z-0.1321
G1 X-75.9804 Y31.4585 Z-0.135
G1 X-75.9768 Y31.4631 Z-0.1379
G1 X-75.9726 Y31.4679 Z-0.1409
G1 X-75.9679 Y31.4726 Z-0.1441
G1 X-75.9631 Y31.4768 Z-0.1472
G1 X-75.9585 Y31.4804 Z-0.15
G1 X-75.9533 Y31.4838 Z-0.153
G1 X-75.9479 Y31.4871 Z-0.156
G1 X-75.9422 Y31.49 Z-0.1591
G1 X-75.9366 Y31.4924 Z-0.162
G1 X-75.9308 Y31.4945 Z-0.165
G1 X-75.9244 Y31.4963 Z-0.1682
G1 X-75.9184 Y31.4977 Z-0.1712
G1 X-75.9128 Y31.4986 Z-0.1738
G1 X-75.9066 Y31.4992 Z-0.1769
G1 X-75.9 Y31.4994 Z-0.18
G1 X-75.8934 Y31.4992 Z-0.1832
G1 X-75.8872 Y31.4986 Z-0.1862
G1 X-75.8816 Y31.4977 Z-0.1889
G1 X-75.8756 Y31.4963 Z-0.1919
G1 X-75.8692 Y31.4945 Z-0.1951
G1 X-75.8634 Y31.4924 Z-0.198
G1 X-75.8578 Y31.49 Z-0.201
G1 X-75.8521 Y31.4871 Z-0.204
G1 X-75.8467 Y31.4838 Z-0.2071
G1 X-75.8415 Y31.4804 Z-0.21
G1 X-75.8369 Y31.4768 Z-0.2129
G1 X-75.8321 Y31.4726 Z-0.2159
G1 X-75.8274 Y31.4679 Z-0.2191
G1 X-75.8232 Y31.4631 Z-0.2222
G1 X-75.8196 Y31.4585 Z-0.225
G1 X-75.8162 Y31.4533 Z-0.228
G1 X-75.8129 Y31.4479 Z-0.231
G1 X-75.81 Y31.4422 Z-0.2341
G1 X-75.8076 Y31.4366 Z-0.237
G1 X-75.8055 Y31.4308 Z-0.24
G1 X-75.8037 Y31.4244 Z-0.2432
G1 X-75.8023 Y31.4184 Z-0.2462
G1 X-75.8014 Y31.4128 Z-0.2488
G1 X-75.8008 Y31.4066 Z-0.2519
G1 X-75.8006 Y31.4 Z-0.255
G1 X-75.8008 Y31.3934 Z-0.2582
G1 X-75.8014 Y31.3872 Z-0.2612
G1 X-75.8023 Y31.3816 Z-0.2639
G1 X-75.8037 Y31.3756 Z-0.2669
G1 X-75.8055 Y31.3692 Z-0.2701
G1 X-75.8076 Y31.3634 Z-0.273
G1 X-75.81 Y31.3578 Z-0.276
G1 X-75.8129 Y31.3521 Z-0.279
G1 X-75.8162 Y31.3467 Z-0.2821
G1 X-75.8196 Y31.3415 Z-0.285
G1 X-75.8232 Y31.3369 Z-0.2879
G1 X-75.8274 Y31.3321 Z-0.2909
G1 X-75.8321 Y31.3274 Z-0.2941
G1 X-75.8369 Y31.3232 Z-0.2972
G1 X-75.8415 Y31.3196 Z-0.3
G1 X-75.8467 Y31.3162 Z-0.303
G1 X-75.8521 Y31.3129 Z-0.306
G1 X-75.8578 Y31.31 Z-0.3091
G1 X-75.8634 Y31.3076 Z-0.312
G1 X-75.8692 Y31.3055 Z-0.315
G1 X-75.8756 Y31.3037 Z-0.3182
G1 X-75.8816 Y31.3023 Z-0.3212
G1 X-75.8872 Y31.3014 Z-0.3238
G1 X-75.8934 Y31.3008 Z-0.3269
G1 X-75.9 Y31.3006 Z-0.33
G1 X-75.9066 Y31.3008 Z-0.3332
G1 X-75.9128 Y31.3014 Z-0.3362
G1 X-75.9184 Y31.3023 Z-0.3389
G1 X-75.9244 Y31.3037 Z-0.3419
G1 X-75.9308 Y31.3055 Z-0.3451
G1 X-75.9366 Y31.3076 Z-0.348
G1 X-75.9422 Y31.31 Z-0.351
G1 X-75.9479 Y31.3129 Z-0.354
G1 X-75.9533 Y31.3162 Z-0.3571
G1 X-75.9585 Y31.3196 Z-0.36
G1 X-75.9631 Y31.3232 Z-0.3629
G1 X-75.9679 Y31.3274 Z-0.3659
G1 X-75.9726 Y31.3321 Z-0.3691
G1 X-75.9768 Y31.3369 Z-0.3722
G1 X-75.9804 Y31.3415 Z-0.375
G1 X-75.9838 Y31.3467 Z-0.378
G1 X-75.9871 Y31.3521 Z-0.381
G1 X-75.99 Y31.3578 Z-0.3841
G1 X-75.9924 Y31.3634 Z-0.387
G1 X-75.9945 Y31.3692 Z-0.39
G1 X-75.9963 Y31.3756 Z-0.3932
G1 X-75.9977 Y31.3816 Z-0.3962
G1 X-75.9986 Y31.3872 Z-0.3988
G1 X-75.9992 Y31.3934 Z-0.4019
G1 X-75.9994 Y31.4 Z-0.405
G1 X-75.9992 Y31.4066 Z-0.4082
G1 X-75.9986 Y31.4128 Z-0.4112
G1 X-75.9977 Y31.4184 Z-0.4139
G1 X-75.9963 Y31.4244 Z-0.4169
G1 X-75.9945 Y31.4308 Z-0.4201
G1 X-75.9924 Y31.4366 Z-0.423
G1 X-75.99 Y31.4422 Z-0.426
G1 X-75.9871 Y31.4479 Z-0.429
G1 X-75.9838 Y31.4533 Z-0.4321
G1 X-75.9804 Y31.4585 Z-0.435
G1 X-75.9768 Y31.4631 Z-0.4379
G1 X-75.9726 Y31.4679 Z-0.4409
G1 X-75.9679 Y31.4726 Z-0.4441
G1 X-75.9631 Y31.4768 Z-0.4472
G1 X-75.9585 Y31.4804 Z-0.45
G1 X-75.9533 Y31.4838 Z-0.453
G1 X-75.9479 Y31.4871 Z-0.456
G1 X-75.9422 Y31.49 Z-0.4591
G1 X-75.9366 Y31.4924 Z-0.462
G1 X-75.9308 Y31.4945 Z-0.465
G1 X-75.9244 Y31.4963 Z-0.4682
G1 X-75.9184 Y31.4977 Z-0.4712
G1 X-75.9128 Y31.4986 Z-0.4738
G1 X-75.9066 Y31.4992 Z-0.4769
G1 X-75.9 Y31.4994 Z-0.48
G1 X-75.8934 Y31.4992 Z-0.4832
G1 X-75.8872 Y31.4986 Z-0.4862
G1 X-75.8816 Y31.4977 Z-0.4889
G1 X-75.8756 Y31.4963 Z-0.4919
G1 X-75.8692 Y31.4945 Z-0.4951
G1 X-75.8634 Y31.4924 Z-0.498
G1 X-75.8578 Y31.49 Z-0.501
G1 X-75.8521 Y31.4871 Z-0.504
G1 X-75.8467 Y31.4838 Z-0.5071
G1 X-75.8415 Y31.4804 Z-0.51
G1 X-75.8369 Y31.4768 Z-0.5129
G1 X-75.8321 Y31.4726 Z-0.5159
G1 X-75.8274 Y31.4679 Z-0.5191
G1 X-75.8232 Y31.4631 Z-0.5222
G1 X-75.8196 Y31.4585 Z-0.525
G1 X-75.8162 Y31.4533 Z-0.528
G1 X-75.8129 Y31.4479 Z-0.531
G1 X-75.81 Y31.4422 Z-0.5341
G1 X-75.8076 Y31.4366 Z-0.537
G1 X-75.8055 Y31.4308 Z-0.54
G1 X-75.8037 Y31.4244 Z-0.5432
G1 X-75.8023 Y31.4184 Z-0.5462
G1 X-75.8014 Y31.4128 Z-0.5488
G1 X-75.8008 Y31.4066 Z-0.5519
G1 X-75.8006 Y31.4 Z-0.555
G1 X-75.8008 Y31.3934 Z-0.5582
G1 X-75.8014 Y31.3872 Z-0.5612
G1 X-75.8023 Y31.3816 Z-0.5639
G1 X-75.8037 Y31.3756 Z-0.5669
G1 X-75.8055 Y31.3692 Z-0.5701
G1 X-75.8076 Y31.3634 Z-0.573
G1 X-75.81 Y31.3578 Z-0.576
G1 X-75.8129 Y31.3521 Z-0.579
G1 X-75.8162 Y31.3467 Z-0.5821
G1 X-75.8196 Y31.3415 Z-0.585
G1 X-75.8232 Y31.3369 Z-0.5879
G1 X-75.8274 Y31.3321 Z-0.5909
G1 X-75.8321 Y31.3274 Z-0.5941
G1 X-75.8369 Y31.3232 Z-0.5972
G1 X-75.8415 Y31.3196 Z-0.6
G1 X-75.8467 Y31.3162 Z-0.603
G1 X-75.8521 Y31.3129 Z-0.606
G1 X-75.8578 Y31.31 Z-0.6091
G1 X-75.8634 Y31.3076 Z-0.612
G1 X-75.8692 Y31.3055 Z-0.615
G1 X-75.8756 Y31.3037 Z-0.6182
G1 X-75.8816 Y31.3023 Z-0.6212
G1 X-75.8872 Y31.3014 Z-0.6238
G1 X-75.8934 Y31.3008 Z-0.6269
G1 X-75.9 Y31.3006 Z-0.63
G1 X-75.9066 Y31.3008 Z-0.6332
G1 X-75.9128 Y31.3014 Z-0.6362
G1 X-75.9184 Y31.3023 Z-0.6389
G1 X-75.9244 Y31.3037 Z-0.6419
G1 X-75.9308 Y31.3055 Z-0.6451
G1 X-75.9366 Y31.3076 Z-0.648
G1 X-75.9422 Y31.31 Z-0.651
G1 X-75.9479 Y31.3129 Z-0.654
G1 X-75.9533 Y31.3162 Z-0.6571
G1 X-75.9585 Y31.3196 Z-0.66
G1 X-75.9631 Y31.3232 Z-0.6629
G1 X-75.9679 Y31.3274 Z-0.6659
G1 X-75.9726 Y31.3321 Z-0.6691
G1 X-75.9768 Y31.3369 Z-0.6722
G1 X-75.9804 Y31.3415 Z-0.675
G1 X-75.9838 Y31.3467 Z-0.678
G1 X-75.9871 Y31.3521 Z-0.681
G1 X-75.99 Y31.3578 Z-0.6841
G1 X-75.9924 Y31.3634 Z-0.687
G1 X-75.9945 Y31.3692 Z-0.69
G1 X-75.9963 Y31.3756 Z-0.6932
G1 X-75.9977 Y31.3816 Z-0.6962
G1 X-75.9986 Y31.3872 Z-0.6988
G1 X-75.9992 Y31.3934 Z-0.7019
G1 X-75.9994 Y31.4 Z-0.705
G1 X-75.9992 Y31.4066 Z-0.7082
G1 X-75.9986 Y31.4128 Z-0.7112
G1 X-75.9977 Y31.4184 Z-0.7139
G1 X-75.9963 Y31.4244 Z-0.7169
G1 X-75.9945 Y31.4308 Z-0.7201
G1 X-75.9924 Y31.4366 Z-0.723
G1 X-75.99 Y31.4422 Z-0.726
G1 X-75.9871 Y31.4479 Z-0.729
G1 X-75.9838 Y31.4533 Z-0.7321
G1 X-75.9804 Y31.4585 Z-0.735
G1 X-75.9768 Y31.4631 Z-0.7379
G1 X-75.9726 Y31.4679 Z-0.7409
G1 X-75.9679 Y31.4726 Z-0.7441
G1 X-75.9631 Y31.4768 Z-0.7472
G1 X-75.9585 Y31.4804 Z-0.75
G1 X-75.9533 Y31.4838 Z-0.753
G1 X-75.9479 Y31.4871 Z-0.756
G1 X-75.9422 Y31.49 Z-0.7591
G1 X-75.9366 Y31.4924 Z-0.762
G1 X-75.9308 Y31.4945 Z-0.765
G1 X-75.9244 Y31.4963 Z-0.7682
G1 X-75.9184 Y31.4977 Z-0.7712
G1 X-75.9128 Y31.4986 Z-0.7738
G1 X-75.9066 Y31.4992 Z-0.7769
G1 X-75.9 Y31.4994 Z-0.78
G1 X-75.8934 Y31.4992 Z-0.7832
G1 X-75.8872 Y31.4986 Z-0.7862
G1 X-75.8816 Y31.4977 Z-0.7889
G1 X-75.8756 Y31.4963 Z-0.7919
G1 X-75.8692 Y31.4945 Z-0.7951
G1 X-75.8634 Y31.4924 Z-0.798
G1 X-75.8578 Y31.49 Z-0.801
G1 X-75.8521 Y31.4871 Z-0.804
G1 X-75.8467 Y31.4838 Z-0.8071
G1 X-75.8415 Y31.4804 Z-0.81
G1 X-75.8369 Y31.4768 Z-0.8129
G1 X-75.8321 Y31.4726 Z-0.8159
G1 X-75.8274 Y31.4679 Z-0.8191
G1 X-75.8232 Y31.4631 Z-0.8222
G1 X-75.8196 Y31.4585 Z-0.825
G1 X-75.8162 Y31.4533 Z-0.828
G1 X-75.8129 Y31.4479 Z-0.831
G1 X-75.81 Y31.4422 Z-0.8341
G1 X-75.8076 Y31.4366 Z-0.837
G1 X-75.8055 Y31.4308 Z-0.84
G1 X-75.8037 Y31.4244 Z-0.8432
G1 X-75.8023 Y31.4184 Z-0.8462
G1 X-75.8014 Y31.4128 Z-0.8488
G1 X-75.8008 Y31.4066 Z-0.8519
G1 X-75.8006 Y31.4 Z-0.855
G1 X-75.8008 Y31.3934 Z-0.8582
G1 X-75.8014 Y31.3872 Z-0.8612
G1 X-75.8023 Y31.3816 Z-0.8639
G1 X-75.8037 Y31.3756 Z-0.8669
G1 X-75.8055 Y31.3692 Z-0.8701
G1 X-75.8076 Y31.3634 Z-0.873
G1 X-75.81 Y31.3578 Z-0.876
G1 X-75.8129 Y31.3521 Z-0.879
G1 X-75.8162 Y31.3467 Z-0.8821
G1 X-75.8196 Y31.3415 Z-0.885
G1 X-75.8232 Y31.3369 Z-0.8879
G1 X-75.8274 Y31.3321 Z-0.8909
G1 X-75.8321 Y31.3274 Z-0.8941
G1 X-75.8369 Y31.3232 Z-0.8972
G1 X-75.8415 Y31.3196 Z-0.9
G1 X-75.8467 Y31.3162 Z-0.903
G1 X-75.8521 Y31.3129 Z-0.906
G1 X-75.8578 Y31.31 Z-0.9091
G1 X-75.8634 Y31.3076 Z-0.912
G1 X-75.8692 Y31.3055 Z-0.915
G1 X-75.8756 Y31.3037 Z-0.9182
G1 X-75.8816 Y31.3023 Z-0.9212
G1 X-75.8872 Y31.3014 Z-0.9238
G1 X-75.8934 Y31.3008 Z-0.9269
G1 X-75.9 Y31.3006 Z-0.93
G1 X-75.9066 Y31.3008 Z-0.9332
G1 X-75.9128 Y31.3014 Z-0.9362
G1 X-75.9184 Y31.3023 Z-0.9389
G1 X-75.9244 Y31.3037 Z-0.9419
G1 X-75.9308 Y31.3055 Z-0.9451
G1 X-75.9366 Y31.3076 Z-0.948
G1 X-75.9422 Y31.31 Z-0.951
G1 X-75.9479 Y31.3129 Z-0.954
G1 X-75.9533 Y31.3162 Z-0.9571
G1 X-75.9585 Y31.3196 Z-0.96
G1 X-75.9631 Y31.3232 Z-0.9629
G1 X-75.9679 Y31.3274 Z-0.9659
G1 X-75.9726 Y31.3321 Z-0.9691
G1 X-75.9768 Y31.3369 Z-0.9722
G1 X-75.9804 Y31.3415 Z-0.975
G1 X-75.9838 Y31.3467 Z-0.978
G1 X-75.9871 Y31.3521 Z-0.981
G1 X-75.99 Y31.3578 Z-0.9841
G1 X-75.9924 Y31.3634 Z-0.987
G1 X-75.9945 Y31.3692 Z-0.99
G1 X-75.9963 Y31.3756 Z-0.9932
G1 X-75.9977 Y31.3816 Z-0.9962
G1 X-75.9986 Y31.3872 Z-0.9988
G1 X-75.9992 Y31.3934 Z-1.0019
G1 X-75.9994 Y31.4 Z-1.005
G1 X-75.9992 Y31.4066 Z-1.0082
G1 X-75.9986 Y31.4128 Z-1.0112
G1 X-75.9977 Y31.4184 Z-1.0139
G1 X-75.9963 Y31.4244 Z-1.0169
G1 X-75.9945 Y31.4308 Z-1.0201
G1 X-75.9924 Y31.4366 Z-1.023
G1 X-75.99 Y31.4422 Z-1.026
G1 X-75.9871 Y31.4479 Z-1.029
G1 X-75.9838 Y31.4533 Z-1.0321
G1 X-75.9804 Y31.4585 Z-1.035
G1 X-75.9768 Y31.4631 Z-1.0379
G1 X-75.9726 Y31.4679 Z-1.0409
G1 X-75.9679 Y31.4726 Z-1.0441
G1 X-75.9631 Y31.4768 Z-1.0472
G1 X-75.9585 Y31.4804 Z-1.05
G1 X-75.9533 Y31.4838 Z-1.053
G1 X-75.9479 Y31.4871 Z-1.056
G1 X-75.9422 Y31.49 Z-1.0591
G1 X-75.9366 Y31.4924 Z-1.062
G1 X-75.9308 Y31.4945 Z-1.065
G1 X-75.9244 Y31.4963 Z-1.0682
G1 X-75.9184 Y31.4977 Z-1.0712
G1 X-75.9128 Y31.4986 Z-1.0738
G1 X-75.9066 Y31.4992 Z-1.0769
G1 X-75.9 Y31.4994 Z-1.08
G1 X-75.8934 Y31.4992 Z-1.0832
G1 X-75.8872 Y31.4986 Z-1.0862
G1 X-75.8816 Y31.4977 Z-1.0889
G1 X-75.8756 Y31.4963 Z-1.0919
G1 X-75.8692 Y31.4945 Z-1.0951
G1 X-75.8634 Y31.4924 Z-1.098
G1 X-75.8578 Y31.49 Z-1.101
G1 X-75.8521 Y31.4871 Z-1.104
G1 X-75.8467 Y31.4838 Z-1.1071
G1 X-75.8415 Y31.4804 Z-1.11
G1 X-75.8369 Y31.4768 Z-1.1129
G1 X-75.8321 Y31.4726 Z-1.1159
G1 X-75.8274 Y31.4679 Z-1.1191
G1 X-75.8232 Y31.4631 Z-1.1222
G1 X-75.8196 Y31.4585 Z-1.125
G1 X-75.8162 Y31.4533 Z-1.128
G1 X-75.8129 Y31.4479 Z-1.131
G1 X-75.81 Y31.4422 Z-1.1341
G1 X-75.8076 Y31.4366 Z-1.137
G1 X-75.8055 Y31.4308 Z-1.14
G1 X-75.8037 Y31.4244 Z-1.1432
G1 X-75.8023 Y31.4184 Z-1.1462
G1 X-75.8014 Y31.4128 Z-1.1488
G1 X-75.8008 Y31.4066 Z-1.1519
G1 X-75.8006 Y31.4 Z-1.155
G1 X-75.8008 Y31.3934 Z-1.1582
G1 X-75.8014 Y31.3872 Z-1.1612
G1 X-75.8023 Y31.3816 Z-1.1639
G1 X-75.8037 Y31.3756 Z-1.1669
G1 X-75.8055 Y31.3692 Z-1.1701
G1 X-75.8076 Y31.3634 Z-1.173
G1 X-75.81 Y31.3578 Z-1.176
G1 X-75.8129 Y31.3521 Z-1.179
G1 X-75.8162 Y31.3467 Z-1.1821
G1 X-75.8196 Y31.3415 Z-1.185
G1 X-75.8232 Y31.3369 Z-1.1879
G1 X-75.8274 Y31.3321 Z-1.1909
G1 X-75.8321 Y31.3274 Z-1.1941
G1 X-75.8369 Y31.3232 Z-1.1972
G1 X-75.8415 Y31.3196 Z-1.2
G1 X-75.8467 Y31.3162 Z-1.203
G1 X-75.8521 Y31.3129 Z-1.206
G1 X-75.8578 Y31.31 Z-1.2091
G1 X-75.8634 Y31.3076 Z-1.212
G1 X-75.8692 Y31.3055 Z-1.215
G1 X-75.8756 Y31.3037 Z-1.2182
G1 X-75.8816 Y31.3023 Z-1.2212
G1 X-75.8872 Y31.3014 Z-1.2238
G1 X-75.8934 Y31.3008 Z-1.2269
G1 X-75.9 Y31.3006 Z-1.23
G1 X-75.9066 Y31.3008 Z-1.2332
G1 X-75.9128 Y31.3014 Z-1.2362
G1 X-75.9184 Y31.3023 Z-1.2389
G1 X-75.9244 Y31.3037 Z-1.2419
G1 X-75.9308 Y31.3055 Z-1.2451
G1 X-75.9366 Y31.3076 Z-1.248
G1 X-75.9422 Y31.31 Z-1.251
G1 X-75.9479 Y31.3129 Z-1.254
G1 X-75.9533 Y31.3162 Z-1.2571
G1 X-75.9585 Y31.3196 Z-1.26
G1 X-75.9631 Y31.3232 Z-1.2629
G1 X-75.9679 Y31.3274 Z-1.2659
G1 X-75.9726 Y31.3321 Z-1.2691
G1 X-75.9768 Y31.3369 Z-1.2722
G1 X-75.9804 Y31.3415 Z-1.275
G1 X-75.9838 Y31.3467 Z-1.278
G1 X-75.9871 Y31.3521 Z-1.281
G1 X-75.99 Y31.3578 Z-1.2841
G1 X-75.9924 Y31.3634 Z-1.287
G1 X-75.9945 Y31.3692 Z-1.29
G1 X-75.9963 Y31.3756 Z-1.2932
G1 X-75.9977 Y31.3816 Z-1.2962
G1 X-75.9986 Y31.3872 Z-1.2988
G1 X-75.9992 Y31.3934 Z-1.3019
G1 X-75.9994 Y31.4 Z-1.305
G1 X-75.9992 Y31.4066 Z-1.3082
G1 X-75.9986 Y31.4128 Z-1.3112
G1 X-75.9977 Y31.4184 Z-1.3139
G1 X-75.9963 Y31.4244 Z-1.3169
G1 X-75.9945 Y31.4308 Z-1.3201
G1 X-75.9924 Y31.4366 Z-1.323
G1 X-75.99 Y31.4422 Z-1.326
G1 X-75.9871 Y31.4479 Z-1.329
G1 X-75.9838 Y31.4533 Z-1.3321
G1 X-75.9804 Y31.4585 Z-1.335
G1 X-75.9768 Y31.4631 Z-1.3379
G1 X-75.9726 Y31.4679 Z-1.3409
G1 X-75.9679 Y31.4726 Z-1.3441
G1 X-75.9631 Y31.4768 Z-1.3472
G1 X-75.9585 Y31.4804 Z-1.35
G1 X-75.9533 Y31.4838 Z-1.353
G1 X-75.9479 Y31.4871 Z-1.356
G1 X-75.9422 Y31.49 Z-1.3591
G1 X-75.9366 Y31.4924 Z-1.362
G1 X-75.9308 Y31.4945 Z-1.365
G1 X-75.9244 Y31.4963 Z-1.3682
G1 X-75.9184 Y31.4977 Z-1.3712
G1 X-75.9128 Y31.4986 Z-1.3738
G1 X-75.9066 Y31.4992 Z-1.3769
G1 X-75.9 Y31.4994 Z-1.38
G1 X-75.8934 Y31.4992 Z-1.3832
G1 X-75.8872 Y31.4986 Z-1.3862
G1 X-75.8816 Y31.4977 Z-1.3889
G1 X-75.8756 Y31.4963 Z-1.3919
G1 X-75.8692 Y31.4945 Z-1.3951
G1 X-75.8634 Y31.4924 Z-1.398
G1 X-75.8578 Y31.49 Z-1.401
G1 X-75.8521 Y31.4871 Z-1.404
G1 X-75.8467 Y31.4838 Z-1.4071
G1 X-75.8415 Y31.4804 Z-1.41
G1 X-75.8369 Y31.4768 Z-1.4129
G1 X-75.8321 Y31.4726 Z-1.4159
G1 X-75.8274 Y31.4679 Z-1.4191
G1 X-75.8232 Y31.4631 Z-1.4222
G1 X-75.8196 Y31.4585 Z-1.425
G1 X-75.8162 Y31.4533 Z-1.428
G1 X-75.8129 Y31.4479 Z-1.431
G1 X-75.81 Y31.4422 Z-1.4341
G1 X-75.8076 Y31.4366 Z-1.437
G1 X-75.8055 Y31.4308 Z-1.44
G1 X-75.8037 Y31.4244 Z-1.4432
G1 X-75.8023 Y31.4184 Z-1.4462
G1 X-75.8014 Y31.4128 Z-1.4488
G1 X-75.8008 Y31.4066 Z-1.4519
G1 X-75.8006 Y31.4 Z-1.455
G1 X-75.8008 Y31.3934 Z-1.4582
G1 X-75.8014 Y31.3872 Z-1.4612
G1 X-75.8023 Y31.3816 Z-1.4639
G1 X-75.8037 Y31.3756 Z-1.4669
G1 X-75.8055 Y31.3692 Z-1.4701
G1 X-75.8076 Y31.3634 Z-1.473
G1 X-75.81 Y31.3578 Z-1.476
G1 X-75.8129 Y31.3521 Z-1.479
G1 X-75.8162 Y31.3467 Z-1.4821
G1 X-75.8196 Y31.3415 Z-1.485
G1 X-75.8232 Y31.3369 Z-1.4879
G1 X-75.8274 Y31.3321 Z-1.4909
G1 X-75.8321 Y31.3274 Z-1.4941
G1 X-75.8369 Y31.3232 Z-1.4972
G1 X-75.8415 Y31.3196 Z-1.5
G1 X-75.8467 Y31.3162 Z-1.503
G1 X-75.8521 Y31.3129 Z-1.506
G1 X-75.8578 Y31.31 Z-1.5091
G1 X-75.8634 Y31.3076 Z-1.512
G1 X-75.8692 Y31.3055 Z-1.515
G1 X-75.8756 Y31.3037 Z-1.5182
G1 X-75.8816 Y31.3023 Z-1.5212
G1 X-75.8872 Y31.3014 Z-1.5238
G1 X-75.8934 Y31.3008 Z-1.5269
G1 X-75.9 Y31.3006 Z-1.53
G1 X-75.9066 Y31.3008 Z-1.5332
G1 X-75.9128 Y31.3014 Z-1.5362
G1 X-75.9184 Y31.3023 Z-1.5389
G1 X-75.9244 Y31.3037 Z-1.5419
G1 X-75.9308 Y31.3055 Z-1.5451
G1 X-75.9366 Y31.3076 Z-1.548
G1 X-75.9422 Y31.31 Z-1.551
G1 X-75.9479 Y31.3129 Z-1.554
G1 X-75.9533 Y31.3162 Z-1.5571
G1 X-75.9585 Y31.3196 Z-1.56
G1 X-75.9631 Y31.3232 Z-1.5629
G1 X-75.9679 Y31.3274 Z-1.5659
G1 X-75.9726 Y31.3321 Z-1.5691
G1 X-75.9768 Y31.3369 Z-1.5722
G1 X-75.9804 Y31.3415 Z-1.575
G1 X-75.9838 Y31.3467 Z-1.578
G1 X-75.9871 Y31.3521 Z-1.581
G1 X-75.99 Y31.3578 Z-1.5841
G1 X-75.9924 Y31.3634 Z-1.587
G1 X-75.9945 Y31.3692 Z-1.59
G1 X-75.9963 Y31.3756 Z-1.5932
G1 X-75.9977 Y31.3816 Z-1.5962
G1 X-75.9986 Y31.3872 Z-1.5988
G1 X-75.9992 Y31.3934 Z-1.6019
G1 X-75.9994 Y31.4 Z-1.605
G1 X-75.9992 Y31.4066 Z-1.6082
G1 X-75.9986 Y31.4128 Z-1.6112
G1 X-75.9977 Y31.4184 Z-1.6139
G1 X-75.9963 Y31.4244 Z-1.6169
G1 X-75.9945 Y31.4308 Z-1.6201
G1 X-75.9924 Y31.4366 Z-1.623
G1 X-75.99 Y31.4422 Z-1.626
G1 X-75.9871 Y31.4479 Z-1.629
G1 X-75.9838 Y31.4533 Z-1.6321
G1 X-75.9804 Y31.4585 Z-1.635
G1 X-75.9768 Y31.4631 Z-1.6379
G1 X-75.9726 Y31.4679 Z-1.6409
G1 X-75.9679 Y31.4726 Z-1.6441
G1 X-75.9631 Y31.4768 Z-1.6472
G1 X-75.9585 Y31.4804 Z-1.65
G1 X-75.9533 Y31.4838 Z-1.653
G1 X-75.9479 Y31.4871 Z-1.656
G1 X-75.9422 Y31.49 Z-1.6591
G1 X-75.9366 Y31.4924 Z-1.662
G1 X-75.9308 Y31.4945 Z-1.665
G1 X-75.9244 Y31.4963 Z-1.6682
G1 X-75.9184 Y31.4977 Z-1.6712
G1 X-75.9128 Y31.4986 Z-1.6738
G1 X-75.9066 Y31.4992 Z-1.6769
G1 X-75.9 Y31.4994 Z-1.68
G1 X-75.8934 Y31.4992 Z-1.6832
G1 X-75.8872 Y31.4986 Z-1.6862
G1 X-75.8816 Y31.4977 Z-1.6889
G1 X-75.8756 Y31.4963 Z-1.6919
G1 X-75.8692 Y31.4945 Z-1.6951
G1 X-75.8634 Y31.4924 Z-1.698
G1 X-75.8578 Y31.49 Z-1.701
G1 X-75.8521 Y31.4871 Z-1.704
G1 X-75.8467 Y31.4838 Z-1.7071
G1 X-75.8415 Y31.4804 Z-1.71
G1 X-75.8369 Y31.4768 Z-1.7129
G1 X-75.8321 Y31.4726 Z-1.7159
G1 X-75.8274 Y31.4679 Z-1.7191
G1 X-75.8232 Y31.4631 Z-1.7222
G1 X-75.8196 Y31.4585 Z-1.725
G1 X-75.8162 Y31.4533 Z-1.728
G1 X-75.8129 Y31.4479 Z-1.731
G1 X-75.81 Y31.4422 Z-1.7341
G1 X-75.8076 Y31.4366 Z-1.737
G1 X-75.8055 Y31.4308 Z-1.74
G1 X-75.8037 Y31.4244 Z-1.7432
G1 X-75.8023 Y31.4184 Z-1.7462
G1 X-75.8014 Y31.4128 Z-1.7488
G1 X-75.8008 Y31.4066 Z-1.7519
G1 X-75.8006 Y31.4 Z-1.755
G1 X-75.8008 Y31.3934 Z-1.7582
G1 X-75.8014 Y31.3872 Z-1.7612
G1 X-75.8023 Y31.3816 Z-1.7639
G1 X-75.8037 Y31.3756 Z-1.7669
G1 X-75.8055 Y31.3692 Z-1.7701
G1 X-75.8076 Y31.3634 Z-1.773
G1 X-75.81 Y31.3578 Z-1.776
G1 X-75.8129 Y31.3521 Z-1.779
G1 X-75.8162 Y31.3467 Z-1.7821
G1 X-75.8196 Y31.3415 Z-1.785
G1 X-75.8232 Y31.3369 Z-1.7879
G1 X-75.8274 Y31.3321 Z-1.7909
G1 X-75.8321 Y31.3274 Z-1.7941
G1 X-75.8369 Y31.3232 Z-1.7972
G1 X-75.8415 Y31.3196 Z-1.8
G1 X-75.8467 Y31.3162 Z-1.803
G1 X-75.8521 Y31.3129 Z-1.806
G1 X-75.8578 Y31.31 Z-1.8091
G1 X-75.8634 Y31.3076 Z-1.812
G1 X-75.8692 Y31.3055 Z-1.815
G1 X-75.8756 Y31.3037 Z-1.8182
G1 X-75.8816 Y31.3023 Z-1.8212
G1 X-75.8872 Y31.3014 Z-1.8238
G1 X-75.8934 Y31.3008 Z-1.8269
G1 X-75.9 Y31.3006 Z-1.83
G1 X-75.9066 Y31.3008 Z-1.8332
G1 X-75.9128 Y31.3014 Z-1.8362
G1 X-75.9184 Y31.3023 Z-1.8389
G1 X-75.9244 Y31.3037 Z-1.8419
G1 X-75.9308 Y31.3055 Z-1.8451
G1 X-75.9366 Y31.3076 Z-1.848
G1 X-75.9422 Y31.31 Z-1.851
G1 X-75.9479 Y31.3129 Z-1.854
G1 X-75.9533 Y31.3162 Z-1.8571
G1 X-75.9585 Y31.3196 Z-1.86
G1 X-75.9631 Y31.3232 Z-1.8629
G1 X-75.9679 Y31.3274 Z-1.8659
G1 X-75.9726 Y31.3321 Z-1.8691
G1 X-75.9768 Y31.3369 Z-1.8722
G1 X-75.9804 Y31.3415 Z-1.875
G1 X-75.9838 Y31.3467 Z-1.878
G1 X-75.9871 Y31.3521 Z-1.881
G1 X-75.99 Y31.3578 Z-1.8841
G1 X-75.9924 Y31.3634 Z-1.887
G1 X-75.9945 Y31.3692 Z-1.89
G1 X-75.9963 Y31.3756 Z-1.8932
G1 X-75.9977 Y31.3816 Z-1.8962
G1 X-75.9986 Y31.3872 Z-1.8988
G1 X-75.9992 Y31.3934 Z-1.9019
G1 X-75.9994 Y31.4 Z-1.905
G1 X-75.9992 Y31.4066 Z-1.9082
G1 X-75.9986 Y31.4128 Z-1.9112
G1 X-75.9977 Y31.4184 Z-1.9139
G1 X-75.9963 Y31.4244 Z-1.9169
G1 X-75.9945 Y31.4308 Z-1.9201
G1 X-75.9924 Y31.4366 Z-1.923
G1 X-75.99 Y31.4422 Z-1.926
G1 X-75.9871 Y31.4479 Z-1.929
G1 X-75.9838 Y31.4533 Z-1.9321
G1 X-75.9804 Y31.4585 Z-1.935
G1 X-75.9768 Y31.4631 Z-1.9379
G1 X-75.9726 Y31.4679 Z-1.9409
G1 X-75.9679 Y31.4726 Z-1.9441
G1 X-75.9631 Y31.4768 Z-1.9472
G1 X-75.9585 Y31.4804 Z-1.95
G1 X-75.9533 Y31.4838 Z-1.953
G1 X-75.9479 Y31.4871 Z-1.956
G1 X-75.9422 Y31.49 Z-1.9591
G1 X-75.9366 Y31.4924 Z-1.962
G1 X-75.9308 Y31.4945 Z-1.965
G1 X-75.9244 Y31.4963 Z-1.9682
G1 X-75.9184 Y31.4977 Z-1.9712
G1 X-75.9128 Y31.4986 Z-1.9738
G1 X-75.9066 Y31.4992 Z-1.9769
G1 X-75.9 Y31.4994 Z-1.98
G1 X-75.8934 Y31.4992 Z-1.9832
G1 X-75.8872 Y31.4986 Z-1.9862
G1 X-75.8816 Y31.4977 Z-1.9889
G1 X-75.8756 Y31.4963 Z-1.9919
G1 X-75.8692 Y31.4945 Z-1.9951
G1 X-75.8634 Y31.4924 Z-1.998
G1 X-75.8578 Y31.49 Z-2.001
G1 X-75.8521 Y31.4871 Z-2.004
G1 X-75.8467 Y31.4838 Z-2.0071
G1 X-75.8415 Y31.4804 Z-2.01
G1 X-75.8369 Y31.4768 Z-2.0129
G1 X-75.8321 Y31.4726 Z-2.0159
G1 X-75.8274 Y31.4679 Z-2.0191
G1 X-75.8232 Y31.4631 Z-2.0222
G1 X-75.8196 Y31.4585 Z-2.025
G1 X-75.8162 Y31.4533 Z-2.028
G1 X-75.8129 Y31.4479 Z-2.031
G1 X-75.81 Y31.4422 Z-2.0341
G1 X-75.8076 Y31.4366 Z-2.037
G1 X-75.8055 Y31.4308 Z-2.04
G1 X-75.8037 Y31.4244 Z-2.0432
G1 X-75.8023 Y31.4184 Z-2.0462
G1 X-75.8014 Y31.4128 Z-2.0488
G1 X-75.8008 Y31.4066 Z-2.0519
G1 X-75.8006 Y31.4 Z-2.055
G1 X-75.8008 Y31.3934 Z-2.0582
G1 X-75.8014 Y31.3872 Z-2.0612
G1 X-75.8023 Y31.3816 Z-2.0639
G1 X-75.8037 Y31.3756 Z-2.0669
G1 X-75.8055 Y31.3692 Z-2.0701
G1 X-75.8076 Y31.3634 Z-2.073
G1 X-75.81 Y31.3578 Z-2.076
G1 X-75.8129 Y31.3521 Z-2.079
G1 X-75.8162 Y31.3467 Z-2.0821
G1 X-75.8196 Y31.3415 Z-2.085
G1 X-75.8232 Y31.3369 Z-2.0879
G1 X-75.8274 Y31.3321 Z-2.0909
G1 X-75.8321 Y31.3274 Z-2.0941
G1 X-75.8369 Y31.3232 Z-2.0972
G1 X-75.8415 Y31.3196 Z-2.1
G1 X-75.8467 Y31.3162 Z-2.103
G1 X-75.8521 Y31.3129 Z-2.106
G1 X-75.8578 Y31.31 Z-2.1091
G1 X-75.8634 Y31.3076 Z-2.112
G1 X-75.8692 Y31.3055 Z-2.115
G1 X-75.8756 Y31.3037 Z-2.1182
G1 X-75.8816 Y31.3023 Z-2.1212
G1 X-75.8872 Y31.3014 Z-2.1238
G1 X-75.8934 Y31.3008 Z-2.1269
G1 X-75.9 Y31.3006 Z-2.13
G1 X-75.9066 Y31.3008 Z-2.1332
G1 X-75.9128 Y31.3014 Z-2.1362
G1 X-75.9184 Y31.3023 Z-2.1389
G1 X-75.9244 Y31.3037 Z-2.1419
G1 X-75.9308 Y31.3055 Z-2.1451
G1 X-75.9366 Y31.3076 Z-2.148
G1 X-75.9422 Y31.31 Z-2.151
G1 X-75.9479 Y31.3129 Z-2.154
G1 X-75.9533 Y31.3162 Z-2.1571
G1 X-75.9585 Y31.3196 Z-2.16
G1 X-75.9631 Y31.3232 Z-2.1629
G1 X-75.9679 Y31.3274 Z-2.1659
G1 X-75.9726 Y31.3321 Z-2.1691
G1 X-75.9768 Y31.3369 Z-2.1722
G1 X-75.9804 Y31.3415 Z-2.175
G1 X-75.9838 Y31.3467 Z-2.178
G1 X-75.9871 Y31.3521 Z-2.181
G1 X-75.99 Y31.3578 Z-2.1841
G1 X-75.9924 Y31.3634 Z-2.187
G1 X-75.9945 Y31.3692 Z-2.19
G1 X-75.9963 Y31.3756 Z-2.1932
G1 X-75.9977 Y31.3816 Z-2.1962
G1 X-75.9986 Y31.3872 Z-2.1988
G1 X-75.9992 Y31.3934 Z-2.2019
G1 X-75.9994 Y31.4 Z-2.205
G1 X-75.9992 Y31.4066 Z-2.2082
G1 X-75.9986 Y31.4128 Z-2.2112
G1 X-75.9977 Y31.4184 Z-2.2139
G1 X-75.9963 Y31.4244 Z-2.2169
G1 X-75.9945 Y31.4308 Z-2.2201
G1 X-75.9924 Y31.4366 Z-2.223
G1 X-75.99 Y31.4422 Z-2.226
G1 X-75.9871 Y31.4479 Z-2.229
G1 X-75.9838 Y31.4533 Z-2.2321
G1 X-75.9804 Y31.4585 Z-2.235
G1 X-75.9768 Y31.4631 Z-2.2379
G1 X-75.9726 Y31.4679 Z-2.2409
G1 X-75.9679 Y31.4726 Z-2.2441
G1 X-75.9631 Y31.4768 Z-2.2472
G1 X-75.9585 Y31.4804 Z-2.25
G1 X-75.9533 Y31.4838 Z-2.253
G1 X-75.9479 Y31.4871 Z-2.256
G1 X-75.9422 Y31.49 Z-2.2591
G1 X-75.9366 Y31.4924 Z-2.262
G1 X-75.9308 Y31.4945 Z-2.265
G1 X-75.9244 Y31.4963 Z-2.2682
G1 X-75.9184 Y31.4977 Z-2.2712
G1 X-75.9128 Y31.4986 Z-2.2738
G1 X-75.9066 Y31.4992 Z-2.2769
G1 X-75.9 Y31.4994 Z-2.28
G1 X-75.8934 Y31.4992 Z-2.2832
G1 X-75.8872 Y31.4986 Z-2.2862
G1 X-75.8816 Y31.4977 Z-2.2889
G1 X-75.8756 Y31.4963 Z-2.2919
G1 X-75.8692 Y31.4945 Z-2.2951
G1 X-75.8634 Y31.4924 Z-2.298
G1 X-75.8578 Y31.49 Z-2.301
G1 X-75.8521 Y31.4871 Z-2.304
G1 X-75.8467 Y31.4838 Z-2.3071
G1 X-75.8415 Y31.4804 Z-2.31
G1 X-75.8369 Y31.4768 Z-2.3129
G1 X-75.8321 Y31.4726 Z-2.3159
G1 X-75.8274 Y31.4679 Z-2.3191
G1 X-75.8232 Y31.4631 Z-2.3222
G1 X-75.8196 Y31.4585 Z-2.325
G1 X-75.8162 Y31.4533 Z-2.328
G1 X-75.8129 Y31.4479 Z-2.331
G1 X-75.81 Y31.4422 Z-2.3341
G1 X-75.8076 Y31.4366 Z-2.337
G1 X-75.8055 Y31.4308 Z-2.34
G1 X-75.8037 Y31.4244 Z-2.3432
G1 X-75.8023 Y31.4184 Z-2.3462
G1 X-75.8014 Y31.4128 Z-2.3488
G1 X-75.8008 Y31.4066 Z-2.3519
G1 X-75.8006 Y31.4 Z-2.355
G1 X-75.8008 Y31.3934 Z-2.3582
G1 X-75.8014 Y31.3872 Z-2.3612
G1 X-75.8023 Y31.3816 Z-2.3639
G1 X-75.8037 Y31.3756 Z-2.3669
G1 X-75.8055 Y31.3692 Z-2.3701
G1 X-75.8076 Y31.3634 Z-2.373
G1 X-75.81 Y31.3578 Z-2.376
G1 X-75.8129 Y31.3521 Z-2.379
G1 X-75.8162 Y31.3467 Z-2.3821
G1 X-75.8196 Y31.3415 Z-2.385
G1 X-75.8232 Y31.3369 Z-2.3879
G1 X-75.8274 Y31.3321 Z-2.3909
G1 X-75.8321 Y31.3274 Z-2.3941
G1 X-75.8369 Y31.3232 Z-2.3972
G1 X-75.8415 Y31.3196 Z-2.4
G1 X-75.8467 Y31.3162 Z-2.403
G1 X-75.8521 Y31.3129 Z-2.406
G1 X-75.8578 Y31.31 Z-2.4091
G1 X-75.8634 Y31.3076 Z-2.412
G1 X-75.8692 Y31.3055 Z-2.415
G1 X-75.8756 Y31.3037 Z-2.4182
G1 X-75.8816 Y31.3023 Z-2.4212
G1 X-75.8872 Y31.3014 Z-2.4238
G1 X-75.8934 Y31.3008 Z-2.4269
G1 X-75.9 Y31.3006 Z-2.43
G1 X-75.9066 Y31.3008 Z-2.4332
G1 X-75.9128 Y31.3014 Z-2.4362
G1 X-75.9184 Y31.3023 Z-2.4389
G1 X-75.9244 Y31.3037 Z-2.4419
G1 X-75.9308 Y31.3055 Z-2.4451
G1 X-75.9366 Y31.3076 Z-2.448
G1 X-75.9422 Y31.31 Z-2.451
G1 X-75.9479 Y31.3129 Z-2.454
G1 X-75.9533 Y31.3162 Z-2.4571
G1 X-75.9585 Y31.3196 Z-2.46
G1 X-75.9631 Y31.3232 Z-2.4629
G1 X-75.9679 Y31.3274 Z-2.4659
G1 X-75.9726 Y31.3321 Z-2.4691
G1 X-75.9768 Y31.3369 Z-2.4722
G1 X-75.9804 Y31.3415 Z-2.475
G1 X-75.9838 Y31.3467 Z-2.478
G1 X-75.9871 Y31.3521 Z-2.481
G1 X-75.99 Y31.3578 Z-2.4841
G1 X-75.9924 Y31.3634 Z-2.487
G1 X-75.9945 Y31.3692 Z-2.49
G1 X-75.9963 Y31.3756 Z-2.4932
G1 X-75.9977 Y31.3816 Z-2.4962
G1 X-75.9986 Y31.3872 Z-2.4988
G1 X-75.9992 Y31.3934 Z-2.5019
G1 X-75.9994 Y31.4 Z-2.505
G1 X-75.9992 Y31.4066 Z-2.5082
G1 X-75.9986 Y31.4128 Z-2.5112
G1 X-75.9977 Y31.4184 Z-2.5139
G1 X-75.9963 Y31.4244 Z-2.5169
G1 X-75.9945 Y31.4308 Z-2.5201
G1 X-75.9924 Y31.4366 Z-2.523
G1 X-75.99 Y31.4422 Z-2.526
G1 X-75.9871 Y31.4479 Z-2.529
G1 X-75.9838 Y31.4533 Z-2.5321
G1 X-75.9804 Y31.4585 Z-2.535
G1 X-75.9768 Y31.4631 Z-2.5379
G1 X-75.9726 Y31.4679 Z-2.5409
G1 X-75.9679 Y31.4726 Z-2.5441
G1 X-75.9631 Y31.4768 Z-2.5472
G1 X-75.9585 Y31.4804 Z-2.55
G1 X-75.9533 Y31.4838 Z-2.553
G1 X-75.9479 Y31.4871 Z-2.556
G1 X-75.9422 Y31.49 Z-2.5591
G1 X-75.9366 Y31.4924 Z-2.562
G1 X-75.9308 Y31.4945 Z-2.565
G1 X-75.9244 Y31.4963 Z-2.5682
G1 X-75.9184 Y31.4977 Z-2.5712
G1 X-75.9128 Y31.4986 Z-2.5738
G1 X-75.9066 Y31.4992 Z-2.5769
G1 X-75.9 Y31.4994 Z-2.58
G1 X-75.8934 Y31.4992 Z-2.5832
G1 X-75.8872 Y31.4986 Z-2.5862
G1 X-75.8816 Y31.4977 Z-2.5889
G1 X-75.8756 Y31.4963 Z-2.5919
G1 X-75.8692 Y31.4945 Z-2.5951
G1 X-75.8634 Y31.4924 Z-2.598
G1 X-75.8578 Y31.49 Z-2.601
G1 X-75.8521 Y31.4871 Z-2.604
G1 X-75.8467 Y31.4838 Z-2.6071
G1 X-75.8415 Y31.4804 Z-2.61
G1 X-75.8369 Y31.4768 Z-2.6129
G1 X-75.8321 Y31.4726 Z-2.6159
G1 X-75.8274 Y31.4679 Z-2.6191
G1 X-75.8232 Y31.4631 Z-2.6222
G1 X-75.8196 Y31.4585 Z-2.625
G1 X-75.8162 Y31.4533 Z-2.628
G1 X-75.8129 Y31.4479 Z-2.631
G1 X-75.81 Y31.4422 Z-2.6341
G1 X-75.8076 Y31.4366 Z-2.637
G1 X-75.8055 Y31.4308 Z-2.64
G1 X-75.8037 Y31.4244 Z-2.6432
G1 X-75.8023 Y31.4184 Z-2.6462
G1 X-75.8014 Y31.4128 Z-2.6488
G1 X-75.8008 Y31.4066 Z-2.6519
G1 X-75.8006 Y31.4 Z-2.655
G1 X-75.8008 Y31.3934 Z-2.6582
G1 X-75.8014 Y31.3872 Z-2.6612
G1 X-75.8023 Y31.3816 Z-2.6639
G1 X-75.8037 Y31.3756 Z-2.6669
G1 X-75.8055 Y31.3692 Z-2.6701
G1 X-75.8076 Y31.3634 Z-2.673
G1 X-75.81 Y31.3578 Z-2.676
G1 X-75.8129 Y31.3521 Z-2.679
G1 X-75.8162 Y31.3467 Z-2.6821
G1 X-75.8196 Y31.3415 Z-2.685
G1 X-75.8232 Y31.3369 Z-2.6879
G1 X-75.8274 Y31.3321 Z-2.6909
G1 X-75.8321 Y31.3274 Z-2.6941
G1 X-75.8369 Y31.3232 Z-2.6972
G1 X-75.8415 Y31.3196 Z-2.7
G1 X-75.8467 Y31.3162 Z-2.703
G1 X-75.8521 Y31.3129 Z-2.706
G1 X-75.8578 Y31.31 Z-2.7091
G1 X-75.8634 Y31.3076 Z-2.712
G1 X-75.8692 Y31.3055 Z-2.715
G1 X-75.8756 Y31.3037 Z-2.7182
G1 X-75.8816 Y31.3023 Z-2.7212
G1 X-75.8872 Y31.3014 Z-2.7238
G1 X-75.8934 Y31.3008 Z-2.7269
G1 X-75.9 Y31.3006 Z-2.73
G1 X-75.9066 Y31.3008 Z-2.7332
G1 X-75.9128 Y31.3014 Z-2.7362
G1 X-75.9184 Y31.3023 Z-2.7389
G1 X-75.9244 Y31.3037 Z-2.7419
G1 X-75.9308 Y31.3055 Z-2.7451
G1 X-75.9366 Y31.3076 Z-2.748
G1 X-75.9422 Y31.31 Z-2.751
G1 X-75.9479 Y31.3129 Z-2.754
G1 X-75.9533 Y31.3162 Z-2.7571
G1 X-75.9585 Y31.3196 Z-2.76
G1 X-75.9631 Y31.3232 Z-2.7629
G1 X-75.9679 Y31.3274 Z-2.7659
G1 X-75.9726 Y31.3321 Z-2.7691
G1 X-75.9768 Y31.3369 Z-2.7722
G1 X-75.9804 Y31.3415 Z-2.775
G1 X-75.9838 Y31.3467 Z-2.778
G1 X-75.9871 Y31.3521 Z-2.781
G1 X-75.99 Y31.3578 Z-2.7841
G1 X-75.9924 Y31.3634 Z-2.787
G1 X-75.9945 Y31.3692 Z-2.79
G1 X-75.9963 Y31.3756 Z-2.7932
G1 X-75.9977 Y31.3816 Z-2.7962
G1 X-75.9986 Y31.3872 Z-2.7988
G1 X-75.9992 Y31.3934 Z-2.8019
G1 X-75.9994 Y31.4 Z-2.805
G1 X-75.9992 Y31.4066 Z-2.8082
G1 X-75.9986 Y31.4128 Z-2.8112
G1 X-75.9977 Y31.4184 Z-2.8139
G1 X-75.9963 Y31.4244 Z-2.8169
G1 X-75.9945 Y31.4308 Z-2.8201
G1 X-75.9924 Y31.4366 Z-2.823
G1 X-75.99 Y31.4422 Z-2.826
G1 X-75.9871 Y31.4479 Z-2.829
G1 X-75.9838 Y31.4533 Z-2.8321
G1 X-75.9804 Y31.4585 Z-2.835
G1 X-75.9768 Y31.4631 Z-2.8379
G1 X-75.9726 Y31.4679 Z-2.8409
G1 X-75.9679 Y31.4726 Z-2.8441
G1 X-75.9631 Y31.4768 Z-2.8472
G1 X-75.9585 Y31.4804 Z-2.85
G1 X-75.9533 Y31.4838 Z-2.853
G1 X-75.9479 Y31.4871 Z-2.856
G1 X-75.9422 Y31.49 Z-2.8591
G1 X-75.9366 Y31.4924 Z-2.862
G1 X-75.9308 Y31.4945 Z-2.865
G1 X-75.9244 Y31.4963 Z-2.8682
G1 X-75.9184 Y31.4977 Z-2.8712
G1 X-75.9128 Y31.4986 Z-2.8738
G1 X-75.9066 Y31.4992 Z-2.8769
G1 X-75.9 Y31.4994 Z-2.88
G1 X-75.8934 Y31.4992 Z-2.8832
G1 X-75.8872 Y31.4986 Z-2.8862
G1 X-75.8816 Y31.4977 Z-2.8889
G1 X-75.8756 Y31.4963 Z-2.8919
G1 X-75.8692 Y31.4945 Z-2.8951
G1 X-75.8634 Y31.4924 Z-2.898
G1 X-75.8578 Y31.49 Z-2.901
G1 X-75.8521 Y31.4871 Z-2.904
G1 X-75.8467 Y31.4838 Z-2.9071
G1 X-75.8415 Y31.4804 Z-2.91
G1 X-75.8369 Y31.4768 Z-2.9129
G1 X-75.8321 Y31.4726 Z-2.9159
G1 X-75.8274 Y31.4679 Z-2.9191
G1 X-75.8232 Y31.4631 Z-2.9222
G1 X-75.8196 Y31.4585 Z-2.925
G1 X-75.8162 Y31.4533 Z-2.928
G1 X-75.8129 Y31.4479 Z-2.931
G1 X-75.81 Y31.4422 Z-2.9341
G1 X-75.8076 Y31.4366 Z-2.937
G1 X-75.8055 Y31.4308 Z-2.94
G1 X-75.8037 Y31.4244 Z-2.9432
G1 X-75.8023 Y31.4184 Z-2.9462
G1 X-75.8014 Y31.4128 Z-2.9488
G1 X-75.8008 Y31.4066 Z-2.9519
G1 X-75.8006 Y31.4 Z-2.955
G1 X-75.8008 Y31.3934 Z-2.9582
G1 X-75.8014 Y31.3872 Z-2.9612
G1 X-75.8023 Y31.3816 Z-2.9639
G1 X-75.8037 Y31.3756 Z-2.9669
G1 X-75.8055 Y31.3692 Z-2.9701
G1 X-75.8076 Y31.3634 Z-2.973
G1 X-75.81 Y31.3578 Z-2.976
G1 X-75.8129 Y31.3521 Z-2.979
G1 X-75.8162 Y31.3467 Z-2.9821
G1 X-75.8196 Y31.3415 Z-2.985
G1 X-75.8232 Y31.3369 Z-2.9879
G1 X-75.8274 Y31.3321 Z-2.9909
G1 X-75.8321 Y31.3274 Z-2.9941
G1 X-75.8369 Y31.3232 Z-2.9972
G1 X-75.8415 Y31.3196 Z-3.0
G1 X-75.8467 Y31.3162 Z-3.003
G1 X-75.8521 Y31.3129 Z-3.006
G1 X-75.8578 Y31.31 Z-3.0091
G1 X-75.8634 Y31.3076 Z-3.012
G1 X-75.8692 Y31.3055 Z-3.015
G1 X-75.8756 Y31.3037 Z-3.0182
G1 X-75.8816 Y31.3023 Z-3.0212
G1 X-75.8872 Y31.3014 Z-3.0238
G1 X-75.8934 Y31.3008 Z-3.0269
G1 X-75.9 Y31.3006 Z-3.03
G1 X-75.9066 Y31.3008 Z-3.0332
G1 X-75.9128 Y31.3014 Z-3.0362
G1 X-75.9184 Y31.3023 Z-3.0389
G1 X-75.9244 Y31.3037 Z-3.0419
G1 X-75.9308 Y31.3055 Z-3.0451
G1 X-75.9366 Y31.3076 Z-3.048
G1 X-75.9422 Y31.31 Z-3.051
G1 X-75.9479 Y31.3129 Z-3.054
G1 X-75.9533 Y31.3162 Z-3.0571
G1 X-75.9585 Y31.3196 Z-3.06
G1 X-75.9631 Y31.3232 Z-3.0629
G1 X-75.9679 Y31.3274 Z-3.0659
G1 X-75.9726 Y31.3321 Z-3.0691
G1 X-75.9768 Y31.3369 Z-3.0722
G1 X-75.9804 Y31.3415 Z-3.075
G1 X-75.9838 Y31.3467 Z-3.078
G1 X-75.9871 Y31.3521 Z-3.081
G1 X-75.99 Y31.3578 Z-3.0841
G1 X-75.9924 Y31.3634 Z-3.087
G1 X-75.9945 Y31.3692 Z-3.09
G1 X-75.9963 Y31.3756 Z-3.0932
G1 X-75.9977 Y31.3816 Z-3.0962
G1 X-75.9986 Y31.3872 Z-3.0988
G1 X-75.9992 Y31.3934 Z-3.1019
G1 X-75.9994 Y31.4 Z-3.105
G1 X-75.9992 Y31.4066 Z-3.1082
G1 X-75.9986 Y31.4128 Z-3.1112
G1 X-75.9977 Y31.4184 Z-3.1139
G1 X-75.9963 Y31.4244 Z-3.1169
G1 X-75.9945 Y31.4308 Z-3.1201
G1 X-75.9924 Y31.4366 Z-3.123
G1 X-75.99 Y31.4422 Z-3.126
G1 X-75.9871 Y31.4479 Z-3.129
G1 X-75.9838 Y31.4533 Z-3.1321
G1 X-75.9804 Y31.4585 Z-3.135
G1 X-75.9768 Y31.4631 Z-3.1379
G1 X-75.9726 Y31.4679 Z-3.1409
G1 X-75.9679 Y31.4726 Z-3.1441
G1 X-75.9631 Y31.4768 Z-3.1472
G1 X-75.9585 Y31.4804 Z-3.15
G1 X-75.9533 Y31.4838 Z-3.153
G1 X-75.9479 Y31.4871 Z-3.156
G1 X-75.9422 Y31.49 Z-3.1591
G1 X-75.9366 Y31.4924 Z-3.162
G1 X-75.9308 Y31.4945 Z-3.165
G1 X-75.9244 Y31.4963 Z-3.1682
G1 X-75.9184 Y31.4977 Z-3.1712
G1 X-75.9128 Y31.4986 Z-3.1738
G1 X-75.9066 Y31.4992 Z-3.1769
G1 X-75.9 Y31.4994 Z-3.18
G1 X-75.8934 Y31.4992 Z-3.1832
G1 X-75.8872 Y31.4986 Z-3.1862
G1 X-75.8816 Y31.4977 Z-3.1889
G1 X-75.8756 Y31.4963 Z-3.1919
G1 X-75.8692 Y31.4945 Z-3.1951
G1 X-75.8634 Y31.4924 Z-3.198
G1 X-75.8578 Y31.49 Z-3.201
G1 X-75.8521 Y31.4871 Z-3.204
G1 X-75.8467 Y31.4838 Z-3.2071
G1 X-75.8415 Y31.4804 Z-3.21
G1 X-75.8369 Y31.4768 Z-3.2129
G1 X-75.8321 Y31.4726 Z-3.2159
G1 X-75.8274 Y31.4679 Z-3.2191
G1 X-75.8232 Y31.4631 Z-3.2222
G1 X-75.8196 Y31.4585 Z-3.225
G1 X-75.8162 Y31.4533 Z-3.228
G1 X-75.8129 Y31.4479 Z-3.231
G1 X-75.81 Y31.4422 Z-3.2341
G1 X-75.8076 Y31.4366 Z-3.237
G1 X-75.8055 Y31.4308 Z-3.24
G1 X-75.8037 Y31.4244 Z-3.2432
G1 X-75.8023 Y31.4184 Z-3.2462
G1 X-75.8014 Y31.4128 Z-3.2488
G1 X-75.8008 Y31.4066 Z-3.2519
G1 X-75.8006 Y31.4 Z-3.255
G1 X-75.8008 Y31.3934 Z-3.2582
G1 X-75.8014 Y31.3872 Z-3.2612
G1 X-75.8023 Y31.3816 Z-3.2639
G1 X-75.8037 Y31.3756 Z-3.2669
G1 X-75.8055 Y31.3692 Z-3.2701
G1 X-75.8076 Y31.3634 Z-3.273
G1 X-75.81 Y31.3578 Z-3.276
G1 X-75.8129 Y31.3521 Z-3.279
G1 X-75.8162 Y31.3467 Z-3.2821
G1 X-75.8196 Y31.3415 Z-3.285
G1 X-75.8232 Y31.3369 Z-3.2879
G1 X-75.8274 Y31.3321 Z-3.2909
G1 X-75.8321 Y31.3274 Z-3.2941
G1 X-75.8369 Y31.3232 Z-3.2972
G1 X-75.8415 Y31.3196 Z-3.3
G1 X-75.8467 Y31.3162 Z-3.303
G1 X-75.8521 Y31.3129 Z-3.306
G1 X-75.8578 Y31.31 Z-3.3091
G1 X-75.8634 Y31.3076 Z-3.312
G1 X-75.8692 Y31.3055 Z-3.315
G1 X-75.8756 Y31.3037 Z-3.3182
G1 X-75.8816 Y31.3023 Z-3.3212
G1 X-75.8872 Y31.3014 Z-3.3238
G1 X-75.8934 Y31.3008 Z-3.3269
G1 X-75.9 Y31.3006 Z-3.33
G1 X-75.9066 Y31.3008 Z-3.3332
G1 X-75.9128 Y31.3014 Z-3.3362
G1 X-75.9184 Y31.3023 Z-3.3389
G1 X-75.9244 Y31.3037 Z-3.3419
G1 X-75.9308 Y31.3055 Z-3.3451
G1 X-75.9366 Y31.3076 Z-3.348
G1 X-75.9422 Y31.31 Z-3.351
G1 X-75.9479 Y31.3129 Z-3.354
G1 X-75.9533 Y31.3162 Z-3.3571
G1 X-75.9585 Y31.3196 Z-3.36
G1 X-75.9631 Y31.3232 Z-3.3629
G1 X-75.9679 Y31.3274 Z-3.3659
G1 X-75.9726 Y31.3321 Z-3.3691
G1 X-75.9768 Y31.3369 Z-3.3722
G1 X-75.9804 Y31.3415 Z-3.375
G1 X-75.9838 Y31.3467 Z-3.378
G1 X-75.9871 Y31.3521 Z-3.381
G1 X-75.99 Y31.3578 Z-3.3841
G1 X-75.9924 Y31.3634 Z-3.387
G1 X-75.9945 Y31.3692 Z-3.39
G1 X-75.9963 Y31.3756 Z-3.3932
G1 X-75.9977 Y31.3816 Z-3.3962
G1 X-75.9986 Y31.3872 Z-3.3988
G1 X-75.9992 Y31.3934 Z-3.4019
G1 X-75.9994 Y31.4 Z-3.405
G1 X-75.9992 Y31.4066 Z-3.4082
G1 X-75.9986 Y31.4128 Z-3.4112
G1 X-75.9977 Y31.4184 Z-3.4139
G1 X-75.9963 Y31.4244 Z-3.4169
G1 X-75.9945 Y31.4308 Z-3.4201
G1 X-75.9924 Y31.4366 Z-3.423
G1 X-75.99 Y31.4422 Z-3.426
G1 X-75.9871 Y31.4479 Z-3.429
G1 X-75.9838 Y31.4533 Z-3.4321
G1 X-75.9804 Y31.4585 Z-3.435
G1 X-75.9768 Y31.4631 Z-3.4379
G1 X-75.9726 Y31.4679 Z-3.4409
G1 X-75.9679 Y31.4726 Z-3.4441
G1 X-75.9631 Y31.4768 Z-3.4472
G1 X-75.9585 Y31.4804 Z-3.45
G1 X-75.9533 Y31.4838 Z-3.453
G1 X-75.9479 Y31.4871 Z-3.456
G1 X-75.9422 Y31.49 Z-3.4591
G1 X-75.9366 Y31.4924 Z-3.462
G1 X-75.9308 Y31.4945 Z-3.465
G1 X-75.9244 Y31.4963 Z-3.4682
G1 X-75.9184 Y31.4977 Z-3.4712
G1 X-75.9128 Y31.4986 Z-3.4738
G1 X-75.9066 Y31.4992 Z-3.4769
G1 X-75.9 Y31.4994 Z-3.48
G1 X-75.8934 Y31.4992 Z-3.4832
G1 X-75.8872 Y31.4986 Z-3.4862
G1 X-75.8816 Y31.4977 Z-3.4889
G1 X-75.8756 Y31.4963 Z-3.4919
G1 X-75.8692 Y31.4945 Z-3.4951
G1 X-75.8634 Y31.4924 Z-3.498
G1 X-75.8578 Y31.49 Z-3.501
G1 X-75.8521 Y31.4871 Z-3.504
G1 X-75.8467 Y31.4838 Z-3.5071
G1 X-75.8415 Y31.4804 Z-3.51
G1 X-75.8369 Y31.4768 Z-3.5129
G1 X-75.8321 Y31.4726 Z-3.5159
G1 X-75.8274 Y31.4679 Z-3.5191
G1 X-75.8232 Y31.4631 Z-3.5222
G1 X-75.8196 Y31.4585 Z-3.525
G1 X-75.8162 Y31.4533 Z-3.528
G1 X-75.8129 Y31.4479 Z-3.531
G1 X-75.81 Y31.4422 Z-3.5341
G1 X-75.8076 Y31.4366 Z-3.537
G1 X-75.8055 Y31.4308 Z-3.54
G1 X-75.8037 Y31.4244 Z-3.5432
G1 X-75.8023 Y31.4184 Z-3.5462
G1 X-75.8014 Y31.4128 Z-3.5488
G1 X-75.8008 Y31.4066 Z-3.5519
G1 X-75.8006 Y31.4 Z-3.555
G1 X-75.8008 Y31.3934 Z-3.5582
G1 X-75.8014 Y31.3872 Z-3.5612
G1 X-75.8023 Y31.3816 Z-3.5639
G1 X-75.8037 Y31.3756 Z-3.5669
G1 X-75.8055 Y31.3692 Z-3.5701
G1 X-75.8076 Y31.3634 Z-3.573
G1 X-75.81 Y31.3578 Z-3.576
G1 X-75.8129 Y31.3521 Z-3.579
G1 X-75.8162 Y31.3467 Z-3.5821
G1 X-75.8196 Y31.3415 Z-3.585
G1 X-75.8232 Y31.3369 Z-3.5879
G1 X-75.8274 Y31.3321 Z-3.5909
G1 X-75.8321 Y31.3274 Z-3.5941
G1 X-75.8369 Y31.3232 Z-3.5972
G1 X-75.8415 Y31.3196 Z-3.6
G1 X-75.8467 Y31.3162 Z-3.603
G1 X-75.8521 Y31.3129 Z-3.606
G1 X-75.8578 Y31.31 Z-3.6091
G1 X-75.8634 Y31.3076 Z-3.612
G1 X-75.8692 Y31.3055 Z-3.615
G1 X-75.8756 Y31.3037 Z-3.6182
G1 X-75.8816 Y31.3023 Z-3.6212
G1 X-75.8872 Y31.3014 Z-3.6238
G1 X-75.8934 Y31.3008 Z-3.6269
G1 X-75.9 Y31.3006 Z-3.63
G1 X-75.9066 Y31.3008 Z-3.6332
G1 X-75.9128 Y31.3014 Z-3.6362
G1 X-75.9184 Y31.3023 Z-3.6389
G1 X-75.9244 Y31.3037 Z-3.6419
G1 X-75.9308 Y31.3055 Z-3.6451
G1 X-75.9366 Y31.3076 Z-3.648
G1 X-75.9422 Y31.31 Z-3.651
G1 X-75.9479 Y31.3129 Z-3.654
G1 X-75.9533 Y31.3162 Z-3.6571
G1 X-75.9585 Y31.3196 Z-3.66
G1 X-75.9631 Y31.3232 Z-3.6629
G1 X-75.9679 Y31.3274 Z-3.6659
G1 X-75.9726 Y31.3321 Z-3.6691
G1 X-75.9768 Y31.3369 Z-3.6722
G1 X-75.9804 Y31.3415 Z-3.675
G1 X-75.9838 Y31.3467 Z-3.678
G1 X-75.9871 Y31.3521 Z-3.681
G1 X-75.99 Y31.3578 Z-3.6841
G1 X-75.9924 Y31.3634 Z-3.687
G1 X-75.9945 Y31.3692 Z-3.69
G1 X-75.9963 Y31.3756 Z-3.6932
G1 X-75.9977 Y31.3816 Z-3.6962
G1 X-75.9986 Y31.3872 Z-3.6988
G1 X-75.9992 Y31.3934 Z-3.7019
G1 X-75.9994 Y31.4 Z-3.705
G1 X-75.9992 Y31.4066 Z-3.7082
G1 X-75.9986 Y31.4128 Z-3.7112
G1 X-75.9977 Y31.4184 Z-3.7139
G1 X-75.9963 Y31.4244 Z-3.7169
G1 X-75.9945 Y31.4308 Z-3.7201
G1 X-75.9924 Y31.4366 Z-3.723
G1 X-75.99 Y31.4422 Z-3.726
G1 X-75.9871 Y31.4479 Z-3.729
G1 X-75.9838 Y31.4533 Z-3.7321
G1 X-75.9804 Y31.4585 Z-3.735
G1 X-75.9768 Y31.4631 Z-3.7379
G1 X-75.9726 Y31.4679 Z-3.7409
G1 X-75.9679 Y31.4726 Z-3.7441
G1 X-75.9631 Y31.4768 Z-3.7472
G1 X-75.9585 Y31.4804 Z-3.75
G1 X-75.9533 Y31.4838 Z-3.753
G1 X-75.9479 Y31.4871 Z-3.756
G1 X-75.9422 Y31.49 Z-3.7591
G1 X-75.9366 Y31.4924 Z-3.762
G1 X-75.9308 Y31.4945 Z-3.765
G1 X-75.9244 Y31.4963 Z-3.7682
G1 X-75.9184 Y31.4977 Z-3.7712
G1 X-75.9128 Y31.4986 Z-3.7738
G1 X-75.9066 Y31.4992 Z-3.7769
G1 X-75.9 Y31.4994 Z-3.78
G1 X-75.8934 Y31.4992 Z-3.7832
G1 X-75.8872 Y31.4986 Z-3.7862
G1 X-75.8816 Y31.4977 Z-3.7889
G1 X-75.8756 Y31.4963 Z-3.7919
G1 X-75.8692 Y31.4945 Z-3.7951
G1 X-75.8634 Y31.4924 Z-3.798
G1 X-75.8578 Y31.49 Z-3.801
G1 X-75.8521 Y31.4871 Z-3.804
G1 X-75.8467 Y31.4838 Z-3.8071
G1 X-75.8415 Y31.4804 Z-3.81
G1 X-75.8369 Y31.4768 Z-3.8129
G1 X-75.8321 Y31.4726 Z-3.8159
G1 X-75.8274 Y31.4679 Z-3.8191
G1 X-75.8232 Y31.4631 Z-3.8222
G1 X-75.8196 Y31.4585 Z-3.825
G1 X-75.8162 Y31.4533 Z-3.828
G1 X-75.8129 Y31.4479 Z-3.831
G1 X-75.81 Y31.4422 Z-3.8341
G1 X-75.8076 Y31.4366 Z-3.837
G1 X-75.8055 Y31.4308 Z-3.84
G1 X-75.8037 Y31.4244 Z-3.8432
G1 X-75.8023 Y31.4184 Z-3.8462
G1 X-75.8014 Y31.4128 Z-3.8488
G1 X-75.8008 Y31.4066 Z-3.8519
G1 X-75.8006 Y31.4 Z-3.855
G1 X-75.8008 Y31.3934 Z-3.8582
G1 X-75.8014 Y31.3872 Z-3.8612
G1 X-75.8023 Y31.3816 Z-3.8639
G1 X-75.8037 Y31.3756 Z-3.8669
G1 X-75.8055 Y31.3692 Z-3.8701
G1 X-75.8076 Y31.3634 Z-3.873
G1 X-75.81 Y31.3578 Z-3.876
G1 X-75.8129 Y31.3521 Z-3.879
G1 X-75.8162 Y31.3467 Z-3.8821
G1 X-75.8196 Y31.3415 Z-3.885
G1 X-75.8232 Y31.3369 Z-3.8879
G1 X-75.8274 Y31.3321 Z-3.8909
G1 X-75.8321 Y31.3274 Z-3.8941
G1 X-75.8369 Y31.3232 Z-3.8972
G1 X-75.8415 Y31.3196 Z-3.9
G1 X-75.8467 Y31.3162 Z-3.901
G1 X-75.8521 Y31.3129 Z-3.902
G1 X-75.8578 Y31.31 Z-3.903
G1 X-75.8634 Y31.3076 Z-3.904
G1 X-75.8692 Y31.3055 Z-3.905
G1 X-75.8756 Y31.3037 Z-3.9061
G1 X-75.8816 Y31.3023 Z-3.9071
G1 X-75.8872 Y31.3014 Z-3.9079
G1 X-75.8934 Y31.3008 Z-3.909
G1 X-75.9 Y31.3006 Z-3.91
G1 X-75.9066 Y31.3008 Z-3.9111
G1 X-75.9128 Y31.3014 Z-3.9121
G1 X-75.9184 Y31.3023 Z-3.913
G1 X-75.9244 Y31.3037 Z-3.914
G1 X-75.9308 Y31.3055 Z-3.915
G1 X-75.9366 Y31.3076 Z-3.916
G1 X-75.9422 Y31.31 Z-3.917
G1 X-75.9479 Y31.3129 Z-3.918
G1 X-75.9533 Y31.3162 Z-3.919
G1 X-75.9585 Y31.3196 Z-3.92
G1 X-75.9631 Y31.3232 Z-3.921
G1 X-75.9679 Y31.3274 Z-3.922
G1 X-75.9726 Y31.3321 Z-3.923
G1 X-75.9768 Y31.3369 Z-3.9241
G1 X-75.9804 Y31.3415 Z-3.925
G1 X-75.9838 Y31.3467 Z-3.926
G1 X-75.9871 Y31.3521 Z-3.927
G1 X-75.99 Y31.3578 Z-3.928
G1 X-75.9924 Y31.3634 Z-3.929
G1 X-75.9945 Y31.3692 Z-3.93
G1 X-75.9963 Y31.3756 Z-3.9311
G1 X-75.9977 Y31.3816 Z-3.9321
G1 X-75.9986 Y31.3872 Z-3.9329
G1 X-75.9992 Y31.3934 Z-3.934
G1 X-75.9994 Y31.4 Z-3.935
G1 X-75.9992 Y31.4066 Z-3.9361
G1 X-75.9986 Y31.4128 Z-3.9371
G1 X-75.9977 Y31.4184 Z-3.938
G1 X-75.9963 Y31.4244 Z-3.939
G1 X-75.9945 Y31.4308 Z-3.94
G1 X-75.9924 Y31.4366 Z-3.941
G1 X-75.99 Y31.4422 Z-3.942
G1 X-75.9871 Y31.4479 Z-3.943
G1 X-75.9838 Y31.4533 Z-3.944
G1 X-75.9804 Y31.4585 Z-3.945
G1 X-75.9768 Y31.4631 Z-3.946
G1 X-75.9726 Y31.4679 Z-3.947
G1 X-75.9679 Y31.4726 Z-3.948
G1 X-75.9631 Y31.4768 Z-3.9491
G1 X-75.9585 Y31.4804 Z-3.95
G1 X-75.9533 Y31.4838 Z-3.951
G1 X-75.9479 Y31.4871 Z-3.952
G1 X-75.9422 Y31.49 Z-3.953
G1 X-75.9366 Y31.4924 Z-3.954
G1 X-75.9308 Y31.4945 Z-3.955
G1 X-75.9244 Y31.4963 Z-3.9561
G1 X-75.9184 Y31.4977 Z-3.9571
G1 X-75.9128 Y31.4986 Z-3.9579
G1 X-75.9066 Y31.4992 Z-3.959
G1 X-75.9 Y31.4994 Z-3.96
G1 X-75.8934 Y31.4992 Z-3.9611
G1 X-75.8872 Y31.4986 Z-3.9621
G1 X-75.8816 Y31.4977 Z-3.963
G1 X-75.8756 Y31.4963 Z-3.964
G1 X-75.8692 Y31.4945 Z-3.965
G1 X-75.8634 Y31.4924 Z-3.966
G1 X-75.8578 Y31.49 Z-3.967
G1 X-75.8521 Y31.4871 Z-3.968
G1 X-75.8467 Y31.4838 Z-3.969
G1 X-75.8415 Y31.4804 Z-3.97
G1 X-75.8369 Y31.4768 Z-3.971
G1 X-75.8321 Y31.4726 Z-3.972
G1 X-75.8274 Y31.4679 Z-3.973
G1 X-75.8232 Y31.4631 Z-3.9741
G1 X-75.8196 Y31.4585 Z-3.975
G1 X-75.8162 Y31.4533 Z-3.976
G1 X-75.8129 Y31.4479 Z-3.977
G1 X-75.81 Y31.4422 Z-3.978
G1 X-75.8076 Y31.4366 Z-3.979
G1 X-75.8055 Y31.4308 Z-3.98
G1 X-75.8037 Y31.4244 Z-3.9811
G1 X-75.8023 Y31.4184 Z-3.9821
G1 X-75.8014 Y31.4128 Z-3.9829
G1 X-75.8008 Y31.4066 Z-3.984
G1 X-75.8006 Y31.4 Z-3.985
G1 X-75.8008 Y31.3934 Z-3.9861
G1 X-75.8014 Y31.3872 Z-3.9871
G1 X-75.8023 Y31.3816 Z-3.988
G1 X-75.8037 Y31.3756 Z-3.989
G1 X-75.8055 Y31.3692 Z-3.99
G1 X-75.8076 Y31.3634 Z-3.991
G1 X-75.81 Y31.3578 Z-3.992
G1 X-75.8129 Y31.3521 Z-3.993
G1 X-75.8162 Y31.3467 Z-3.994
G1 X-75.8196 Y31.3415 Z-3.995
G1 X-75.8232 Y31.3369 Z-3.996
G1 X-75.8274 Y31.3321 Z-3.997
G1 X-75.8321 Y31.3274 Z-3.998
G1 X-75.8369 Y31.3232 Z-3.9991
G1 X-75.8415 Y31.3196 Z-4.0
G1 X-75.8467 Y31.3162
G1 X-75.8521 Y31.3129
G1 X-75.8578 Y31.31
G1 X-75.8634 Y31.3076
G1 X-75.8692 Y31.3055
G1 X-75.8756 Y31.3037
G1 X-75.8816 Y31.3023
G1 X-75.8872 Y31.3014
G1 X-75.8934 Y31.3008
G1 X-75.9 Y31.3006
G1 X-75.9066 Y31.3008
G1 X-75.9128 Y31.3014
G1 X-75.9184 Y31.3023
G1 X-75.9244 Y31.3037
G1 X-75.9308 Y31.3055
G1 X-75.9366 Y31.3076
G1 X-75.9422 Y31.31
G1 X-75.9479 Y31.3129
G1 X-75.9533 Y31.3162
G1 X-75.9585 Y31.3196
G1 X-75.9631 Y31.3232
G1 X-75.9679 Y31.3274
G1 X-75.9726 Y31.3321
G1 X-75.9768 Y31.3369
G1 X-75.9804 Y31.3415
G1 X-75.9838 Y31.3467
G1 X-75.9871 Y31.3521
G1 X-75.99 Y31.3578
G1 X-75.9924 Y31.3634
G1 X-75.9945 Y31.3692
G1 X-75.9963 Y31.3756
G1 X-75.9977 Y31.3816
G1 X-75.9986 Y31.3872
G1 X-75.9992 Y31.3934
G1 X-75.9994 Y31.4
G1 X-75.9992 Y31.4066
G1 X-75.9986 Y31.4128
G1 X-75.9977 Y31.4184
G1 X-75.9963 Y31.4244
G1 X-75.9945 Y31.4308
G1 X-75.9924 Y31.4366
G1 X-75.99 Y31.4422
G1 X-75.9871 Y31.4479
G1 X-75.9838 Y31.4533
G1 X-75.9804 Y31.4585
G1 X-75.9768 Y31.4631
G1 X-75.9726 Y31.4679
G1 X-75.9679 Y31.4726
G1 X-75.9631 Y31.4768
G1 X-75.9585 Y31.4804
G1 X-75.9533 Y31.4838
G1 X-75.9479 Y31.4871
G1 X-75.9422 Y31.49
G1 X-75.9366 Y31.4924
G1 X-75.9308 Y31.4945
G1 X-75.9244 Y31.4963
G1 X-75.9184 Y31.4977
G1 X-75.9128 Y31.4986
G1 X-75.9066 Y31.4992
G1 X-75.9 Y31.4994
G1 X-75.8934 Y31.4992
G1 X-75.8872 Y31.4986
G1 X-75.8816 Y31.4977
G1 X-75.8756 Y31.4963
G1 X-75.8692 Y31.4945
G1 X-75.8634 Y31.4924
G1 X-75.8578 Y31.49
G1 X-75.8521 Y31.4871
G1 X-75.8467 Y31.4838
G1 X-75.8415 Y31.4804
G1 X-75.8369 Y31.4768
G1 X-75.8321 Y31.4726
G1 X-75.8274 Y31.4679
G1 X-75.8232 Y31.4631
G1 X-75.8196 Y31.4585
G1 X-75.8162 Y31.4533
G1 X-75.8129 Y31.4479
G1 X-75.81 Y31.4422
G1 X-75.8076 Y31.4366
G1 X-75.8055 Y31.4308
G1 X-75.8037 Y31.4244
G1 X-75.8023 Y31.4184
G1 X-75.8014 Y31.4128
G1 X-75.8008 Y31.4066
G1 X-75.8006 Y31.4
G1 X-75.8008 Y31.3934
G1 X-75.8014 Y31.3872
G1 X-75.8023 Y31.3816
G1 X-75.8037 Y31.3756
G1 X-75.8055 Y31.3692
G1 X-75.8076 Y31.3634
G1 X-75.81 Y31.3578
G1 X-75.8129 Y31.3521
G1 X-75.8162 Y31.3467
G1 X-75.8196 Y31.3415
G1 X-75.8232 Y31.3369
G1 X-75.8274 Y31.3321
G1 X-75.8321 Y31.3274
G1 X-75.8369 Y31.3232
G1 X-75.8415 Y31.3196
G0 Z6.0
G0 X-72.9422 Y25.59
G0 Z1.0
G1 F150.0 Z0.0
G1 F400.0 X-72.9366 Y25.5924 Z-0.003
G1 X-72.9308 Y25.5945 Z-0.0059
G1 X-72.9244 Y25.5963 Z-0.0091
G1 X-72.9184 Y25.5977 Z-0.0121
G1 X-72.9128 Y25.5986 Z-0.0148
G1 X-72.9066 Y25.5992 Z-0.0178
G1 X-72.9 Y25.5994 Z-0.021
G1 X-72.8934 Y25.5992 Z-0.0241
G1 X-72.8872 Y25.5986 Z-0.0271
G1 X-72.8816 Y25.5977 Z-0.0298
G1 X-72.8756 Y25.5963 Z-0.0328
G1 X-72.8692 Y25.5945 Z-0.036
G1 X-72.8634 Y25.5924 Z-0.039
G1 X-72.8578 Y25.59 Z-0.0419
G1 X-72.8521 Y25.5871 Z-0.045
G1 X-72.8467 Y25.5838 Z-0.048
G1 X-72.8415 Y25.5804 Z-0.051
G1 X-72.8369 Y25.5768 Z-0.0538
G1 X-72.8321 Y25.5726 Z-0.0569
G1 X-72.8274 Y25.5679 Z-0.06
G1 X-72.8232 Y25.5631 Z-0.0631
G1 X-72.8196 Y25.5585 Z-0.0659
G1 X-72.8162 Y25.5533 Z-0.0689
G1 X-72.8129 Y25.5479 Z-0.072
G1 X-72.81 Y25.5422 Z-0.075
G1 X-72.8076 Y25.5366 Z-0.078
G1 X-72.8055 Y25.5308 Z-0.0809
G1 X-72.8037 Y25.5244 Z-0.0841
G1 X-72.8023 Y25.5184 Z-0.0871
G1 X-72.8014 Y25.5128 Z-0.0898
G1 X-72.8008 Y25.5066 Z-0.0928
G1 X-72.8006 Y25.5 Z-0.096
G1 X-72.8008 Y25.4934 Z-0.0991
G1 X-72.8014 Y25.4872 Z-0.1021
G1 X-72.8023 Y25.4816 Z-0.1048
G1 X-72.8037 Y25.4756 Z-0.1078
G1 X-72.8055 Y25.4692 Z-0.111
G1 X-72.8076 Y25.4634 Z-0.114
G1 X-72.81 Y25.4578 Z-0.1169
G1 X-72.8129 Y25.4521 Z-0.12
G1 X-72.8162 Y25.4467 Z-0.123
G1 X-72.8196 Y25.4415 Z-0.126
G1 X-72.8232 Y25.4369 Z-0.1288
G1 X-72.8274 Y25.4321 Z-0.1319
G1 X-72.8321 Y25.4274 Z-0.135
G1 X-72.8369 Y25.4232 Z-0.1381
G1 X-72.8415 Y25.4196 Z-0.1409
G1 X-72.8467 Y25.4162 Z-0.1439
G1 X-72.8521 Y25.4129 Z-0.147
G1 X-72.8578 Y25.41 Z-0.15
G1 X-72.8634 Y25.4076 Z-0.153
G1 X-72.8692 Y25.4055 Z-0.1559
G1 X-72.8756 Y25.4037 Z-0.1591
G1 X-72.8816 Y25.4023 Z-0.1621
G1 X-72.8872 Y25.4014 Z-0.1648
G1 X-72.8934 Y25.4008 Z-0.1678
G1 X-72.9 Y25.4006 Z-0.171
G1 X-72.9066 Y25.4008 Z-0.1741
G1 X-72.9128 Y25.4014 Z-0.1771
G1 X-72.9184 Y25.4023 Z-0.1798
G1 X-72.9244 Y25.4037 Z-0.1828
G1 X-72.9308 Y25.4055 Z-0.186
G1 X-72.9366 Y25.4076 Z-0.189
G1 X-72.9422 Y25.41 Z-0.1919
G1 X-72.9479 Y25.4129 Z-0.195
G1 X-72.9533 Y25.4162 Z-0.198
G1 X-72.9585 Y25.4196 Z-0.201
G1 X-72.9631 Y25.4232 Z-0.2038
G1 X-72.9679 Y25.4274 Z-0.2069
G1 X-72.9726 Y25.4321 Z-0.21
G1 X-72.9768 Y25.4369 Z-0.2131
G1 X-72.9804 Y25.4415 Z-0.2159
G1 X-72.9838 Y25.4467 Z-0.2189
G1 X-72.9871 Y25.4521 Z-0.222
G1 X-72.99 Y25.4578 Z-0.225
G1 X-72.9924 Y25.4634 Z-0.228
G1 X-72.9945 Y25.4692 Z-0.2309
G1 X-72.9963 Y25.4756 Z-0.2341
G1 X-72.9977 Y25.4816 Z-0.2371
G1 X-72.9986 Y25.4872 Z-0.2398
G1 X-72.9992 Y25.4934 Z-0.2428
G1 X-72.9994 Y25.5 Z-0.246
G1 X-72.9992 Y25.5066 Z-0.2491
G1 X-72.9986 Y25.5128 Z-0.2521
G1 X-72.9977 Y25.5184 Z-0.2548
G1 X-72.9963 Y25.5244 Z-0.2578
G1 X-72.9945 Y25.5308 Z-0.261
G1 X-72.9924 Y25.5366 Z-0.264
G1 X-72.99 Y25.5422 Z-0.2669
G1 X-72.9871 Y25.5479 Z-0.27
G1 X-72.9838 Y25.5533 Z-0.273
G1 X-72.9804 Y25.5585 Z-0.276
G1 X-72.9768 Y25.5631 Z-0.2788
G1 X-72.9726 Y25.5679 Z-0.2819
G1 X-72.9679 Y25.5726 Z-0.285
G1 X-72.9631 Y25.5768 Z-0.2881
G1 X-72.9585 Y25.5804 Z-0.2909
G1 X-72.9533 Y25.5838 Z-0.2939
G1 X-72.9479 Y25.5871 Z-0.297
G1 X-72.9422 Y25.59 Z-0.3
G1 X-72.9366 Y25.5924 Z-0.303
G1 X-72.9308 Y25.5945 Z-0.3059
G1 X-72.9244 Y25.5963 Z-0.3091
G1 X-72.9184 Y25.5977 Z-0.3121
G1 X-72.9128 Y25.5986 Z-0.3148
G1 X-72.9066 Y25.5992 Z-0.3178
G1 X-72.9 Y25.5994 Z-0.321
G1 X-72.8934 Y25.5992 Z-0.3241
G1 X-72.8872 Y25.5986 Z-0.3271
G1 X-72.8816 Y25.5977 Z-0.3298
G1 X-72.8756 Y25.5963 Z-0.3328
G1 X-72.8692 Y25.5945 Z-0.336
G1 X-72.8634 Y25.5924 Z-0.339
G1 X-72.8578 Y25.59 Z-0.3419
G1 X-72.8521 Y25.5871 Z-0.345
G1 X-72.8467 Y25.5838 Z-0.348
G1 X-72.8415 Y25.5804 Z-0.351
G1 X-72.8369 Y25.5768 Z-0.3538
G1 X-72.8321 Y25.5726 Z-0.3569
G1 X-72.8274 Y25.5679 Z-0.36
G1 X-72.8232 Y25.5631 Z-0.3631
G1 X-72.8196 Y25.5585 Z-0.3659
G1 X-72.8162 Y25.5533 Z-0.3689
G1 X-72.8129 Y25.5479 Z-0.372
G1 X-72.81 Y25.5422 Z-0.375
G1 X-72.8076 Y25.5366 Z-0.378
G1 X-72.8055 Y25.5308 Z-0.3809
G1 X-72.8037 Y25.5244 Z-0.3841
G1 X-72.8023 Y25.5184 Z-0.3871
G1 X-72.8014 Y25.5128 Z-0.3898
G1 X-72.8008 Y25.5066 Z-0.3928
G1 X-72.8006 Y25.5 Z-0.396
G1 X-72.8008 Y25.4934 Z-0.3991
G1 X-72.8014 Y25.4872 Z-0.4021
G1 X-72.8023 Y25.4816 Z-0.4048
G1 X-72.8037 Y25.4756 Z-0.4078
G1 X-72.8055 Y25.4692 Z-0.411
G1 X-72.8076 Y25.4634 Z-0.414
G1 X-72.81 Y25.4578 Z-0.4169
G1 X-72.8129 Y25.4521 Z-0.42
G1 X-72.8162 Y25.4467 Z-0.423
G1 X-72.8196 Y25.4415 Z-0.426
G1 X-72.8232 Y25.4369 Z-0.4288
G1 X-72.8274 Y25.4321 Z-0.4319
G1 X-72.8321 Y25.4274 Z-0.435
G1 X-72.8369 Y25.4232 Z-0.4381
G1 X-72.8415 Y25.4196 Z-0.4409
G1 X-72.8467 Y25.4162 Z-0.4439
G1 X-72.8521 Y25.4129 Z-0.447
G1 X-72.8578 Y25.41 Z-0.45
G1 X-72.8634 Y25.4076 Z-0.453
G1 X-72.8692 Y25.4055 Z-0.4559
G1 X-72.8756 Y25.4037 Z-0.4591
G1 X-72.8816 Y25.4023 Z-0.4621
G1 X-72.8872 Y25.4014 Z-0.4648
G1 X-72.8934 Y25.4008 Z-0.4678
G1 X-72.9 Y25.4006 Z-0.471
G1 X-72.9066 Y25.4008 Z-0.4741
G1 X-72.9128 Y25.4014 Z-0.4771
G1 X-72.9184 Y25.4023 Z-0.4798
G1 X-72.9244 Y25.4037 Z-0.4828
G1 X-72.9308 Y25.4055 Z-0.486
G1 X-72.9366 Y25.4076 Z-0.489
G1 X-72.9422 Y25.41 Z-0.4919
G1 X-72.9479 Y25.4129 Z-0.495
G1 X-72.9533 Y25.4162 Z-0.498
G1 X-72.9585 Y25.4196 Z-0.501
G1 X-72.9631 Y25.4232 Z-0.5038
G1 X-72.9679 Y25.4274 Z-0.5069
G1 X-72.9726 Y25.4321 Z-0.51
G1 X-72.9768 Y25.4369 Z-0.5131
G1 X-72.9804 Y25.4415 Z-0.5159
G1 X-72.9838 Y25.4467 Z-0.5189
G1 X-72.9871 Y25.4521 Z-0.522
G1 X-72.99 Y25.4578 Z-0.525
G1 X-72.9924 Y25.4634 Z-0.528
G1 X-72.9945 Y25.4692 Z-0.5309
G1 X-72.9963 Y25.4756 Z-0.5341
G1 X-72.9977 Y25.4816 Z-0.5371
G1 X-72.9986 Y25.4872 Z-0.5398
G1 X-72.9992 Y25.4934 Z-0.5428
G1 X-72.9994 Y25.5 Z-0.546
G1 X-72.9992 Y25.5066 Z-0.5491
G1 X-72.9986 Y25.5128 Z-0.5521
G1 X-72.9977 Y25.5184 Z-0.5548
G1 X-72.9963 Y25.5244 Z-0.5578
G1 X-72.9945 Y25.5308 Z-0.561
G1 X-72.9924 Y25.5366 Z-0.564
G1 X-72.99 Y25.5422 Z-0.5669
G1 X-72.9871 Y25.5479 Z-0.57
G1 X-72.9838 Y25.5533 Z-0.573
G1 X-72.9804 Y25.5585 Z-0.576
G1 X-72.9768 Y25.5631 Z-0.5788
G1 X-72.9726 Y25.5679 Z-0.5819
G1 X-72.9679 Y25.5726 Z-0.585
G1 X-72.9631 Y25.5768 Z-0.5881
G1 X-72.9585 Y25.5804 Z-0.5909
G1 X-72.9533 Y25.5838 Z-0.5939
G1 X-72.9479 Y25.5871 Z-0.597
G1 X-72.9422 Y25.59 Z-0.6
G1 X-72.9366 Y25.5924 Z-0.603
G1 X-72.9308 Y25.5945 Z-0.6059
G1 X-72.9244 Y25.5963 Z-0.6091
G1 X-72.9184 Y25.5977 Z-0.6121
G1 X-72.9128 Y25.5986 Z-0.6148
G1 X-72.9066 Y25.5992 Z-0.6178
G1 X-72.9 Y25.5994 Z-0.621
G1 X-72.8934 Y25.5992 Z-0.6241
G1 X-72.8872 Y25.5986 Z-0.6271
G1 X-72.8816 Y25.5977 Z-0.6298
G1 X-72.8756 Y25.5963 Z-0.6328
G1 X-72.8692 Y25.5945 Z-0.636
G1 X-72.8634 Y25.5924 Z-0.639
G1 X-72.8578 Y25.59 Z-0.6419
G1 X-72.8521 Y25.5871 Z-0.645
G1 X-72.8467 Y25.5838 Z-0.648
G1 X-72.8415 Y25.5804 Z-0.651
G1 X-72.8369 Y25.5768 Z-0.6538
G1 X-72.8321 Y25.5726 Z-0.6569
G1 X-72.8274 Y25.5679 Z-0.66
G1 X-72.8232 Y25.5631 Z-0.6631
G1 X-72.8196 Y25.5585 Z-0.6659
G1 X-72.8162 Y25.5533 Z-0.6689
G1 X-72.8129 Y25.5479 Z-0.672
G1 X-72.81 Y25.5422 Z-0.675
G1 X-72.8076 Y25.5366 Z-0.678
G1 X-72.8055 Y25.5308 Z-0.6809
G1 X-72.8037 Y25.5244 Z-0.6841
G1 X-72.8023 Y25.5184 Z-0.6871
G1 X-72.8014 Y25.5128 Z-0.6898
G1 X-72.8008 Y25.5066 Z-0.6928
G1 X-72.8006 Y25.5 Z-0.696
G1 X-72.8008 Y25.4934 Z-0.6991
G1 X-72.8014 Y25.4872 Z-0.7021
G1 X-72.8023 Y25.4816 Z-0.7048
G1 X-72.8037 Y25.4756 Z-0.7078
G1 X-72.8055 Y25.4692 Z-0.711
G1 X-72.8076 Y25.4634 Z-0.714
G1 X-72.81 Y25.4578 Z-0.7169
G1 X-72.8129 Y25.4521 Z-0.72
G1 X-72.8162 Y25.4467 Z-0.723
G1 X-72.8196 Y25.4415 Z-0.726
G1 X-72.8232 Y25.4369 Z-0.7288
G1 X-72.8274 Y25.4321 Z-0.7319
G1 X-72.8321 Y25.4274 Z-0.735
G1 X-72.8369 Y25.4232 Z-0.7381
G1 X-72.8415 Y25.4196 Z-0.7409
G1 X-72.8467 Y25.4162 Z-0.7439
G1 X-72.8521 Y25.4129 Z-0.747
G1 X-72.8578 Y25.41 Z-0.75
G1 X-72.8634 Y25.4076 Z-0.753
G1 X-72.8692 Y25.4055 Z-0.7559
G1 X-72.8756 Y25.4037 Z-0.7591
G1 X-72.8816 Y25.4023 Z-0.7621
G1 X-72.8872 Y25.4014 Z-0.7648
G1 X-72.8934 Y25.4008 Z-0.7678
G1 X-72.9 Y25.4006 Z-0.771
G1 X-72.9066 Y25.4008 Z-0.7741
G1 X-72.9128 Y25.4014 Z-0.7771
G1 X-72.9184 Y25.4023 Z-0.7798
G1 X-72.9244 Y25.4037 Z-0.7828
G1 X-72.9308 Y25.4055 Z-0.786
G1 X-72.9366 Y25.4076 Z-0.789
G1 X-72.9422 Y25.41 Z-0.7919
G1 X-72.9479 Y25.4129 Z-0.795
G1 X-72.9533 Y25.4162 Z-0.798
G1 X-72.9585 Y25.4196 Z-0.801
G1 X-72.9631 Y25.4232 Z-0.8038
G1 X-72.9679 Y25.4274 Z-0.8069
G1 X-72.9726 Y25.4321 Z-0.81
G1 X-72.9768 Y25.4369 Z-0.8131
G1 X-72.9804 Y25.4415 Z-0.8159
G1 X-72.9838 Y25.4467 Z-0.8189
G1 X-72.9871 Y25.4521 Z-0.822
G1 X-72.99 Y25.4578 Z-0.825
G1 X-72.9924 Y25.4634 Z-0.828
G1 X-72.9945 Y25.4692 Z-0.8309
G1 X-72.9963 Y25.4756 Z-0.8341
G1 X-72.9977 Y25.4816 Z-0.8371
G1 X-72.9986 Y25.4872 Z-0.8398
G1 X-72.9992 Y25.4934 Z-0.8428
G1 X-72.9994 Y25.5 Z-0.846
G1 X-72.9992 Y25.5066 Z-0.8491
G1 X-72.9986 Y25.5128 Z-0.8521
G1 X-72.9977 Y25.5184 Z-0.8548
G1 X-72.9963 Y25.5244 Z-0.8578
G1 X-72.9945 Y25.5308 Z-0.861
G1 X-72.9924 Y25.5366 Z-0.864
G1 X-72.99 Y25.5422 Z-0.8669
G1 X-72.9871 Y25.5479 Z-0.87
G1 X-72.9838 Y25.5533 Z-0.873
G1 X-72.9804 Y25.5585 Z-0.876
G1 X-72.9768 Y25.5631 Z-0.8788
G1 X-72.9726 Y25.5679 Z-0.8819
G1 X-72.9679 Y25.5726 Z-0.885
G1 X-72.9631 Y25.5768 Z-0.8881
G1 X-72.9585 Y25.5804 Z-0.8909
G1 X-72.9533 Y25.5838 Z-0.8939
G1 X-72.9479 Y25.5871 Z-0.897
G1 X-72.9422 Y25.59 Z-0.9
G1 X-72.9366 Y25.5924 Z-0.903
G1 X-72.9308 Y25.5945 Z-0.9059
G1 X-72.9244 Y25.5963 Z-0.9091
G1 X-72.9184 Y25.5977 Z-0.9121
G1 X-72.9128 Y25.5986 Z-0.9148
G1 X-72.9066 Y25.5992 Z-0.9178
G1 X-72.9 Y25.5994 Z-0.921
G1 X-72.8934 Y25.5992 Z-0.9241
G1 X-72.8872 Y25.5986 Z-0.9271
G1 X-72.8816 Y25.5977 Z-0.9298
G1 X-72.8756 Y25.5963 Z-0.9328
G1 X-72.8692 Y25.5945 Z-0.936
G1 X-72.8634 Y25.5924 Z-0.939
G1 X-72.8578 Y25.59 Z-0.9419
G1 X-72.8521 Y25.5871 Z-0.945
G1 X-72.8467 Y25.5838 Z-0.948
G1 X-72.8415 Y25.5804 Z-0.951
G1 X-72.8369 Y25.5768 Z-0.9538
G1 X-72.8321 Y25.5726 Z-0.9569
G1 X-72.8274 Y25.5679 Z-0.96
G1 X-72.8232 Y25.5631 Z-0.9631
G1 X-72.8196 Y25.5585 Z-0.9659
G1 X-72.8162 Y25.5533 Z-0.9689
G1 X-72.8129 Y25.5479 Z-0.972
G1 X-72.81 Y25.5422 Z-0.975
G1 X-72.8076 Y25.5366 Z-0.978
G1 X-72.8055 Y25.5308 Z-0.9809
G1 X-72.8037 Y25.5244 Z-0.9841
G1 X-72.8023 Y25.5184 Z-0.9871
G1 X-72.8014 Y25.5128 Z-0.9898
G1 X-72.8008 Y25.5066 Z-0.9928
G1 X-72.8006 Y25.5 Z-0.996
G1 X-72.8008 Y25.4934 Z-0.9991
G1 X-72.8014 Y25.4872 Z-1.0021
G1 X-72.8023 Y25.4816 Z-1.0048
G1 X-72.8037 Y25.4756 Z-1.0078
G1 X-72.8055 Y25.4692 Z-1.011
G1 X-72.8076 Y25.4634 Z-1.014
G1 X-72.81 Y25.4578 Z-1.0169
G1 X-72.8129 Y25.4521 Z-1.02
G1 X-72.8162 Y25.4467 Z-1.023
G1 X-72.8196 Y25.4415 Z-1.026
G1 X-72.8232 Y25.4369 Z-1.0288
G1 X-72.8274 Y25.4321 Z-1.0319
G1 X-72.8321 Y25.4274 Z-1.035
G1 X-72.8369 Y25.4232 Z-1.0381
G1 X-72.8415 Y25.4196 Z-1.0409
G1 X-72.8467 Y25.4162 Z-1.0439
G1 X-72.8521 Y25.4129 Z-1.047
G1 X-72.8578 Y25.41 Z-1.05
G1 X-72.8634 Y25.4076 Z-1.053
G1 X-72.8692 Y25.4055 Z-1.0559
G1 X-72.8756 Y25.4037 Z-1.0591
G1 X-72.8816 Y25.4023 Z-1.0621
G1 X-72.8872 Y25.4014 Z-1.0648
G1 X-72.8934 Y25.4008 Z-1.0678
G1 X-72.9 Y25.4006 Z-1.071
G1 X-72.9066 Y25.4008 Z-1.0741
G1 X-72.9128 Y25.4014 Z-1.0771
G1 X-72.9184 Y25.4023 Z-1.0798
G1 X-72.9244 Y25.4037 Z-1.0828
G1 X-72.9308 Y25.4055 Z-1.086
G1 X-72.9366 Y25.4076 Z-1.089
G1 X-72.9422 Y25.41 Z-1.0919
G1 X-72.9479 Y25.4129 Z-1.095
G1 X-72.9533 Y25.4162 Z-1.098
G1 X-72.9585 Y25.4196 Z-1.101
G1 X-72.9631 Y25.4232 Z-1.1038
G1 X-72.9679 Y25.4274 Z-1.1069
G1 X-72.9726 Y25.4321 Z-1.11
G1 X-72.9768 Y25.4369 Z-1.1131
G1 X-72.9804 Y25.4415 Z-1.1159
G1 X-72.9838 Y25.4467 Z-1.1189
G1 X-72.9871 Y25.4521 Z-1.122
G1 X-72.99 Y25.4578 Z-1.125
G1 X-72.9924 Y25.4634 Z-1.128
G1 X-72.9945 Y25.4692 Z-1.1309
G1 X-72.9963 Y25.4756 Z-1.1341
G1 X-72.9977 Y25.4816 Z-1.1371
G1 X-72.9986 Y25.4872 Z-1.1398
G1 X-72.9992 Y25.4934 Z-1.1428
G1 X-72.9994 Y25.5 Z-1.146
G1 X-72.9992 Y25.5066 Z-1.1491
G1 X-72.9986 Y25.5128 Z-1.1521
G1 X-72.9977 Y25.5184 Z-1.1548
G1 X-72.9963 Y25.5244 Z-1.1578
G1 X-72.9945 Y25.5308 Z-1.161
G1 X-72.9924 Y25.5366 Z-1.164
G1 X-72.99 Y25.5422 Z-1.1669
G1 X-72.9871 Y25.5479 Z-1.17
G1 X-72.9838 Y25.5533 Z-1.173
G1 X-72.9804 Y25.5585 Z-1.176
G1 X-72.9768 Y25.5631 Z-1.1788
G1 X-72.9726 Y25.5679 Z-1.1819
G1 X-72.9679 Y25.5726 Z-1.185
G1 X-72.9631 Y25.5768 Z-1.1881
G1 X-72.9585 Y25.5804 Z-1.1909
G1 X-72.9533 Y25.5838 Z-1.1939
G1 X-72.9479 Y25.5871 Z-1.197
G1 X-72.9422 Y25.59 Z-1.2
G1 X-72.9366 Y25.5924 Z-1.203
G1 X-72.9308 Y25.5945 Z-1.2059
G1 X-72.9244 Y25.5963 Z-1.2091
G1 X-72.9184 Y25.5977 Z-1.2121
G1 X-72.9128 Y25.5986 Z-1.2148
G1 X-72.9066 Y25.5992 Z-1.2178
G1 X-72.9 Y25.5994 Z-1.221
G1 X-72.8934 Y25.5992 Z-1.2241
G1 X-72.8872 Y25.5986 Z-1.2271
G1 X-72.8816 Y25.5977 Z-1.2298
G1 X-72.8756 Y25.5963 Z-1.2328
G1 X-72.8692 Y25.5945 Z-1.236
G1 X-72.8634 Y25.5924 Z-1.239
G1 X-72.8578 Y25.59 Z-1.2419
G1 X-72.8521 Y25.5871 Z-1.245
G1 X-72.8467 Y25.5838 Z-1.248
G1 X-72.8415 Y25.5804 Z-1.251
G1 X-72.8369 Y25.5768 Z-1.2538
G1 X-72.8321 Y25.5726 Z-1.2569
G1 X-72.8274 Y25.5679 Z-1.26
G1 X-72.8232 Y25.5631 Z-1.2631
G1 X-72.8196 Y25.5585 Z-1.2659
G1 X-72.8162 Y25.5533 Z-1.2689
G1 X-72.8129 Y25.5479 Z-1.272
G1 X-72.81 Y25.5422 Z-1.275
G1 X-72.8076 Y25.5366 Z-1.278
G1 X-72.8055 Y25.5308 Z-1.2809
G1 X-72.8037 Y25.5244 Z-1.2841
G1 X-72.8023 Y25.5184 Z-1.2871
G1 X-72.8014 Y25.5128 Z-1.2898
G1 X-72.8008 Y25.5066 Z-1.2928
G1 X-72.8006 Y25.5 Z-1.296
G1 X-72.8008 Y25.4934 Z-1.2991
G1 X-72.8014 Y25.4872 Z-1.3021
G1 X-72.8023 Y25.4816 Z-1.3048
G1 X-72.8037 Y25.4756 Z-1.3078
G1 X-72.8055 Y25.4692 Z-1.311
G1 X-72.8076 Y25.4634 Z-1.314
G1 X-72.81 Y25.4578 Z-1.3169
G1 X-72.8129 Y25.4521 Z-1.32
G1 X-72.8162 Y25.4467 Z-1.323
G1 X-72.8196 Y25.4415 Z-1.326
G1 X-72.8232 Y25.4369 Z-1.3288
G1 X-72.8274 Y25.4321 Z-1.3319
G1 X-72.8321 Y25.4274 Z-1.335
G1 X-72.8369 Y25.4232 Z-1.3381
G1 X-72.8415 Y25.4196 Z-1.3409
G1 X-72.8467 Y25.4162 Z-1.3439
G1 X-72.8521 Y25.4129 Z-1.347
G1 X-72.8578 Y25.41 Z-1.35
G1 X-72.8634 Y25.4076 Z-1.353
G1 X-72.8692 Y25.4055 Z-1.3559
G1 X-72.8756 Y25.4037 Z-1.3591
G1 X-72.8816 Y25.4023 Z-1.3621
G1 X-72.8872 Y25.4014 Z-1.3648
G1 X-72.8934 Y25.4008 Z-1.3678
G1 X-72.9 Y25.4006 Z-1.371
G1 X-72.9066 Y25.4008 Z-1.3741
G1 X-72.9128 Y25.4014 Z-1.3771
G1 X-72.9184 Y25.4023 Z-1.3798
G1 X-72.9244 Y25.4037 Z-1.3828
G1 X-72.9308 Y25.4055 Z-1.386
G1 X-72.9366 Y25.4076 Z-1.389
G1 X-72.9422 Y25.41 Z-1.3919
G1 X-72.9479 Y25.4129 Z-1.395
G1 X-72.9533 Y25.4162 Z-1.398
G1 X-72.9585 Y25.4196 Z-1.401
G1 X-72.9631 Y25.4232 Z-1.4038
G1 X-72.9679 Y25.4274 Z-1.4069
G1 X-72.9726 Y25.4321 Z-1.41
G1 X-72.9768 Y25.4369 Z-1.4131
G1 X-72.9804 Y25.4415 Z-1.4159
G1 X-72.9838 Y25.4467 Z-1.4189
G1 X-72.9871 Y25.4521 Z-1.422
G1 X-72.99 Y25.4578 Z-1.425
G1 X-72.9924 Y25.4634 Z-1.428
G1 X-72.9945 Y25.4692 Z-1.4309
G1 X-72.9963 Y25.4756 Z-1.4341
G1 X-72.9977 Y25.4816 Z-1.4371
G1 X-72.9986 Y25.4872 Z-1.4398
G1 X-72.9992 Y25.4934 Z-1.4428
G1 X-72.9994 Y25.5 Z-1.446
G1 X-72.9992 Y25.5066 Z-1.4491
G1 X-72.9986 Y25.5128 Z-1.4521
G1 X-72.9977 Y25.5184 Z-1.4548
G1 X-72.9963 Y25.5244 Z-1.4578
G1 X-72.9945 Y25.5308 Z-1.461
G1 X-72.9924 Y25.5366 Z-1.464
G1 X-72.99 Y25.5422 Z-1.4669
G1 X-72.9871 Y25.5479 Z-1.47
G1 X-72.9838 Y25.5533 Z-1.473
G1 X-72.9804 Y25.5585 Z-1.476
G1 X-72.9768 Y25.5631 Z-1.4788
G1 X-72.9726 Y25.5679 Z-1.4819
G1 X-72.9679 Y25.5726 Z-1.485
G1 X-72.9631 Y25.5768 Z-1.4881
G1 X-72.9585 Y25.5804 Z-1.4909
G1 X-72.9533 Y25.5838 Z-1.4939
G1 X-72.9479 Y25.5871 Z-1.497
G1 X-72.9422 Y25.59 Z-1.5
G1 X-72.9366 Y25.5924 Z-1.503
G1 X-72.9308 Y25.5945 Z-1.5059
G1 X-72.9244 Y25.5963 Z-1.5091
G1 X-72.9184 Y25.5977 Z-1.5121
G1 X-72.9128 Y25.5986 Z-1.5148
G1 X-72.9066 Y25.5992 Z-1.5178
G1 X-72.9 Y25.5994 Z-1.521
G1 X-72.8934 Y25.5992 Z-1.5241
G1 X-72.8872 Y25.5986 Z-1.5271
G1 X-72.8816 Y25.5977 Z-1.5298
G1 X-72.8756 Y25.5963 Z-1.5328
G1 X-72.8692 Y25.5945 Z-1.536
G1 X-72.8634 Y25.5924 Z-1.539
G1 X-72.8578 Y25.59 Z-1.5419
G1 X-72.8521 Y25.5871 Z-1.545
G1 X-72.8467 Y25.5838 Z-1.548
G1 X-72.8415 Y25.5804 Z-1.551
G1 X-72.8369 Y25.5768 Z-1.5538
G1 X-72.8321 Y25.5726 Z-1.5569
G1 X-72.8274 Y25.5679 Z-1.56
G1 X-72.8232 Y25.5631 Z-1.5631
G1 X-72.8196 Y25.5585 Z-1.5659
G1 X-72.8162 Y25.5533 Z-1.5689
G1 X-72.8129 Y25.5479 Z-1.572
G1 X-72.81 Y25.5422 Z-1.575
G1 X-72.8076 Y25.5366 Z-1.578
G1 X-72.8055 Y25.5308 Z-1.5809
G1 X-72.8037 Y25.5244 Z-1.5841
G1 X-72.8023 Y25.5184 Z-1.5871
G1 X-72.8014 Y25.5128 Z-1.5898
G1 X-72.8008 Y25.5066 Z-1.5928
G1 X-72.8006 Y25.5 Z-1.596
G1 X-72.8008 Y25.4934 Z-1.5991
G1 X-72.8014 Y25.4872 Z-1.6021
G1 X-72.8023 Y25.4816 Z-1.6048
G1 X-72.8037 Y25.4756 Z-1.6078
G1 X-72.8055 Y25.4692 Z-1.611
G1 X-72.8076 Y25.4634 Z-1.614
G1 X-72.81 Y25.4578 Z-1.6169
G1 X-72.8129 Y25.4521 Z-1.62
G1 X-72.8162 Y25.4467 Z-1.623
G1 X-72.8196 Y25.4415 Z-1.626
G1 X-72.8232 Y25.4369 Z-1.6288
G1 X-72.8274 Y25.4321 Z-1.6319
G1 X-72.8321 Y25.4274 Z-1.635
G1 X-72.8369 Y25.4232 Z-1.6381
G1 X-72.8415 Y25.4196 Z-1.6409
G1 X-72.8467 Y25.4162 Z-1.6439
G1 X-72.8521 Y25.4129 Z-1.647
G1 X-72.8578 Y25.41 Z-1.65
G1 X-72.8634 Y25.4076 Z-1.653
G1 X-72.8692 Y25.4055 Z-1.6559
G1 X-72.8756 Y25.4037 Z-1.6591
G1 X-72.8816 Y25.4023 Z-1.6621
G1 X-72.8872 Y25.4014 Z-1.6648
G1 X-72.8934 Y25.4008 Z-1.6678
G1 X-72.9 Y25.4006 Z-1.671
G1 X-72.9066 Y25.4008 Z-1.6741
G1 X-72.9128 Y25.4014 Z-1.6771
G1 X-72.9184 Y25.4023 Z-1.6798
G1 X-72.9244 Y25.4037 Z-1.6828
G1 X-72.9308 Y25.4055 Z-1.686
G1 X-72.9366 Y25.4076 Z-1.689
G1 X-72.9422 Y25.41 Z-1.6919
G1 X-72.9479 Y25.4129 Z-1.695
G1 X-72.9533 Y25.4162 Z-1.698
G1 X-72.9585 Y25.4196 Z-1.701
G1 X-72.9631 Y25.4232 Z-1.7038
G1 X-72.9679 Y25.4274 Z-1.7069
G1 X-72.9726 Y25.4321 Z-1.71
G1 X-72.9768 Y25.4369 Z-1.7131
G1 X-72.9804 Y25.4415 Z-1.7159
G1 X-72.9838 Y25.4467 Z-1.7189
G1 X-72.9871 Y25.4521 Z-1.722
G1 X-72.99 Y25.4578 Z-1.725
G1 X-72.9924 Y25.4634 Z-1.728
G1 X-72.9945 Y25.4692 Z-1.7309
G1 X-72.9963 Y25.4756 Z-1.7341
G1 X-72.9977 Y25.4816 Z-1.7371
G1 X-72.9986 Y25.4872 Z-1.7398
G1 X-72.9992 Y25.4934 Z-1.7428
G1 X-72.9994 Y25.5 Z-1.746
G1 X-72.9992 Y25.5066 Z-1.7491
G1 X-72.9986 Y25.5128 Z-1.7521
G1 X-72.9977 Y25.5184 Z-1.7548
G1 X-72.9963 Y25.5244 Z-1.7578
G1 X-72.9945 Y25.5308 Z-1.761
G1 X-72.9924 Y25.5366 Z-1.764
G1 X-72.99 Y25.5422 Z-1.7669
G1 X-72.9871 Y25.5479 Z-1.77
G1 X-72.9838 Y25.5533 Z-1.773
G1 X-72.9804 Y25.5585 Z-1.776
G1 X-72.9768 Y25.5631 Z-1.7788
G1 X-72.9726 Y25.5679 Z-1.7819
G1 X-72.9679 Y25.5726 Z-1.785
G1 X-72.9631 Y25.5768 Z-1.7881
G1 X-72.9585 Y25.5804 Z-1.7909
G1 X-72.9533 Y25.5838 Z-1.7939
G1 X-72.9479 Y25.5871 Z-1.797
G1 X-72.9422 Y25.59 Z-1.8
G1 X-72.9366 Y25.5924 Z-1.803
G1 X-72.9308 Y25.5945 Z-1.8059
G1 X-72.9244 Y25.5963 Z-1.8091
G1 X-72.9184 Y25.5977 Z-1.8121
G1 X-72.9128 Y25.5986 Z-1.8148
G1 X-72.9066 Y25.5992 Z-1.8178
G1 X-72.9 Y25.5994 Z-1.821
G1 X-72.8934 Y25.5992 Z-1.8241
G1 X-72.8872 Y25.5986 Z-1.8271
G1 X-72.8816 Y25.5977 Z-1.8298
G1 X-72.8756 Y25.5963 Z-1.8328
G1 X-72.8692 Y25.5945 Z-1.836
G1 X-72.8634 Y25.5924 Z-1.839
G1 X-72.8578 Y25.59 Z-1.8419
G1 X-72.8521 Y25.5871 Z-1.845
G1 X-72.8467 Y25.5838 Z-1.848
G1 X-72.8415 Y25.5804 Z-1.851
G1 X-72.8369 Y25.5768 Z-1.8538
G1 X-72.8321 Y25.5726 Z-1.8569
G1 X-72.8274 Y25.5679 Z-1.86
G1 X-72.8232 Y25.5631 Z-1.8631
G1 X-72.8196 Y25.5585 Z-1.8659
G1 X-72.8162 Y25.5533 Z-1.8689
G1 X-72.8129 Y25.5479 Z-1.872
G1 X-72.81 Y25.5422 Z-1.875
G1 X-72.8076 Y25.5366 Z-1.878
G1 X-72.8055 Y25.5308 Z-1.8809
G1 X-72.8037 Y25.5244 Z-1.8841
G1 X-72.8023 Y25.5184 Z-1.8871
G1 X-72.8014 Y25.5128 Z-1.8898
G1 X-72.8008 Y25.5066 Z-1.8928
G1 X-72.8006 Y25.5 Z-1.896
G1 X-72.8008 Y25.4934 Z-1.8991
G1 X-72.8014 Y25.4872 Z-1.9021
G1 X-72.8023 Y25.4816 Z-1.9048
G1 X-72.8037 Y25.4756 Z-1.9078
G1 X-72.8055 Y25.4692 Z-1.911
G1 X-72.8076 Y25.4634 Z-1.914
G1 X-72.81 Y25.4578 Z-1.9169
G1 X-72.8129 Y25.4521 Z-1.92
G1 X-72.8162 Y25.4467 Z-1.923
G1 X-72.8196 Y25.4415 Z-1.926
G1 X-72.8232 Y25.4369 Z-1.9288
G1 X-72.8274 Y25.4321 Z-1.9319
G1 X-72.8321 Y25.4274 Z-1.935
G1 X-72.8369 Y25.4232 Z-1.9381
G1 X-72.8415 Y25.4196 Z-1.9409
G1 X-72.8467 Y25.4162 Z-1.9439
G1 X-72.8521 Y25.4129 Z-1.947
G1 X-72.8578 Y25.41 Z-1.95
G1 X-72.8634 Y25.4076 Z-1.953
G1 X-72.8692 Y25.4055 Z-1.9559
G1 X-72.8756 Y25.4037 Z-1.9591
G1 X-72.8816 Y25.4023 Z-1.9621
G1 X-72.8872 Y25.4014 Z-1.9648
G1 X-72.8934 Y25.4008 Z-1.9678
G1 X-72.9 Y25.4006 Z-1.971
G1 X-72.9066 Y25.4008 Z-1.9741
G1 X-72.9128 Y25.4014 Z-1.9771
G1 X-72.9184 Y25.4023 Z-1.9798
G1 X-72.9244 Y25.4037 Z-1.9828
G1 X-72.9308 Y25.4055 Z-1.986
G1 X-72.9366 Y25.4076 Z-1.989
G1 X-72.9422 Y25.41 Z-1.9919
G1 X-72.9479 Y25.4129 Z-1.995
G1 X-72.9533 Y25.4162 Z-1.998
G1 X-72.9585 Y25.4196 Z-2.001
G1 X-72.9631 Y25.4232 Z-2.0038
G1 X-72.9679 Y25.4274 Z-2.0069
G1 X-72.9726 Y25.4321 Z-2.01
G1 X-72.9768 Y25.4369 Z-2.0131
G1 X-72.9804 Y25.4415 Z-2.0159
G1 X-72.9838 Y25.4467 Z-2.0189
G1 X-72.9871 Y25.4521 Z-2.022
G1 X-72.99 Y25.4578 Z-2.025
G1 X-72.9924 Y25.4634 Z-2.028
G1 X-72.9945 Y25.4692 Z-2.0309
G1 X-72.9963 Y25.4756 Z-2.0341
G1 X-72.9977 Y25.4816 Z-2.0371
G1 X-72.9986 Y25.4872 Z-2.0398
G1 X-72.9992 Y25.4934 Z-2.0428
G1 X-72.9994 Y25.5 Z-2.046
G1 X-72.9992 Y25.5066 Z-2.0491
G1 X-72.9986 Y25.5128 Z-2.0521
G1 X-72.9977 Y25.5184 Z-2.0548
G1 X-72.9963 Y25.5244 Z-2.0578
G1 X-72.9945 Y25.5308 Z-2.061
G1 X-72.9924 Y25.5366 Z-2.064
G1 X-72.99 Y25.5422 Z-2.0669
G1 X-72.9871 Y25.5479 Z-2.07
G1 X-72.9838 Y25.5533 Z-2.073
G1 X-72.9804 Y25.5585 Z-2.076
G1 X-72.9768 Y25.5631 Z-2.0788
G1 X-72.9726 Y25.5679 Z-2.0819
G1 X-72.9679 Y25.5726 Z-2.085
G1 X-72.9631 Y25.5768 Z-2.0881
G1 X-72.9585 Y25.5804 Z-2.0909
G1 X-72.9533 Y25.5838 Z-2.0939
G1 X-72.9479 Y25.5871 Z-2.097
G1 X-72.9422 Y25.59 Z-2.1
G1 X-72.9366 Y25.5924 Z-2.103
G1 X-72.9308 Y25.5945 Z-2.1059
G1 X-72.9244 Y25.5963 Z-2.1091
G1 X-72.9184 Y25.5977 Z-2.1121
G1 X-72.9128 Y25.5986 Z-2.1148
G1 X-72.9066 Y25.5992 Z-2.1178
G1 X-72.9 Y25.5994 Z-2.121
G1 X-72.8934 Y25.5992 Z-2.1241
G1 X-72.8872 Y25.5986 Z-2.1271
G1 X-72.8816 Y25.5977 Z-2.1298
G1 X-72.8756 Y25.5963 Z-2.1328
G1 X-72.8692 Y25.5945 Z-2.136
G1 X-72.8634 Y25.5924 Z-2.139
G1 X-72.8578 Y25.59 Z-2.1419
G1 X-72.8521 Y25.5871 Z-2.145
G1 X-72.8467 Y25.5838 Z-2.148
G1 X-72.8415 Y25.5804 Z-2.151
G1 X-72.8369 Y25.5768 Z-2.1538
G1 X-72.8321 Y25.5726 Z-2.1569
G1 X-72.8274 Y25.5679 Z-2.16
G1 X-72.8232 Y25.5631 Z-2.1631
G1 X-72.8196 Y25.5585 Z-2.1659
G1 X-72.8162 Y25.5533 Z-2.1689
G1 X-72.8129 Y25.5479 Z-2.172
G1 X-72.81 Y25.5422 Z-2.175
G1 X-72.8076 Y25.5366 Z-2.178
G1 X-72.8055 Y25.5308 Z-2.1809
G1 X-72.8037 Y25.5244 Z-2.1841
G1 X-72.8023 Y25.5184 Z-2.1871
G1 X-72.8014 Y25.5128 Z-2.1898
G1 X-72.8008 Y25.5066 Z-2.1928
G1 X-72.8006 Y25.5 Z-2.196
G1 X-72.8008 Y25.4934 Z-2.1991
G1 X-72.8014 Y25.4872 Z-2.2021
G1 X-72.8023 Y25.4816 Z-2.2048
G1 X-72.8037 Y25.4756 Z-2.2078
G1 X-72.8055 Y25.4692 Z-2.211
G1 X-72.8076 Y25.4634 Z-2.214
G1 X-72.81 Y25.4578 Z-2.2169
G1 X-72.8129 Y25.4521 Z-2.22
G1 X-72.8162 Y25.4467 Z-2.223
G1 X-72.8196 Y25.4415 Z-2.226
G1 X-72.8232 Y25.4369 Z-2.2288
G1 X-72.8274 Y25.4321 Z-2.2319
G1 X-72.8321 Y25.4274 Z-2.235
G1 X-72.8369 Y25.4232 Z-2.2381
G1 X-72.8415 Y25.4196 Z-2.2409
G1 X-72.8467 Y25.4162 Z-2.2439
G1 X-72.8521 Y25.4129 Z-2.247
G1 X-72.8578 Y25.41 Z-2.25
G1 X-72.8634 Y25.4076 Z-2.253
G1 X-72.8692 Y25.4055 Z-2.2559
G1 X-72.8756 Y25.4037 Z-2.2591
G1 X-72.8816 Y25.4023 Z-2.2621
G1 X-72.8872 Y25.4014 Z-2.2648
G1 X-72.8934 Y25.4008 Z-2.2678
G1 X-72.9 Y25.4006 Z-2.271
G1 X-72.9066 Y25.4008 Z-2.2741
G1 X-72.9128 Y25.4014 Z-2.2771
G1 X-72.9184 Y25.4023 Z-2.2798
G1 X-72.9244 Y25.4037 Z-2.2828
G1 X-72.9308 Y25.4055 Z-2.286
G1 X-72.9366 Y25.4076 Z-2.289
G1 X-72.9422 Y25.41 Z-2.2919
G1 X-72.9479 Y25.4129 Z-2.295
G1 X-72.9533 Y25.4162 Z-2.298
G1 X-72.9585 Y25.4196 Z-2.301
G1 X-72.9631 Y25.4232 Z-2.3038
G1 X-72.9679 Y25.4274 Z-2.3069
G1 X-72.9726 Y25.4321 Z-2.31
G1 X-72.9768 Y25.4369 Z-2.3131
G1 X-72.9804 Y25.4415 Z-2.3159
G1 X-72.9838 Y25.4467 Z-2.3189
G1 X-72.9871 Y25.4521 Z-2.322
G1 X-72.99 Y25.4578 Z-2.325
G1 X-72.9924 Y25.4634 Z-2.328
G1 X-72.9945 Y25.4692 Z-2.3309
G1 X-72.9963 Y25.4756 Z-2.3341
G1 X-72.9977 Y25.4816 Z-2.3371
G1 X-72.9986 Y25.4872 Z-2.3398
G1 X-72.9992 Y25.4934 Z-2.3428
G1 X-72.9994 Y25.5 Z-2.346
G1 X-72.9992 Y25.5066 Z-2.3491
G1 X-72.9986 Y25.5128 Z-2.3521
G1 X-72.9977 Y25.5184 Z-2.3548
G1 X-72.9963 Y25.5244 Z-2.3578
G1 X-72.9945 Y25.5308 Z-2.361
G1 X-72.9924 Y25.5366 Z-2.364
G1 X-72.99 Y25.5422 Z-2.3669
G1 X-72.9871 Y25.5479 Z-2.37
G1 X-72.9838 Y25.5533 Z-2.373
G1 X-72.9804 Y25.5585 Z-2.376
G1 X-72.9768 Y25.5631 Z-2.3788
G1 X-72.9726 Y25.5679 Z-2.3819
G1 X-72.9679 Y25.5726 Z-2.385
G1 X-72.9631 Y25.5768 Z-2.3881
G1 X-72.9585 Y25.5804 Z-2.3909
G1 X-72.9533 Y25.5838 Z-2.3939
G1 X-72.9479 Y25.5871 Z-2.397
G1 X-72.9422 Y25.59 Z-2.4
G1 X-72.9366 Y25.5924 Z-2.403
G1 X-72.9308 Y25.5945 Z-2.4059
G1 X-72.9244 Y25.5963 Z-2.4091
G1 X-72.9184 Y25.5977 Z-2.4121
G1 X-72.9128 Y25.5986 Z-2.4148
G1 X-72.9066 Y25.5992 Z-2.4178
G1 X-72.9 Y25.5994 Z-2.421
G1 X-72.8934 Y25.5992 Z-2.4241
G1 X-72.8872 Y25.5986 Z-2.4271
G1 X-72.8816 Y25.5977 Z-2.4298
G1 X-72.8756 Y25.5963 Z-2.4328
G1 X-72.8692 Y25.5945 Z-2.436
G1 X-72.8634 Y25.5924 Z-2.439
G1 X-72.8578 Y25.59 Z-2.4419
G1 X-72.8521 Y25.5871 Z-2.445
G1 X-72.8467 Y25.5838 Z-2.448
G1 X-72.8415 Y25.5804 Z-2.451
G1 X-72.8369 Y25.5768 Z-2.4538
G1 X-72.8321 Y25.5726 Z-2.4569
G1 X-72.8274 Y25.5679 Z-2.46
G1 X-72.8232 Y25.5631 Z-2.4631
G1 X-72.8196 Y25.5585 Z-2.4659
G1 X-72.8162 Y25.5533 Z-2.4689
G1 X-72.8129 Y25.5479 Z-2.472
G1 X-72.81 Y25.5422 Z-2.475
G1 X-72.8076 Y25.5366 Z-2.478
G1 X-72.8055 Y25.5308 Z-2.4809
G1 X-72.8037 Y25.5244 Z-2.4841
G1 X-72.8023 Y25.5184 Z-2.4871
G1 X-72.8014 Y25.5128 Z-2.4898
G1 X-72.8008 Y25.5066 Z-2.4928
G1 X-72.8006 Y25.5 Z-2.496
G1 X-72.8008 Y25.4934 Z-2.4991
G1 X-72.8014 Y25.4872 Z-2.5021
G1 X-72.8023 Y25.4816 Z-2.5048
G1 X-72.8037 Y25.4756 Z-2.5078
G1 X-72.8055 Y25.4692 Z-2.511
G1 X-72.8076 Y25.4634 Z-2.514
G1 X-72.81 Y25.4578 Z-2.5169
G1 X-72.8129 Y25.4521 Z-2.52
G1 X-72.8162 Y25.4467 Z-2.523
G1 X-72.8196 Y25.4415 Z-2.526
G1 X-72.8232 Y25.4369 Z-2.5288
G1 X-72.8274 Y25.4321 Z-2.5319
G1 X-72.8321 Y25.4274 Z-2.535
G1 X-72.8369 Y25.4232 Z-2.5381
G1 X-72.8415 Y25.4196 Z-2.5409
G1 X-72.8467 Y25.4162 Z-2.5439
G1 X-72.8521 Y25.4129 Z-2.547
G1 X-72.8578 Y25.41 Z-2.55
G1 X-72.8634 Y25.4076 Z-2.553
G1 X-72.8692 Y25.4055 Z-2.5559
G1 X-72.8756 Y25.4037 Z-2.5591
G1 X-72.8816 Y25.4023 Z-2.5621
G1 X-72.8872 Y25.4014 Z-2.5648
G1 X-72.8934 Y25.4008 Z-2.5678
G1 X-72.9 Y25.4006 Z-2.571
G1 X-72.9066 Y25.4008 Z-2.5741
G1 X-72.9128 Y25.4014 Z-2.5771
G1 X-72.9184 Y25.4023 Z-2.5798
G1 X-72.9244 Y25.4037 Z-2.5828
G1 X-72.9308 Y25.4055 Z-2.586
G1 X-72.9366 Y25.4076 Z-2.589
G1 X-72.9422 Y25.41 Z-2.5919
G1 X-72.9479 Y25.4129 Z-2.595
G1 X-72.9533 Y25.4162 Z-2.598
G1 X-72.9585 Y25.4196 Z-2.601
G1 X-72.9631 Y25.4232 Z-2.6038
G1 X-72.9679 Y25.4274 Z-2.6069
G1 X-72.9726 Y25.4321 Z-2.61
G1 X-72.9768 Y25.4369 Z-2.6131
G1 X-72.9804 Y25.4415 Z-2.6159
G1 X-72.9838 Y25.4467 Z-2.6189
G1 X-72.9871 Y25.4521 Z-2.622
G1 X-72.99 Y25.4578 Z-2.625
G1 X-72.9924 Y25.4634 Z-2.628
G1 X-72.9945 Y25.4692 Z-2.6309
G1 X-72.9963 Y25.4756 Z-2.6341
G1 X-72.9977 Y25.4816 Z-2.6371
G1 X-72.9986 Y25.4872 Z-2.6398
G1 X-72.9992 Y25.4934 Z-2.6428
G1 X-72.9994 Y25.5 Z-2.646
G1 X-72.9992 Y25.5066 Z-2.6491
G1 X-72.9986 Y25.5128 Z-2.6521
G1 X-72.9977 Y25.5184 Z-2.6548
G1 X-72.9963 Y25.5244 Z-2.6578
G1 X-72.9945 Y25.5308 Z-2.661
G1 X-72.9924 Y25.5366 Z-2.664
G1 X-72.99 Y25.5422 Z-2.6669
G1 X-72.9871 Y25.5479 Z-2.67
G1 X-72.9838 Y25.5533 Z-2.673
G1 X-72.9804 Y25.5585 Z-2.676
G1 X-72.9768 Y25.5631 Z-2.6788
G1 X-72.9726 Y25.5679 Z-2.6819
G1 X-72.9679 Y25.5726 Z-2.685
G1 X-72.9631 Y25.5768 Z-2.6881
G1 X-72.9585 Y25.5804 Z-2.6909
G1 X-72.9533 Y25.5838 Z-2.6939
G1 X-72.9479 Y25.5871 Z-2.697
G1 X-72.9422 Y25.59 Z-2.7
G1 X-72.9366 Y25.5924 Z-2.703
G1 X-72.9308 Y25.5945 Z-2.7059
G1 X-72.9244 Y25.5963 Z-2.7091
G1 X-72.9184 Y25.5977 Z-2.7121
G1 X-72.9128 Y25.5986 Z-2.7148
G1 X-72.9066 Y25.5992 Z-2.7178
G1 X-72.9 Y25.5994 Z-2.721
G1 X-72.8934 Y25.5992 Z-2.7241
G1 X-72.8872 Y25.5986 Z-2.7271
G1 X-72.8816 Y25.5977 Z-2.7298
G1 X-72.8756 Y25.5963 Z-2.7328
G1 X-72.8692 Y25.5945 Z-2.736
G1 X-72.8634 Y25.5924 Z-2.739
G1 X-72.8578 Y25.59 Z-2.7419
G1 X-72.8521 Y25.5871 Z-2.745
G1 X-72.8467 Y25.5838 Z-2.748
G1 X-72.8415 Y25.5804 Z-2.751
G1 X-72.8369 Y25.5768 Z-2.7538
G1 X-72.8321 Y25.5726 Z-2.7569
G1 X-72.8274 Y25.5679 Z-2.76
G1 X-72.8232 Y25.5631 Z-2.7631
G1 X-72.8196 Y25.5585 Z-2.7659
G1 X-72.8162 Y25.5533 Z-2.7689
G1 X-72.8129 Y25.5479 Z-2.772
G1 X-72.81 Y25.5422 Z-2.775
G1 X-72.8076 Y25.5366 Z-2.778
G1 X-72.8055 Y25.5308 Z-2.7809
G1 X-72.8037 Y25.5244 Z-2.7841
G1 X-72.8023 Y25.5184 Z-2.7871
G1 X-72.8014 Y25.5128 Z-2.7898
G1 X-72.8008 Y25.5066 Z-2.7928
G1 X-72.8006 Y25.5 Z-2.796
G1 X-72.8008 Y25.4934 Z-2.7991
G1 X-72.8014 Y25.4872 Z-2.8021
G1 X-72.8023 Y25.4816 Z-2.8048
G1 X-72.8037 Y25.4756 Z-2.8078
G1 X-72.8055 Y25.4692 Z-2.811
G1 X-72.8076 Y25.4634 Z-2.814
G1 X-72.81 Y25.4578 Z-2.8169
G1 X-72.8129 Y25.4521 Z-2.82
G1 X-72.8162 Y25.4467 Z-2.823
G1 X-72.8196 Y25.4415 Z-2.826
G1 X-72.8232 Y25.4369 Z-2.8288
G1 X-72.8274 Y25.4321 Z-2.8319
G1 X-72.8321 Y25.4274 Z-2.835
G1 X-72.8369 Y25.4232 Z-2.8381
G1 X-72.8415 Y25.4196 Z-2.8409
G1 X-72.8467 Y25.4162 Z-2.8439
G1 X-72.8521 Y25.4129 Z-2.847
G1 X-72.8578 Y25.41 Z-2.85
G1 X-72.8634 Y25.4076 Z-2.853
G1 X-72.8692 Y25.4055 Z-2.8559
G1 X-72.8756 Y25.4037 Z-2.8591
G1 X-72.8816 Y25.4023 Z-2.8621
G1 X-72.8872 Y25.4014 Z-2.8648
G1 X-72.8934 Y25.4008 Z-2.8678
G1 X-72.9 Y25.4006 Z-2.871
G1 X-72.9066 Y25.4008 Z-2.8741
G1 X-72.9128 Y25.4014 Z-2.8771
G1 X-72.9184 Y25.4023 Z-2.8798
G1 X-72.9244 Y25.4037 Z-2.8828
G1 X-72.9308 Y25.4055 Z-2.886
G1 X-72.9366 Y25.4076 Z-2.889
G1 X-72.9422 Y25.41 Z-2.8919
G1 X-72.9479 Y25.4129 Z-2.895
G1 X-72.9533 Y25.4162 Z-2.898
G1 X-72.9585 Y25.4196 Z-2.901
G1 X-72.9631 Y25.4232 Z-2.9038
G1 X-72.9679 Y25.4274 Z-2.9069
G1 X-72.9726 Y25.4321 Z-2.91
G1 X-72.9768 Y25.4369 Z-2.9131
G1 X-72.9804 Y25.4415 Z-2.9159
G1 X-72.9838 Y25.4467 Z-2.9189
G1 X-72.9871 Y25.4521 Z-2.922
G1 X-72.99 Y25.4578 Z-2.925
G1 X-72.9924 Y25.4634 Z-2.928
G1 X-72.9945 Y25.4692 Z-2.9309
G1 X-72.9963 Y25.4756 Z-2.9341
G1 X-72.9977 Y25.4816 Z-2.9371
G1 X-72.9986 Y25.4872 Z-2.9398
G1 X-72.9992 Y25.4934 Z-2.9428
G1 X-72.9994 Y25.5 Z-2.946
G1 X-72.9992 Y25.5066 Z-2.9491
G1 X-72.9986 Y25.5128 Z-2.9521
G1 X-72.9977 Y25.5184 Z-2.9548
G1 X-72.9963 Y25.5244 Z-2.9578
G1 X-72.9945 Y25.5308 Z-2.961
G1 X-72.9924 Y25.5366 Z-2.964
G1 X-72.99 Y25.5422 Z-2.9669
G1 X-72.9871 Y25.5479 Z-2.97
G1 X-72.9838 Y25.5533 Z-2.973
G1 X-72.9804 Y25.5585 Z-2.976
G1 X-72.9768 Y25.5631 Z-2.9788
G1 X-72.9726 Y25.5679 Z-2.9819
G1 X-72.9679 Y25.5726 Z-2.985
G1 X-72.9631 Y25.5768 Z-2.9881
G1 X-72.9585 Y25.5804 Z-2.9909
G1 X-72.9533 Y25.5838 Z-2.9939
G1 X-72.9479 Y25.5871 Z-2.997
G1 X-72.9422 Y25.59 Z-3.0
G1 X-72.9366 Y25.5924 Z-3.003
G1 X-72.9308 Y25.5945 Z-3.0059
G1 X-72.9244 Y25.5963 Z-3.0091
G1 X-72.9184 Y25.5977 Z-3.0121
G1 X-72.9128 Y25.5986 Z-3.0148
G1 X-72.9066 Y25.5992 Z-3.0178
G1 X-72.9 Y25.5994 Z-3.021
G1 X-72.8934 Y25.5992 Z-3.0241
G1 X-72.8872 Y25.5986 Z-3.0271
G1 X-72.8816 Y25.5977 Z-3.0298
G1 X-72.8756 Y25.5963 Z-3.0328
G1 X-72.8692 Y25.5945 Z-3.036
G1 X-72.8634 Y25.5924 Z-3.039
G1 X-72.8578 Y25.59 Z-3.0419
G1 X-72.8521 Y25.5871 Z-3.045
G1 X-72.8467 Y25.5838 Z-3.048
G1 X-72.8415 Y25.5804 Z-3.051
G1 X-72.8369 Y25.5768 Z-3.0538
G1 X-72.8321 Y25.5726 Z-3.0569
G1 X-72.8274 Y25.5679 Z-3.06
G1 X-72.8232 Y25.5631 Z-3.0631
G1 X-72.8196 Y25.5585 Z-3.0659
G1 X-72.8162 Y25.5533 Z-3.0689
G1 X-72.8129 Y25.5479 Z-3.072
G1 X-72.81 Y25.5422 Z-3.075
G1 X-72.8076 Y25.5366 Z-3.078
G1 X-72.8055 Y25.5308 Z-3.0809
G1 X-72.8037 Y25.5244 Z-3.0841
G1 X-72.8023 Y25.5184 Z-3.0871
G1 X-72.8014 Y25.5128 Z-3.0898
G1 X-72.8008 Y25.5066 Z-3.0928
G1 X-72.8006 Y25.5 Z-3.096
G1 X-72.8008 Y25.4934 Z-3.0991
G1 X-72.8014 Y25.4872 Z-3.1021
G1 X-72.8023 Y25.4816 Z-3.1048
G1 X-72.8037 Y25.4756 Z-3.1078
G1 X-72.8055 Y25.4692 Z-3.111
G1 X-72.8076 Y25.4634 Z-3.114
G1 X-72.81 Y25.4578 Z-3.1169
G1 X-72.8129 Y25.4521 Z-3.12
G1 X-72.8162 Y25.4467 Z-3.123
G1 X-72.8196 Y25.4415 Z-3.126
G1 X-72.8232 Y25.4369 Z-3.1288
G1 X-72.8274 Y25.4321 Z-3.1319
G1 X-72.8321 Y25.4274 Z-3.135
G1 X-72.8369 Y25.4232 Z-3.1381
G1 X-72.8415 Y25.4196 Z-3.1409
G1 X-72.8467 Y25.4162 Z-3.1439
G1 X-72.8521 Y25.4129 Z-3.147
G1 X-72.8578 Y25.41 Z-3.15
G1 X-72.8634 Y25.4076 Z-3.153
G1 X-72.8692 Y25.4055 Z-3.1559
G1 X-72.8756 Y25.4037 Z-3.1591
G1 X-72.8816 Y25.4023 Z-3.1621
G1 X-72.8872 Y25.4014 Z-3.1648
G1 X-72.8934 Y25.4008 Z-3.1678
G1 X-72.9 Y25.4006 Z-3.171
G1 X-72.9066 Y25.4008 Z-3.1741
G1 X-72.9128 Y25.4014 Z-3.1771
G1 X-72.9184 Y25.4023 Z-3.1798
G1 X-72.9244 Y25.4037 Z-3.1828
G1 X-72.9308 Y25.4055 Z-3.186
G1 X-72.9366 Y25.4076 Z-3.189
G1 X-72.9422 Y25.41 Z-3.1919
G1 X-72.9479 Y25.4129 Z-3.195
G1 X-72.9533 Y25.4162 Z-3.198
G1 X-72.9585 Y25.4196 Z-3.201
G1 X-72.9631 Y25.4232 Z-3.2038
G1 X-72.9679 Y25.4274 Z-3.2069
G1 X-72.9726 Y25.4321 Z-3.21
G1 X-72.9768 Y25.4369 Z-3.2131
G1 X-72.9804 Y25.4415 Z-3.2159
G1 X-72.9838 Y25.4467 Z-3.2189
G1 X-72.9871 Y25.4521 Z-3.222
G1 X-72.99 Y25.4578 Z-3.225
G1 X-72.9924 Y25.4634 Z-3.228
G1 X-72.9945 Y25.4692 Z-3.2309
G1 X-72.9963 Y25.4756 Z-3.2341
G1 X-72.9977 Y25.4816 Z-3.2371
G1 X-72.9986 Y25.4872 Z-3.2398
G1 X-72.9992 Y25.4934 Z-3.2428
G1 X-72.9994 Y25.5 Z-3.246
G1 X-72.9992 Y25.5066 Z-3.2491
G1 X-72.9986 Y25.5128 Z-3.2521
G1 X-72.9977 Y25.5184 Z-3.2548
G1 X-72.9963 Y25.5244 Z-3.2578
G1 X-72.9945 Y25.5308 Z-3.261
G1 X-72.9924 Y25.5366 Z-3.264
G1 X-72.99 Y25.5422 Z-3.2669
G1 X-72.9871 Y25.5479 Z-3.27
G1 X-72.9838 Y25.5533 Z-3.273
G1 X-72.9804 Y25.5585 Z-3.276
G1 X-72.9768 Y25.5631 Z-3.2788
G1 X-72.9726 Y25.5679 Z-3.2819
G1 X-72.9679 Y25.5726 Z-3.285
G1 X-72.9631 Y25.5768 Z-3.2881
G1 X-72.9585 Y25.5804 Z-3.2909
G1 X-72.9533 Y25.5838 Z-3.2939
G1 X-72.9479 Y25.5871 Z-3.297
G1 X-72.9422 Y25.59 Z-3.3
G1 X-72.9366 Y25.5924 Z-3.303
G1 X-72.9308 Y25.5945 Z-3.3059
G1 X-72.9244 Y25.5963 Z-3.3091
G1 X-72.9184 Y25.5977 Z-3.3121
G1 X-72.9128 Y25.5986 Z-3.3148
G1 X-72.9066 Y25.5992 Z-3.3178
G1 X-72.9 Y25.5994 Z-3.321
G1 X-72.8934 Y25.5992 Z-3.3241
G1 X-72.8872 Y25.5986 Z-3.3271
G1 X-72.8816 Y25.5977 Z-3.3298
G1 X-72.8756 Y25.5963 Z-3.3328
G1 X-72.8692 Y25.5945 Z-3.336
G1 X-72.8634 Y25.5924 Z-3.339
G1 X-72.8578 Y25.59 Z-3.3419
G1 X-72.8521 Y25.5871 Z-3.345
G1 X-72.8467 Y25.5838 Z-3.348
G1 X-72.8415 Y25.5804 Z-3.351
G1 X-72.8369 Y25.5768 Z-3.3538
G1 X-72.8321 Y25.5726 Z-3.3569
G1 X-72.8274 Y25.5679 Z-3.36
G1 X-72.8232 Y25.5631 Z-3.3631
G1 X-72.8196 Y25.5585 Z-3.3659
G1 X-72.8162 Y25.5533 Z-3.3689
G1 X-72.8129 Y25.5479 Z-3.372
G1 X-72.81 Y25.5422 Z-3.375
G1 X-72.8076 Y25.5366 Z-3.378
G1 X-72.8055 Y25.5308 Z-3.3809
G1 X-72.8037 Y25.5244 Z-3.3841
G1 X-72.8023 Y25.5184 Z-3.3871
G1 X-72.8014 Y25.5128 Z-3.3898
G1 X-72.8008 Y25.5066 Z-3.3928
G1 X-72.8006 Y25.5 Z-3.396
G1 X-72.8008 Y25.4934 Z-3.3991
G1 X-72.8014 Y25.4872 Z-3.4021
G1 X-72.8023 Y25.4816 Z-3.4048
G1 X-72.8037 Y25.4756 Z-3.4078
G1 X-72.8055 Y25.4692 Z-3.411
G1 X-72.8076 Y25.4634 Z-3.414
G1 X-72.81 Y25.4578 Z-3.4169
G1 X-72.8129 Y25.4521 Z-3.42
G1 X-72.8162 Y25.4467 Z-3.423
G1 X-72.8196 Y25.4415 Z-3.426
G1 X-72.8232 Y25.4369 Z-3.4288
G1 X-72.8274 Y25.4321 Z-3.4319
G1 X-72.8321 Y25.4274 Z-3.435
G1 X-72.8369 Y25.4232 Z-3.4381
G1 X-72.8415 Y25.4196 Z-3.4409
G1 X-72.8467 Y25.4162 Z-3.4439
G1 X-72.8521 Y25.4129 Z-3.447
G1 X-72.8578 Y25.41 Z-3.45
G1 X-72.8634 Y25.4076 Z-3.453
G1 X-72.8692 Y25.4055 Z-3.4559
G1 X-72.8756 Y25.4037 Z-3.4591
G1 X-72.8816 Y25.4023 Z-3.4621
G1 X-72.8872 Y25.4014 Z-3.4648
G1 X-72.8934 Y25.4008 Z-3.4678
G1 X-72.9 Y25.4006 Z-3.471
G1 X-72.9066 Y25.4008 Z-3.4741
G1 X-72.9128 Y25.4014 Z-3.4771
G1 X-72.9184 Y25.4023 Z-3.4798
G1 X-72.9244 Y25.4037 Z-3.4828
G1 X-72.9308 Y25.4055 Z-3.486
G1 X-72.9366 Y25.4076 Z-3.489
G1 X-72.9422 Y25.41 Z-3.4919
G1 X-72.9479 Y25.4129 Z-3.495
G1 X-72.9533 Y25.4162 Z-3.498
G1 X-72.9585 Y25.4196 Z-3.501
G1 X-72.9631 Y25.4232 Z-3.5038
G1 X-72.9679 Y25.4274 Z-3.5069
G1 X-72.9726 Y25.4321 Z-3.51
G1 X-72.9768 Y25.4369 Z-3.5131
G1 X-72.9804 Y25.4415 Z-3.5159
G1 X-72.9838 Y25.4467 Z-3.5189
G1 X-72.9871 Y25.4521 Z-3.522
G1 X-72.99 Y25.4578 Z-3.525
G1 X-72.9924 Y25.4634 Z-3.528
G1 X-72.9945 Y25.4692 Z-3.5309
G1 X-72.9963 Y25.4756 Z-3.5341
G1 X-72.9977 Y25.4816 Z-3.5371
G1 X-72.9986 Y25.4872 Z-3.5398
G1 X-72.9992 Y25.4934 Z-3.5428
G1 X-72.9994 Y25.5 Z-3.546
G1 X-72.9992 Y25.5066 Z-3.5491
G1 X-72.9986 Y25.5128 Z-3.5521
G1 X-72.9977 Y25.5184 Z-3.5548
G1 X-72.9963 Y25.5244 Z-3.5578
G1 X-72.9945 Y25.5308 Z-3.561
G1 X-72.9924 Y25.5366 Z-3.564
G1 X-72.99 Y25.5422 Z-3.5669
G1 X-72.9871 Y25.5479 Z-3.57
G1 X-72.9838 Y25.5533 Z-3.573
G1 X-72.9804 Y25.5585 Z-3.576
G1 X-72.9768 Y25.5631 Z-3.5788
G1 X-72.9726 Y25.5679 Z-3.5819
G1 X-72.9679 Y25.5726 Z-3.585
G1 X-72.9631 Y25.5768 Z-3.5881
G1 X-72.9585 Y25.5804 Z-3.5909
G1 X-72.9533 Y25.5838 Z-3.5939
G1 X-72.9479 Y25.5871 Z-3.597
G1 X-72.9422 Y25.59 Z-3.6
G1 X-72.9366 Y25.5924 Z-3.603
G1 X-72.9308 Y25.5945 Z-3.6059
G1 X-72.9244 Y25.5963 Z-3.6091
G1 X-72.9184 Y25.5977 Z-3.6121
G1 X-72.9128 Y25.5986 Z-3.6148
G1 X-72.9066 Y25.5992 Z-3.6178
G1 X-72.9 Y25.5994 Z-3.621
G1 X-72.8934 Y25.5992 Z-3.6241
G1 X-72.8872 Y25.5986 Z-3.6271
G1 X-72.8816 Y25.5977 Z-3.6298
G1 X-72.8756 Y25.5963 Z-3.6328
G1 X-72.8692 Y25.5945 Z-3.636
G1 X-72.8634 Y25.5924 Z-3.639
G1 X-72.8578 Y25.59 Z-3.6419
G1 X-72.8521 Y25.5871 Z-3.645
G1 X-72.8467 Y25.5838 Z-3.648
G1 X-72.8415 Y25.5804 Z-3.651
G1 X-72.8369 Y25.5768 Z-3.6538
G1 X-72.8321 Y25.5726 Z-3.6569
G1 X-72.8274 Y25.5679 Z-3.66
G1 X-72.8232 Y25.5631 Z-3.6631
G1 X-72.8196 Y25.5585 Z-3.6659
G1 X-72.8162 Y25.5533 Z-3.6689
G1 X-72.8129 Y25.5479 Z-3.672
G1 X-72.81 Y25.5422 Z-3.675
G1 X-72.8076 Y25.5366 Z-3.678
G1 X-72.8055 Y25.5308 Z-3.6809
G1 X-72.8037 Y25.5244 Z-3.6841
G1 X-72.8023 Y25.5184 Z-3.6871
G1 X-72.8014 Y25.5128 Z-3.6898
G1 X-72.8008 Y25.5066 Z-3.6928
G1 X-72.8006 Y25.5 Z-3.696
G1 X-72.8008 Y25.4934 Z-3.6991
G1 X-72.8014 Y25.4872 Z-3.7021
G1 X-72.8023 Y25.4816 Z-3.7048
G1 X-72.8037 Y25.4756 Z-3.7078
G1 X-72.8055 Y25.4692 Z-3.711
G1 X-72.8076 Y25.4634 Z-3.714
G1 X-72.81 Y25.4578 Z-3.7169
G1 X-72.8129 Y25.4521 Z-3.72
G1 X-72.8162 Y25.4467 Z-3.723
G1 X-72.8196 Y25.4415 Z-3.726
G1 X-72.8232 Y25.4369 Z-3.7288
G1 X-72.8274 Y25.4321 Z-3.7319
G1 X-72.8321 Y25.4274 Z-3.735
G1 X-72.8369 Y25.4232 Z-3.7381
G1 X-72.8415 Y25.4196 Z-3.7409
G1 X-72.8467 Y25.4162 Z-3.7439
G1 X-72.8521 Y25.4129 Z-3.747
G1 X-72.8578 Y25.41 Z-3.75
G1 X-72.8634 Y25.4076 Z-3.753
G1 X-72.8692 Y25.4055 Z-3.7559
G1 X-72.8756 Y25.4037 Z-3.7591
G1 X-72.8816 Y25.4023 Z-3.7621
G1 X-72.8872 Y25.4014 Z-3.7648
G1 X-72.8934 Y25.4008 Z-3.7678
G1 X-72.9 Y25.4006 Z-3.771
G1 X-72.9066 Y25.4008 Z-3.7741
G1 X-72.9128 Y25.4014 Z-3.7771
G1 X-72.9184 Y25.4023 Z-3.7798
G1 X-72.9244 Y25.4037 Z-3.7828
G1 X-72.9308 Y25.4055 Z-3.786
G1 X-72.9366 Y25.4076 Z-3.789
G1 X-72.9422 Y25.41 Z-3.7919
G1 X-72.9479 Y25.4129 Z-3.795
G1 X-72.9533 Y25.4162 Z-3.798
G1 X-72.9585 Y25.4196 Z-3.801
G1 X-72.9631 Y25.4232 Z-3.8038
G1 X-72.9679 Y25.4274 Z-3.8069
G1 X-72.9726 Y25.4321 Z-3.81
G1 X-72.9768 Y25.4369 Z-3.8131
G1 X-72.9804 Y25.4415 Z-3.8159
G1 X-72.9838 Y25.4467 Z-3.8189
G1 X-72.9871 Y25.4521 Z-3.822
G1 X-72.99 Y25.4578 Z-3.825
G1 X-72.9924 Y25.4634 Z-3.828
G1 X-72.9945 Y25.4692 Z-3.8309
G1 X-72.9963 Y25.4756 Z-3.8341
G1 X-72.9977 Y25.4816 Z-3.8371
G1 X-72.9986 Y25.4872 Z-3.8398
G1 X-72.9992 Y25.4934 Z-3.8428
G1 X-72.9994 Y25.5 Z-3.846
G1 X-72.9992 Y25.5066 Z-3.8491
G1 X-72.9986 Y25.5128 Z-3.8521
G1 X-72.9977 Y25.5184 Z-3.8548
G1 X-72.9963 Y25.5244 Z-3.8578
G1 X-72.9945 Y25.5308 Z-3.861
G1 X-72.9924 Y25.5366 Z-3.864
G1 X-72.99 Y25.5422 Z-3.8669
G1 X-72.9871 Y25.5479 Z-3.87
G1 X-72.9838 Y25.5533 Z-3.873
G1 X-72.9804 Y25.5585 Z-3.876
G1 X-72.9768 Y25.5631 Z-3.8788
G1 X-72.9726 Y25.5679 Z-3.8819
G1 X-72.9679 Y25.5726 Z-3.885
G1 X-72.9631 Y25.5768 Z-3.8881
G1 X-72.9585 Y25.5804 Z-3.8909
G1 X-72.9533 Y25.5838 Z-3.8939
G1 X-72.9479 Y25.5871 Z-3.897
G1 X-72.9422 Y25.59 Z-3.9
G1 X-72.9366 Y25.5924 Z-3.901
G1 X-72.9308 Y25.5945 Z-3.902
G1 X-72.9244 Y25.5963 Z-3.903
G1 X-72.9184 Y25.5977 Z-3.904
G1 X-72.9128 Y25.5986 Z-3.9049
G1 X-72.9066 Y25.5992 Z-3.9059
G1 X-72.9 Y25.5994 Z-3.907
G1 X-72.8934 Y25.5992 Z-3.908
G1 X-72.8872 Y25.5986 Z-3.909
G1 X-72.8816 Y25.5977 Z-3.9099
G1 X-72.8756 Y25.5963 Z-3.9109
G1 X-72.8692 Y25.5945 Z-3.912
G1 X-72.8634 Y25.5924 Z-3.913
G1 X-72.8578 Y25.59 Z-3.914
G1 X-72.8521 Y25.5871 Z-3.915
G1 X-72.8467 Y25.5838 Z-3.916
G1 X-72.8415 Y25.5804 Z-3.917
G1 X-72.8369 Y25.5768 Z-3.9179
G1 X-72.8321 Y25.5726 Z-3.919
G1 X-72.8274 Y25.5679 Z-3.92
G1 X-72.8232 Y25.5631 Z-3.921
G1 X-72.8196 Y25.5585 Z-3.922
G1 X-72.8162 Y25.5533 Z-3.923
G1 X-72.8129 Y25.5479 Z-3.924
G1 X-72.81 Y25.5422 Z-3.925
G1 X-72.8076 Y25.5366 Z-3.926
G1 X-72.8055 Y25.5308 Z-3.927
G1 X-72.8037 Y25.5244 Z-3.928
G1 X-72.8023 Y25.5184 Z-3.929
G1 X-72.8014 Y25.5128 Z-3.9299
G1 X-72.8008 Y25.5066 Z-3.9309
G1 X-72.8006 Y25.5 Z-3.932
G1 X-72.8008 Y25.4934 Z-3.933
G1 X-72.8014 Y25.4872 Z-3.934
G1 X-72.8023 Y25.4816 Z-3.9349
G1 X-72.8037 Y25.4756 Z-3.9359
G1 X-72.8055 Y25.4692 Z-3.937
G1 X-72.8076 Y25.4634 Z-3.938
G1 X-72.81 Y25.4578 Z-3.939
G1 X-72.8129 Y25.4521 Z-3.94
G1 X-72.8162 Y25.4467 Z-3.941
G1 X-72.8196 Y25.4415 Z-3.942
G1 X-72.8232 Y25.4369 Z-3.9429
G1 X-72.8274 Y25.4321 Z-3.944
G1 X-72.8321 Y25.4274 Z-3.945
G1 X-72.8369 Y25.4232 Z-3.946
G1 X-72.8415 Y25.4196 Z-3.947
G1 X-72.8467 Y25.4162 Z-3.948
G1 X-72.8521 Y25.4129 Z-3.949
G1 X-72.8578 Y25.41 Z-3.95
G1 X-72.8634 Y25.4076 Z-3.951
G1 X-72.8692 Y25.4055 Z-3.952
G1 X-72.8756 Y25.4037 Z-3.953
G1 X-72.8816 Y25.4023 Z-3.954
G1 X-72.8872 Y25.4014 Z-3.9549
G1 X-72.8934 Y25.4008 Z-3.9559
G1 X-72.9 Y25.4006 Z-3.957
G1 X-72.9066 Y25.4008 Z-3.958
G1 X-72.9128 Y25.4014 Z-3.959
G1 X-72.9184 Y25.4023 Z-3.9599
G1 X-72.9244 Y25.4037 Z-3.9609
G1 X-72.9308 Y25.4055 Z-3.962
G1 X-72.9366 Y25.4076 Z-3.963
G1 X-72.9422 Y25.41 Z-3.964
G1 X-72.9479 Y25.4129 Z-3.965
G1 X-72.9533 Y25.4162 Z-3.966
G1 X-72.9585 Y25.4196 Z-3.967
G1 X-72.9631 Y25.4232 Z-3.9679
G1 X-72.9679 Y25.4274 Z-3.969
G1 X-72.9726 Y25.4321 Z-3.97
G1 X-72.9768 Y25.4369 Z-3.971
G1 X-72.9804 Y25.4415 Z-3.972
G1 X-72.9838 Y25.4467 Z-3.973
G1 X-72.9871 Y25.4521 Z-3.974
G1 X-72.99 Y25.4578 Z-3.975
G1 X-72.9924 Y25.4634 Z-3.976
G1 X-72.9945 Y25.4692 Z-3.977
G1 X-72.9963 Y25.4756 Z-3.978
G1 X-72.9977 Y25.4816 Z-3.979
G1 X-72.9986 Y25.4872 Z-3.9799
G1 X-72.9992 Y25.4934 Z-3.9809
G1 X-72.9994 Y25.5 Z-3.982
G1 X-72.9992 Y25.5066 Z-3.983
G1 X-72.9986 Y25.5128 Z-3.984
G1 X-72.9977 Y25.5184 Z-3.9849
G1 X-72.9963 Y25.5244 Z-3.9859
G1 X-72.9945 Y25.5308 Z-3.987
G1 X-72.9924 Y25.5366 Z-3.988
G1 X-72.99 Y25.5422 Z-3.989
G1 X-72.9871 Y25.5479 Z-3.99
G1 X-72.9838 Y25.5533 Z-3.991
G1 X-72.9804 Y25.5585 Z-3.992
G1 X-72.9768 Y25.5631 Z-3.9929
G1 X-72.9726 Y25.5679 Z-3.994
G1 X-72.9679 Y25.5726 Z-3.995
G1 X-72.9631 Y25.5768 Z-3.996
G1 X-72.9585 Y25.5804 Z-3.997
G1 X-72.9533 Y25.5838 Z-3.998
G1 X-72.9479 Y25.5871 Z-3.999
G1 X-72.9422 Y25.59 Z-4.0
G1 X-72.9366 Y25.5924
G1 X-72.9308 Y25.5945
G1 X-72.9244 Y25.5963
G1 X-72.9184 Y25.5977
G1 X-72.9128 Y25.5986
G1 X-72.9066 Y25.5992
G1 X-72.9 Y25.5994
G1 X-72.8934 Y25.5992
G1 X-72.8872 Y25.5986
G1 X-72.8816 Y25.5977
G1 X-72.8756 Y25.5963
G1 X-72.8692 Y25.5945
G1 X-72.8634 Y25.5924
G1 X-72.8578 Y25.59
G1 X-72.8521 Y25.5871
G1 X-72.8467 Y25.5838
G1 X-72.8415 Y25.5804
G1 X-72.8369 Y25.5768
G1 X-72.8321 Y25.5726
G1 X-72.8274 Y25.5679
G1 X-72.8232 Y25.5631
G1 X-72.8196 Y25.5585
G1 X-72.8162 Y25.5533
G1 X-72.8129 Y25.5479
G1 X-72.81 Y25.5422
G1 X-72.8076 Y25.5366
G1 X-72.8055 Y25.5308
G1 X-72.8037 Y25.5244
G1 X-72.8023 Y25.5184
G1 X-72.8014 Y25.5128
G1 X-72.8008 Y25.5066
G1 X-72.8006 Y25.5
G1 X-72.8008 Y25.4934
G1 X-72.8014 Y25.4872
G1 X-72.8023 Y25.4816
G1 X-72.8037 Y25.4756
G1 X-72.8055 Y25.4692
G1 X-72.8076 Y25.4634
G1 X-72.81 Y25.4578
G1 X-72.8129 Y25.4521
G1 X-72.8162 Y25.4467
G1 X-72.8196 Y25.4415
G1 X-72.8232 Y25.4369
G1 X-72.8274 Y25.4321
G1 X-72.8321 Y25.4274
G1 X-72.8369 Y25.4232
G1 X-72.8415 Y25.4196
G1 X-72.8467 Y25.4162
G1 X-72.8521 Y25.4129
G1 X-72.8578 Y25.41
G1 X-72.8634 Y25.4076
G1 X-72.8692 Y25.4055
G1 X-72.8756 Y25.4037
G1 X-72.8816 Y25.4023
G1 X-72.8872 Y25.4014
G1 X-72.8934 Y25.4008
G1 X-72.9 Y25.4006
G1 X-72.9066 Y25.4008
G1 X-72.9128 Y25.4014
G1 X-72.9184 Y25.4023
G1 X-72.9244 Y25.4037
G1 X-72.9308 Y25.4055
G1 X-72.9366 Y25.4076
G1 X-72.9422 Y25.41
G1 X-72.9479 Y25.4129
G1 X-72.9533 Y25.4162
G1 X-72.9585 Y25.4196
G1 X-72.9631 Y25.4232
G1 X-72.9679 Y25.4274
G1 X-72.9726 Y25.4321
G1 X-72.9768 Y25.4369
G1 X-72.9804 Y25.4415
G1 X-72.9838 Y25.4467
G1 X-72.9871 Y25.4521
G1 X-72.99 Y25.4578
G1 X-72.9924 Y25.4634
G1 X-72.9945 Y25.4692
G1 X-72.9963 Y25.4756
G1 X-72.9977 Y25.4816
G1 X-72.9986 Y25.4872
G1 X-72.9992 Y25.4934
G1 X-72.9994 Y25.5
G1 X-72.9992 Y25.5066
G1 X-72.9986 Y25.5128
G1 X-72.9977 Y25.5184
G1 X-72.9963 Y25.5244
G1 X-72.9945 Y25.5308
G1 X-72.9924 Y25.5366
G1 X-72.99 Y25.5422
G1 X-72.9871 Y25.5479
G1 X-72.9838 Y25.5533
G1 X-72.9804 Y25.5585
G1 X-72.9768 Y25.5631
G1 X-72.9726 Y25.5679
G1 X-72.9679 Y25.5726
G1 X-72.9631 Y25.5768
G1 X-72.9585 Y25.5804
G1 X-72.9533 Y25.5838
G1 X-72.9479 Y25.5871
G1 X-72.9422 Y25.59
G0 Z6.0
G0 X-66.5585 Y17.0804
G0 Z1.0
G1 F150.0 Z0.0
G1 F400.0 X-66.5533 Y17.0838 Z-0.003
G1 X-66.5479 Y17.0871 Z-0.006
G1 X-66.5422 Y17.09 Z-0.0091
G1 X-66.5366 Y17.0924 Z-0.012
G1 X-66.5308 Y17.0945 Z-0.015
G1 X-66.5244 Y17.0963 Z-0.0182
G1 X-66.5184 Y17.0977 Z-0.0212
G1 X-66.5128 Y17.0986 Z-0.0238
G1 X-66.5066 Y17.0992 Z-0.0269
G1 X-66.5 Y17.0994 Z-0.03
G1 X-66.4934 Y17.0992 Z-0.0332
G1 X-66.4872 Y17.0986 Z-0.0362
G1 X-66.4816 Y17.0977 Z-0.0389
G1 X-66.4756 Y17.0963 Z-0.0419
G1 X-66.4692 Y17.0945 Z-0.0451
G1 X-66.4634 Y17.0924 Z-0.048
G1 X-66.4578 Y17.09 Z-0.051
G1 X-66.4521 Y17.0871 Z-0.054
G1 X-66.4467 Y17.0838 Z-0.0571
G1 X-66.4415 Y17.0804 Z-0.06
G1 X-66.4369 Y17.0768 Z-0.0629
G1 X-66.4321 Y17.0726 Z-0.0659
G1 X-66.4274 Y17.0679 Z-0.0691
G1 X-66.4232 Y17.0631 Z-0.0722
G1 X-66.4196 Y17.0585 Z-0.075
G1 X-66.4162 Y17.0533 Z-0.078
G1 X-66.4129 Y17.0479 Z-0.081
G1 X-66.41 Y17.0422 Z-0.0841
G1 X-66.4076 Y17.0366 Z-0.087
G1 X-66.4055 Y17.0308 Z-0.09
G1 X-66.4037 Y17.0244 Z-0.0932
G1 X-66.4023 Y17.0184 Z-0.0962
G1 X-66.4014 Y17.0128 Z-0.0988
G1 X-66.4008 Y17.0066 Z-0.1019
G1 X-66.4006 Y17.0 Z-0.105
G1 X-66.4008 Y16.9934 Z-0.1082
G1 X-66.4014 Y16.9872 Z-0.1112
G1 X-66.4023 Y16.9816 Z-0.1139
G1 X-66.4037 Y16.9756 Z-0.1169
G1 X-66.4055 Y16.9692 Z-0.1201
G1 X-66.4076 Y16.9634 Z-0.123
G1 X-66.41 Y16.9578 Z-0.126
G1 X-66.4129 Y16.9521 Z-0.129
G1 X-66.4162 Y16.9467 Z-0.1321
G1 X-66.4196 Y16.9415 Z-0.135
G1 X-66.4232 Y16.9369 Z-0.1379
G1 X-66.4274 Y16.9321 Z-0.1409
G1 X-66.4321 Y16.9274 Z-0.1441
G1 X-66.4369 Y16.9232 Z-0.1472
G1 X-66.4415 Y16.9196 Z-0.15
G1 X-66.4467 Y16.9162 Z-0.153
G1 X-66.4521 Y16.9129 Z-0.156
G1 X-66.4578 Y16.91 Z-0.1591
G1 X-66.4634 Y16.9076 Z-0.162
G1 X-66.4692 Y16.9055 Z-0.165
G1 X-66.4756 Y16.9037 Z-0.1682
G1 X-66.4816 Y16.9023 Z-0.1712
G1 X-66.4872 Y16.9014 Z-0.1738
G1 X-66.4934 Y16.9008 Z-0.1769
G1 X-66.5 Y16.9006 Z-0.18
G1 X-66.5066 Y16.9008 Z-0.1832
G1 X-66.5128 Y16.9014 Z-0.1862
G1 X-66.5184 Y16.9023 Z-0.1889
G1 X-66.5244 Y16.9037 Z-0.1919
G1 X-66.5308 Y16.9055 Z-0.1951
G1 X-66.5366 Y16.9076 Z-0.198
G1 X-66.5422 Y16.91 Z-0.201
G1 X-66.5479 Y16.9129 Z-0.204
G1 X-66.5533 Y16.9162 Z-0.2071
G1 X-66.5585 Y16.9196 Z-0.21
G1 X-66.5631 Y16.9232 Z-0.2129
G1 X-66.5679 Y16.9274 Z-0.2159
G1 X-66.5726 Y16.9321 Z-0.2191
G1 X-66.5768 Y16.9369 Z-0.2222
G1 X-66.5804 Y16.9415 Z-0.225
G1 X-66.5838 Y16.9467 Z-0.228
G1 X-66.5871 Y16.9521 Z-0.231
G1 X-66.59 Y16.9578 Z-0.2341
G1 X-66.5924 Y16.9634 Z-0.237
G1 X-66.5945 Y16.9692 Z-0.24
G1 X-66.5963 Y16.9756 Z-0.2432
G1 X-66.5977 Y16.9816 Z-0.2462
G1 X-66.5986 Y16.9872 Z-0.2488
G1 X-66.5992 Y16.9934 Z-0.2519
G1 X-66.5994 Y17.0 Z-0.255
G1 X-66.5992 Y17.0066 Z-0.2582
G1 X-66.5986 Y17.0128 Z-0.2612
G1 X-66.5977 Y17.0184 Z-0.2639
G1 X-66.5963 Y17.0244 Z-0.2669
G1 X-66.5945 Y17.0308 Z-0.2701
G1 X-66.5924 Y17.0366 Z-0.273
G1 X-66.59 Y17.0422 Z-0.276
G1 X-66.5871 Y17.0479 Z-0.279
G1 X-66.5838 Y17.0533 Z-0.2821
G1 X-66.5804 Y17.0585 Z-0.285
G1 X-66.5768 Y17.0631 Z-0.2879
G1 X-66.5726 Y17.0679 Z-0.2909
G1 X-66.5679 Y17.0726 Z-0.2941
G1 X-66.5631 Y17.0768 Z-0.2972
G1 X-66.5585 Y17.0804 Z-0.3
G1 X-66.5533 Y17.0838 Z-0.303
G1 X-66.5479 Y17.0871 Z-0.306
G1 X-66.5422 Y17.09 Z-0.3091
G1 X-66.5366 Y17.0924 Z-0.312
G1 X-66.5308 Y17.0945 Z-0.315
G1 X-66.5244 Y17.0963 Z-0.3182
G1 X-66.5184 Y17.0977 Z-0.3212
G1 X-66.5128 Y17.0986 Z-0.3238
G1 X-66.5066 Y17.0992 Z-0.3269
G1 X-66.5 Y17.0994 Z-0.33
G1 X-66.4934 Y17.0992 Z-0.3332
G1 X-66.4872 Y17.0986 Z-0.3362
G1 X-66.4816 Y17.0977 Z-0.3389
G1 X-66.4756 Y17.0963 Z-0.3419
G1 X-66.4692 Y17.0945 Z-0.3451
G1 X-66.4634 Y17.0924 Z-0.348
G1 X-66.4578 Y17.09 Z-0.351
G1 X-66.4521 Y17.0871 Z-0.354
G1 X-66.4467 Y17.0838 Z-0.3571
G1 X-66.4415 Y17.0804 Z-0.36
G1 X-66.4369 Y17.0768 Z-0.3629
G1 X-66.4321 Y17.0726 Z-0.3659
G1 X-66.4274 Y17.0679 Z-0.3691
G1 X-66.4232 Y17.0631 Z-0.3722
G1 X-66.4196 Y17.0585 Z-0.375
G1 X-66.4162 Y17.0533 Z-0.378
G1 X-66.4129 Y17.0479 Z-0.381
G1 X-66.41 Y17.0422 Z-0.3841
G1 X-66.4076 Y17.0366 Z-0.387
G1 X-66.4055 Y17.0308 Z-0.39
G1 X-66.4037 Y17.0244 Z-0.3932
G1 X-66.4023 Y17.0184 Z-0.3962
G1 X-66.4014 Y17.0128 Z-0.3988
G1 X-66.4008 Y17.0066 Z-0.4019
G1 X-66.4006 Y17.0 Z-0.405
G1 X-66.4008 Y16.9934 Z-0.4082
G1 X-66.4014 Y16.9872 Z-0.4112
G1 X-66.4023 Y16.9816 Z-0.4139
G1 X-66.4037 Y16.9756 Z-0.4169
G1 X-66.4055 Y16.9692 Z-0.4201
G1 X-66.4076 Y16.9634 Z-0.423
G1 X-66.41 Y16.9578 Z-0.426
G1 X-66.4129 Y16.9521 Z-0.429
G1 X-66.4162 Y16.9467 Z-0.4321
G1 X-66.4196 Y16.9415 Z-0.435
G1 X-66.4232 Y16.9369 Z-0.4379
G1 X-66.4274 Y16.9321 Z-0.4409
G1 X-66.4321 Y16.9274 Z-0.4441
G1 X-66.4369 Y16.9232 Z-0.4472
G1 X-66.4415 Y16.9196 Z-0.45
G1 X-66.4467 Y16.9162 Z-0.453
G1 X-66.4521 Y16.9129 Z-0.456
G1 X-66.4578 Y16.91 Z-0.4591
G1 X-66.4634 Y16.9076 Z-0.462
G1 X-66.4692 Y16.9055 Z-0.465
G1 X-66.4756 Y16.9037 Z-0.4682
G1 X-66.4816 Y16.9023 Z-0.4712
G1 X-66.4872 Y16.9014 Z-0.4738
G1 X-66.4934 Y16.9008 Z-0.4769
G1 X-66.5 Y16.9006 Z-0.48
G1 X-66.5066 Y16.9008 Z-0.4832
G1 X-66.5128 Y16.9014 Z-0.4862
G1 X-66.5184 Y16.9023 Z-0.4889
G1 X-66.5244 Y16.9037 Z-0.4919
G1 X-66.5308 Y16.9055 Z-0.4951
G1 X-66.5366 Y16.9076 Z-0.498
G1 X-66.5422 Y16.91 Z-0.501
G1 X-66.5479 Y16.9129 Z-0.504
G1 X-66.5533 Y16.9162 Z-0.5071
G1 X-66.5585 Y16.9196 Z-0.51
G1 X-66.5631 Y16.9232 Z-0.5129
G1 X-66.5679 Y16.9274 Z-0.5159
G1 X-66.5726 Y16.9321 Z-0.5191
G1 X-66.5768 Y16.9369 Z-0.5222
G1 X-66.5804 Y16.9415 Z-0.525
G1 X-66.5838 Y16.9467 Z-0.528
G1 X-66.5871 Y16.9521 Z-0.531
G1 X-66.59 Y16.9578 Z-0.5341
G1 X-66.5924 Y16.9634 Z-0.537
G1 X-66.5945 Y16.9692 Z-0.54
G1 X-66.5963 Y16.9756 Z-0.5432
G1 X-66.5977 Y16.9816 Z-0.5462
G1 X-66.5986 Y16.9872 Z-0.5488
G1 X-66.5992 Y16.9934 Z-0.5519
G1 X-66.5994 Y17.0 Z-0.555
G1 X-66.5992 Y17.0066 Z-0.5582
G1 X-66.5986 Y17.0128 Z-0.5612
G1 X-66.5977 Y17.0184 Z-0.5639
G1 X-66.5963 Y17.0244 Z-0.5669
G1 X-66.5945 Y17.0308 Z-0.5701
G1 X-66.5924 Y17.0366 Z-0.573
G1 X-66.59 Y17.0422 Z-0.576
G1 X-66.5871 Y17.0479 Z-0.579
G1 X-66.5838 Y17.0533 Z-0.5821
G1 X-66.5804 Y17.0585 Z-0.585
G1 X-66.5768 Y17.0631 Z-0.5879
G1 X-66.5726 Y17.0679 Z-0.5909
G1 X-66.5679 Y17.0726 Z-0.5941
G1 X-66.5631 Y17.0768 Z-0.5972
G1 X-66.5585 Y17.0804 Z-0.6
G1 X-66.5533 Y17.0838 Z-0.603
G1 X-66.5479 Y17.0871 Z-0.606
G1 X-66.5422 Y17.09 Z-0.6091
G1 X-66.5366 Y17.0924 Z-0.612
G1 X-66.5308 Y17.0945 Z-0.615
G1 X-66.5244 Y17.0963 Z-0.6182
G1 X-66.5184 Y17.0977 Z-0.6212
G1 X-66.5128 Y17.0986 Z-0.6238
G1 X-66.5066 Y17.0992 Z-0.6269
G1 X-66.5 Y17.0994 Z-0.63
G1 X-66.4934 Y17.0992 Z-0.6332
G1 X-66.4872 Y17.0986 Z-0.6362
G1 X-66.4816 Y17.0977 Z-0.6389
G1 X-66.4756 Y17.0963 Z-0.6419
G1 X-66.4692 Y17.0945 Z-0.6451
G1 X-66.4634 Y17.0924 Z-0.648
G1 X-66.4578 Y17.09 Z-0.651
G1 X-66.4521 Y17.0871 Z-0.654
G1 X-66.4467 Y17.0838 Z-0.6571
G1 X-66.4415 Y17.0804 Z-0.66
G1 X-66.4369 Y17.0768 Z-0.6629
G1 X-66.4321 Y17.0726 Z-0.6659
G1 X-66.4274 Y17.0679 Z-0.6691
G1 X-66.4232 Y17.0631 Z-0.6722
G1 X-66.4196 Y17.0585 Z-0.675
G1 X-66.4162 Y17.0533 Z-0.678
G1 X-66.4129 Y17.0479 Z-0.681
G1 X-66.41 Y17.0422 Z-0.6841
G1 X-66.4076 Y17.0366 Z-0.687
G1 X-66.4055 Y17.0308 Z-0.69
G1 X-66.4037 Y17.0244 Z-0.6932
G1 X-66.4023 Y17.0184 Z-0.6962
G1 X-66.4014 Y17.0128 Z-0.6988
G1 X-66.4008 Y17.0066 Z-0.7019
G1 X-66.4006 Y17.0 Z-0.705
G1 X-66.4008 Y16.9934 Z-0.7082
G1 X-66.4014 Y16.9872 Z-0.7112
G1 X-66.4023 Y16.9816 Z-0.7139
G1 X-66.4037 Y16.9756 Z-0.7169
G1 X-66.4055 Y16.9692 Z-0.7201
G1 X-66.4076 Y16.9634 Z-0.723
G1 X-66.41 Y16.9578 Z-0.726
G1 X-66.4129 Y16.9521 Z-0.729
G1 X-66.4162 Y16.9467 Z-0.7321
G1 X-66.4196 Y16.9415 Z-0.735
G1 X-66.4232 Y16.9369 Z-0.7379
G1 X-66.4274 Y16.9321 Z-0.7409
G1 X-66.4321 Y16.9274 Z-0.7441
G1 X-66.4369 Y16.9232 Z-0.7472
G1 X-66.4415 Y16.9196 Z-0.75
G1 X-66.4467 Y16.9162 Z-0.753
G1 X-66.4521 Y16.9129 Z-0.756
G1 X-66.4578 Y16.91 Z-0.7591
G1 X-66.4634 Y16.9076 Z-0.762
G1 X-66.4692 Y16.9055 Z-0.765
G1 X-66.4756 Y16.9037 Z-0.7682
G1 X-66.4816 Y16.9023 Z-0.7712
G1 X-66.4872 Y16.9014 Z-0.7738
G1 X-66.4934 Y16.9008 Z-0.7769
G1 X-66.5 Y16.9006 Z-0.78
G1 X-66.5066 Y16.9008 Z-0.7832
G1 X-66.5128 Y16.9014 Z-0.7862
G1 X-66.5184 Y16.9023 Z-0.7889
G1 X-66.5244 Y16.9037 Z-0.7919
G1 X-66.5308 Y16.9055 Z-0.7951
G1 X-66.5366 Y16.9076 Z-0.798
G1 X-66.5422 Y16.91 Z-0.801
G1 X-66.5479 Y16.9129 Z-0.804
G1 X-66.5533 Y16.9162 Z-0.8071
G1 X-66.5585 Y16.9196 Z-0.81
G1 X-66.5631 Y16.9232 Z-0.8129
G1 X-66.5679 Y16.9274 Z-0.8159
G1 X-66.5726 Y16.9321 Z-0.8191
G1 X-66.5768 Y16.9369 Z-0.8222
G1 X-66.5804 Y16.9415 Z-0.825
G1 X-66.5838 Y16.9467 Z-0.828
G1 X-66.5871 Y16.9521 Z-0.831
G1 X-66.59 Y16.9578 Z-0.8341
G1 X-66.5924 Y16.9634 Z-0.837
G1 X-66.5945 Y16.9692 Z-0.84
G1 X-66.5963 Y16.9756 Z-0.8432
G1 X-66.5977 Y16.9816 Z-0.8462
G1 X-66.5986 Y16.9872 Z-0.8488
G1 X-66.5992 Y16.9934 Z-0.8519
G1 X-66.5994 Y17.0 Z-0.855
G1 X-66.5992 Y17.0066 Z-0.8582
G1 X-66.5986 Y17.0128 Z-0.8612
G1 X-66.5977 Y17.0184 Z-0.8639
G1 X-66.5963 Y17.0244 Z-0.8669
G1 X-66.5945 Y17.0308 Z-0.8701
G1 X-66.5924 Y17.0366 Z-0.873
G1 X-66.59 Y17.0422 Z-0.876
G1 X-66.5871 Y17.0479 Z-0.879
G1 X-66.5838 Y17.0533 Z-0.8821
G1 X-66.5804 Y17.0585 Z-0.885
G1 X-66.5768 Y17.0631 Z-0.8879
G1 X-66.5726 Y17.0679 Z-0.8909
G1 X-66.5679 Y17.0726 Z-0.8941
G1 X-66.5631 Y17.0768 Z-0.8972
G1 X-66.5585 Y17.0804 Z-0.9
G1 X-66.5533 Y17.0838 Z-0.903
G1 X-66.5479 Y17.0871 Z-0.906
G1 X-66.5422 Y17.09 Z-0.9091
G1 X-66.5366 Y17.0924 Z-0.912
G1 X-66.5308 Y17.0945 Z-0.915
G1 X-66.5244 Y17.0963 Z-0.9182
G1 X-66.5184 Y17.0977 Z-0.9212
G1 X-66.5128 Y17.0986 Z-0.9238
G1 X-66.5066 Y17.0992 Z-0.9269
G1 X-66.5 Y17.0994 Z-0.93
G1 X-66.4934 Y17.0992 Z-0.9332
G1 X-66.4872 Y17.0986 Z-0.9362
G1 X-66.4816 Y17.0977 Z-0.9389
G1 X-66.4756 Y17.0963 Z-0.9419
G1 X-66.4692 Y17.0945 Z-0.9451
G1 X-66.4634 Y17.0924 Z-0.948
G1 X-66.4578 Y17.09 Z-0.951
G1 X-66.4521 Y17.0871 Z-0.954
G1 X-66.4467 Y17.0838 Z-0.9571
G1 X-66.4415 Y17.0804 Z-0.96
G1 X-66.4369 Y17.0768 Z-0.9629
G1 X-66.4321 Y17.0726 Z-0.9659
G1 X-66.4274 Y17.0679 Z-0.9691
G1 X-66.4232 Y17.0631 Z-0.9722
G1 X-66.4196 Y17.0585 Z-0.975
G1 X-66.4162 Y17.0533 Z-0.978
G1 X-66.4129 Y17.0479 Z-0.981
G1 X-66.41 Y17.0422 Z-0.9841
G1 X-66.4076 Y17.0366 Z-0.987
G1 X-66.4055 Y17.0308 Z-0.99
G1 X-66.4037 Y17.0244 Z-0.9932
G1 X-66.4023 Y17.0184 Z-0.9962
G1 X-66.4014 Y17.0128 Z-0.9988
G1 X-66.4008 Y17.0066 Z-1.0019
G1 X-66.4006 Y17.0 Z-1.005
G1 X-66.4008 Y16.9934 Z-1.0082
G1 X-66.4014 Y16.9872 Z-1.0112
G1 X-66.4023 Y16.9816 Z-1.0139
G1 X-66.4037 Y16.9756 Z-1.0169
G1 X-66.4055 Y16.9692 Z-1.0201
G1 X-66.4076 Y16.9634 Z-1.023
G1 X-66.41 Y16.9578 Z-1.026
G1 X-66.4129 Y16.9521 Z-1.029
G1 X-66.4162 Y16.9467 Z-1.0321
G1 X-66.4196 Y16.9415 Z-1.035
G1 X-66.4232 Y16.9369 Z-1.0379
G1 X-66.4274 Y16.9321 Z-1.0409
