( Made using CamBam - http://www.cambam.co.uk )
( ssc_Front_PANELS_prod 2/6/2021 12:25:33 PM )
( T4 : 2.5 )
( CUTVIEWER )
( FROM/0,0,5 )
( Select dummy tool to avoid warnings )
( TOOL/MILL,1,0,20.0,0 )
( STOCK/BLOCK,180.0,100.0,6.0,10.0,10.0,6.0 )
G21 G90 G91.1 G64 G40
G0 Z3.0
( T4 : 2.5 )
( Tool Taper coming soon )
( TOOL/MILL,2.5,0.0,0.0,0 )
T4 M6
( LED display window )
G17
M3 S1000
G0 X140.15 Y62.65
G0 Z1.0
G1 F150.0 Z0.0
G1 F180.0 Y26.15 Z-0.0358
G1 X23.65 Z-0.15
G1 Y62.65 Z-0.1858
G1 X140.15 Z-0.3
G1 Y26.15 Z-0.3358
G1 X23.65 Z-0.45
G1 Y62.65 Z-0.4858
G1 X140.15 Z-0.6
G1 Y26.15 Z-0.6358
G1 X23.65 Z-0.75
G1 Y62.65 Z-0.7858
G1 X140.15 Z-0.9
G1 Y26.15 Z-0.9358
G1 X23.65 Z-1.05
G1 Y62.65 Z-1.0858
G1 X140.15 Z-1.2
G1 Y26.15 Z-1.2358
G1 X23.65 Z-1.35
G1 Y62.65 Z-1.3858
G1 X140.15 Z-1.5
G1 Y26.15 Z-1.5358
G1 X23.65 Z-1.65
G1 Y62.65 Z-1.6858
G1 X140.15 Z-1.8
G1 Y26.15 Z-1.8358
G1 X23.65 Z-1.95
G1 Y62.65 Z-1.9858
G1 X140.15 Z-2.1
G1 Y26.15 Z-2.1358
G1 X23.65 Z-2.25
G1 Y62.65 Z-2.2858
G1 X140.15 Z-2.4
G1 Y26.15 Z-2.4358
G1 X23.65 Z-2.55
G1 Y62.65 Z-2.5858
G1 X140.15 Z-2.7
G1 Y26.15 Z-2.7358
G1 X23.65 Z-2.85
G1 Y62.65 Z-2.8858
G1 X140.15 Z-3.0
G1 Y26.15 Z-3.0358
G1 X23.65 Z-3.15
G1 Y62.65 Z-3.1858
G1 X140.15 Z-3.3
G1 Y26.15 Z-3.3358
G1 X23.65 Z-3.45
G1 Y62.65 Z-3.4858
G1 X140.15 Z-3.6
G1 Y26.15 Z-3.6358
G1 X23.65 Z-3.75
G1 Y62.65 Z-3.7858
G1 X140.15 Z-3.9
G1 Y26.15 Z-3.9358
G1 X23.65 Z-4.05
G1 Y62.65 Z-4.0858
G1 X140.15 Z-4.2
G1 Y26.15 Z-4.2358
G1 X23.65 Z-4.35
G1 Y62.65 Z-4.3858
G1 X140.15 Z-4.5
G1 Y26.15 Z-4.5358
G1 X23.65 Z-4.65
G1 Y62.65 Z-4.6858
G1 X140.15 Z-4.8
G1 Y26.15 Z-4.8358
G1 X23.65 Z-4.95
G1 Y62.65 Z-4.9858
G1 X140.15 Z-5.1
G1 Y26.15 Z-5.1358
G1 X23.65 Z-5.25
G1 Y62.65 Z-5.2858
G1 X140.15 Z-5.4
G1 Y26.15 Z-5.4358
G1 X23.65 Z-5.55
G1 Y62.65 Z-5.5858
G1 X140.15 Z-5.7
G1 Y26.15 Z-5.7358
G1 X23.65 Z-5.85
G1 Y62.65 Z-5.8858
G1 X140.15 Z-6.0
G1 Y26.15 Z-6.0358
G1 X23.65 Z-6.15
G1 Y62.65 Z-6.1858
G1 X140.15 Z-6.3
G1 Y26.15
G1 X23.65
G1 Y62.65
G1 X140.15
( LED display fixing fram )
S1000
G0 Z3.0
G0 X22.15 Y32.4135
G0 Z1.0
G1 F150.0 Z0.0
G1 F180.0 Y41.8865 Z-0.0118
G1 X22.2057 Y41.9584 Z-0.0119
G3 X22.2515 Y42.0213 Z-0.012 I-0.9877 J0.7661
G1 X22.3222 Y42.1252 Z-0.0121
G3 X22.3649 Y42.1924 Z-0.0122 I-1.0335 J0.7031
G1 X22.4288 Y42.3006 Z-0.0124
G3 X22.4661 Y42.3685 Z-0.0125 I-1.0762 J0.6359
G1 X22.5232 Y42.4805 Z-0.0126
G3 X22.5569 Y42.552 Z-0.0127 I-1.1135 J0.568
G1 X22.6068 Y42.6673 Z-0.0129
G3 X22.6359 Y42.7409 Z-0.013 I-1.1472 J0.4964
G1 X22.6784 Y42.8591 Z-0.0132
G3 X22.7023 Y42.9328 Z-0.0133 I-1.1763 J0.4229
G1 X22.7374 Y43.0534 Z-0.0134
G3 X22.7571 Y43.13 Z-0.0135 I-1.2002 J0.3492
G1 X22.7845 Y43.2526 Z-0.0137
G3 X22.7993 Y43.3302 Z-0.0138 I-1.2199 J0.2726
G1 X22.8189 Y43.4543 Z-0.0139
G3 X22.8286 Y43.531 Z-0.014 I-1.2347 J0.195
G1 X22.8405 Y43.656 Z-0.0142
G3 X22.8455 Y43.7356 Z-0.0143 I-1.2444 J0.1184
G1 X22.8494 Y43.8612 Z-0.0144
G3 Y43.9388 Z-0.0145 I-1.2494 J0.0388
G1 X22.8455 Y44.0644 Z-0.0147
G3 X22.8405 Y44.144 Z-0.0148 I-1.2494 J-0.0388
G1 X22.8286 Y44.269 Z-0.0149
G3 X22.8189 Y44.3457 Z-0.015 I-1.2444 J-0.1184
G1 X22.7993 Y44.4698 Z-0.0152
G3 X22.7845 Y44.5474 Z-0.0153 I-1.2347 J-0.195
G1 X22.7571 Y44.67 Z-0.0154
G3 X22.7374 Y44.7466 Z-0.0155 I-1.2199 J-0.2726
G1 X22.7023 Y44.8672 Z-0.0157
G3 X22.6784 Y44.9409 Z-0.0158 I-1.2002 J-0.3492
G1 X22.6359 Y45.0591 Z-0.0159
G3 X22.6068 Y45.1327 Z-0.016 I-1.1763 J-0.4229
G1 X22.5569 Y45.248 Z-0.0162
G3 X22.5232 Y45.3195 Z-0.0163 I-1.1472 J-0.4964
G1 X22.4661 Y45.4315 Z-0.0165
G3 X22.4288 Y45.4994 Z-0.0166 I-1.1135 J-0.568
G1 X22.3649 Y45.6076 Z-0.0167
G3 X22.3222 Y45.6748 Z-0.0168 I-1.0762 J-0.6359
G1 X22.2515 Y45.7787 Z-0.017
G3 X22.2057 Y45.8416 Z-0.0171 I-1.0335 J-0.7031
G1 X22.15 Y45.9135 Z-0.0172
G1 Y55.3865 Z-0.0289
G1 X22.2054 Y55.4579 Z-0.0291
G3 X22.2514 Y55.5212 Z-0.0292 I-0.9874 J0.7665
G1 X22.3221 Y55.6251 Z-0.0293
G3 X22.365 Y55.6927 Z-0.0294 I-1.0334 J0.7032
G1 X22.4289 Y55.8009 Z-0.0296
G3 X22.466 Y55.8683 Z-0.0297 I-1.0763 J0.6356
G1 X22.5231 Y55.9802 Z-0.0298
G3 X22.557 Y56.0523 Z-0.0299 I-1.1134 J0.5682
G1 X22.6069 Y56.1677 Z-0.0301
G3 X22.6359 Y56.2409 Z-0.0302 I-1.1473 J0.4961
G1 X22.6784 Y56.3591 Z-0.0303
G3 X22.7023 Y56.4327 Z-0.0304 I-1.1763 J0.4229
G1 X22.7374 Y56.5533 Z-0.0306
G3 X22.7571 Y56.63 Z-0.0307 I-1.2002 J0.3493
G1 X22.7845 Y56.7526 Z-0.0308
G3 X22.7993 Y56.8302 Z-0.0309 I-1.2199 J0.2726
G1 X22.8189 Y56.9543 Z-0.0311
G3 X22.8286 Y57.0309 Z-0.0312 I-1.2347 J0.195
G1 X22.8405 Y57.156 Z-0.0313
G3 X22.8455 Y57.2356 Z-0.0314 I-1.2444 J0.1184
G1 X22.8494 Y57.3612 Z-0.0316
G3 Y57.4388 Z-0.0317 I-1.2494 J0.0388
G1 X22.8455 Y57.5644 Z-0.0319
G3 X22.8405 Y57.644 Z-0.032 I-1.2494 J-0.0388
G1 X22.8286 Y57.7691 Z-0.0321
G3 X22.8189 Y57.8457 Z-0.0322 I-1.2444 J-0.1184
G1 X22.7993 Y57.9698 Z-0.0324
G3 X22.7845 Y58.0474 Z-0.0325 I-1.2347 J-0.195
G1 X22.7571 Y58.17 Z-0.0326
G3 X22.7374 Y58.2467 Z-0.0327 I-1.2199 J-0.2726
G1 X22.7023 Y58.3673 Z-0.0329
G3 X22.6784 Y58.4409 Z-0.033 I-1.2002 J-0.3493
G1 X22.6359 Y58.5591 Z-0.0331
G3 X22.6069 Y58.6323 Z-0.0332 I-1.1763 J-0.4229
G1 X22.557 Y58.7477 Z-0.0334
G3 X22.5231 Y58.8198 Z-0.0335 I-1.1473 J-0.4961
G1 X22.466 Y58.9317 Z-0.0336
G3 X22.4289 Y58.9991 Z-0.0337 I-1.1134 J-0.5682
G1 X22.365 Y59.1073 Z-0.0339
G3 X22.3221 Y59.1749 Z-0.034 I-1.0763 J-0.6356
G1 X22.2514 Y59.2788 Z-0.0341
G3 X22.2054 Y59.3421 Z-0.0342 I-1.0334 J-0.7032
G1 X22.15 Y59.4135 Z-0.0343
G1 Y64.15 Z-0.0402
G1 X27.3865 Z-0.0467
G1 X27.4579 Y64.0946 Z-0.0469
G3 X27.5212 Y64.0486 Z-0.047 I0.7665 J0.9874
G1 X27.6251 Y63.9779 Z-0.0471
G3 X27.6927 Y63.935 Z-0.0472 I0.7032 J1.0334
G1 X27.8009 Y63.8711 Z-0.0474
G3 X27.8683 Y63.834 Z-0.0475 I0.6356 J1.0763
G1 X27.9802 Y63.7769 Z-0.0476
G3 X28.0523 Y63.743 Z-0.0477 I0.5682 J1.1134
G1 X28.1677 Y63.6931 Z-0.0479
G3 X28.2409 Y63.6641 Z-0.048 I0.4961 J1.1473
G1 X28.3591 Y63.6216 Z-0.0481
G3 X28.4327 Y63.5977 Z-0.0482 I0.4229 J1.1763
G1 X28.5533 Y63.5626 Z-0.0484
G3 X28.63 Y63.5429 Z-0.0485 I0.3493 J1.2002
G1 X28.7526 Y63.5155 Z-0.0486
G3 X28.8302 Y63.5007 Z-0.0487 I0.2726 J1.2199
G1 X28.9543 Y63.4811 Z-0.0489
G3 X29.0309 Y63.4714 Z-0.049 I0.195 J1.2347
G1 X29.156 Y63.4595 Z-0.0491
G3 X29.2356 Y63.4545 Z-0.0492 I0.1184 J1.2444
G1 X29.3612 Y63.4506 Z-0.0494
G3 X29.4388 Z-0.0495 I0.0388 J1.2494
G1 X29.5644 Y63.4545 Z-0.0496
G3 X29.644 Y63.4595 Z-0.0497 I-0.0388 J1.2494
G1 X29.7691 Y63.4714 Z-0.0499
G3 X29.8457 Y63.4811 Z-0.05 I-0.1184 J1.2444
G1 X29.9698 Y63.5007 Z-0.0502
G3 X30.0474 Y63.5155 Z-0.0503 I-0.195 J1.2347
G1 X30.17 Y63.5429 Z-0.0504
G3 X30.2467 Y63.5626 Z-0.0505 I-0.2726 J1.2199
G1 X30.3673 Y63.5977 Z-0.0507
G3 X30.4406 Y63.6215 Z-0.0508 I-0.3493 J1.2002
G1 X30.5589 Y63.664 Z-0.0509
G3 X30.6328 Y63.6932 Z-0.051 I-0.4226 J1.1764
G1 X30.7481 Y63.7431 Z-0.0512
G3 X30.8198 Y63.7769 Z-0.0513 I-0.4965 J1.1472
G1 X30.9317 Y63.834 Z-0.0514
G3 X30.9991 Y63.8711 Z-0.0515 I-0.5682 J1.1134
G1 X31.1073 Y63.935 Z-0.0517
G3 X31.1749 Y63.9779 Z-0.0518 I-0.6356 J1.0763
G1 X31.2788 Y64.0486 Z-0.0519
G3 X31.3421 Y64.0946 Z-0.052 I-0.7032 J1.0334
G1 X31.4135 Y64.15 Z-0.0521
G1 X79.8865 Z-0.1124
G1 X79.9584 Y64.0943 Z-0.1125
G3 X80.0213 Y64.0485 Z-0.1126 I0.7661 J0.9877
G1 X80.1252 Y63.9778 Z-0.1128
G3 X80.1925 Y63.9351 Z-0.1129 I0.7031 J1.0335
G1 X80.3006 Y63.8712 Z-0.113
G3 X80.3685 Y63.8339 Z-0.1131 I0.6359 J1.0762
G1 X80.4805 Y63.7768 Z-0.1133
G3 X80.552 Y63.7431 Z-0.1134 I0.568 J1.1135
G1 X80.6673 Y63.6932 Z-0.1135
G3 X80.7409 Y63.6641 Z-0.1136 I0.4964 J1.1472
G1 X80.8591 Y63.6216 Z-0.1138
G3 X80.9328 Y63.5977 Z-0.1139 I0.4229 J1.1763
G1 X81.0535 Y63.5626 Z-0.114
G3 X81.13 Y63.5429 Z-0.1141 I0.3492 J1.2002
G1 X81.2526 Y63.5155 Z-0.1143
G3 X81.3302 Y63.5007 Z-0.1144 I0.2726 J1.2199
G1 X81.4543 Y63.4811 Z-0.1145
G3 X81.5309 Y63.4714 Z-0.1146 I0.195 J1.2347
G1 X81.656 Y63.4595 Z-0.1148
G3 X81.7356 Y63.4545 Z-0.1149 I0.1184 J1.2444
G1 X81.8612 Y63.4506 Z-0.115
G3 X81.9388 Z-0.1151 I0.0388 J1.2494
G1 X82.0644 Y63.4545 Z-0.1153
G3 X82.144 Y63.4595 Z-0.1154 I-0.0388 J1.2494
G1 X82.2691 Y63.4714 Z-0.1156
G3 X82.3457 Y63.4811 Z-0.1157 I-0.1184 J1.2444
G1 X82.4698 Y63.5007 Z-0.1158
G3 X82.5474 Y63.5155 Z-0.1159 I-0.195 J1.2347
G1 X82.67 Y63.5429 Z-0.1161
G3 X82.7465 Y63.5626 Z-0.1162 I-0.2726 J1.2199
G1 X82.8672 Y63.5977 Z-0.1163
G3 X82.9409 Y63.6216 Z-0.1164 I-0.3492 J1.2002
G1 X83.0591 Y63.6641 Z-0.1166
G3 X83.1327 Y63.6932 Z-0.1167 I-0.4229 J1.1763
G1 X83.248 Y63.7431 Z-0.1168
G3 X83.3195 Y63.7768 Z-0.1169 I-0.4964 J1.1472
G1 X83.4315 Y63.8339 Z-0.1171
G3 X83.4994 Y63.8712 Z-0.1172 I-0.568 J1.1135
G1 X83.6075 Y63.9351 Z-0.1173
G3 X83.6748 Y63.9778 Z-0.1174 I-0.6359 J1.0762
G1 X83.7787 Y64.0485 Z-0.1176
G3 X83.8416 Y64.0943 Z-0.1177 I-0.7031 J1.0335
G1 X83.9135 Y64.15 Z-0.1178
G1 X132.3865 Z-0.178
G1 X132.4579 Y64.0946 Z-0.1782
G3 X132.5212 Y64.0486 Z-0.1783 I0.7665 J0.9874
G1 X132.6251 Y63.9779 Z-0.1784
G3 X132.6927 Y63.935 Z-0.1785 I0.7032 J1.0334
G1 X132.8009 Y63.8711 Z-0.1787
G3 X132.8683 Y63.834 Z-0.1788 I0.6356 J1.0763
G1 X132.9802 Y63.7769 Z-0.1789
G3 X133.0519 Y63.7431 Z-0.179 I0.5682 J1.1134
G1 X133.1672 Y63.6932 Z-0.1792
G3 X133.2411 Y63.664 Z-0.1793 I0.4965 J1.1472
G1 X133.3594 Y63.6215 Z-0.1794
G3 X133.4327 Y63.5977 Z-0.1795 I0.4226 J1.1764
G1 X133.5533 Y63.5626 Z-0.1797
G3 X133.63 Y63.5429 Z-0.1798 I0.3493 J1.2002
G1 X133.7526 Y63.5155 Z-0.1799
G3 X133.8302 Y63.5007 Z-0.18 I0.2726 J1.2199
G1 X133.9543 Y63.4811 Z-0.1802
G3 X134.0309 Y63.4714 Z-0.1803 I0.195 J1.2347
G1 X134.156 Y63.4595 Z-0.1804
G3 X134.2356 Y63.4545 Z-0.1805 I0.1184 J1.2444
G1 X134.3612 Y63.4506 Z-0.1807
G3 X134.4388 Z-0.1808 I0.0388 J1.2494
G1 X134.5644 Y63.4545 Z-0.181
G3 X134.644 Y63.4595 Z-0.1811 I-0.0388 J1.2494
G1 X134.7691 Y63.4714 Z-0.1812
G3 X134.8457 Y63.4811 Z-0.1813 I-0.1184 J1.2444
G1 X134.9698 Y63.5007 Z-0.1815
G3 X135.0474 Y63.5155 Z-0.1816 I-0.195 J1.2347
G1 X135.17 Y63.5429 Z-0.1817
G3 X135.2467 Y63.5626 Z-0.1818 I-0.2726 J1.2199
G1 X135.3673 Y63.5977 Z-0.182
G3 X135.4409 Y63.6216 Z-0.1821 I-0.3493 J1.2002
G1 X135.5591 Y63.6641 Z-0.1822
G3 X135.6323 Y63.6931 Z-0.1823 I-0.4229 J1.1763
G1 X135.7477 Y63.743 Z-0.1825
G3 X135.8198 Y63.7769 Z-0.1826 I-0.4961 J1.1473
G1 X135.9317 Y63.834 Z-0.1827
G3 X135.9991 Y63.8711 Z-0.1828 I-0.5682 J1.1134
G1 X136.1073 Y63.935 Z-0.183
G3 X136.1749 Y63.9779 Z-0.1831 I-0.6356 J1.0763
G1 X136.2788 Y64.0486 Z-0.1832
G3 X136.3421 Y64.0946 Z-0.1833 I-0.7032 J1.0334
G1 X136.4135 Y64.15 Z-0.1834
G1 X141.65 Z-0.19
G1 Y59.4135 Z-0.1958
G1 X141.5946 Y59.3421 Z-0.196
G3 X141.5486 Y59.2788 Z-0.1961 I0.9874 J-0.7665
G1 X141.4779 Y59.1749 Z-0.1962
G3 X141.435 Y59.1073 Z-0.1963 I1.0334 J-0.7032
G1 X141.3711 Y58.9991 Z-0.1965
G3 X141.334 Y58.9317 Z-0.1966 I1.0763 J-0.6356
G1 X141.2769 Y58.8198 Z-0.1967
G3 X141.243 Y58.7477 Z-0.1968 I1.1134 J-0.5682
G1 X141.1931 Y58.6323 Z-0.197
G3 X141.1641 Y58.5591 Z-0.1971 I1.1473 J-0.4961
G1 X141.1216 Y58.4409 Z-0.1972
G3 X141.0977 Y58.3673 Z-0.1973 I1.1763 J-0.4229
G1 X141.0626 Y58.2467 Z-0.1975
G3 X141.0429 Y58.17 Z-0.1976 I1.2002 J-0.3493
G1 X141.0155 Y58.0474 Z-0.1977
G3 X141.0007 Y57.9698 Z-0.1978 I1.2199 J-0.2726
G1 X140.9811 Y57.8457 Z-0.198
G3 X140.9714 Y57.7691 Z-0.1981 I1.2347 J-0.195
G1 X140.9595 Y57.644 Z-0.1982
G3 X140.9545 Y57.5644 Z-0.1983 I1.2444 J-0.1184
G1 X140.9506 Y57.4388 Z-0.1985
G3 Y57.3612 Z-0.1986 I1.2494 J-0.0388
G1 X140.9545 Y57.2356 Z-0.1987
G3 X140.9595 Y57.156 Z-0.1988 I1.2494 J0.0388
G1 X140.9714 Y57.0309 Z-0.199
G3 X140.9811 Y56.9543 Z-0.1991 I1.2444 J0.1184
G1 X141.0007 Y56.8302 Z-0.1993
G3 X141.0155 Y56.7526 Z-0.1994 I1.2347 J0.195
G1 X141.0429 Y56.63 Z-0.1995
G3 X141.0626 Y56.5533 Z-0.1996 I1.2199 J0.2726
G1 X141.0977 Y56.4327 Z-0.1998
G3 X141.1216 Y56.3591 Z-0.1999 I1.2002 J0.3493
G1 X141.1641 Y56.2409 Z-0.2
G3 X141.1931 Y56.1677 Z-0.2001 I1.1763 J0.4229
G1 X141.243 Y56.0523 Z-0.2003
G3 X141.2769 Y55.9802 Z-0.2004 I1.1473 J0.4961
G1 X141.334 Y55.8683 Z-0.2005
G3 X141.3711 Y55.8009 Z-0.2006 I1.1134 J0.5682
G1 X141.435 Y55.6927 Z-0.2008
G3 X141.4779 Y55.6251 Z-0.2009 I1.0763 J0.6356
G1 X141.5486 Y55.5212 Z-0.201
G3 X141.5946 Y55.4579 Z-0.2011 I1.0334 J0.7032
G1 X141.65 Y55.3865 Z-0.2012
G1 Y45.9135 Z-0.213
G1 X141.5943 Y45.8416 Z-0.2131
G3 X141.5485 Y45.7787 Z-0.2132 I0.9877 J-0.7661
G1 X141.4778 Y45.6748 Z-0.2134
G3 X141.4351 Y45.6076 Z-0.2135 I1.0335 J-0.7031
G1 X141.3712 Y45.4994 Z-0.2136
G3 X141.3339 Y45.4315 Z-0.2137 I1.0762 J-0.6359
G1 X141.2768 Y45.3195 Z-0.2139
G3 X141.2431 Y45.248 Z-0.214 I1.1135 J-0.568
G1 X141.1932 Y45.1327 Z-0.2141
G3 X141.1641 Y45.0591 Z-0.2142 I1.1472 J-0.4964
G1 X141.1216 Y44.9409 Z-0.2144
G3 X141.0977 Y44.8672 Z-0.2145 I1.1763 J-0.4229
G1 X141.0626 Y44.7466 Z-0.2147
G3 X141.0429 Y44.67 Z-0.2148 I1.2002 J-0.3492
G1 X141.0155 Y44.5474 Z-0.2149
G3 X141.0007 Y44.4698 Z-0.215 I1.2199 J-0.2726
G1 X140.9811 Y44.3457 Z-0.2152
G3 X140.9714 Y44.269 Z-0.2153 I1.2347 J-0.195
G1 X140.9595 Y44.144 Z-0.2154
G3 X140.9545 Y44.0644 Z-0.2155 I1.2444 J-0.1184
G1 X140.9506 Y43.9388 Z-0.2157
G3 Y43.8612 Z-0.2158 I1.2494 J-0.0388
G1 X140.9545 Y43.7356 Z-0.2159
G3 X140.9595 Y43.656 Z-0.216 I1.2494 J0.0388
G1 X140.9714 Y43.531 Z-0.2162
G3 X140.9811 Y43.4543 Z-0.2163 I1.2444 J0.1184
G1 X141.0007 Y43.3302 Z-0.2164
G3 X141.0155 Y43.2526 Z-0.2165 I1.2347 J0.195
G1 X141.0429 Y43.13 Z-0.2167
G3 X141.0626 Y43.0534 Z-0.2168 I1.2199 J0.2726
G1 X141.0977 Y42.9328 Z-0.2169
G3 X141.1216 Y42.8591 Z-0.217 I1.2002 J0.3492
G1 X141.1641 Y42.7409 Z-0.2172
G3 X141.1932 Y42.6673 Z-0.2173 I1.1763 J0.4229
G1 X141.2431 Y42.552 Z-0.2174
G3 X141.2768 Y42.4805 Z-0.2175 I1.1472 J0.4964
G1 X141.3339 Y42.3685 Z-0.2177
G3 X141.3712 Y42.3006 Z-0.2178 I1.1135 J0.568
G1 X141.4351 Y42.1924 Z-0.218
G3 X141.4778 Y42.1252 Z-0.2181 I1.0762 J0.6359
G1 X141.5485 Y42.0213 Z-0.2182
G3 X141.5943 Y41.9584 Z-0.2183 I1.0335 J0.7031
G1 X141.65 Y41.8865 Z-0.2184
G1 Y32.4135 Z-0.2302
G1 X141.5943 Y32.3416 Z-0.2303
G3 X141.5485 Y32.2787 Z-0.2304 I0.9877 J-0.7661
G1 X141.4778 Y32.1748 Z-0.2306
G3 X141.4351 Y32.1076 Z-0.2307 I1.0335 J-0.7031
G1 X141.3712 Y31.9994 Z-0.2308
G3 X141.3339 Y31.9315 Z-0.2309 I1.0762 J-0.6359
G1 X141.2768 Y31.8195 Z-0.2311
G3 X141.2431 Y31.748 Z-0.2312 I1.1135 J-0.568
G1 X141.1932 Y31.6327 Z-0.2313
G3 X141.1641 Y31.5591 Z-0.2314 I1.1472 J-0.4964
G1 X141.1216 Y31.4409 Z-0.2316
G3 X141.0977 Y31.3672 Z-0.2317 I1.1763 J-0.4229
G1 X141.0626 Y31.2466 Z-0.2318
G3 X141.0429 Y31.17 Z-0.2319 I1.2002 J-0.3492
G1 X141.0155 Y31.0474 Z-0.2321
G3 X141.0007 Y30.9698 Z-0.2322 I1.2199 J-0.2726
G1 X140.9811 Y30.8457 Z-0.2323
G3 X140.9714 Y30.769 Z-0.2324 I1.2347 J-0.195
G1 X140.9595 Y30.644 Z-0.2326
G3 X140.9545 Y30.5644 Z-0.2327 I1.2444 J-0.1184
G1 X140.9506 Y30.4388 Z-0.2328
G3 Y30.3612 Z-0.2329 I1.2494 J-0.0388
G1 X140.9545 Y30.2356 Z-0.2331
G3 X140.9595 Y30.156 Z-0.2332 I1.2494 J0.0388
G1 X140.9714 Y30.031 Z-0.2334
G3 X140.9811 Y29.9543 I1.2444 J0.1184
G1 X141.0007 Y29.8302 Z-0.2336
G3 X141.0155 Y29.7526 Z-0.2337 I1.2347 J0.195
G1 X141.0429 Y29.63 Z-0.2339
G3 X141.0626 Y29.5534 Z-0.234 I1.2199 J0.2726
G1 X141.0977 Y29.4328 Z-0.2341
G3 X141.1216 Y29.3591 Z-0.2342 I1.2002 J0.3492
G1 X141.1641 Y29.2409 Z-0.2344
G3 X141.1932 Y29.1673 Z-0.2345 I1.1763 J0.4229
G1 X141.2431 Y29.052 Z-0.2346
G3 X141.2768 Y28.9805 Z-0.2347 I1.1472 J0.4964
G1 X141.3339 Y28.8685 Z-0.2349
G3 X141.3712 Y28.8006 Z-0.235 I1.1135 J0.568
G1 X141.4351 Y28.6924 Z-0.2351
G3 X141.4778 Y28.6252 Z-0.2352 I1.0762 J0.6359
G1 X141.5485 Y28.5213 Z-0.2354
G3 X141.5943 Y28.4584 Z-0.2355 I1.0335 J0.7031
G1 X141.65 Y28.3865 Z-0.2356
G1 Y24.65 Z-0.2402
G1 X136.4135 Z-0.2467
G1 X136.3421 Y24.7054 Z-0.2469
G3 X136.2788 Y24.7514 Z-0.247 I-0.7665 J-0.9874
G1 X136.1749 Y24.8221 Z-0.2471
G3 X136.1073 Y24.865 Z-0.2472 I-0.7032 J-1.0334
G1 X135.9991 Y24.9289 Z-0.2474
G3 X135.9317 Y24.966 Z-0.2475 I-0.6356 J-1.0763
G1 X135.8198 Y25.0231 Z-0.2476
G3 X135.7477 Y25.057 Z-0.2477 I-0.5682 J-1.1134
G1 X135.6323 Y25.1069 Z-0.2479
G3 X135.5591 Y25.1359 Z-0.248 I-0.4961 J-1.1473
G1 X135.4409 Y25.1784 Z-0.2481
G3 X135.3673 Y25.2023 Z-0.2482 I-0.4229 J-1.1763
G1 X135.2467 Y25.2374 Z-0.2484
G3 X135.17 Y25.2571 Z-0.2485 I-0.3493 J-1.2002
G1 X135.0474 Y25.2845 Z-0.2486
G3 X134.9698 Y25.2993 Z-0.2487 I-0.2726 J-1.2199
G1 X134.8457 Y25.3189 Z-0.2489
G3 X134.7691 Y25.3286 Z-0.249 I-0.195 J-1.2347
G1 X134.644 Y25.3405 Z-0.2491
G3 X134.5644 Y25.3455 Z-0.2492 I-0.1184 J-1.2444
G1 X134.4388 Y25.3494 Z-0.2494
G3 X134.3612 Z-0.2495 I-0.0388 J-1.2494
G1 X134.2356 Y25.3455 Z-0.2496
G3 X134.156 Y25.3405 Z-0.2497 I0.0388 J-1.2494
G1 X134.0309 Y25.3286 Z-0.2499
G3 X133.9543 Y25.3189 Z-0.25 I0.1184 J-1.2444
G1 X133.8302 Y25.2993 Z-0.2502
G3 X133.7526 Y25.2845 Z-0.2503 I0.195 J-1.2347
G1 X133.63 Y25.2571 Z-0.2504
G3 X133.5533 Y25.2374 Z-0.2505 I0.2726 J-1.2199
G1 X133.4327 Y25.2023 Z-0.2507
G3 X133.3594 Y25.1785 Z-0.2508 I0.3493 J-1.2002
G1 X133.2411 Y25.136 Z-0.2509
G3 X133.1672 Y25.1068 Z-0.251 I0.4226 J-1.1764
G1 X133.0519 Y25.0569 Z-0.2512
G3 X132.9802 Y25.0231 Z-0.2513 I0.4965 J-1.1472
G1 X132.8683 Y24.966 Z-0.2514
G3 X132.8009 Y24.9289 Z-0.2515 I0.5682 J-1.1134
G1 X132.6927 Y24.865 Z-0.2517
G3 X132.6251 Y24.8221 Z-0.2518 I0.6356 J-1.0763
G1 X132.5212 Y24.7514 Z-0.2519
G3 X132.4579 Y24.7054 Z-0.252 I0.7032 J-1.0334
G1 X132.3865 Y24.65 Z-0.2521
G1 X83.9135 Z-0.3124
G1 X83.8416 Y24.7057 Z-0.3125
G3 X83.7787 Y24.7515 Z-0.3126 I-0.7661 J-0.9877
G1 X83.6748 Y24.8222 Z-0.3128
G3 X83.6075 Y24.8649 Z-0.3129 I-0.7031 J-1.0335
G1 X83.4994 Y24.9288 Z-0.313
G3 X83.4315 Y24.9661 Z-0.3131 I-0.6359 J-1.0762
G1 X83.3195 Y25.0232 Z-0.3133
G3 X83.248 Y25.0569 Z-0.3134 I-0.568 J-1.1135
G1 X83.1327 Y25.1068 Z-0.3135
G3 X83.0591 Y25.1359 Z-0.3136 I-0.4964 J-1.1472
G1 X82.9409 Y25.1784 Z-0.3138
G3 X82.8672 Y25.2023 Z-0.3139 I-0.4229 J-1.1763
G1 X82.7465 Y25.2374 Z-0.314
G3 X82.67 Y25.2571 Z-0.3141 I-0.3492 J-1.2002
G1 X82.5474 Y25.2845 Z-0.3143
G3 X82.4698 Y25.2993 Z-0.3144 I-0.2726 J-1.2199
G1 X82.3457 Y25.3189 Z-0.3145
G3 X82.2691 Y25.3286 Z-0.3146 I-0.195 J-1.2347
G1 X82.144 Y25.3405 Z-0.3148
G3 X82.0644 Y25.3455 Z-0.3149 I-0.1184 J-1.2444
G1 X81.9388 Y25.3494 Z-0.315
G3 X81.8612 Z-0.3151 I-0.0388 J-1.2494
G1 X81.7356 Y25.3455 Z-0.3153
G3 X81.656 Y25.3405 Z-0.3154 I0.0388 J-1.2494
G1 X81.5309 Y25.3286 Z-0.3156
G3 X81.4543 Y25.3189 Z-0.3157 I0.1184 J-1.2444
G1 X81.3302 Y25.2993 Z-0.3158
G3 X81.2526 Y25.2845 Z-0.3159 I0.195 J-1.2347
G1 X81.13 Y25.2571 Z-0.3161
G3 X81.0535 Y25.2374 Z-0.3162 I0.2726 J-1.2199
G1 X80.9328 Y25.2023 Z-0.3163
G3 X80.8591 Y25.1784 Z-0.3164 I0.3492 J-1.2002
G1 X80.7409 Y25.1359 Z-0.3166
G3 X80.6673 Y25.1068 Z-0.3167 I0.4229 J-1.1763
G1 X80.552 Y25.0569 Z-0.3168
G3 X80.4805 Y25.0232 Z-0.3169 I0.4964 J-1.1472
G1 X80.3685 Y24.9661 Z-0.3171
G3 X80.3006 Y24.9288 Z-0.3172 I0.568 J-1.1135
G1 X80.1925 Y24.8649 Z-0.3173
G3 X80.1252 Y24.8222 Z-0.3174 I0.6359 J-1.0762
G1 X80.0213 Y24.7515 Z-0.3176
G3 X79.9584 Y24.7057 Z-0.3177 I0.7031 J-1.0335
G1 X79.8865 Y24.65 Z-0.3178
G1 X31.4135 Z-0.378
G1 X31.3421 Y24.7054 Z-0.3782
G3 X31.2788 Y24.7514 Z-0.3783 I-0.7665 J-0.9874
G1 X31.1749 Y24.8221 Z-0.3784
G3 X31.1073 Y24.865 Z-0.3785 I-0.7032 J-1.0334
G1 X30.9991 Y24.9289 Z-0.3787
G3 X30.9317 Y24.966 Z-0.3788 I-0.6356 J-1.0763
G1 X30.8198 Y25.0231 Z-0.3789
G3 X30.7481 Y25.0569 Z-0.379 I-0.5682 J-1.1134
G1 X30.6328 Y25.1068 Z-0.3792
G3 X30.5589 Y25.136 Z-0.3793 I-0.4965 J-1.1472
G1 X30.4406 Y25.1785 Z-0.3794
G3 X30.3673 Y25.2023 Z-0.3795 I-0.4226 J-1.1764
G1 X30.2467 Y25.2374 Z-0.3797
G3 X30.17 Y25.2571 Z-0.3798 I-0.3493 J-1.2002
G1 X30.0474 Y25.2845 Z-0.3799
G3 X29.9698 Y25.2993 Z-0.38 I-0.2726 J-1.2199
G1 X29.8457 Y25.3189 Z-0.3802
G3 X29.7691 Y25.3286 Z-0.3803 I-0.195 J-1.2347
G1 X29.644 Y25.3405 Z-0.3804
G3 X29.5644 Y25.3455 Z-0.3805 I-0.1184 J-1.2444
G1 X29.4388 Y25.3494 Z-0.3807
G3 X29.3612 Z-0.3808 I-0.0388 J-1.2494
G1 X29.2356 Y25.3455 Z-0.381
G3 X29.156 Y25.3405 Z-0.3811 I0.0388 J-1.2494
G1 X29.0309 Y25.3286 Z-0.3812
G3 X28.9543 Y25.3189 Z-0.3813 I0.1184 J-1.2444
G1 X28.8302 Y25.2993 Z-0.3815
G3 X28.7526 Y25.2845 Z-0.3816 I0.195 J-1.2347
G1 X28.63 Y25.2571 Z-0.3817
G3 X28.5533 Y25.2374 Z-0.3818 I0.2726 J-1.2199
G1 X28.4327 Y25.2023 Z-0.382
G3 X28.3591 Y25.1784 Z-0.3821 I0.3493 J-1.2002
G1 X28.2409 Y25.1359 Z-0.3822
G3 X28.1677 Y25.1069 Z-0.3823 I0.4229 J-1.1763
G1 X28.0523 Y25.057 Z-0.3825
G3 X27.9802 Y25.0231 Z-0.3826 I0.4961 J-1.1473
G1 X27.8683 Y24.966 Z-0.3827
G3 X27.8009 Y24.9289 Z-0.3828 I0.5682 J-1.1134
G1 X27.6927 Y24.865 Z-0.383
G3 X27.6251 Y24.8221 Z-0.3831 I0.6356 J-1.0763
G1 X27.5212 Y24.7514 Z-0.3832
G3 X27.4579 Y24.7054 Z-0.3833 I0.7032 J-1.0334
G1 X27.3865 Y24.65 Z-0.3834
G1 X22.15 Z-0.39
G1 Y28.3865 Z-0.3946
G1 X22.2057 Y28.4584 Z-0.3947
G3 X22.2515 Y28.5213 Z-0.3948 I-0.9877 J0.7661
G1 X22.3222 Y28.6252 Z-0.395
G3 X22.3649 Y28.6924 Z-0.3951 I-1.0335 J0.7031
G1 X22.4288 Y28.8006 Z-0.3952
G3 X22.4661 Y28.8685 Z-0.3953 I-1.0762 J0.6359
G1 X22.5232 Y28.9805 Z-0.3955
G3 X22.5569 Y29.052 Z-0.3956 I-1.1135 J0.568
G1 X22.6068 Y29.1673 Z-0.3957
G3 X22.6359 Y29.2409 Z-0.3958 I-1.1472 J0.4964
G1 X22.6784 Y29.3591 Z-0.396
G3 X22.7023 Y29.4328 Z-0.3961 I-1.1763 J0.4229
G1 X22.7374 Y29.5534 Z-0.3962
G3 X22.7571 Y29.63 Z-0.3963 I-1.2002 J0.3492
G1 X22.7845 Y29.7526 Z-0.3965
G3 X22.7993 Y29.8302 Z-0.3966 I-1.2199 J0.2726
G1 X22.8189 Y29.9543 Z-0.3967
G3 X22.8286 Y30.031 Z-0.3968 I-1.2347 J0.195
G1 X22.8405 Y30.156 Z-0.397
G3 X22.8455 Y30.2356 Z-0.3971 I-1.2444 J0.1184
G1 X22.8494 Y30.3612 Z-0.3973
G3 Y30.4388 I-1.2494 J0.0388
G1 X22.8455 Y30.5644 Z-0.3975
G3 X22.8405 Y30.644 Z-0.3976 I-1.2494 J-0.0388
G1 X22.8286 Y30.769 Z-0.3978
G3 X22.8189 Y30.8457 Z-0.3979 I-1.2444 J-0.1184
G1 X22.7993 Y30.9698 Z-0.398
G3 X22.7845 Y31.0474 Z-0.3981 I-1.2347 J-0.195
G1 X22.7571 Y31.17 Z-0.3983
G3 X22.7374 Y31.2466 Z-0.3984 I-1.2199 J-0.2726
G1 X22.7023 Y31.3672 Z-0.3985
G3 X22.6784 Y31.4409 Z-0.3986 I-1.2002 J-0.3492
G1 X22.6359 Y31.5591 Z-0.3988
G3 X22.6068 Y31.6327 Z-0.3989 I-1.1763 J-0.4229
G1 X22.5569 Y31.748 Z-0.399
G3 X22.5232 Y31.8195 Z-0.3991 I-1.1472 J-0.4964
G1 X22.4661 Y31.9315 Z-0.3993
G3 X22.4288 Y31.9994 Z-0.3994 I-1.1135 J-0.568
G1 X22.3649 Y32.1076 Z-0.3995
G3 X22.3222 Y32.1748 Z-0.3996 I-1.0762 J-0.6359
G1 X22.2515 Y32.2787 Z-0.3998
G3 X22.2057 Y32.3416 Z-0.3999 I-1.0335 J-0.7031
G1 X22.15 Y32.4135 Z-0.4
G1 Y41.8865 Z-0.4118
G1 X22.2057 Y41.9584 Z-0.4119
G3 X22.2515 Y42.0213 Z-0.412 I-0.9877 J0.7661
G1 X22.3222 Y42.1252 Z-0.4121
G3 X22.3649 Y42.1924 Z-0.4122 I-1.0335 J0.7031
G1 X22.4288 Y42.3006 Z-0.4124
G3 X22.4661 Y42.3685 Z-0.4125 I-1.0762 J0.6359
G1 X22.5232 Y42.4805 Z-0.4126
G3 X22.5569 Y42.552 Z-0.4127 I-1.1135 J0.568
G1 X22.6068 Y42.6673 Z-0.4129
G3 X22.6359 Y42.7409 Z-0.413 I-1.1472 J0.4964
G1 X22.6784 Y42.8591 Z-0.4132
G3 X22.7023 Y42.9328 Z-0.4133 I-1.1763 J0.4229
G1 X22.7374 Y43.0534 Z-0.4134
G3 X22.7571 Y43.13 Z-0.4135 I-1.2002 J0.3492
G1 X22.7845 Y43.2526 Z-0.4137
G3 X22.7993 Y43.3302 Z-0.4138 I-1.2199 J0.2726
G1 X22.8189 Y43.4543 Z-0.4139
G3 X22.8286 Y43.531 Z-0.414 I-1.2347 J0.195
G1 X22.8405 Y43.656 Z-0.4142
G3 X22.8455 Y43.7356 Z-0.4143 I-1.2444 J0.1184
G1 X22.8494 Y43.8612 Z-0.4144
G3 Y43.9388 Z-0.4145 I-1.2494 J0.0388
G1 X22.8455 Y44.0644 Z-0.4147
G3 X22.8405 Y44.144 Z-0.4148 I-1.2494 J-0.0388
G1 X22.8286 Y44.269 Z-0.4149
G3 X22.8189 Y44.3457 Z-0.415 I-1.2444 J-0.1184
G1 X22.7993 Y44.4698 Z-0.4152
G3 X22.7845 Y44.5474 Z-0.4153 I-1.2347 J-0.195
G1 X22.7571 Y44.67 Z-0.4154
G3 X22.7374 Y44.7466 Z-0.4155 I-1.2199 J-0.2726
G1 X22.7023 Y44.8672 Z-0.4157
G3 X22.6784 Y44.9409 Z-0.4158 I-1.2002 J-0.3492
G1 X22.6359 Y45.0591 Z-0.4159
G3 X22.6068 Y45.1327 Z-0.416 I-1.1763 J-0.4229
G1 X22.5569 Y45.248 Z-0.4162
G3 X22.5232 Y45.3195 Z-0.4163 I-1.1472 J-0.4964
G1 X22.4661 Y45.4315 Z-0.4165
G3 X22.4288 Y45.4994 Z-0.4166 I-1.1135 J-0.568
G1 X22.3649 Y45.6076 Z-0.4167
G3 X22.3222 Y45.6748 Z-0.4168 I-1.0762 J-0.6359
G1 X22.2515 Y45.7787 Z-0.417
G3 X22.2057 Y45.8416 Z-0.4171 I-1.0335 J-0.7031
G1 X22.15 Y45.9135 Z-0.4172
G1 Y55.3865 Z-0.4289
G1 X22.2054 Y55.4579 Z-0.4291
G3 X22.2514 Y55.5212 Z-0.4292 I-0.9874 J0.7665
G1 X22.3221 Y55.6251 Z-0.4293
G3 X22.365 Y55.6927 Z-0.4294 I-1.0334 J0.7032
G1 X22.4289 Y55.8009 Z-0.4296
G3 X22.466 Y55.8683 Z-0.4297 I-1.0763 J0.6356
G1 X22.5231 Y55.9802 Z-0.4298
G3 X22.557 Y56.0523 Z-0.4299 I-1.1134 J0.5682
G1 X22.6069 Y56.1677 Z-0.4301
G3 X22.6359 Y56.2409 Z-0.4302 I-1.1473 J0.4961
G1 X22.6784 Y56.3591 Z-0.4303
G3 X22.7023 Y56.4327 Z-0.4304 I-1.1763 J0.4229
G1 X22.7374 Y56.5533 Z-0.4306
G3 X22.7571 Y56.63 Z-0.4307 I-1.2002 J0.3493
G1 X22.7845 Y56.7526 Z-0.4308
G3 X22.7993 Y56.8302 Z-0.4309 I-1.2199 J0.2726
G1 X22.8189 Y56.9543 Z-0.4311
G3 X22.8286 Y57.0309 Z-0.4312 I-1.2347 J0.195
G1 X22.8405 Y57.156 Z-0.4313
G3 X22.8455 Y57.2356 Z-0.4314 I-1.2444 J0.1184
G1 X22.8494 Y57.3612 Z-0.4316
G3 Y57.4388 Z-0.4317 I-1.2494 J0.0388
G1 X22.8455 Y57.5644 Z-0.4319
G3 X22.8405 Y57.644 Z-0.432 I-1.2494 J-0.0388
G1 X22.8286 Y57.7691 Z-0.4321
G3 X22.8189 Y57.8457 Z-0.4322 I-1.2444 J-0.1184
G1 X22.7993 Y57.9698 Z-0.4324
G3 X22.7845 Y58.0474 Z-0.4325 I-1.2347 J-0.195
G1 X22.7571 Y58.17 Z-0.4326
G3 X22.7374 Y58.2467 Z-0.4327 I-1.2199 J-0.2726
G1 X22.7023 Y58.3673 Z-0.4329
G3 X22.6784 Y58.4409 Z-0.433 I-1.2002 J-0.3493
G1 X22.6359 Y58.5591 Z-0.4331
G3 X22.6069 Y58.6323 Z-0.4332 I-1.1763 J-0.4229
G1 X22.557 Y58.7477 Z-0.4334
G3 X22.5231 Y58.8198 Z-0.4335 I-1.1473 J-0.4961
G1 X22.466 Y58.9317 Z-0.4336
G3 X22.4289 Y58.9991 Z-0.4337 I-1.1134 J-0.5682
G1 X22.365 Y59.1073 Z-0.4339
G3 X22.3221 Y59.1749 Z-0.434 I-1.0763 J-0.6356
G1 X22.2514 Y59.2788 Z-0.4341
G3 X22.2054 Y59.3421 Z-0.4342 I-1.0334 J-0.7032
G1 X22.15 Y59.4135 Z-0.4343
G1 Y64.15 Z-0.4402
G1 X27.3865 Z-0.4467
G1 X27.4579 Y64.0946 Z-0.4469
G3 X27.5212 Y64.0486 Z-0.447 I0.7665 J0.9874
G1 X27.6251 Y63.9779 Z-0.4471
G3 X27.6927 Y63.935 Z-0.4472 I0.7032 J1.0334
G1 X27.8009 Y63.8711 Z-0.4474
G3 X27.8683 Y63.834 Z-0.4475 I0.6356 J1.0763
G1 X27.9802 Y63.7769 Z-0.4476
G3 X28.0523 Y63.743 Z-0.4477 I0.5682 J1.1134
G1 X28.1677 Y63.6931 Z-0.4479
G3 X28.2409 Y63.6641 Z-0.448 I0.4961 J1.1473
G1 X28.3591 Y63.6216 Z-0.4481
G3 X28.4327 Y63.5977 Z-0.4482 I0.4229 J1.1763
G1 X28.5533 Y63.5626 Z-0.4484
G3 X28.63 Y63.5429 Z-0.4485 I0.3493 J1.2002
G1 X28.7526 Y63.5155 Z-0.4486
G3 X28.8302 Y63.5007 Z-0.4487 I0.2726 J1.2199
G1 X28.9543 Y63.4811 Z-0.4489
G3 X29.0309 Y63.4714 Z-0.449 I0.195 J1.2347
G1 X29.156 Y63.4595 Z-0.4491
G3 X29.2356 Y63.4545 Z-0.4492 I0.1184 J1.2444
G1 X29.3612 Y63.4506 Z-0.4494
G3 X29.4388 Z-0.4495 I0.0388 J1.2494
G1 X29.5644 Y63.4545 Z-0.4496
G3 X29.644 Y63.4595 Z-0.4497 I-0.0388 J1.2494
G1 X29.7691 Y63.4714 Z-0.4499
G3 X29.8457 Y63.4811 Z-0.45 I-0.1184 J1.2444
G1 X29.9698 Y63.5007 Z-0.4502
G3 X30.0474 Y63.5155 Z-0.4503 I-0.195 J1.2347
G1 X30.17 Y63.5429 Z-0.4504
G3 X30.2467 Y63.5626 Z-0.4505 I-0.2726 J1.2199
G1 X30.3673 Y63.5977 Z-0.4507
G3 X30.4406 Y63.6215 Z-0.4508 I-0.3493 J1.2002
G1 X30.5589 Y63.664 Z-0.4509
G3 X30.6328 Y63.6932 Z-0.451 I-0.4226 J1.1764
G1 X30.7481 Y63.7431 Z-0.4512
G3 X30.8198 Y63.7769 Z-0.4513 I-0.4965 J1.1472
G1 X30.9317 Y63.834 Z-0.4514
G3 X30.9991 Y63.8711 Z-0.4515 I-0.5682 J1.1134
G1 X31.1073 Y63.935 Z-0.4517
G3 X31.1749 Y63.9779 Z-0.4518 I-0.6356 J1.0763
G1 X31.2788 Y64.0486 Z-0.4519
G3 X31.3421 Y64.0946 Z-0.452 I-0.7032 J1.0334
G1 X31.4135 Y64.15 Z-0.4521
G1 X79.8865 Z-0.5124
G1 X79.9584 Y64.0943 Z-0.5125
G3 X80.0213 Y64.0485 Z-0.5126 I0.7661 J0.9877
G1 X80.1252 Y63.9778 Z-0.5128
G3 X80.1925 Y63.9351 Z-0.5129 I0.7031 J1.0335
G1 X80.3006 Y63.8712 Z-0.513
G3 X80.3685 Y63.8339 Z-0.5131 I0.6359 J1.0762
G1 X80.4805 Y63.7768 Z-0.5133
G3 X80.552 Y63.7431 Z-0.5134 I0.568 J1.1135
G1 X80.6673 Y63.6932 Z-0.5135
G3 X80.7409 Y63.6641 Z-0.5136 I0.4964 J1.1472
G1 X80.8591 Y63.6216 Z-0.5138
G3 X80.9328 Y63.5977 Z-0.5139 I0.4229 J1.1763
G1 X81.0535 Y63.5626 Z-0.514
G3 X81.13 Y63.5429 Z-0.5141 I0.3492 J1.2002
G1 X81.2526 Y63.5155 Z-0.5143
G3 X81.3302 Y63.5007 Z-0.5144 I0.2726 J1.2199
G1 X81.4543 Y63.4811 Z-0.5145
G3 X81.5309 Y63.4714 Z-0.5146 I0.195 J1.2347
G1 X81.656 Y63.4595 Z-0.5148
G3 X81.7356 Y63.4545 Z-0.5149 I0.1184 J1.2444
G1 X81.8612 Y63.4506 Z-0.515
G3 X81.9388 Z-0.5151 I0.0388 J1.2494
G1 X82.0644 Y63.4545 Z-0.5153
G3 X82.144 Y63.4595 Z-0.5154 I-0.0388 J1.2494
G1 X82.2691 Y63.4714 Z-0.5156
G3 X82.3457 Y63.4811 Z-0.5157 I-0.1184 J1.2444
G1 X82.4698 Y63.5007 Z-0.5158
G3 X82.5474 Y63.5155 Z-0.5159 I-0.195 J1.2347
G1 X82.67 Y63.5429 Z-0.5161
G3 X82.7465 Y63.5626 Z-0.5162 I-0.2726 J1.2199
G1 X82.8672 Y63.5977 Z-0.5163
G3 X82.9409 Y63.6216 Z-0.5164 I-0.3492 J1.2002
G1 X83.0591 Y63.6641 Z-0.5166
G3 X83.1327 Y63.6932 Z-0.5167 I-0.4229 J1.1763
G1 X83.248 Y63.7431 Z-0.5168
G3 X83.3195 Y63.7768 Z-0.5169 I-0.4964 J1.1472
G1 X83.4315 Y63.8339 Z-0.5171
G3 X83.4994 Y63.8712 Z-0.5172 I-0.568 J1.1135
G1 X83.6075 Y63.9351 Z-0.5173
G3 X83.6748 Y63.9778 Z-0.5174 I-0.6359 J1.0762
G1 X83.7787 Y64.0485 Z-0.5176
G3 X83.8416 Y64.0943 Z-0.5177 I-0.7031 J1.0335
G1 X83.9135 Y64.15 Z-0.5178
G1 X132.3865 Z-0.578
G1 X132.4579 Y64.0946 Z-0.5782
G3 X132.5212 Y64.0486 Z-0.5783 I0.7665 J0.9874
G1 X132.6251 Y63.9779 Z-0.5784
G3 X132.6927 Y63.935 Z-0.5785 I0.7032 J1.0334
G1 X132.8009 Y63.8711 Z-0.5787
G3 X132.8683 Y63.834 Z-0.5788 I0.6356 J1.0763
G1 X132.9802 Y63.7769 Z-0.5789
G3 X133.0519 Y63.7431 Z-0.579 I0.5682 J1.1134
G1 X133.1672 Y63.6932 Z-0.5792
G3 X133.2411 Y63.664 Z-0.5793 I0.4965 J1.1472
G1 X133.3594 Y63.6215 Z-0.5794
G3 X133.4327 Y63.5977 Z-0.5795 I0.4226 J1.1764
G1 X133.5533 Y63.5626 Z-0.5797
G3 X133.63 Y63.5429 Z-0.5798 I0.3493 J1.2002
G1 X133.7526 Y63.5155 Z-0.5799
G3 X133.8302 Y63.5007 Z-0.58 I0.2726 J1.2199
G1 X133.9543 Y63.4811 Z-0.5802
G3 X134.0309 Y63.4714 Z-0.5803 I0.195 J1.2347
G1 X134.156 Y63.4595 Z-0.5804
G3 X134.2356 Y63.4545 Z-0.5805 I0.1184 J1.2444
G1 X134.3612 Y63.4506 Z-0.5807
G3 X134.4388 Z-0.5808 I0.0388 J1.2494
G1 X134.5644 Y63.4545 Z-0.581
G3 X134.644 Y63.4595 Z-0.5811 I-0.0388 J1.2494
G1 X134.7691 Y63.4714 Z-0.5812
G3 X134.8457 Y63.4811 Z-0.5813 I-0.1184 J1.2444
G1 X134.9698 Y63.5007 Z-0.5815
G3 X135.0474 Y63.5155 Z-0.5816 I-0.195 J1.2347
G1 X135.17 Y63.5429 Z-0.5817
G3 X135.2467 Y63.5626 Z-0.5818 I-0.2726 J1.2199
G1 X135.3673 Y63.5977 Z-0.582
G3 X135.4409 Y63.6216 Z-0.5821 I-0.3493 J1.2002
G1 X135.5591 Y63.6641 Z-0.5822
G3 X135.6323 Y63.6931 Z-0.5823 I-0.4229 J1.1763
G1 X135.7477 Y63.743 Z-0.5825
G3 X135.8198 Y63.7769 Z-0.5826 I-0.4961 J1.1473
G1 X135.9317 Y63.834 Z-0.5827
G3 X135.9991 Y63.8711 Z-0.5828 I-0.5682 J1.1134
G1 X136.1073 Y63.935 Z-0.583
G3 X136.1749 Y63.9779 Z-0.5831 I-0.6356 J1.0763
G1 X136.2788 Y64.0486 Z-0.5832
G3 X136.3421 Y64.0946 Z-0.5833 I-0.7032 J1.0334
G1 X136.4135 Y64.15 Z-0.5834
G1 X141.65 Z-0.59
G1 Y59.4135 Z-0.5958
G1 X141.5946 Y59.3421 Z-0.596
G3 X141.5486 Y59.2788 Z-0.5961 I0.9874 J-0.7665
G1 X141.4779 Y59.1749 Z-0.5962
G3 X141.435 Y59.1073 Z-0.5963 I1.0334 J-0.7032
G1 X141.3711 Y58.9991 Z-0.5965
G3 X141.334 Y58.9317 Z-0.5966 I1.0763 J-0.6356
G1 X141.2769 Y58.8198 Z-0.5967
G3 X141.243 Y58.7477 Z-0.5968 I1.1134 J-0.5682
G1 X141.1931 Y58.6323 Z-0.597
G3 X141.1641 Y58.5591 Z-0.5971 I1.1473 J-0.4961
G1 X141.1216 Y58.4409 Z-0.5972
G3 X141.0977 Y58.3673 Z-0.5973 I1.1763 J-0.4229
G1 X141.0626 Y58.2467 Z-0.5975
G3 X141.0429 Y58.17 Z-0.5976 I1.2002 J-0.3493
G1 X141.0155 Y58.0474 Z-0.5977
G3 X141.0007 Y57.9698 Z-0.5978 I1.2199 J-0.2726
G1 X140.9811 Y57.8457 Z-0.598
G3 X140.9714 Y57.7691 Z-0.5981 I1.2347 J-0.195
G1 X140.9595 Y57.644 Z-0.5982
G3 X140.9545 Y57.5644 Z-0.5983 I1.2444 J-0.1184
G1 X140.9506 Y57.4388 Z-0.5985
G3 Y57.3612 Z-0.5986 I1.2494 J-0.0388
G1 X140.9545 Y57.2356 Z-0.5987
G3 X140.9595 Y57.156 Z-0.5988 I1.2494 J0.0388
G1 X140.9714 Y57.0309 Z-0.599
G3 X140.9811 Y56.9543 Z-0.5991 I1.2444 J0.1184
G1 X141.0007 Y56.8302 Z-0.5993
G3 X141.0155 Y56.7526 Z-0.5994 I1.2347 J0.195
G1 X141.0429 Y56.63 Z-0.5995
G3 X141.0626 Y56.5533 Z-0.5996 I1.2199 J0.2726
G1 X141.0977 Y56.4327 Z-0.5998
G3 X141.1216 Y56.3591 Z-0.5999 I1.2002 J0.3493
G1 X141.1641 Y56.2409 Z-0.6
G3 X141.1931 Y56.1677 Z-0.6001 I1.1763 J0.4229
G1 X141.243 Y56.0523 Z-0.6003
G3 X141.2769 Y55.9802 Z-0.6004 I1.1473 J0.4961
G1 X141.334 Y55.8683 Z-0.6005
G3 X141.3711 Y55.8009 Z-0.6006 I1.1134 J0.5682
G1 X141.435 Y55.6927 Z-0.6008
G3 X141.4779 Y55.6251 Z-0.6009 I1.0763 J0.6356
G1 X141.5486 Y55.5212 Z-0.601
G3 X141.5946 Y55.4579 Z-0.6011 I1.0334 J0.7032
G1 X141.65 Y55.3865 Z-0.6012
G1 Y45.9135 Z-0.613
G1 X141.5943 Y45.8416 Z-0.6131
G3 X141.5485 Y45.7787 Z-0.6132 I0.9877 J-0.7661
G1 X141.4778 Y45.6748 Z-0.6134
G3 X141.4351 Y45.6076 Z-0.6135 I1.0335 J-0.7031
G1 X141.3712 Y45.4994 Z-0.6136
G3 X141.3339 Y45.4315 Z-0.6137 I1.0762 J-0.6359
G1 X141.2768 Y45.3195 Z-0.6139
G3 X141.2431 Y45.248 Z-0.614 I1.1135 J-0.568
G1 X141.1932 Y45.1327 Z-0.6141
G3 X141.1641 Y45.0591 Z-0.6142 I1.1472 J-0.4964
G1 X141.1216 Y44.9409 Z-0.6144
G3 X141.0977 Y44.8672 Z-0.6145 I1.1763 J-0.4229
G1 X141.0626 Y44.7466 Z-0.6147
G3 X141.0429 Y44.67 Z-0.6148 I1.2002 J-0.3492
G1 X141.0155 Y44.5474 Z-0.6149
G3 X141.0007 Y44.4698 Z-0.615 I1.2199 J-0.2726
G1 X140.9811 Y44.3457 Z-0.6152
G3 X140.9714 Y44.269 Z-0.6153 I1.2347 J-0.195
G1 X140.9595 Y44.144 Z-0.6154
G3 X140.9545 Y44.0644 Z-0.6155 I1.2444 J-0.1184
G1 X140.9506 Y43.9388 Z-0.6157
G3 Y43.8612 Z-0.6158 I1.2494 J-0.0388
G1 X140.9545 Y43.7356 Z-0.6159
G3 X140.9595 Y43.656 Z-0.616 I1.2494 J0.0388
G1 X140.9714 Y43.531 Z-0.6162
G3 X140.9811 Y43.4543 Z-0.6163 I1.2444 J0.1184
G1 X141.0007 Y43.3302 Z-0.6164
G3 X141.0155 Y43.2526 Z-0.6165 I1.2347 J0.195
G1 X141.0429 Y43.13 Z-0.6167
G3 X141.0626 Y43.0534 Z-0.6168 I1.2199 J0.2726
G1 X141.0977 Y42.9328 Z-0.6169
G3 X141.1216 Y42.8591 Z-0.617 I1.2002 J0.3492
G1 X141.1641 Y42.7409 Z-0.6172
G3 X141.1932 Y42.6673 Z-0.6173 I1.1763 J0.4229
G1 X141.2431 Y42.552 Z-0.6174
G3 X141.2768 Y42.4805 Z-0.6175 I1.1472 J0.4964
G1 X141.3339 Y42.3685 Z-0.6177
G3 X141.3712 Y42.3006 Z-0.6178 I1.1135 J0.568
G1 X141.4351 Y42.1924 Z-0.618
G3 X141.4778 Y42.1252 Z-0.6181 I1.0762 J0.6359
G1 X141.5485 Y42.0213 Z-0.6182
G3 X141.5943 Y41.9584 Z-0.6183 I1.0335 J0.7031
G1 X141.65 Y41.8865 Z-0.6184
G1 Y32.4135 Z-0.6302
G1 X141.5943 Y32.3416 Z-0.6303
G3 X141.5485 Y32.2787 Z-0.6304 I0.9877 J-0.7661
G1 X141.4778 Y32.1748 Z-0.6306
G3 X141.4351 Y32.1076 Z-0.6307 I1.0335 J-0.7031
G1 X141.3712 Y31.9994 Z-0.6308
G3 X141.3339 Y31.9315 Z-0.6309 I1.0762 J-0.6359
G1 X141.2768 Y31.8195 Z-0.6311
G3 X141.2431 Y31.748 Z-0.6312 I1.1135 J-0.568
G1 X141.1932 Y31.6327 Z-0.6313
G3 X141.1641 Y31.5591 Z-0.6314 I1.1472 J-0.4964
G1 X141.1216 Y31.4409 Z-0.6316
G3 X141.0977 Y31.3672 Z-0.6317 I1.1763 J-0.4229
G1 X141.0626 Y31.2466 Z-0.6318
G3 X141.0429 Y31.17 Z-0.6319 I1.2002 J-0.3492
G1 X141.0155 Y31.0474 Z-0.6321
G3 X141.0007 Y30.9698 Z-0.6322 I1.2199 J-0.2726
G1 X140.9811 Y30.8457 Z-0.6323
G3 X140.9714 Y30.769 Z-0.6324 I1.2347 J-0.195
G1 X140.9595 Y30.644 Z-0.6326
G3 X140.9545 Y30.5644 Z-0.6327 I1.2444 J-0.1184
G1 X140.9506 Y30.4388 Z-0.6328
G3 Y30.3612 Z-0.6329 I1.2494 J-0.0388
G1 X140.9545 Y30.2356 Z-0.6331
G3 X140.9595 Y30.156 Z-0.6332 I1.2494 J0.0388
G1 X140.9714 Y30.031 Z-0.6334
G3 X140.9811 Y29.9543 I1.2444 J0.1184
G1 X141.0007 Y29.8302 Z-0.6336
G3 X141.0155 Y29.7526 Z-0.6337 I1.2347 J0.195
G1 X141.0429 Y29.63 Z-0.6339
G3 X141.0626 Y29.5534 Z-0.634 I1.2199 J0.2726
G1 X141.0977 Y29.4328 Z-0.6341
G3 X141.1216 Y29.3591 Z-0.6342 I1.2002 J0.3492
G1 X141.1641 Y29.2409 Z-0.6344
G3 X141.1932 Y29.1673 Z-0.6345 I1.1763 J0.4229
G1 X141.2431 Y29.052 Z-0.6346
G3 X141.2768 Y28.9805 Z-0.6347 I1.1472 J0.4964
G1 X141.3339 Y28.8685 Z-0.6349
G3 X141.3712 Y28.8006 Z-0.635 I1.1135 J0.568
G1 X141.4351 Y28.6924 Z-0.6351
G3 X141.4778 Y28.6252 Z-0.6352 I1.0762 J0.6359
G1 X141.5485 Y28.5213 Z-0.6354
G3 X141.5943 Y28.4584 Z-0.6355 I1.0335 J0.7031
G1 X141.65 Y28.3865 Z-0.6356
G1 Y24.65 Z-0.6402
G1 X136.4135 Z-0.6467
G1 X136.3421 Y24.7054 Z-0.6469
G3 X136.2788 Y24.7514 Z-0.647 I-0.7665 J-0.9874
G1 X136.1749 Y24.8221 Z-0.6471
G3 X136.1073 Y24.865 Z-0.6472 I-0.7032 J-1.0334
G1 X135.9991 Y24.9289 Z-0.6474
G3 X135.9317 Y24.966 Z-0.6475 I-0.6356 J-1.0763
G1 X135.8198 Y25.0231 Z-0.6476
G3 X135.7477 Y25.057 Z-0.6477 I-0.5682 J-1.1134
G1 X135.6323 Y25.1069 Z-0.6479
G3 X135.5591 Y25.1359 Z-0.648 I-0.4961 J-1.1473
G1 X135.4409 Y25.1784 Z-0.6481
G3 X135.3673 Y25.2023 Z-0.6482 I-0.4229 J-1.1763
G1 X135.2467 Y25.2374 Z-0.6484
G3 X135.17 Y25.2571 Z-0.6485 I-0.3493 J-1.2002
G1 X135.0474 Y25.2845 Z-0.6486
G3 X134.9698 Y25.2993 Z-0.6487 I-0.2726 J-1.2199
G1 X134.8457 Y25.3189 Z-0.6489
G3 X134.7691 Y25.3286 Z-0.649 I-0.195 J-1.2347
G1 X134.644 Y25.3405 Z-0.6491
G3 X134.5644 Y25.3455 Z-0.6492 I-0.1184 J-1.2444
G1 X134.4388 Y25.3494 Z-0.6494
G3 X134.3612 Z-0.6495 I-0.0388 J-1.2494
G1 X134.2356 Y25.3455 Z-0.6496
G3 X134.156 Y25.3405 Z-0.6497 I0.0388 J-1.2494
G1 X134.0309 Y25.3286 Z-0.6499
G3 X133.9543 Y25.3189 Z-0.65 I0.1184 J-1.2444
G1 X133.8302 Y25.2993 Z-0.6502
G3 X133.7526 Y25.2845 Z-0.6503 I0.195 J-1.2347
G1 X133.63 Y25.2571 Z-0.6504
G3 X133.5533 Y25.2374 Z-0.6505 I0.2726 J-1.2199
G1 X133.4327 Y25.2023 Z-0.6507
G3 X133.3594 Y25.1785 Z-0.6508 I0.3493 J-1.2002
G1 X133.2411 Y25.136 Z-0.6509
G3 X133.1672 Y25.1068 Z-0.651 I0.4226 J-1.1764
G1 X133.0519 Y25.0569 Z-0.6512
G3 X132.9802 Y25.0231 Z-0.6513 I0.4965 J-1.1472
G1 X132.8683 Y24.966 Z-0.6514
G3 X132.8009 Y24.9289 Z-0.6515 I0.5682 J-1.1134
G1 X132.6927 Y24.865 Z-0.6517
G3 X132.6251 Y24.8221 Z-0.6518 I0.6356 J-1.0763
G1 X132.5212 Y24.7514 Z-0.6519
G3 X132.4579 Y24.7054 Z-0.652 I0.7032 J-1.0334
G1 X132.3865 Y24.65 Z-0.6521
G1 X83.9135 Z-0.7124
G1 X83.8416 Y24.7057 Z-0.7125
G3 X83.7787 Y24.7515 Z-0.7126 I-0.7661 J-0.9877
G1 X83.6748 Y24.8222 Z-0.7128
G3 X83.6075 Y24.8649 Z-0.7129 I-0.7031 J-1.0335
G1 X83.4994 Y24.9288 Z-0.713
G3 X83.4315 Y24.9661 Z-0.7131 I-0.6359 J-1.0762
G1 X83.3195 Y25.0232 Z-0.7133
G3 X83.248 Y25.0569 Z-0.7134 I-0.568 J-1.1135
G1 X83.1327 Y25.1068 Z-0.7135
G3 X83.0591 Y25.1359 Z-0.7136 I-0.4964 J-1.1472
G1 X82.9409 Y25.1784 Z-0.7138
G3 X82.8672 Y25.2023 Z-0.7139 I-0.4229 J-1.1763
G1 X82.7465 Y25.2374 Z-0.714
G3 X82.67 Y25.2571 Z-0.7141 I-0.3492 J-1.2002
G1 X82.5474 Y25.2845 Z-0.7143
G3 X82.4698 Y25.2993 Z-0.7144 I-0.2726 J-1.2199
G1 X82.3457 Y25.3189 Z-0.7145
G3 X82.2691 Y25.3286 Z-0.7146 I-0.195 J-1.2347
G1 X82.144 Y25.3405 Z-0.7148
G3 X82.0644 Y25.3455 Z-0.7149 I-0.1184 J-1.2444
G1 X81.9388 Y25.3494 Z-0.715
G3 X81.8612 Z-0.7151 I-0.0388 J-1.2494
G1 X81.7356 Y25.3455 Z-0.7153
G3 X81.656 Y25.3405 Z-0.7154 I0.0388 J-1.2494
G1 X81.5309 Y25.3286 Z-0.7156
G3 X81.4543 Y25.3189 Z-0.7157 I0.1184 J-1.2444
G1 X81.3302 Y25.2993 Z-0.7158
G3 X81.2526 Y25.2845 Z-0.7159 I0.195 J-1.2347
G1 X81.13 Y25.2571 Z-0.7161
G3 X81.0535 Y25.2374 Z-0.7162 I0.2726 J-1.2199
G1 X80.9328 Y25.2023 Z-0.7163
G3 X80.8591 Y25.1784 Z-0.7164 I0.3492 J-1.2002
G1 X80.7409 Y25.1359 Z-0.7166
G3 X80.6673 Y25.1068 Z-0.7167 I0.4229 J-1.1763
G1 X80.552 Y25.0569 Z-0.7168
G3 X80.4805 Y25.0232 Z-0.7169 I0.4964 J-1.1472
G1 X80.3685 Y24.9661 Z-0.7171
G3 X80.3006 Y24.9288 Z-0.7172 I0.568 J-1.1135
G1 X80.1925 Y24.8649 Z-0.7173
G3 X80.1252 Y24.8222 Z-0.7174 I0.6359 J-1.0762
G1 X80.0213 Y24.7515 Z-0.7176
G3 X79.9584 Y24.7057 Z-0.7177 I0.7031 J-1.0335
G1 X79.8865 Y24.65 Z-0.7178
G1 X31.4135 Z-0.778
G1 X31.3421 Y24.7054 Z-0.7782
G3 X31.2788 Y24.7514 Z-0.7783 I-0.7665 J-0.9874
G1 X31.1749 Y24.8221 Z-0.7784
G3 X31.1073 Y24.865 Z-0.7785 I-0.7032 J-1.0334
G1 X30.9991 Y24.9289 Z-0.7787
G3 X30.9317 Y24.966 Z-0.7788 I-0.6356 J-1.0763
G1 X30.8198 Y25.0231 Z-0.7789
G3 X30.7481 Y25.0569 Z-0.779 I-0.5682 J-1.1134
G1 X30.6328 Y25.1068 Z-0.7792
G3 X30.5589 Y25.136 Z-0.7793 I-0.4965 J-1.1472
G1 X30.4406 Y25.1785 Z-0.7794
G3 X30.3673 Y25.2023 Z-0.7795 I-0.4226 J-1.1764
G1 X30.2467 Y25.2374 Z-0.7797
G3 X30.17 Y25.2571 Z-0.7798 I-0.3493 J-1.2002
G1 X30.0474 Y25.2845 Z-0.7799
G3 X29.9698 Y25.2993 Z-0.78 I-0.2726 J-1.2199
G1 X29.8457 Y25.3189 Z-0.7802
G3 X29.7691 Y25.3286 Z-0.7803 I-0.195 J-1.2347
G1 X29.644 Y25.3405 Z-0.7804
G3 X29.5644 Y25.3455 Z-0.7805 I-0.1184 J-1.2444
G1 X29.4388 Y25.3494 Z-0.7807
G3 X29.3612 Z-0.7808 I-0.0388 J-1.2494
G1 X29.2356 Y25.3455 Z-0.781
G3 X29.156 Y25.3405 Z-0.7811 I0.0388 J-1.2494
G1 X29.0309 Y25.3286 Z-0.7812
G3 X28.9543 Y25.3189 Z-0.7813 I0.1184 J-1.2444
G1 X28.8302 Y25.2993 Z-0.7815
G3 X28.7526 Y25.2845 Z-0.7816 I0.195 J-1.2347
G1 X28.63 Y25.2571 Z-0.7817
G3 X28.5533 Y25.2374 Z-0.7818 I0.2726 J-1.2199
G1 X28.4327 Y25.2023 Z-0.782
G3 X28.3591 Y25.1784 Z-0.7821 I0.3493 J-1.2002
G1 X28.2409 Y25.1359 Z-0.7822
G3 X28.1677 Y25.1069 Z-0.7823 I0.4229 J-1.1763
G1 X28.0523 Y25.057 Z-0.7825
G3 X27.9802 Y25.0231 Z-0.7826 I0.4961 J-1.1473
G1 X27.8683 Y24.966 Z-0.7827
G3 X27.8009 Y24.9289 Z-0.7828 I0.5682 J-1.1134
G1 X27.6927 Y24.865 Z-0.783
G3 X27.6251 Y24.8221 Z-0.7831 I0.6356 J-1.0763
G1 X27.5212 Y24.7514 Z-0.7832
G3 X27.4579 Y24.7054 Z-0.7833 I0.7032 J-1.0334
G1 X27.3865 Y24.65 Z-0.7834
G1 X22.15 Z-0.79
G1 Y28.3865 Z-0.7946
G1 X22.2057 Y28.4584 Z-0.7947
G3 X22.2515 Y28.5213 Z-0.7948 I-0.9877 J0.7661
G1 X22.3222 Y28.6252 Z-0.795
G3 X22.3649 Y28.6924 Z-0.7951 I-1.0335 J0.7031
G1 X22.4288 Y28.8006 Z-0.7952
G3 X22.4661 Y28.8685 Z-0.7953 I-1.0762 J0.6359
G1 X22.5232 Y28.9805 Z-0.7955
G3 X22.5569 Y29.052 Z-0.7956 I-1.1135 J0.568
G1 X22.6068 Y29.1673 Z-0.7957
G3 X22.6359 Y29.2409 Z-0.7958 I-1.1472 J0.4964
G1 X22.6784 Y29.3591 Z-0.796
G3 X22.7023 Y29.4328 Z-0.7961 I-1.1763 J0.4229
G1 X22.7374 Y29.5534 Z-0.7962
G3 X22.7571 Y29.63 Z-0.7963 I-1.2002 J0.3492
G1 X22.7845 Y29.7526 Z-0.7965
G3 X22.7993 Y29.8302 Z-0.7966 I-1.2199 J0.2726
G1 X22.8189 Y29.9543 Z-0.7967
G3 X22.8286 Y30.031 Z-0.7968 I-1.2347 J0.195
G1 X22.8405 Y30.156 Z-0.797
G3 X22.8455 Y30.2356 Z-0.7971 I-1.2444 J0.1184
G1 X22.8494 Y30.3612 Z-0.7973
G3 Y30.4388 I-1.2494 J0.0388
G1 X22.8455 Y30.5644 Z-0.7975
G3 X22.8405 Y30.644 Z-0.7976 I-1.2494 J-0.0388
G1 X22.8286 Y30.769 Z-0.7978
G3 X22.8189 Y30.8457 Z-0.7979 I-1.2444 J-0.1184
G1 X22.7993 Y30.9698 Z-0.798
G3 X22.7845 Y31.0474 Z-0.7981 I-1.2347 J-0.195
G1 X22.7571 Y31.17 Z-0.7983
G3 X22.7374 Y31.2466 Z-0.7984 I-1.2199 J-0.2726
G1 X22.7023 Y31.3672 Z-0.7985
G3 X22.6784 Y31.4409 Z-0.7986 I-1.2002 J-0.3492
G1 X22.6359 Y31.5591 Z-0.7988
G3 X22.6068 Y31.6327 Z-0.7989 I-1.1763 J-0.4229
G1 X22.5569 Y31.748 Z-0.799
G3 X22.5232 Y31.8195 Z-0.7991 I-1.1472 J-0.4964
G1 X22.4661 Y31.9315 Z-0.7993
G3 X22.4288 Y31.9994 Z-0.7994 I-1.1135 J-0.568
G1 X22.3649 Y32.1076 Z-0.7995
G3 X22.3222 Y32.1748 Z-0.7996 I-1.0762 J-0.6359
G1 X22.2515 Y32.2787 Z-0.7998
G3 X22.2057 Y32.3416 Z-0.7999 I-1.0335 J-0.7031
G1 X22.15 Y32.4135 Z-0.8
G1 Y41.8865 Z-0.8118
G1 X22.2057 Y41.9584 Z-0.8119
G3 X22.2515 Y42.0213 Z-0.812 I-0.9877 J0.7661
G1 X22.3222 Y42.1252 Z-0.8121
G3 X22.3649 Y42.1924 Z-0.8122 I-1.0335 J0.7031
G1 X22.4288 Y42.3006 Z-0.8124
G3 X22.4661 Y42.3685 Z-0.8125 I-1.0762 J0.6359
G1 X22.5232 Y42.4805 Z-0.8126
G3 X22.5569 Y42.552 Z-0.8127 I-1.1135 J0.568
G1 X22.6068 Y42.6673 Z-0.8129
G3 X22.6359 Y42.7409 Z-0.813 I-1.1472 J0.4964
G1 X22.6784 Y42.8591 Z-0.8132
G3 X22.7023 Y42.9328 Z-0.8133 I-1.1763 J0.4229
G1 X22.7374 Y43.0534 Z-0.8134
G3 X22.7571 Y43.13 Z-0.8135 I-1.2002 J0.3492
G1 X22.7845 Y43.2526 Z-0.8137
G3 X22.7993 Y43.3302 Z-0.8138 I-1.2199 J0.2726
G1 X22.8189 Y43.4543 Z-0.8139
G3 X22.8286 Y43.531 Z-0.814 I-1.2347 J0.195
G1 X22.8405 Y43.656 Z-0.8142
G3 X22.8455 Y43.7356 Z-0.8143 I-1.2444 J0.1184
G1 X22.8494 Y43.8612 Z-0.8144
G3 Y43.9388 Z-0.8145 I-1.2494 J0.0388
G1 X22.8455 Y44.0644 Z-0.8147
G3 X22.8405 Y44.144 Z-0.8148 I-1.2494 J-0.0388
G1 X22.8286 Y44.269 Z-0.8149
G3 X22.8189 Y44.3457 Z-0.815 I-1.2444 J-0.1184
G1 X22.7993 Y44.4698 Z-0.8152
G3 X22.7845 Y44.5474 Z-0.8153 I-1.2347 J-0.195
G1 X22.7571 Y44.67 Z-0.8154
G3 X22.7374 Y44.7466 Z-0.8155 I-1.2199 J-0.2726
G1 X22.7023 Y44.8672 Z-0.8157
G3 X22.6784 Y44.9409 Z-0.8158 I-1.2002 J-0.3492
G1 X22.6359 Y45.0591 Z-0.8159
G3 X22.6068 Y45.1327 Z-0.816 I-1.1763 J-0.4229
G1 X22.5569 Y45.248 Z-0.8162
G3 X22.5232 Y45.3195 Z-0.8163 I-1.1472 J-0.4964
G1 X22.4661 Y45.4315 Z-0.8165
G3 X22.4288 Y45.4994 Z-0.8166 I-1.1135 J-0.568
G1 X22.3649 Y45.6076 Z-0.8167
G3 X22.3222 Y45.6748 Z-0.8168 I-1.0762 J-0.6359
G1 X22.2515 Y45.7787 Z-0.817
G3 X22.2057 Y45.8416 Z-0.8171 I-1.0335 J-0.7031
G1 X22.15 Y45.9135 Z-0.8172
G1 Y55.3865 Z-0.8289
G1 X22.2054 Y55.4579 Z-0.8291
G3 X22.2514 Y55.5212 Z-0.8292 I-0.9874 J0.7665
G1 X22.3221 Y55.6251 Z-0.8293
G3 X22.365 Y55.6927 Z-0.8294 I-1.0334 J0.7032
G1 X22.4289 Y55.8009 Z-0.8296
G3 X22.466 Y55.8683 Z-0.8297 I-1.0763 J0.6356
G1 X22.5231 Y55.9802 Z-0.8298
G3 X22.557 Y56.0523 Z-0.8299 I-1.1134 J0.5682
G1 X22.6069 Y56.1677 Z-0.8301
G3 X22.6359 Y56.2409 Z-0.8302 I-1.1473 J0.4961
G1 X22.6784 Y56.3591 Z-0.8303
G3 X22.7023 Y56.4327 Z-0.8304 I-1.1763 J0.4229
G1 X22.7374 Y56.5533 Z-0.8306
G3 X22.7571 Y56.63 Z-0.8307 I-1.2002 J0.3493
G1 X22.7845 Y56.7526 Z-0.8308
G3 X22.7993 Y56.8302 Z-0.8309 I-1.2199 J0.2726
G1 X22.8189 Y56.9543 Z-0.8311
G3 X22.8286 Y57.0309 Z-0.8312 I-1.2347 J0.195
G1 X22.8405 Y57.156 Z-0.8313
G3 X22.8455 Y57.2356 Z-0.8314 I-1.2444 J0.1184
G1 X22.8494 Y57.3612 Z-0.8316
G3 Y57.4388 Z-0.8317 I-1.2494 J0.0388
G1 X22.8455 Y57.5644 Z-0.8319
G3 X22.8405 Y57.644 Z-0.832 I-1.2494 J-0.0388
G1 X22.8286 Y57.7691 Z-0.8321
G3 X22.8189 Y57.8457 Z-0.8322 I-1.2444 J-0.1184
G1 X22.7993 Y57.9698 Z-0.8324
G3 X22.7845 Y58.0474 Z-0.8325 I-1.2347 J-0.195
G1 X22.7571 Y58.17 Z-0.8326
G3 X22.7374 Y58.2467 Z-0.8327 I-1.2199 J-0.2726
G1 X22.7023 Y58.3673 Z-0.8329
G3 X22.6784 Y58.4409 Z-0.833 I-1.2002 J-0.3493
G1 X22.6359 Y58.5591 Z-0.8331
G3 X22.6069 Y58.6323 Z-0.8332 I-1.1763 J-0.4229
G1 X22.557 Y58.7477 Z-0.8334
G3 X22.5231 Y58.8198 Z-0.8335 I-1.1473 J-0.4961
G1 X22.466 Y58.9317 Z-0.8336
G3 X22.4289 Y58.9991 Z-0.8337 I-1.1134 J-0.5682
G1 X22.365 Y59.1073 Z-0.8339
G3 X22.3221 Y59.1749 Z-0.834 I-1.0763 J-0.6356
G1 X22.2514 Y59.2788 Z-0.8341
G3 X22.2054 Y59.3421 Z-0.8342 I-1.0334 J-0.7032
G1 X22.15 Y59.4135 Z-0.8343
G1 Y64.15 Z-0.8402
G1 X27.3865 Z-0.8467
G1 X27.4579 Y64.0946 Z-0.8469
G3 X27.5212 Y64.0486 Z-0.847 I0.7665 J0.9874
G1 X27.6251 Y63.9779 Z-0.8471
G3 X27.6927 Y63.935 Z-0.8472 I0.7032 J1.0334
G1 X27.8009 Y63.8711 Z-0.8474
G3 X27.8683 Y63.834 Z-0.8475 I0.6356 J1.0763
G1 X27.9802 Y63.7769 Z-0.8476
G3 X28.0523 Y63.743 Z-0.8477 I0.5682 J1.1134
G1 X28.1677 Y63.6931 Z-0.8479
G3 X28.2409 Y63.6641 Z-0.848 I0.4961 J1.1473
G1 X28.3591 Y63.6216 Z-0.8481
G3 X28.4327 Y63.5977 Z-0.8482 I0.4229 J1.1763
G1 X28.5533 Y63.5626 Z-0.8484
G3 X28.63 Y63.5429 Z-0.8485 I0.3493 J1.2002
G1 X28.7526 Y63.5155 Z-0.8486
G3 X28.8302 Y63.5007 Z-0.8487 I0.2726 J1.2199
G1 X28.9543 Y63.4811 Z-0.8489
G3 X29.0309 Y63.4714 Z-0.849 I0.195 J1.2347
G1 X29.156 Y63.4595 Z-0.8491
G3 X29.2356 Y63.4545 Z-0.8492 I0.1184 J1.2444
G1 X29.3612 Y63.4506 Z-0.8494
G3 X29.4388 Z-0.8495 I0.0388 J1.2494
G1 X29.5644 Y63.4545 Z-0.8496
G3 X29.644 Y63.4595 Z-0.8497 I-0.0388 J1.2494
G1 X29.7691 Y63.4714 Z-0.8499
G3 X29.8457 Y63.4811 Z-0.85 I-0.1184 J1.2444
G1 X29.9698 Y63.5007 Z-0.8502
G3 X30.0474 Y63.5155 Z-0.8503 I-0.195 J1.2347
G1 X30.17 Y63.5429 Z-0.8504
G3 X30.2467 Y63.5626 Z-0.8505 I-0.2726 J1.2199
G1 X30.3673 Y63.5977 Z-0.8507
G3 X30.4406 Y63.6215 Z-0.8508 I-0.3493 J1.2002
G1 X30.5589 Y63.664 Z-0.8509
G3 X30.6328 Y63.6932 Z-0.851 I-0.4226 J1.1764
G1 X30.7481 Y63.7431 Z-0.8512
G3 X30.8198 Y63.7769 Z-0.8513 I-0.4965 J1.1472
G1 X30.9317 Y63.834 Z-0.8514
G3 X30.9991 Y63.8711 Z-0.8515 I-0.5682 J1.1134
G1 X31.1073 Y63.935 Z-0.8517
G3 X31.1749 Y63.9779 Z-0.8518 I-0.6356 J1.0763
G1 X31.2788 Y64.0486 Z-0.8519
G3 X31.3421 Y64.0946 Z-0.852 I-0.7032 J1.0334
G1 X31.4135 Y64.15 Z-0.8521
G1 X79.8865 Z-0.9124
G1 X79.9584 Y64.0943 Z-0.9125
G3 X80.0213 Y64.0485 Z-0.9126 I0.7661 J0.9877
G1 X80.1252 Y63.9778 Z-0.9128
G3 X80.1925 Y63.9351 Z-0.9129 I0.7031 J1.0335
G1 X80.3006 Y63.8712 Z-0.913
G3 X80.3685 Y63.8339 Z-0.9131 I0.6359 J1.0762
G1 X80.4805 Y63.7768 Z-0.9133
G3 X80.552 Y63.7431 Z-0.9134 I0.568 J1.1135
G1 X80.6673 Y63.6932 Z-0.9135
G3 X80.7409 Y63.6641 Z-0.9136 I0.4964 J1.1472
G1 X80.8591 Y63.6216 Z-0.9138
G3 X80.9328 Y63.5977 Z-0.9139 I0.4229 J1.1763
G1 X81.0535 Y63.5626 Z-0.914
G3 X81.13 Y63.5429 Z-0.9141 I0.3492 J1.2002
G1 X81.2526 Y63.5155 Z-0.9143
G3 X81.3302 Y63.5007 Z-0.9144 I0.2726 J1.2199
G1 X81.4543 Y63.4811 Z-0.9145
G3 X81.5309 Y63.4714 Z-0.9146 I0.195 J1.2347
G1 X81.656 Y63.4595 Z-0.9148
G3 X81.7356 Y63.4545 Z-0.9149 I0.1184 J1.2444
G1 X81.8612 Y63.4506 Z-0.915
G3 X81.9388 Z-0.9151 I0.0388 J1.2494
G1 X82.0644 Y63.4545 Z-0.9153
G3 X82.144 Y63.4595 Z-0.9154 I-0.0388 J1.2494
G1 X82.2691 Y63.4714 Z-0.9156
G3 X82.3457 Y63.4811 Z-0.9157 I-0.1184 J1.2444
G1 X82.4698 Y63.5007 Z-0.9158
G3 X82.5474 Y63.5155 Z-0.9159 I-0.195 J1.2347
G1 X82.67 Y63.5429 Z-0.9161
G3 X82.7465 Y63.5626 Z-0.9162 I-0.2726 J1.2199
G1 X82.8672 Y63.5977 Z-0.9163
G3 X82.9409 Y63.6216 Z-0.9164 I-0.3492 J1.2002
G1 X83.0591 Y63.6641 Z-0.9166
G3 X83.1327 Y63.6932 Z-0.9167 I-0.4229 J1.1763
G1 X83.248 Y63.7431 Z-0.9168
G3 X83.3195 Y63.7768 Z-0.9169 I-0.4964 J1.1472
G1 X83.4315 Y63.8339 Z-0.9171
G3 X83.4994 Y63.8712 Z-0.9172 I-0.568 J1.1135
G1 X83.6075 Y63.9351 Z-0.9173
G3 X83.6748 Y63.9778 Z-0.9174 I-0.6359 J1.0762
G1 X83.7787 Y64.0485 Z-0.9176
G3 X83.8416 Y64.0943 Z-0.9177 I-0.7031 J1.0335
G1 X83.9135 Y64.15 Z-0.9178
G1 X132.3865 Z-0.978
G1 X132.4579 Y64.0946 Z-0.9782
G3 X132.5212 Y64.0486 Z-0.9783 I0.7665 J0.9874
G1 X132.6251 Y63.9779 Z-0.9784
G3 X132.6927 Y63.935 Z-0.9785 I0.7032 J1.0334
G1 X132.8009 Y63.8711 Z-0.9787
G3 X132.8683 Y63.834 Z-0.9788 I0.6356 J1.0763
G1 X132.9802 Y63.7769 Z-0.9789
G3 X133.0519 Y63.7431 Z-0.979 I0.5682 J1.1134
G1 X133.1672 Y63.6932 Z-0.9792
G3 X133.2411 Y63.664 Z-0.9793 I0.4965 J1.1472
G1 X133.3594 Y63.6215 Z-0.9794
G3 X133.4327 Y63.5977 Z-0.9795 I0.4226 J1.1764
G1 X133.5533 Y63.5626 Z-0.9797
G3 X133.63 Y63.5429 Z-0.9798 I0.3493 J1.2002
G1 X133.7526 Y63.5155 Z-0.9799
G3 X133.8302 Y63.5007 Z-0.98 I0.2726 J1.2199
G1 X133.9543 Y63.4811 Z-0.9802
G3 X134.0309 Y63.4714 Z-0.9803 I0.195 J1.2347
G1 X134.156 Y63.4595 Z-0.9804
G3 X134.2356 Y63.4545 Z-0.9805 I0.1184 J1.2444
G1 X134.3612 Y63.4506 Z-0.9807
G3 X134.4388 Z-0.9808 I0.0388 J1.2494
G1 X134.5644 Y63.4545 Z-0.981
G3 X134.644 Y63.4595 Z-0.9811 I-0.0388 J1.2494
G1 X134.7691 Y63.4714 Z-0.9812
G3 X134.8457 Y63.4811 Z-0.9813 I-0.1184 J1.2444
G1 X134.9698 Y63.5007 Z-0.9815
G3 X135.0474 Y63.5155 Z-0.9816 I-0.195 J1.2347
G1 X135.17 Y63.5429 Z-0.9817
G3 X135.2467 Y63.5626 Z-0.9818 I-0.2726 J1.2199
G1 X135.3673 Y63.5977 Z-0.982
G3 X135.4409 Y63.6216 Z-0.9821 I-0.3493 J1.2002
G1 X135.5591 Y63.6641 Z-0.9822
G3 X135.6323 Y63.6931 Z-0.9823 I-0.4229 J1.1763
G1 X135.7477 Y63.743 Z-0.9825
G3 X135.8198 Y63.7769 Z-0.9826 I-0.4961 J1.1473
G1 X135.9317 Y63.834 Z-0.9827
G3 X135.9991 Y63.8711 Z-0.9828 I-0.5682 J1.1134
G1 X136.1073 Y63.935 Z-0.983
G3 X136.1749 Y63.9779 Z-0.9831 I-0.6356 J1.0763
G1 X136.2788 Y64.0486 Z-0.9832
G3 X136.3421 Y64.0946 Z-0.9833 I-0.7032 J1.0334
G1 X136.4135 Y64.15 Z-0.9834
G1 X141.65 Z-0.99
G1 Y59.4135 Z-0.9958
G1 X141.5946 Y59.3421 Z-0.996
G3 X141.5486 Y59.2788 Z-0.9961 I0.9874 J-0.7665
G1 X141.4779 Y59.1749 Z-0.9962
G3 X141.435 Y59.1073 Z-0.9963 I1.0334 J-0.7032
G1 X141.3711 Y58.9991 Z-0.9965
G3 X141.334 Y58.9317 Z-0.9966 I1.0763 J-0.6356
G1 X141.2769 Y58.8198 Z-0.9967
G3 X141.243 Y58.7477 Z-0.9968 I1.1134 J-0.5682
G1 X141.1931 Y58.6323 Z-0.997
G3 X141.1641 Y58.5591 Z-0.9971 I1.1473 J-0.4961
G1 X141.1216 Y58.4409 Z-0.9972
G3 X141.0977 Y58.3673 Z-0.9973 I1.1763 J-0.4229
G1 X141.0626 Y58.2467 Z-0.9975
G3 X141.0429 Y58.17 Z-0.9976 I1.2002 J-0.3493
G1 X141.0155 Y58.0474 Z-0.9977
G3 X141.0007 Y57.9698 Z-0.9978 I1.2199 J-0.2726
G1 X140.9811 Y57.8457 Z-0.998
G3 X140.9714 Y57.7691 Z-0.9981 I1.2347 J-0.195
G1 X140.9595 Y57.644 Z-0.9982
G3 X140.9545 Y57.5644 Z-0.9983 I1.2444 J-0.1184
G1 X140.9506 Y57.4388 Z-0.9985
G3 Y57.3612 Z-0.9986 I1.2494 J-0.0388
G1 X140.9545 Y57.2356 Z-0.9987
G3 X140.9595 Y57.156 Z-0.9988 I1.2494 J0.0388
G1 X140.9714 Y57.0309 Z-0.999
G3 X140.9811 Y56.9543 Z-0.9991 I1.2444 J0.1184
G1 X141.0007 Y56.8302 Z-0.9993
G3 X141.0155 Y56.7526 Z-0.9994 I1.2347 J0.195
G1 X141.0429 Y56.63 Z-0.9995
G3 X141.0626 Y56.5533 Z-0.9996 I1.2199 J0.2726
G1 X141.0977 Y56.4327 Z-0.9998
G3 X141.1216 Y56.3591 Z-0.9999 I1.2002 J0.3493
G1 X141.1641 Y56.2409 Z-1.0
G3 X141.1931 Y56.1677 Z-1.0001 I1.1763 J0.4229
G1 X141.243 Y56.0523 Z-1.0003
G3 X141.2769 Y55.9802 Z-1.0004 I1.1473 J0.4961
G1 X141.334 Y55.8683 Z-1.0005
G3 X141.3711 Y55.8009 Z-1.0006 I1.1134 J0.5682
G1 X141.435 Y55.6927 Z-1.0008
G3 X141.4779 Y55.6251 Z-1.0009 I1.0763 J0.6356
G1 X141.5486 Y55.5212 Z-1.001
G3 X141.5946 Y55.4579 Z-1.0011 I1.0334 J0.7032
G1 X141.65 Y55.3865 Z-1.0012
G1 Y45.9135 Z-1.013
G1 X141.5943 Y45.8416 Z-1.0131
G3 X141.5485 Y45.7787 Z-1.0132 I0.9877 J-0.7661
G1 X141.4778 Y45.6748 Z-1.0134
G3 X141.4351 Y45.6076 Z-1.0135 I1.0335 J-0.7031
G1 X141.3712 Y45.4994 Z-1.0136
G3 X141.3339 Y45.4315 Z-1.0137 I1.0762 J-0.6359
G1 X141.2768 Y45.3195 Z-1.0139
G3 X141.2431 Y45.248 Z-1.014 I1.1135 J-0.568
G1 X141.1932 Y45.1327 Z-1.0141
G3 X141.1641 Y45.0591 Z-1.0142 I1.1472 J-0.4964
G1 X141.1216 Y44.9409 Z-1.0144
G3 X141.0977 Y44.8672 Z-1.0145 I1.1763 J-0.4229
G1 X141.0626 Y44.7466 Z-1.0147
G3 X141.0429 Y44.67 Z-1.0148 I1.2002 J-0.3492
G1 X141.0155 Y44.5474 Z-1.0149
G3 X141.0007 Y44.4698 Z-1.015 I1.2199 J-0.2726
G1 X140.9811 Y44.3457 Z-1.0152
G3 X140.9714 Y44.269 Z-1.0153 I1.2347 J-0.195
G1 X140.9595 Y44.144 Z-1.0154
G3 X140.9545 Y44.0644 Z-1.0155 I1.2444 J-0.1184
G1 X140.9506 Y43.9388 Z-1.0157
G3 Y43.8612 Z-1.0158 I1.2494 J-0.0388
G1 X140.9545 Y43.7356 Z-1.0159
G3 X140.9595 Y43.656 Z-1.016 I1.2494 J0.0388
G1 X140.9714 Y43.531 Z-1.0162
G3 X140.9811 Y43.4543 Z-1.0163 I1.2444 J0.1184
G1 X141.0007 Y43.3302 Z-1.0164
G3 X141.0155 Y43.2526 Z-1.0165 I1.2347 J0.195
G1 X141.0429 Y43.13 Z-1.0167
G3 X141.0626 Y43.0534 Z-1.0168 I1.2199 J0.2726
G1 X141.0977 Y42.9328 Z-1.0169
G3 X141.1216 Y42.8591 Z-1.017 I1.2002 J0.3492
G1 X141.1641 Y42.7409 Z-1.0172
G3 X141.1932 Y42.6673 Z-1.0173 I1.1763 J0.4229
G1 X141.2431 Y42.552 Z-1.0174
G3 X141.2768 Y42.4805 Z-1.0175 I1.1472 J0.4964
G1 X141.3339 Y42.3685 Z-1.0177
G3 X141.3712 Y42.3006 Z-1.0178 I1.1135 J0.568
G1 X141.4351 Y42.1924 Z-1.018
G3 X141.4778 Y42.1252 Z-1.0181 I1.0762 J0.6359
G1 X141.5485 Y42.0213 Z-1.0182
G3 X141.5943 Y41.9584 Z-1.0183 I1.0335 J0.7031
G1 X141.65 Y41.8865 Z-1.0184
G1 Y32.4135 Z-1.0302
G1 X141.5943 Y32.3416 Z-1.0303
G3 X141.5485 Y32.2787 Z-1.0304 I0.9877 J-0.7661
G1 X141.4778 Y32.1748 Z-1.0306
G3 X141.4351 Y32.1076 Z-1.0307 I1.0335 J-0.7031
G1 X141.3712 Y31.9994 Z-1.0308
G3 X141.3339 Y31.9315 Z-1.0309 I1.0762 J-0.6359
G1 X141.2768 Y31.8195 Z-1.0311
G3 X141.2431 Y31.748 Z-1.0312 I1.1135 J-0.568
G1 X141.1932 Y31.6327 Z-1.0313
G3 X141.1641 Y31.5591 Z-1.0314 I1.1472 J-0.4964
G1 X141.1216 Y31.4409 Z-1.0316
G3 X141.0977 Y31.3672 Z-1.0317 I1.1763 J-0.4229
G1 X141.0626 Y31.2466 Z-1.0318
G3 X141.0429 Y31.17 Z-1.0319 I1.2002 J-0.3492
G1 X141.0155 Y31.0474 Z-1.0321
G3 X141.0007 Y30.9698 Z-1.0322 I1.2199 J-0.2726
G1 X140.9811 Y30.8457 Z-1.0323
G3 X140.9714 Y30.769 Z-1.0324 I1.2347 J-0.195
G1 X140.9595 Y30.644 Z-1.0326
G3 X140.9545 Y30.5644 Z-1.0327 I1.2444 J-0.1184
G1 X140.9506 Y30.4388 Z-1.0328
G3 Y30.3612 Z-1.0329 I1.2494 J-0.0388
G1 X140.9545 Y30.2356 Z-1.0331
G3 X140.9595 Y30.156 Z-1.0332 I1.2494 J0.0388
G1 X140.9714 Y30.031 Z-1.0334
G3 X140.9811 Y29.9543 I1.2444 J0.1184
G1 X141.0007 Y29.8302 Z-1.0336
G3 X141.0155 Y29.7526 Z-1.0337 I1.2347 J0.195
G1 X141.0429 Y29.63 Z-1.0339
G3 X141.0626 Y29.5534 Z-1.034 I1.2199 J0.2726
G1 X141.0977 Y29.4328 Z-1.0341
G3 X141.1216 Y29.3591 Z-1.0342 I1.2002 J0.3492
G1 X141.1641 Y29.2409 Z-1.0344
G3 X141.1932 Y29.1673 Z-1.0345 I1.1763 J0.4229
G1 X141.2431 Y29.052 Z-1.0346
G3 X141.2768 Y28.9805 Z-1.0347 I1.1472 J0.4964
G1 X141.3339 Y28.8685 Z-1.0349
G3 X141.3712 Y28.8006 Z-1.035 I1.1135 J0.568
G1 X141.4351 Y28.6924 Z-1.0351
G3 X141.4778 Y28.6252 Z-1.0352 I1.0762 J0.6359
G1 X141.5485 Y28.5213 Z-1.0354
G3 X141.5943 Y28.4584 Z-1.0355 I1.0335 J0.7031
G1 X141.65 Y28.3865 Z-1.0356
G1 Y24.65 Z-1.0402
G1 X136.4135 Z-1.0467
G1 X136.3421 Y24.7054 Z-1.0469
G3 X136.2788 Y24.7514 Z-1.047 I-0.7665 J-0.9874
G1 X136.1749 Y24.8221 Z-1.0471
G3 X136.1073 Y24.865 Z-1.0472 I-0.7032 J-1.0334
G1 X135.9991 Y24.9289 Z-1.0474
G3 X135.9317 Y24.966 Z-1.0475 I-0.6356 J-1.0763
G1 X135.8198 Y25.0231 Z-1.0476
G3 X135.7477 Y25.057 Z-1.0477 I-0.5682 J-1.1134
G1 X135.6323 Y25.1069 Z-1.0479
G3 X135.5591 Y25.1359 Z-1.048 I-0.4961 J-1.1473
G1 X135.4409 Y25.1784 Z-1.0481
G3 X135.3673 Y25.2023 Z-1.0482 I-0.4229 J-1.1763
G1 X135.2467 Y25.2374 Z-1.0484
G3 X135.17 Y25.2571 Z-1.0485 I-0.3493 J-1.2002
G1 X135.0474 Y25.2845 Z-1.0486
G3 X134.9698 Y25.2993 Z-1.0487 I-0.2726 J-1.2199
G1 X134.8457 Y25.3189 Z-1.0489
G3 X134.7691 Y25.3286 Z-1.049 I-0.195 J-1.2347
G1 X134.644 Y25.3405 Z-1.0491
G3 X134.5644 Y25.3455 Z-1.0492 I-0.1184 J-1.2444
G1 X134.4388 Y25.3494 Z-1.0494
G3 X134.3612 Z-1.0495 I-0.0388 J-1.2494
G1 X134.2356 Y25.3455 Z-1.0496
G3 X134.156 Y25.3405 Z-1.0497 I0.0388 J-1.2494
G1 X134.0309 Y25.3286 Z-1.0499
G3 X133.9543 Y25.3189 Z-1.05 I0.1184 J-1.2444
G1 X133.8302 Y25.2993 Z-1.0502
G3 X133.7526 Y25.2845 Z-1.0503 I0.195 J-1.2347
G1 X133.63 Y25.2571 Z-1.0504
G3 X133.5533 Y25.2374 Z-1.0505 I0.2726 J-1.2199
G1 X133.4327 Y25.2023 Z-1.0507
G3 X133.3594 Y25.1785 Z-1.0508 I0.3493 J-1.2002
G1 X133.2411 Y25.136 Z-1.0509
G3 X133.1672 Y25.1068 Z-1.051 I0.4226 J-1.1764
G1 X133.0519 Y25.0569 Z-1.0512
G3 X132.9802 Y25.0231 Z-1.0513 I0.4965 J-1.1472
G1 X132.8683 Y24.966 Z-1.0514
G3 X132.8009 Y24.9289 Z-1.0515 I0.5682 J-1.1134
G1 X132.6927 Y24.865 Z-1.0517
G3 X132.6251 Y24.8221 Z-1.0518 I0.6356 J-1.0763
G1 X132.5212 Y24.7514 Z-1.0519
G3 X132.4579 Y24.7054 Z-1.052 I0.7032 J-1.0334
G1 X132.3865 Y24.65 Z-1.0521
G1 X83.9135 Z-1.1124
G1 X83.8416 Y24.7057 Z-1.1125
G3 X83.7787 Y24.7515 Z-1.1126 I-0.7661 J-0.9877
G1 X83.6748 Y24.8222 Z-1.1128
G3 X83.6075 Y24.8649 Z-1.1129 I-0.7031 J-1.0335
G1 X83.4994 Y24.9288 Z-1.113
G3 X83.4315 Y24.9661 Z-1.1131 I-0.6359 J-1.0762
G1 X83.3195 Y25.0232 Z-1.1133
G3 X83.248 Y25.0569 Z-1.1134 I-0.568 J-1.1135
G1 X83.1327 Y25.1068 Z-1.1135
G3 X83.0591 Y25.1359 Z-1.1136 I-0.4964 J-1.1472
G1 X82.9409 Y25.1784 Z-1.1138
G3 X82.8672 Y25.2023 Z-1.1139 I-0.4229 J-1.1763
G1 X82.7465 Y25.2374 Z-1.114
G3 X82.67 Y25.2571 Z-1.1141 I-0.3492 J-1.2002
G1 X82.5474 Y25.2845 Z-1.1143
G3 X82.4698 Y25.2993 Z-1.1144 I-0.2726 J-1.2199
G1 X82.3457 Y25.3189 Z-1.1145
G3 X82.2691 Y25.3286 Z-1.1146 I-0.195 J-1.2347
G1 X82.144 Y25.3405 Z-1.1148
G3 X82.0644 Y25.3455 Z-1.1149 I-0.1184 J-1.2444
G1 X81.9388 Y25.3494 Z-1.115
G3 X81.8612 Z-1.1151 I-0.0388 J-1.2494
G1 X81.7356 Y25.3455 Z-1.1153
G3 X81.656 Y25.3405 Z-1.1154 I0.0388 J-1.2494
G1 X81.5309 Y25.3286 Z-1.1156
G3 X81.4543 Y25.3189 Z-1.1157 I0.1184 J-1.2444
G1 X81.3302 Y25.2993 Z-1.1158
G3 X81.2526 Y25.2845 Z-1.1159 I0.195 J-1.2347
G1 X81.13 Y25.2571 Z-1.1161
G3 X81.0535 Y25.2374 Z-1.1162 I0.2726 J-1.2199
G1 X80.9328 Y25.2023 Z-1.1163
G3 X80.8591 Y25.1784 Z-1.1164 I0.3492 J-1.2002
G1 X80.7409 Y25.1359 Z-1.1166
G3 X80.6673 Y25.1068 Z-1.1167 I0.4229 J-1.1763
G1 X80.552 Y25.0569 Z-1.1168
G3 X80.4805 Y25.0232 Z-1.1169 I0.4964 J-1.1472
G1 X80.3685 Y24.9661 Z-1.1171
G3 X80.3006 Y24.9288 Z-1.1172 I0.568 J-1.1135
G1 X80.1925 Y24.8649 Z-1.1173
G3 X80.1252 Y24.8222 Z-1.1174 I0.6359 J-1.0762
G1 X80.0213 Y24.7515 Z-1.1176
G3 X79.9584 Y24.7057 Z-1.1177 I0.7031 J-1.0335
G1 X79.8865 Y24.65 Z-1.1178
G1 X31.4135 Z-1.178
G1 X31.3421 Y24.7054 Z-1.1782
G3 X31.2788 Y24.7514 Z-1.1783 I-0.7665 J-0.9874
G1 X31.1749 Y24.8221 Z-1.1784
G3 X31.1073 Y24.865 Z-1.1785 I-0.7032 J-1.0334
G1 X30.9991 Y24.9289 Z-1.1787
G3 X30.9317 Y24.966 Z-1.1788 I-0.6356 J-1.0763
G1 X30.8198 Y25.0231 Z-1.1789
G3 X30.7481 Y25.0569 Z-1.179 I-0.5682 J-1.1134
G1 X30.6328 Y25.1068 Z-1.1792
G3 X30.5589 Y25.136 Z-1.1793 I-0.4965 J-1.1472
G1 X30.4406 Y25.1785 Z-1.1794
G3 X30.3673 Y25.2023 Z-1.1795 I-0.4226 J-1.1764
G1 X30.2467 Y25.2374 Z-1.1797
G3 X30.17 Y25.2571 Z-1.1798 I-0.3493 J-1.2002
G1 X30.0474 Y25.2845 Z-1.1799
G3 X29.9698 Y25.2993 Z-1.18 I-0.2726 J-1.2199
G1 X29.8457 Y25.3189 Z-1.1802
G3 X29.7691 Y25.3286 Z-1.1803 I-0.195 J-1.2347
G1 X29.644 Y25.3405 Z-1.1804
G3 X29.5644 Y25.3455 Z-1.1805 I-0.1184 J-1.2444
G1 X29.4388 Y25.3494 Z-1.1807
G3 X29.3612 Z-1.1808 I-0.0388 J-1.2494
G1 X29.2356 Y25.3455 Z-1.181
G3 X29.156 Y25.3405 Z-1.1811 I0.0388 J-1.2494
G1 X29.0309 Y25.3286 Z-1.1812
G3 X28.9543 Y25.3189 Z-1.1813 I0.1184 J-1.2444
G1 X28.8302 Y25.2993 Z-1.1815
G3 X28.7526 Y25.2845 Z-1.1816 I0.195 J-1.2347
G1 X28.63 Y25.2571 Z-1.1817
G3 X28.5533 Y25.2374 Z-1.1818 I0.2726 J-1.2199
G1 X28.4327 Y25.2023 Z-1.182
G3 X28.3591 Y25.1784 Z-1.1821 I0.3493 J-1.2002
G1 X28.2409 Y25.1359 Z-1.1822
G3 X28.1677 Y25.1069 Z-1.1823 I0.4229 J-1.1763
G1 X28.0523 Y25.057 Z-1.1825
G3 X27.9802 Y25.0231 Z-1.1826 I0.4961 J-1.1473
G1 X27.8683 Y24.966 Z-1.1827
G3 X27.8009 Y24.9289 Z-1.1828 I0.5682 J-1.1134
G1 X27.6927 Y24.865 Z-1.183
G3 X27.6251 Y24.8221 Z-1.1831 I0.6356 J-1.0763
G1 X27.5212 Y24.7514 Z-1.1832
G3 X27.4579 Y24.7054 Z-1.1833 I0.7032 J-1.0334
G1 X27.3865 Y24.65 Z-1.1834
G1 X22.15 Z-1.19
G1 Y28.3865 Z-1.1946
G1 X22.2057 Y28.4584 Z-1.1947
G3 X22.2515 Y28.5213 Z-1.1948 I-0.9877 J0.7661
G1 X22.3222 Y28.6252 Z-1.195
G3 X22.3649 Y28.6924 Z-1.1951 I-1.0335 J0.7031
G1 X22.4288 Y28.8006 Z-1.1952
G3 X22.4661 Y28.8685 Z-1.1953 I-1.0762 J0.6359
G1 X22.5232 Y28.9805 Z-1.1955
G3 X22.5569 Y29.052 Z-1.1956 I-1.1135 J0.568
G1 X22.6068 Y29.1673 Z-1.1957
G3 X22.6359 Y29.2409 Z-1.1958 I-1.1472 J0.4964
G1 X22.6784 Y29.3591 Z-1.196
G3 X22.7023 Y29.4328 Z-1.1961 I-1.1763 J0.4229
G1 X22.7374 Y29.5534 Z-1.1962
G3 X22.7571 Y29.63 Z-1.1963 I-1.2002 J0.3492
G1 X22.7845 Y29.7526 Z-1.1965
G3 X22.7993 Y29.8302 Z-1.1966 I-1.2199 J0.2726
G1 X22.8189 Y29.9543 Z-1.1967
G3 X22.8286 Y30.031 Z-1.1968 I-1.2347 J0.195
G1 X22.8405 Y30.156 Z-1.197
G3 X22.8455 Y30.2356 Z-1.1971 I-1.2444 J0.1184
G1 X22.8494 Y30.3612 Z-1.1973
G3 Y30.4388 I-1.2494 J0.0388
G1 X22.8455 Y30.5644 Z-1.1975
G3 X22.8405 Y30.644 Z-1.1976 I-1.2494 J-0.0388
G1 X22.8286 Y30.769 Z-1.1978
G3 X22.8189 Y30.8457 Z-1.1979 I-1.2444 J-0.1184
G1 X22.7993 Y30.9698 Z-1.198
G3 X22.7845 Y31.0474 Z-1.1981 I-1.2347 J-0.195
G1 X22.7571 Y31.17 Z-1.1983
G3 X22.7374 Y31.2466 Z-1.1984 I-1.2199 J-0.2726
G1 X22.7023 Y31.3672 Z-1.1985
G3 X22.6784 Y31.4409 Z-1.1986 I-1.2002 J-0.3492
G1 X22.6359 Y31.5591 Z-1.1988
G3 X22.6068 Y31.6327 Z-1.1989 I-1.1763 J-0.4229
G1 X22.5569 Y31.748 Z-1.199
G3 X22.5232 Y31.8195 Z-1.1991 I-1.1472 J-0.4964
G1 X22.4661 Y31.9315 Z-1.1993
G3 X22.4288 Y31.9994 Z-1.1994 I-1.1135 J-0.568
G1 X22.3649 Y32.1076 Z-1.1995
G3 X22.3222 Y32.1748 Z-1.1996 I-1.0762 J-0.6359
G1 X22.2515 Y32.2787 Z-1.1998
G3 X22.2057 Y32.3416 Z-1.1999 I-1.0335 J-0.7031
G1 X22.15 Y32.4135 Z-1.2
G1 Y41.8865 Z-1.2118
G1 X22.2057 Y41.9584 Z-1.2119
G3 X22.2515 Y42.0213 Z-1.212 I-0.9877 J0.7661
G1 X22.3222 Y42.1252 Z-1.2121
G3 X22.3649 Y42.1924 Z-1.2122 I-1.0335 J0.7031
G1 X22.4288 Y42.3006 Z-1.2124
G3 X22.4661 Y42.3685 Z-1.2125 I-1.0762 J0.6359
G1 X22.5232 Y42.4805 Z-1.2126
G3 X22.5569 Y42.552 Z-1.2127 I-1.1135 J0.568
G1 X22.6068 Y42.6673 Z-1.2129
G3 X22.6359 Y42.7409 Z-1.213 I-1.1472 J0.4964
G1 X22.6784 Y42.8591 Z-1.2132
G3 X22.7023 Y42.9328 Z-1.2133 I-1.1763 J0.4229
G1 X22.7374 Y43.0534 Z-1.2134
G3 X22.7571 Y43.13 Z-1.2135 I-1.2002 J0.3492
G1 X22.7845 Y43.2526 Z-1.2137
G3 X22.7993 Y43.3302 Z-1.2138 I-1.2199 J0.2726
G1 X22.8189 Y43.4543 Z-1.2139
G3 X22.8286 Y43.531 Z-1.214 I-1.2347 J0.195
G1 X22.8405 Y43.656 Z-1.2142
G3 X22.8455 Y43.7356 Z-1.2143 I-1.2444 J0.1184
G1 X22.8494 Y43.8612 Z-1.2144
G3 Y43.9388 Z-1.2145 I-1.2494 J0.0388
G1 X22.8455 Y44.0644 Z-1.2147
G3 X22.8405 Y44.144 Z-1.2148 I-1.2494 J-0.0388
G1 X22.8286 Y44.269 Z-1.2149
G3 X22.8189 Y44.3457 Z-1.215 I-1.2444 J-0.1184
G1 X22.7993 Y44.4698 Z-1.2152
G3 X22.7845 Y44.5474 Z-1.2153 I-1.2347 J-0.195
G1 X22.7571 Y44.67 Z-1.2154
G3 X22.7374 Y44.7466 Z-1.2155 I-1.2199 J-0.2726
G1 X22.7023 Y44.8672 Z-1.2157
G3 X22.6784 Y44.9409 Z-1.2158 I-1.2002 J-0.3492
G1 X22.6359 Y45.0591 Z-1.2159
G3 X22.6068 Y45.1327 Z-1.216 I-1.1763 J-0.4229
G1 X22.5569 Y45.248 Z-1.2162
G3 X22.5232 Y45.3195 Z-1.2163 I-1.1472 J-0.4964
G1 X22.4661 Y45.4315 Z-1.2165
G3 X22.4288 Y45.4994 Z-1.2166 I-1.1135 J-0.568
G1 X22.3649 Y45.6076 Z-1.2167
G3 X22.3222 Y45.6748 Z-1.2168 I-1.0762 J-0.6359
G1 X22.2515 Y45.7787 Z-1.217
G3 X22.2057 Y45.8416 Z-1.2171 I-1.0335 J-0.7031
G1 X22.15 Y45.9135 Z-1.2172
G1 Y55.3865 Z-1.2289
G1 X22.2054 Y55.4579 Z-1.2291
G3 X22.2514 Y55.5212 Z-1.2292 I-0.9874 J0.7665
G1 X22.3221 Y55.6251 Z-1.2293
G3 X22.365 Y55.6927 Z-1.2294 I-1.0334 J0.7032
G1 X22.4289 Y55.8009 Z-1.2296
G3 X22.466 Y55.8683 Z-1.2297 I-1.0763 J0.6356
G1 X22.5231 Y55.9802 Z-1.2298
G3 X22.557 Y56.0523 Z-1.2299 I-1.1134 J0.5682
G1 X22.6069 Y56.1677 Z-1.2301
G3 X22.6359 Y56.2409 Z-1.2302 I-1.1473 J0.4961
G1 X22.6784 Y56.3591 Z-1.2303
G3 X22.7023 Y56.4327 Z-1.2304 I-1.1763 J0.4229
G1 X22.7374 Y56.5533 Z-1.2306
G3 X22.7571 Y56.63 Z-1.2307 I-1.2002 J0.3493
G1 X22.7845 Y56.7526 Z-1.2308
G3 X22.7993 Y56.8302 Z-1.2309 I-1.2199 J0.2726
G1 X22.8189 Y56.9543 Z-1.2311
G3 X22.8286 Y57.0309 Z-1.2312 I-1.2347 J0.195
G1 X22.8405 Y57.156 Z-1.2313
G3 X22.8455 Y57.2356 Z-1.2314 I-1.2444 J0.1184
G1 X22.8494 Y57.3612 Z-1.2316
G3 Y57.4388 Z-1.2317 I-1.2494 J0.0388
G1 X22.8455 Y57.5644 Z-1.2319
G3 X22.8405 Y57.644 Z-1.232 I-1.2494 J-0.0388
G1 X22.8286 Y57.7691 Z-1.2321
G3 X22.8189 Y57.8457 Z-1.2322 I-1.2444 J-0.1184
G1 X22.7993 Y57.9698 Z-1.2324
G3 X22.7845 Y58.0474 Z-1.2325 I-1.2347 J-0.195
G1 X22.7571 Y58.17 Z-1.2326
G3 X22.7374 Y58.2467 Z-1.2327 I-1.2199 J-0.2726
G1 X22.7023 Y58.3673 Z-1.2329
G3 X22.6784 Y58.4409 Z-1.233 I-1.2002 J-0.3493
G1 X22.6359 Y58.5591 Z-1.2331
G3 X22.6069 Y58.6323 Z-1.2332 I-1.1763 J-0.4229
G1 X22.557 Y58.7477 Z-1.2334
G3 X22.5231 Y58.8198 Z-1.2335 I-1.1473 J-0.4961
G1 X22.466 Y58.9317 Z-1.2336
G3 X22.4289 Y58.9991 Z-1.2337 I-1.1134 J-0.5682
G1 X22.365 Y59.1073 Z-1.2339
G3 X22.3221 Y59.1749 Z-1.234 I-1.0763 J-0.6356
G1 X22.2514 Y59.2788 Z-1.2341
G3 X22.2054 Y59.3421 Z-1.2342 I-1.0334 J-0.7032
G1 X22.15 Y59.4135 Z-1.2343
G1 Y64.15 Z-1.2402
G1 X27.3865 Z-1.2467
G1 X27.4579 Y64.0946 Z-1.2469
G3 X27.5212 Y64.0486 Z-1.247 I0.7665 J0.9874
G1 X27.6251 Y63.9779 Z-1.2471
G3 X27.6927 Y63.935 Z-1.2472 I0.7032 J1.0334
G1 X27.8009 Y63.8711 Z-1.2474
G3 X27.8683 Y63.834 Z-1.2475 I0.6356 J1.0763
G1 X27.9802 Y63.7769 Z-1.2476
G3 X28.0523 Y63.743 Z-1.2477 I0.5682 J1.1134
G1 X28.1677 Y63.6931 Z-1.2479
G3 X28.2409 Y63.6641 Z-1.248 I0.4961 J1.1473
G1 X28.3591 Y63.6216 Z-1.2481
G3 X28.4327 Y63.5977 Z-1.2482 I0.4229 J1.1763
G1 X28.5533 Y63.5626 Z-1.2484
G3 X28.63 Y63.5429 Z-1.2485 I0.3493 J1.2002
G1 X28.7526 Y63.5155 Z-1.2486
G3 X28.8302 Y63.5007 Z-1.2487 I0.2726 J1.2199
G1 X28.9543 Y63.4811 Z-1.2489
G3 X29.0309 Y63.4714 Z-1.249 I0.195 J1.2347
G1 X29.156 Y63.4595 Z-1.2491
G3 X29.2356 Y63.4545 Z-1.2492 I0.1184 J1.2444
G1 X29.3612 Y63.4506 Z-1.2494
G3 X29.4388 Z-1.2495 I0.0388 J1.2494
G1 X29.5644 Y63.4545 Z-1.2496
G3 X29.644 Y63.4595 Z-1.2497 I-0.0388 J1.2494
G1 X29.7691 Y63.4714 Z-1.2499
G3 X29.8457 Y63.4811 Z-1.25 I-0.1184 J1.2444
G1 X29.9698 Y63.5007 Z-1.2502
G3 X30.0474 Y63.5155 Z-1.2503 I-0.195 J1.2347
G1 X30.17 Y63.5429 Z-1.2504
G3 X30.2467 Y63.5626 Z-1.2505 I-0.2726 J1.2199
G1 X30.3673 Y63.5977 Z-1.2507
G3 X30.4406 Y63.6215 Z-1.2508 I-0.3493 J1.2002
G1 X30.5589 Y63.664 Z-1.2509
G3 X30.6328 Y63.6932 Z-1.251 I-0.4226 J1.1764
G1 X30.7481 Y63.7431 Z-1.2512
G3 X30.8198 Y63.7769 Z-1.2513 I-0.4965 J1.1472
G1 X30.9317 Y63.834 Z-1.2514
G3 X30.9991 Y63.8711 Z-1.2515 I-0.5682 J1.1134
G1 X31.1073 Y63.935 Z-1.2517
G3 X31.1749 Y63.9779 Z-1.2518 I-0.6356 J1.0763
G1 X31.2788 Y64.0486 Z-1.2519
G3 X31.3421 Y64.0946 Z-1.252 I-0.7032 J1.0334
G1 X31.4135 Y64.15 Z-1.2521
G1 X79.8865 Z-1.3124
G1 X79.9584 Y64.0943 Z-1.3125
G3 X80.0213 Y64.0485 Z-1.3126 I0.7661 J0.9877
G1 X80.1252 Y63.9778 Z-1.3128
G3 X80.1925 Y63.9351 Z-1.3129 I0.7031 J1.0335
G1 X80.3006 Y63.8712 Z-1.313
G3 X80.3685 Y63.8339 Z-1.3131 I0.6359 J1.0762
G1 X80.4805 Y63.7768 Z-1.3133
G3 X80.552 Y63.7431 Z-1.3134 I0.568 J1.1135
G1 X80.6673 Y63.6932 Z-1.3135
G3 X80.7409 Y63.6641 Z-1.3136 I0.4964 J1.1472
G1 X80.8591 Y63.6216 Z-1.3138
G3 X80.9328 Y63.5977 Z-1.3139 I0.4229 J1.1763
G1 X81.0535 Y63.5626 Z-1.314
G3 X81.13 Y63.5429 Z-1.3141 I0.3492 J1.2002
G1 X81.2526 Y63.5155 Z-1.3143
G3 X81.3302 Y63.5007 Z-1.3144 I0.2726 J1.2199
G1 X81.4543 Y63.4811 Z-1.3145
G3 X81.5309 Y63.4714 Z-1.3146 I0.195 J1.2347
G1 X81.656 Y63.4595 Z-1.3148
G3 X81.7356 Y63.4545 Z-1.3149 I0.1184 J1.2444
G1 X81.8612 Y63.4506 Z-1.315
G3 X81.9388 Z-1.3151 I0.0388 J1.2494
G1 X82.0644 Y63.4545 Z-1.3153
G3 X82.144 Y63.4595 Z-1.3154 I-0.0388 J1.2494
G1 X82.2691 Y63.4714 Z-1.3156
G3 X82.3457 Y63.4811 Z-1.3157 I-0.1184 J1.2444
G1 X82.4698 Y63.5007 Z-1.3158
G3 X82.5474 Y63.5155 Z-1.3159 I-0.195 J1.2347
G1 X82.67 Y63.5429 Z-1.3161
G3 X82.7465 Y63.5626 Z-1.3162 I-0.2726 J1.2199
G1 X82.8672 Y63.5977 Z-1.3163
G3 X82.9409 Y63.6216 Z-1.3164 I-0.3492 J1.2002
G1 X83.0591 Y63.6641 Z-1.3166
G3 X83.1327 Y63.6932 Z-1.3167 I-0.4229 J1.1763
G1 X83.248 Y63.7431 Z-1.3168
G3 X83.3195 Y63.7768 Z-1.3169 I-0.4964 J1.1472
G1 X83.4315 Y63.8339 Z-1.3171
G3 X83.4994 Y63.8712 Z-1.3172 I-0.568 J1.1135
G1 X83.6075 Y63.9351 Z-1.3173
G3 X83.6748 Y63.9778 Z-1.3174 I-0.6359 J1.0762
G1 X83.7787 Y64.0485 Z-1.3176
G3 X83.8416 Y64.0943 Z-1.3177 I-0.7031 J1.0335
G1 X83.9135 Y64.15 Z-1.3178
G1 X132.3865 Z-1.378
G1 X132.4579 Y64.0946 Z-1.3782
G3 X132.5212 Y64.0486 Z-1.3783 I0.7665 J0.9874
G1 X132.6251 Y63.9779 Z-1.3784
G3 X132.6927 Y63.935 Z-1.3785 I0.7032 J1.0334
G1 X132.8009 Y63.8711 Z-1.3787
G3 X132.8683 Y63.834 Z-1.3788 I0.6356 J1.0763
G1 X132.9802 Y63.7769 Z-1.3789
G3 X133.0519 Y63.7431 Z-1.379 I0.5682 J1.1134
G1 X133.1672 Y63.6932 Z-1.3792
G3 X133.2411 Y63.664 Z-1.3793 I0.4965 J1.1472
G1 X133.3594 Y63.6215 Z-1.3794
G3 X133.4327 Y63.5977 Z-1.3795 I0.4226 J1.1764
G1 X133.5533 Y63.5626 Z-1.3797
G3 X133.63 Y63.5429 Z-1.3798 I0.3493 J1.2002
G1 X133.7526 Y63.5155 Z-1.3799
G3 X133.8302 Y63.5007 Z-1.38 I0.2726 J1.2199
G1 X133.9543 Y63.4811 Z-1.3802
G3 X134.0309 Y63.4714 Z-1.3803 I0.195 J1.2347
G1 X134.156 Y63.4595 Z-1.3804
G3 X134.2356 Y63.4545 Z-1.3805 I0.1184 J1.2444
G1 X134.3612 Y63.4506 Z-1.3807
G3 X134.4388 Z-1.3808 I0.0388 J1.2494
G1 X134.5644 Y63.4545 Z-1.381
G3 X134.644 Y63.4595 Z-1.3811 I-0.0388 J1.2494
G1 X134.7691 Y63.4714 Z-1.3812
G3 X134.8457 Y63.4811 Z-1.3813 I-0.1184 J1.2444
G1 X134.9698 Y63.5007 Z-1.3815
G3 X135.0474 Y63.5155 Z-1.3816 I-0.195 J1.2347
G1 X135.17 Y63.5429 Z-1.3817
G3 X135.2467 Y63.5626 Z-1.3818 I-0.2726 J1.2199
G1 X135.3673 Y63.5977 Z-1.382
G3 X135.4409 Y63.6216 Z-1.3821 I-0.3493 J1.2002
G1 X135.5591 Y63.6641 Z-1.3822
G3 X135.6323 Y63.6931 Z-1.3823 I-0.4229 J1.1763
G1 X135.7477 Y63.743 Z-1.3825
G3 X135.8198 Y63.7769 Z-1.3826 I-0.4961 J1.1473
G1 X135.9317 Y63.834 Z-1.3827
G3 X135.9991 Y63.8711 Z-1.3828 I-0.5682 J1.1134
G1 X136.1073 Y63.935 Z-1.383
G3 X136.1749 Y63.9779 Z-1.3831 I-0.6356 J1.0763
G1 X136.2788 Y64.0486 Z-1.3832
G3 X136.3421 Y64.0946 Z-1.3833 I-0.7032 J1.0334
G1 X136.4135 Y64.15 Z-1.3834
G1 X141.65 Z-1.39
G1 Y59.4135 Z-1.3958
G1 X141.5946 Y59.3421 Z-1.396
G3 X141.5486 Y59.2788 Z-1.3961 I0.9874 J-0.7665
G1 X141.4779 Y59.1749 Z-1.3962
G3 X141.435 Y59.1073 Z-1.3963 I1.0334 J-0.7032
G1 X141.3711 Y58.9991 Z-1.3965
G3 X141.334 Y58.9317 Z-1.3966 I1.0763 J-0.6356
G1 X141.2769 Y58.8198 Z-1.3967
G3 X141.243 Y58.7477 Z-1.3968 I1.1134 J-0.5682
G1 X141.1931 Y58.6323 Z-1.397
G3 X141.1641 Y58.5591 Z-1.3971 I1.1473 J-0.4961
G1 X141.1216 Y58.4409 Z-1.3972
G3 X141.0977 Y58.3673 Z-1.3973 I1.1763 J-0.4229
G1 X141.0626 Y58.2467 Z-1.3975
G3 X141.0429 Y58.17 Z-1.3976 I1.2002 J-0.3493
G1 X141.0155 Y58.0474 Z-1.3977
G3 X141.0007 Y57.9698 Z-1.3978 I1.2199 J-0.2726
G1 X140.9811 Y57.8457 Z-1.398
G3 X140.9714 Y57.7691 Z-1.3981 I1.2347 J-0.195
G1 X140.9595 Y57.644 Z-1.3982
G3 X140.9545 Y57.5644 Z-1.3983 I1.2444 J-0.1184
G1 X140.9506 Y57.4388 Z-1.3985
G3 Y57.3612 Z-1.3986 I1.2494 J-0.0388
G1 X140.9545 Y57.2356 Z-1.3987
G3 X140.9595 Y57.156 Z-1.3988 I1.2494 J0.0388
G1 X140.9714 Y57.0309 Z-1.399
G3 X140.9811 Y56.9543 Z-1.3991 I1.2444 J0.1184
G1 X141.0007 Y56.8302 Z-1.3993
G3 X141.0155 Y56.7526 Z-1.3994 I1.2347 J0.195
G1 X141.0429 Y56.63 Z-1.3995
G3 X141.0626 Y56.5533 Z-1.3996 I1.2199 J0.2726
G1 X141.0977 Y56.4327 Z-1.3998
G3 X141.1216 Y56.3591 Z-1.3999 I1.2002 J0.3493
G1 X141.1641 Y56.2409 Z-1.4
G3 X141.1931 Y56.1677 Z-1.4001 I1.1763 J0.4229
G1 X141.243 Y56.0523 Z-1.4003
G3 X141.2769 Y55.9802 Z-1.4004 I1.1473 J0.4961
G1 X141.334 Y55.8683 Z-1.4005
G3 X141.3711 Y55.8009 Z-1.4006 I1.1134 J0.5682
G1 X141.435 Y55.6927 Z-1.4008
G3 X141.4779 Y55.6251 Z-1.4009 I1.0763 J0.6356
G1 X141.5486 Y55.5212 Z-1.401
G3 X141.5946 Y55.4579 Z-1.4011 I1.0334 J0.7032
G1 X141.65 Y55.3865 Z-1.4012
G1 Y45.9135 Z-1.413
G1 X141.5943 Y45.8416 Z-1.4131
G3 X141.5485 Y45.7787 Z-1.4132 I0.9877 J-0.7661
G1 X141.4778 Y45.6748 Z-1.4134
G3 X141.4351 Y45.6076 Z-1.4135 I1.0335 J-0.7031
G1 X141.3712 Y45.4994 Z-1.4136
G3 X141.3339 Y45.4315 Z-1.4137 I1.0762 J-0.6359
G1 X141.2768 Y45.3195 Z-1.4139
G3 X141.2431 Y45.248 Z-1.414 I1.1135 J-0.568
G1 X141.1932 Y45.1327 Z-1.4141
G3 X141.1641 Y45.0591 Z-1.4142 I1.1472 J-0.4964
G1 X141.1216 Y44.9409 Z-1.4144
G3 X141.0977 Y44.8672 Z-1.4145 I1.1763 J-0.4229
G1 X141.0626 Y44.7466 Z-1.4147
G3 X141.0429 Y44.67 Z-1.4148 I1.2002 J-0.3492
G1 X141.0155 Y44.5474 Z-1.4149
G3 X141.0007 Y44.4698 Z-1.415 I1.2199 J-0.2726
G1 X140.9811 Y44.3457 Z-1.4152
G3 X140.9714 Y44.269 Z-1.4153 I1.2347 J-0.195
G1 X140.9595 Y44.144 Z-1.4154
G3 X140.9545 Y44.0644 Z-1.4155 I1.2444 J-0.1184
G1 X140.9506 Y43.9388 Z-1.4157
G3 Y43.8612 Z-1.4158 I1.2494 J-0.0388
G1 X140.9545 Y43.7356 Z-1.4159
G3 X140.9595 Y43.656 Z-1.416 I1.2494 J0.0388
G1 X140.9714 Y43.531 Z-1.4162
G3 X140.9811 Y43.4543 Z-1.4163 I1.2444 J0.1184
G1 X141.0007 Y43.3302 Z-1.4164
G3 X141.0155 Y43.2526 Z-1.4165 I1.2347 J0.195
G1 X141.0429 Y43.13 Z-1.4167
G3 X141.0626 Y43.0534 Z-1.4168 I1.2199 J0.2726
G1 X141.0977 Y42.9328 Z-1.4169
G3 X141.1216 Y42.8591 Z-1.417 I1.2002 J0.3492
G1 X141.1641 Y42.7409 Z-1.4172
G3 X141.1932 Y42.6673 Z-1.4173 I1.1763 J0.4229
G1 X141.2431 Y42.552 Z-1.4174
G3 X141.2768 Y42.4805 Z-1.4175 I1.1472 J0.4964
G1 X141.3339 Y42.3685 Z-1.4177
G3 X141.3712 Y42.3006 Z-1.4178 I1.1135 J0.568
G1 X141.4351 Y42.1924 Z-1.418
G3 X141.4778 Y42.1252 Z-1.4181 I1.0762 J0.6359
G1 X141.5485 Y42.0213 Z-1.4182
G3 X141.5943 Y41.9584 Z-1.4183 I1.0335 J0.7031
G1 X141.65 Y41.8865 Z-1.4184
G1 Y32.4135 Z-1.4302
G1 X141.5943 Y32.3416 Z-1.4303
G3 X141.5485 Y32.2787 Z-1.4304 I0.9877 J-0.7661
G1 X141.4778 Y32.1748 Z-1.4306
G3 X141.4351 Y32.1076 Z-1.4307 I1.0335 J-0.7031
G1 X141.3712 Y31.9994 Z-1.4308
G3 X141.3339 Y31.9315 Z-1.4309 I1.0762 J-0.6359
G1 X141.2768 Y31.8195 Z-1.4311
G3 X141.2431 Y31.748 Z-1.4312 I1.1135 J-0.568
G1 X141.1932 Y31.6327 Z-1.4313
G3 X141.1641 Y31.5591 Z-1.4314 I1.1472 J-0.4964
G1 X141.1216 Y31.4409 Z-1.4316
G3 X141.0977 Y31.3672 Z-1.4317 I1.1763 J-0.4229
G1 X141.0626 Y31.2466 Z-1.4318
G3 X141.0429 Y31.17 Z-1.4319 I1.2002 J-0.3492
G1 X141.0155 Y31.0474 Z-1.4321
G3 X141.0007 Y30.9698 Z-1.4322 I1.2199 J-0.2726
G1 X140.9811 Y30.8457 Z-1.4323
G3 X140.9714 Y30.769 Z-1.4324 I1.2347 J-0.195
G1 X140.9595 Y30.644 Z-1.4326
G3 X140.9545 Y30.5644 Z-1.4327 I1.2444 J-0.1184
G1 X140.9506 Y30.4388 Z-1.4328
G3 Y30.3612 Z-1.4329 I1.2494 J-0.0388
G1 X140.9545 Y30.2356 Z-1.4331
G3 X140.9595 Y30.156 Z-1.4332 I1.2494 J0.0388
G1 X140.9714 Y30.031 Z-1.4334
G3 X140.9811 Y29.9543 I1.2444 J0.1184
G1 X141.0007 Y29.8302 Z-1.4336
G3 X141.0155 Y29.7526 Z-1.4337 I1.2347 J0.195
G1 X141.0429 Y29.63 Z-1.4339
G3 X141.0626 Y29.5534 Z-1.434 I1.2199 J0.2726
G1 X141.0977 Y29.4328 Z-1.4341
G3 X141.1216 Y29.3591 Z-1.4342 I1.2002 J0.3492
G1 X141.1641 Y29.2409 Z-1.4344
G3 X141.1932 Y29.1673 Z-1.4345 I1.1763 J0.4229
G1 X141.2431 Y29.052 Z-1.4346
G3 X141.2768 Y28.9805 Z-1.4347 I1.1472 J0.4964
G1 X141.3339 Y28.8685 Z-1.4349
G3 X141.3712 Y28.8006 Z-1.435 I1.1135 J0.568
G1 X141.4351 Y28.6924 Z-1.4351
G3 X141.4778 Y28.6252 Z-1.4352 I1.0762 J0.6359
G1 X141.5485 Y28.5213 Z-1.4354
G3 X141.5943 Y28.4584 Z-1.4355 I1.0335 J0.7031
G1 X141.65 Y28.3865 Z-1.4356
G1 Y24.65 Z-1.4402
G1 X136.4135 Z-1.4467
G1 X136.3421 Y24.7054 Z-1.4469
G3 X136.2788 Y24.7514 Z-1.447 I-0.7665 J-0.9874
G1 X136.1749 Y24.8221 Z-1.4471
G3 X136.1073 Y24.865 Z-1.4472 I-0.7032 J-1.0334
G1 X135.9991 Y24.9289 Z-1.4474
G3 X135.9317 Y24.966 Z-1.4475 I-0.6356 J-1.0763
G1 X135.8198 Y25.0231 Z-1.4476
G3 X135.7477 Y25.057 Z-1.4477 I-0.5682 J-1.1134
G1 X135.6323 Y25.1069 Z-1.4479
G3 X135.5591 Y25.1359 Z-1.448 I-0.4961 J-1.1473
G1 X135.4409 Y25.1784 Z-1.4481
G3 X135.3673 Y25.2023 Z-1.4482 I-0.4229 J-1.1763
G1 X135.2467 Y25.2374 Z-1.4484
G3 X135.17 Y25.2571 Z-1.4485 I-0.3493 J-1.2002
G1 X135.0474 Y25.2845 Z-1.4486
G3 X134.9698 Y25.2993 Z-1.4487 I-0.2726 J-1.2199
G1 X134.8457 Y25.3189 Z-1.4489
G3 X134.7691 Y25.3286 Z-1.449 I-0.195 J-1.2347
G1 X134.644 Y25.3405 Z-1.4491
G3 X134.5644 Y25.3455 Z-1.4492 I-0.1184 J-1.2444
G1 X134.4388 Y25.3494 Z-1.4494
G3 X134.3612 Z-1.4495 I-0.0388 J-1.2494
G1 X134.2356 Y25.3455 Z-1.4496
G3 X134.156 Y25.3405 Z-1.4497 I0.0388 J-1.2494
G1 X134.0309 Y25.3286 Z-1.4499
G3 X133.9543 Y25.3189 Z-1.45 I0.1184 J-1.2444
G1 X133.8302 Y25.2993 Z-1.4502
G3 X133.7526 Y25.2845 Z-1.4503 I0.195 J-1.2347
G1 X133.63 Y25.2571 Z-1.4504
G3 X133.5533 Y25.2374 Z-1.4505 I0.2726 J-1.2199
G1 X133.4327 Y25.2023 Z-1.4507
G3 X133.3594 Y25.1785 Z-1.4508 I0.3493 J-1.2002
G1 X133.2411 Y25.136 Z-1.4509
G3 X133.1672 Y25.1068 Z-1.451 I0.4226 J-1.1764
G1 X133.0519 Y25.0569 Z-1.4512
G3 X132.9802 Y25.0231 Z-1.4513 I0.4965 J-1.1472
G1 X132.8683 Y24.966 Z-1.4514
G3 X132.8009 Y24.9289 Z-1.4515 I0.5682 J-1.1134
G1 X132.6927 Y24.865 Z-1.4517
G3 X132.6251 Y24.8221 Z-1.4518 I0.6356 J-1.0763
G1 X132.5212 Y24.7514 Z-1.4519
G3 X132.4579 Y24.7054 Z-1.452 I0.7032 J-1.0334
G1 X132.3865 Y24.65 Z-1.4521
G1 X83.9135 Z-1.5124
G1 X83.8416 Y24.7057 Z-1.5125
G3 X83.7787 Y24.7515 Z-1.5126 I-0.7661 J-0.9877
G1 X83.6748 Y24.8222 Z-1.5128
G3 X83.6075 Y24.8649 Z-1.5129 I-0.7031 J-1.0335
G1 X83.4994 Y24.9288 Z-1.513
G3 X83.4315 Y24.9661 Z-1.5131 I-0.6359 J-1.0762
G1 X83.3195 Y25.0232 Z-1.5133
G3 X83.248 Y25.0569 Z-1.5134 I-0.568 J-1.1135
G1 X83.1327 Y25.1068 Z-1.5135
G3 X83.0591 Y25.1359 Z-1.5136 I-0.4964 J-1.1472
G1 X82.9409 Y25.1784 Z-1.5138
G3 X82.8672 Y25.2023 Z-1.5139 I-0.4229 J-1.1763
G1 X82.7465 Y25.2374 Z-1.514
G3 X82.67 Y25.2571 Z-1.5141 I-0.3492 J-1.2002
G1 X82.5474 Y25.2845 Z-1.5143
G3 X82.4698 Y25.2993 Z-1.5144 I-0.2726 J-1.2199
G1 X82.3457 Y25.3189 Z-1.5145
G3 X82.2691 Y25.3286 Z-1.5146 I-0.195 J-1.2347
G1 X82.144 Y25.3405 Z-1.5148
G3 X82.0644 Y25.3455 Z-1.5149 I-0.1184 J-1.2444
G1 X81.9388 Y25.3494 Z-1.515
G3 X81.8612 Z-1.5151 I-0.0388 J-1.2494
G1 X81.7356 Y25.3455 Z-1.5153
G3 X81.656 Y25.3405 Z-1.5154 I0.0388 J-1.2494
G1 X81.5309 Y25.3286 Z-1.5156
G3 X81.4543 Y25.3189 Z-1.5157 I0.1184 J-1.2444
G1 X81.3302 Y25.2993 Z-1.5158
G3 X81.2526 Y25.2845 Z-1.5159 I0.195 J-1.2347
G1 X81.13 Y25.2571 Z-1.5161
G3 X81.0535 Y25.2374 Z-1.5162 I0.2726 J-1.2199
G1 X80.9328 Y25.2023 Z-1.5163
G3 X80.8591 Y25.1784 Z-1.5164 I0.3492 J-1.2002
G1 X80.7409 Y25.1359 Z-1.5166
G3 X80.6673 Y25.1068 Z-1.5167 I0.4229 J-1.1763
G1 X80.552 Y25.0569 Z-1.5168
G3 X80.4805 Y25.0232 Z-1.5169 I0.4964 J-1.1472
G1 X80.3685 Y24.9661 Z-1.5171
G3 X80.3006 Y24.9288 Z-1.5172 I0.568 J-1.1135
G1 X80.1925 Y24.8649 Z-1.5173
G3 X80.1252 Y24.8222 Z-1.5174 I0.6359 J-1.0762
G1 X80.0213 Y24.7515 Z-1.5176
G3 X79.9584 Y24.7057 Z-1.5177 I0.7031 J-1.0335
G1 X79.8865 Y24.65 Z-1.5178
G1 X31.4135 Z-1.578
G1 X31.3421 Y24.7054 Z-1.5782
G3 X31.2788 Y24.7514 Z-1.5783 I-0.7665 J-0.9874
G1 X31.1749 Y24.8221 Z-1.5784
G3 X31.1073 Y24.865 Z-1.5785 I-0.7032 J-1.0334
G1 X30.9991 Y24.9289 Z-1.5787
G3 X30.9317 Y24.966 Z-1.5788 I-0.6356 J-1.0763
G1 X30.8198 Y25.0231 Z-1.5789
G3 X30.7481 Y25.0569 Z-1.579 I-0.5682 J-1.1134
G1 X30.6328 Y25.1068 Z-1.5792
G3 X30.5589 Y25.136 Z-1.5793 I-0.4965 J-1.1472
G1 X30.4406 Y25.1785 Z-1.5794
G3 X30.3673 Y25.2023 Z-1.5795 I-0.4226 J-1.1764
G1 X30.2467 Y25.2374 Z-1.5797
G3 X30.17 Y25.2571 Z-1.5798 I-0.3493 J-1.2002
G1 X30.0474 Y25.2845 Z-1.5799
G3 X29.9698 Y25.2993 Z-1.58 I-0.2726 J-1.2199
G1 X29.8457 Y25.3189 Z-1.5802
G3 X29.7691 Y25.3286 Z-1.5803 I-0.195 J-1.2347
G1 X29.644 Y25.3405 Z-1.5804
G3 X29.5644 Y25.3455 Z-1.5805 I-0.1184 J-1.2444
G1 X29.4388 Y25.3494 Z-1.5807
G3 X29.3612 Z-1.5808 I-0.0388 J-1.2494
G1 X29.2356 Y25.3455 Z-1.581
G3 X29.156 Y25.3405 Z-1.5811 I0.0388 J-1.2494
G1 X29.0309 Y25.3286 Z-1.5812
G3 X28.9543 Y25.3189 Z-1.5813 I0.1184 J-1.2444
G1 X28.8302 Y25.2993 Z-1.5815
G3 X28.7526 Y25.2845 Z-1.5816 I0.195 J-1.2347
G1 X28.63 Y25.2571 Z-1.5817
G3 X28.5533 Y25.2374 Z-1.5818 I0.2726 J-1.2199
G1 X28.4327 Y25.2023 Z-1.582
G3 X28.3591 Y25.1784 Z-1.5821 I0.3493 J-1.2002
G1 X28.2409 Y25.1359 Z-1.5822
G3 X28.1677 Y25.1069 Z-1.5823 I0.4229 J-1.1763
G1 X28.0523 Y25.057 Z-1.5825
G3 X27.9802 Y25.0231 Z-1.5826 I0.4961 J-1.1473
G1 X27.8683 Y24.966 Z-1.5827
G3 X27.8009 Y24.9289 Z-1.5828 I0.5682 J-1.1134
G1 X27.6927 Y24.865 Z-1.583
G3 X27.6251 Y24.8221 Z-1.5831 I0.6356 J-1.0763
G1 X27.5212 Y24.7514 Z-1.5832
G3 X27.4579 Y24.7054 Z-1.5833 I0.7032 J-1.0334
G1 X27.3865 Y24.65 Z-1.5834
G1 X22.15 Z-1.59
G1 Y28.3865 Z-1.5946
G1 X22.2057 Y28.4584 Z-1.5947
G3 X22.2515 Y28.5213 Z-1.5948 I-0.9877 J0.7661
G1 X22.3222 Y28.6252 Z-1.595
G3 X22.3649 Y28.6924 Z-1.5951 I-1.0335 J0.7031
G1 X22.4288 Y28.8006 Z-1.5952
G3 X22.4661 Y28.8685 Z-1.5953 I-1.0762 J0.6359
G1 X22.5232 Y28.9805 Z-1.5955
G3 X22.5569 Y29.052 Z-1.5956 I-1.1135 J0.568
G1 X22.6068 Y29.1673 Z-1.5957
G3 X22.6359 Y29.2409 Z-1.5958 I-1.1472 J0.4964
G1 X22.6784 Y29.3591 Z-1.596
G3 X22.7023 Y29.4328 Z-1.5961 I-1.1763 J0.4229
G1 X22.7374 Y29.5534 Z-1.5962
G3 X22.7571 Y29.63 Z-1.5963 I-1.2002 J0.3492
G1 X22.7845 Y29.7526 Z-1.5965
G3 X22.7993 Y29.8302 Z-1.5966 I-1.2199 J0.2726
G1 X22.8189 Y29.9543 Z-1.5967
G3 X22.8286 Y30.031 Z-1.5968 I-1.2347 J0.195
G1 X22.8405 Y30.156 Z-1.597
G3 X22.8455 Y30.2356 Z-1.5971 I-1.2444 J0.1184
G1 X22.8494 Y30.3612 Z-1.5973
G3 Y30.4388 I-1.2494 J0.0388
G1 X22.8455 Y30.5644 Z-1.5975
G3 X22.8405 Y30.644 Z-1.5976 I-1.2494 J-0.0388
G1 X22.8286 Y30.769 Z-1.5978
G3 X22.8189 Y30.8457 Z-1.5979 I-1.2444 J-0.1184
G1 X22.7993 Y30.9698 Z-1.598
G3 X22.7845 Y31.0474 Z-1.5981 I-1.2347 J-0.195
G1 X22.7571 Y31.17 Z-1.5983
G3 X22.7374 Y31.2466 Z-1.5984 I-1.2199 J-0.2726
G1 X22.7023 Y31.3672 Z-1.5985
G3 X22.6784 Y31.4409 Z-1.5986 I-1.2002 J-0.3492
G1 X22.6359 Y31.5591 Z-1.5988
G3 X22.6068 Y31.6327 Z-1.5989 I-1.1763 J-0.4229
G1 X22.5569 Y31.748 Z-1.599
G3 X22.5232 Y31.8195 Z-1.5991 I-1.1472 J-0.4964
G1 X22.4661 Y31.9315 Z-1.5993
G3 X22.4288 Y31.9994 Z-1.5994 I-1.1135 J-0.568
G1 X22.3649 Y32.1076 Z-1.5995
G3 X22.3222 Y32.1748 Z-1.5996 I-1.0762 J-0.6359
G1 X22.2515 Y32.2787 Z-1.5998
G3 X22.2057 Y32.3416 Z-1.5999 I-1.0335 J-0.7031
G1 X22.15 Y32.4135 Z-1.6
G1 Y41.8865 Z-1.6118
G1 X22.2057 Y41.9584 Z-1.6119
G3 X22.2515 Y42.0213 Z-1.612 I-0.9877 J0.7661
G1 X22.3222 Y42.1252 Z-1.6121
G3 X22.3649 Y42.1924 Z-1.6122 I-1.0335 J0.7031
G1 X22.4288 Y42.3006 Z-1.6124
G3 X22.4661 Y42.3685 Z-1.6125 I-1.0762 J0.6359
G1 X22.5232 Y42.4805 Z-1.6126
G3 X22.5569 Y42.552 Z-1.6127 I-1.1135 J0.568
G1 X22.6068 Y42.6673 Z-1.6129
G3 X22.6359 Y42.7409 Z-1.613 I-1.1472 J0.4964
G1 X22.6784 Y42.8591 Z-1.6132
G3 X22.7023 Y42.9328 Z-1.6133 I-1.1763 J0.4229
G1 X22.7374 Y43.0534 Z-1.6134
G3 X22.7571 Y43.13 Z-1.6135 I-1.2002 J0.3492
G1 X22.7845 Y43.2526 Z-1.6137
G3 X22.7993 Y43.3302 Z-1.6138 I-1.2199 J0.2726
G1 X22.8189 Y43.4543 Z-1.6139
G3 X22.8286 Y43.531 Z-1.614 I-1.2347 J0.195
G1 X22.8405 Y43.656 Z-1.6142
G3 X22.8455 Y43.7356 Z-1.6143 I-1.2444 J0.1184
G1 X22.8494 Y43.8612 Z-1.6144
G3 Y43.9388 Z-1.6145 I-1.2494 J0.0388
G1 X22.8455 Y44.0644 Z-1.6147
G3 X22.8405 Y44.144 Z-1.6148 I-1.2494 J-0.0388
G1 X22.8286 Y44.269 Z-1.6149
G3 X22.8189 Y44.3457 Z-1.615 I-1.2444 J-0.1184
G1 X22.7993 Y44.4698 Z-1.6152
G3 X22.7845 Y44.5474 Z-1.6153 I-1.2347 J-0.195
G1 X22.7571 Y44.67 Z-1.6154
G3 X22.7374 Y44.7466 Z-1.6155 I-1.2199 J-0.2726
G1 X22.7023 Y44.8672 Z-1.6157
G3 X22.6784 Y44.9409 Z-1.6158 I-1.2002 J-0.3492
G1 X22.6359 Y45.0591 Z-1.6159
G3 X22.6068 Y45.1327 Z-1.616 I-1.1763 J-0.4229
G1 X22.5569 Y45.248 Z-1.6162
G3 X22.5232 Y45.3195 Z-1.6163 I-1.1472 J-0.4964
G1 X22.4661 Y45.4315 Z-1.6165
G3 X22.4288 Y45.4994 Z-1.6166 I-1.1135 J-0.568
G1 X22.3649 Y45.6076 Z-1.6167
G3 X22.3222 Y45.6748 Z-1.6168 I-1.0762 J-0.6359
G1 X22.2515 Y45.7787 Z-1.617
G3 X22.2057 Y45.8416 Z-1.6171 I-1.0335 J-0.7031
G1 X22.15 Y45.9135 Z-1.6172
G1 Y55.3865 Z-1.6289
G1 X22.2054 Y55.4579 Z-1.6291
G3 X22.2514 Y55.5212 Z-1.6292 I-0.9874 J0.7665
G1 X22.3221 Y55.6251 Z-1.6293
G3 X22.365 Y55.6927 Z-1.6294 I-1.0334 J0.7032
G1 X22.4289 Y55.8009 Z-1.6296
G3 X22.466 Y55.8683 Z-1.6297 I-1.0763 J0.6356
G1 X22.5231 Y55.9802 Z-1.6298
G3 X22.557 Y56.0523 Z-1.6299 I-1.1134 J0.5682
G1 X22.6069 Y56.1677 Z-1.6301
G3 X22.6359 Y56.2409 Z-1.6302 I-1.1473 J0.4961
G1 X22.6784 Y56.3591 Z-1.6303
G3 X22.7023 Y56.4327 Z-1.6304 I-1.1763 J0.4229
G1 X22.7374 Y56.5533 Z-1.6306
G3 X22.7571 Y56.63 Z-1.6307 I-1.2002 J0.3493
G1 X22.7845 Y56.7526 Z-1.6308
G3 X22.7993 Y56.8302 Z-1.6309 I-1.2199 J0.2726
G1 X22.8189 Y56.9543 Z-1.6311
G3 X22.8286 Y57.0309 Z-1.6312 I-1.2347 J0.195
G1 X22.8405 Y57.156 Z-1.6313
G3 X22.8455 Y57.2356 Z-1.6314 I-1.2444 J0.1184
G1 X22.8494 Y57.3612 Z-1.6316
G3 Y57.4388 Z-1.6317 I-1.2494 J0.0388
G1 X22.8455 Y57.5644 Z-1.6319
G3 X22.8405 Y57.644 Z-1.632 I-1.2494 J-0.0388
G1 X22.8286 Y57.7691 Z-1.6321
G3 X22.8189 Y57.8457 Z-1.6322 I-1.2444 J-0.1184
G1 X22.7993 Y57.9698 Z-1.6324
G3 X22.7845 Y58.0474 Z-1.6325 I-1.2347 J-0.195
G1 X22.7571 Y58.17 Z-1.6326
G3 X22.7374 Y58.2467 Z-1.6327 I-1.2199 J-0.2726
G1 X22.7023 Y58.3673 Z-1.6329
G3 X22.6784 Y58.4409 Z-1.633 I-1.2002 J-0.3493
G1 X22.6359 Y58.5591 Z-1.6331
G3 X22.6069 Y58.6323 Z-1.6332 I-1.1763 J-0.4229
G1 X22.557 Y58.7477 Z-1.6334
G3 X22.5231 Y58.8198 Z-1.6335 I-1.1473 J-0.4961
G1 X22.466 Y58.9317 Z-1.6336
G3 X22.4289 Y58.9991 Z-1.6337 I-1.1134 J-0.5682
G1 X22.365 Y59.1073 Z-1.6339
G3 X22.3221 Y59.1749 Z-1.634 I-1.0763 J-0.6356
G1 X22.2514 Y59.2788 Z-1.6341
G3 X22.2054 Y59.3421 Z-1.6342 I-1.0334 J-0.7032
G1 X22.15 Y59.4135 Z-1.6343
G1 Y64.15 Z-1.6402
G1 X27.3865 Z-1.6467
G1 X27.4579 Y64.0946 Z-1.6469
G3 X27.5212 Y64.0486 Z-1.647 I0.7665 J0.9874
G1 X27.6251 Y63.9779 Z-1.6471
G3 X27.6927 Y63.935 Z-1.6472 I0.7032 J1.0334
G1 X27.8009 Y63.8711 Z-1.6474
G3 X27.8683 Y63.834 Z-1.6475 I0.6356 J1.0763
G1 X27.9802 Y63.7769 Z-1.6476
G3 X28.0523 Y63.743 Z-1.6477 I0.5682 J1.1134
G1 X28.1677 Y63.6931 Z-1.6479
G3 X28.2409 Y63.6641 Z-1.648 I0.4961 J1.1473
G1 X28.3591 Y63.6216 Z-1.6481
G3 X28.4327 Y63.5977 Z-1.6482 I0.4229 J1.1763
G1 X28.5533 Y63.5626 Z-1.6484
G3 X28.63 Y63.5429 Z-1.6485 I0.3493 J1.2002
G1 X28.7526 Y63.5155 Z-1.6486
G3 X28.8302 Y63.5007 Z-1.6487 I0.2726 J1.2199
G1 X28.9543 Y63.4811 Z-1.6489
G3 X29.0309 Y63.4714 Z-1.649 I0.195 J1.2347
G1 X29.156 Y63.4595 Z-1.6491
G3 X29.2356 Y63.4545 Z-1.6492 I0.1184 J1.2444
G1 X29.3612 Y63.4506 Z-1.6494
G3 X29.4388 Z-1.6495 I0.0388 J1.2494
G1 X29.5644 Y63.4545 Z-1.6496
G3 X29.644 Y63.4595 Z-1.6497 I-0.0388 J1.2494
G1 X29.7691 Y63.4714 Z-1.6499
G3 X29.8457 Y63.4811 Z-1.65 I-0.1184 J1.2444
G1 X29.9698 Y63.5007 Z-1.6502
G3 X30.0474 Y63.5155 Z-1.6503 I-0.195 J1.2347
G1 X30.17 Y63.5429 Z-1.6504
G3 X30.2467 Y63.5626 Z-1.6505 I-0.2726 J1.2199
G1 X30.3673 Y63.5977 Z-1.6507
G3 X30.4406 Y63.6215 Z-1.6508 I-0.3493 J1.2002
G1 X30.5589 Y63.664 Z-1.6509
G3 X30.6328 Y63.6932 Z-1.651 I-0.4226 J1.1764
G1 X30.7481 Y63.7431 Z-1.6512
G3 X30.8198 Y63.7769 Z-1.6513 I-0.4965 J1.1472
G1 X30.9317 Y63.834 Z-1.6514
G3 X30.9991 Y63.8711 Z-1.6515 I-0.5682 J1.1134
G1 X31.1073 Y63.935 Z-1.6517
G3 X31.1749 Y63.9779 Z-1.6518 I-0.6356 J1.0763
G1 X31.2788 Y64.0486 Z-1.6519
G3 X31.3421 Y64.0946 Z-1.652 I-0.7032 J1.0334
G1 X31.4135 Y64.15 Z-1.6521
G1 X79.8865 Z-1.7124
G1 X79.9584 Y64.0943 Z-1.7125
G3 X80.0213 Y64.0485 Z-1.7126 I0.7661 J0.9877
G1 X80.1252 Y63.9778 Z-1.7128
G3 X80.1925 Y63.9351 Z-1.7129 I0.7031 J1.0335
G1 X80.3006 Y63.8712 Z-1.713
G3 X80.3685 Y63.8339 Z-1.7131 I0.6359 J1.0762
G1 X80.4805 Y63.7768 Z-1.7133
G3 X80.552 Y63.7431 Z-1.7134 I0.568 J1.1135
G1 X80.6673 Y63.6932 Z-1.7135
G3 X80.7409 Y63.6641 Z-1.7136 I0.4964 J1.1472
G1 X80.8591 Y63.6216 Z-1.7138
G3 X80.9328 Y63.5977 Z-1.7139 I0.4229 J1.1763
G1 X81.0535 Y63.5626 Z-1.714
G3 X81.13 Y63.5429 Z-1.7141 I0.3492 J1.2002
G1 X81.2526 Y63.5155 Z-1.7143
G3 X81.3302 Y63.5007 Z-1.7144 I0.2726 J1.2199
G1 X81.4543 Y63.4811 Z-1.7145
G3 X81.5309 Y63.4714 Z-1.7146 I0.195 J1.2347
G1 X81.656 Y63.4595 Z-1.7148
G3 X81.7356 Y63.4545 Z-1.7149 I0.1184 J1.2444
G1 X81.8612 Y63.4506 Z-1.715
G3 X81.9388 Z-1.7151 I0.0388 J1.2494
G1 X82.0644 Y63.4545 Z-1.7153
G3 X82.144 Y63.4595 Z-1.7154 I-0.0388 J1.2494
G1 X82.2691 Y63.4714 Z-1.7156
G3 X82.3457 Y63.4811 Z-1.7157 I-0.1184 J1.2444
G1 X82.4698 Y63.5007 Z-1.7158
G3 X82.5474 Y63.5155 Z-1.7159 I-0.195 J1.2347
G1 X82.67 Y63.5429 Z-1.7161
G3 X82.7465 Y63.5626 Z-1.7162 I-0.2726 J1.2199
G1 X82.8672 Y63.5977 Z-1.7163
G3 X82.9409 Y63.6216 Z-1.7164 I-0.3492 J1.2002
G1 X83.0591 Y63.6641 Z-1.7166
G3 X83.1327 Y63.6932 Z-1.7167 I-0.4229 J1.1763
G1 X83.248 Y63.7431 Z-1.7168
G3 X83.3195 Y63.7768 Z-1.7169 I-0.4964 J1.1472
G1 X83.4315 Y63.8339 Z-1.7171
G3 X83.4994 Y63.8712 Z-1.7172 I-0.568 J1.1135
G1 X83.6075 Y63.9351 Z-1.7173
G3 X83.6748 Y63.9778 Z-1.7174 I-0.6359 J1.0762
G1 X83.7787 Y64.0485 Z-1.7176
G3 X83.8416 Y64.0943 Z-1.7177 I-0.7031 J1.0335
G1 X83.9135 Y64.15 Z-1.7178
G1 X132.3865 Z-1.778
G1 X132.4579 Y64.0946 Z-1.7782
G3 X132.5212 Y64.0486 Z-1.7783 I0.7665 J0.9874
G1 X132.6251 Y63.9779 Z-1.7784
G3 X132.6927 Y63.935 Z-1.7785 I0.7032 J1.0334
G1 X132.8009 Y63.8711 Z-1.7787
G3 X132.8683 Y63.834 Z-1.7788 I0.6356 J1.0763
G1 X132.9802 Y63.7769 Z-1.7789
G3 X133.0519 Y63.7431 Z-1.779 I0.5682 J1.1134
G1 X133.1672 Y63.6932 Z-1.7792
G3 X133.2411 Y63.664 Z-1.7793 I0.4965 J1.1472
G1 X133.3594 Y63.6215 Z-1.7794
G3 X133.4327 Y63.5977 Z-1.7795 I0.4226 J1.1764
G1 X133.5533 Y63.5626 Z-1.7797
G3 X133.63 Y63.5429 Z-1.7798 I0.3493 J1.2002
G1 X133.7526 Y63.5155 Z-1.7799
G3 X133.8302 Y63.5007 Z-1.78 I0.2726 J1.2199
G1 X133.9543 Y63.4811 Z-1.7802
G3 X134.0309 Y63.4714 Z-1.7803 I0.195 J1.2347
G1 X134.156 Y63.4595 Z-1.7804
G3 X134.2356 Y63.4545 Z-1.7805 I0.1184 J1.2444
G1 X134.3612 Y63.4506 Z-1.7807
G3 X134.4388 Z-1.7808 I0.0388 J1.2494
G1 X134.5644 Y63.4545 Z-1.781
G3 X134.644 Y63.4595 Z-1.7811 I-0.0388 J1.2494
G1 X134.7691 Y63.4714 Z-1.7812
G3 X134.8457 Y63.4811 Z-1.7813 I-0.1184 J1.2444
G1 X134.9698 Y63.5007 Z-1.7815
G3 X135.0474 Y63.5155 Z-1.7816 I-0.195 J1.2347
G1 X135.17 Y63.5429 Z-1.7817
G3 X135.2467 Y63.5626 Z-1.7818 I-0.2726 J1.2199
G1 X135.3673 Y63.5977 Z-1.782
G3 X135.4409 Y63.6216 Z-1.7821 I-0.3493 J1.2002
G1 X135.5591 Y63.6641 Z-1.7822
G3 X135.6323 Y63.6931 Z-1.7823 I-0.4229 J1.1763
G1 X135.7477 Y63.743 Z-1.7825
G3 X135.8198 Y63.7769 Z-1.7826 I-0.4961 J1.1473
G1 X135.9317 Y63.834 Z-1.7827
G3 X135.9991 Y63.8711 Z-1.7828 I-0.5682 J1.1134
G1 X136.1073 Y63.935 Z-1.783
G3 X136.1749 Y63.9779 Z-1.7831 I-0.6356 J1.0763
G1 X136.2788 Y64.0486 Z-1.7832
G3 X136.3421 Y64.0946 Z-1.7833 I-0.7032 J1.0334
G1 X136.4135 Y64.15 Z-1.7834
G1 X141.65 Z-1.79
G1 Y59.4135 Z-1.7958
G1 X141.5946 Y59.3421 Z-1.796
G3 X141.5486 Y59.2788 Z-1.7961 I0.9874 J-0.7665
G1 X141.4779 Y59.1749 Z-1.7962
G3 X141.435 Y59.1073 Z-1.7963 I1.0334 J-0.7032
G1 X141.3711 Y58.9991 Z-1.7965
G3 X141.334 Y58.9317 Z-1.7966 I1.0763 J-0.6356
G1 X141.2769 Y58.8198 Z-1.7967
G3 X141.243 Y58.7477 Z-1.7968 I1.1134 J-0.5682
G1 X141.1931 Y58.6323 Z-1.797
G3 X141.1641 Y58.5591 Z-1.7971 I1.1473 J-0.4961
G1 X141.1216 Y58.4409 Z-1.7972
G3 X141.0977 Y58.3673 Z-1.7973 I1.1763 J-0.4229
G1 X141.0626 Y58.2467 Z-1.7975
G3 X141.0429 Y58.17 Z-1.7976 I1.2002 J-0.3493
G1 X141.0155 Y58.0474 Z-1.7977
G3 X141.0007 Y57.9698 Z-1.7978 I1.2199 J-0.2726
G1 X140.9811 Y57.8457 Z-1.798
G3 X140.9714 Y57.7691 Z-1.7981 I1.2347 J-0.195
G1 X140.9595 Y57.644 Z-1.7982
G3 X140.9545 Y57.5644 Z-1.7983 I1.2444 J-0.1184
G1 X140.9506 Y57.4388 Z-1.7985
G3 Y57.3612 Z-1.7986 I1.2494 J-0.0388
G1 X140.9545 Y57.2356 Z-1.7987
G3 X140.9595 Y57.156 Z-1.7988 I1.2494 J0.0388
G1 X140.9714 Y57.0309 Z-1.799
G3 X140.9811 Y56.9543 Z-1.7991 I1.2444 J0.1184
G1 X141.0007 Y56.8302 Z-1.7993
G3 X141.0155 Y56.7526 Z-1.7994 I1.2347 J0.195
G1 X141.0429 Y56.63 Z-1.7995
G3 X141.0626 Y56.5533 Z-1.7996 I1.2199 J0.2726
G1 X141.0977 Y56.4327 Z-1.7998
G3 X141.1216 Y56.3591 Z-1.7999 I1.2002 J0.3493
G1 X141.1641 Y56.2409 Z-1.8
G3 X141.1931 Y56.1677 Z-1.8001 I1.1763 J0.4229
G1 X141.243 Y56.0523 Z-1.8003
G3 X141.2769 Y55.9802 Z-1.8004 I1.1473 J0.4961
G1 X141.334 Y55.8683 Z-1.8005
G3 X141.3711 Y55.8009 Z-1.8006 I1.1134 J0.5682
G1 X141.435 Y55.6927 Z-1.8008
G3 X141.4779 Y55.6251 Z-1.8009 I1.0763 J0.6356
G1 X141.5486 Y55.5212 Z-1.801
G3 X141.5946 Y55.4579 Z-1.8011 I1.0334 J0.7032
G1 X141.65 Y55.3865 Z-1.8012
G1 Y45.9135 Z-1.813
G1 X141.5943 Y45.8416 Z-1.8131
G3 X141.5485 Y45.7787 Z-1.8132 I0.9877 J-0.7661
G1 X141.4778 Y45.6748 Z-1.8134
G3 X141.4351 Y45.6076 Z-1.8135 I1.0335 J-0.7031
G1 X141.3712 Y45.4994 Z-1.8136
G3 X141.3339 Y45.4315 Z-1.8137 I1.0762 J-0.6359
G1 X141.2768 Y45.3195 Z-1.8139
G3 X141.2431 Y45.248 Z-1.814 I1.1135 J-0.568
G1 X141.1932 Y45.1327 Z-1.8141
G3 X141.1641 Y45.0591 Z-1.8142 I1.1472 J-0.4964
G1 X141.1216 Y44.9409 Z-1.8144
G3 X141.0977 Y44.8672 Z-1.8145 I1.1763 J-0.4229
G1 X141.0626 Y44.7466 Z-1.8147
G3 X141.0429 Y44.67 Z-1.8148 I1.2002 J-0.3492
G1 X141.0155 Y44.5474 Z-1.8149
G3 X141.0007 Y44.4698 Z-1.815 I1.2199 J-0.2726
G1 X140.9811 Y44.3457 Z-1.8152
G3 X140.9714 Y44.269 Z-1.8153 I1.2347 J-0.195
G1 X140.9595 Y44.144 Z-1.8154
G3 X140.9545 Y44.0644 Z-1.8155 I1.2444 J-0.1184
G1 X140.9506 Y43.9388 Z-1.8157
G3 Y43.8612 Z-1.8158 I1.2494 J-0.0388
G1 X140.9545 Y43.7356 Z-1.8159
G3 X140.9595 Y43.656 Z-1.816 I1.2494 J0.0388
G1 X140.9714 Y43.531 Z-1.8162
G3 X140.9811 Y43.4543 Z-1.8163 I1.2444 J0.1184
G1 X141.0007 Y43.3302 Z-1.8164
G3 X141.0155 Y43.2526 Z-1.8165 I1.2347 J0.195
G1 X141.0429 Y43.13 Z-1.8167
G3 X141.0626 Y43.0534 Z-1.8168 I1.2199 J0.2726
G1 X141.0977 Y42.9328 Z-1.8169
G3 X141.1216 Y42.8591 Z-1.817 I1.2002 J0.3492
G1 X141.1641 Y42.7409 Z-1.8172
G3 X141.1932 Y42.6673 Z-1.8173 I1.1763 J0.4229
G1 X141.2431 Y42.552 Z-1.8174
G3 X141.2768 Y42.4805 Z-1.8175 I1.1472 J0.4964
G1 X141.3339 Y42.3685 Z-1.8177
G3 X141.3712 Y42.3006 Z-1.8178 I1.1135 J0.568
G1 X141.4351 Y42.1924 Z-1.818
G3 X141.4778 Y42.1252 Z-1.8181 I1.0762 J0.6359
G1 X141.5485 Y42.0213 Z-1.8182
G3 X141.5943 Y41.9584 Z-1.8183 I1.0335 J0.7031
G1 X141.65 Y41.8865 Z-1.8184
G1 Y32.4135 Z-1.8302
G1 X141.5943 Y32.3416 Z-1.8303
G3 X141.5485 Y32.2787 Z-1.8304 I0.9877 J-0.7661
G1 X141.4778 Y32.1748 Z-1.8306
G3 X141.4351 Y32.1076 Z-1.8307 I1.0335 J-0.7031
G1 X141.3712 Y31.9994 Z-1.8308
G3 X141.3339 Y31.9315 Z-1.8309 I1.0762 J-0.6359
G1 X141.2768 Y31.8195 Z-1.8311
G3 X141.2431 Y31.748 Z-1.8312 I1.1135 J-0.568
G1 X141.1932 Y31.6327 Z-1.8313
G3 X141.1641 Y31.5591 Z-1.8314 I1.1472 J-0.4964
G1 X141.1216 Y31.4409 Z-1.8316
G3 X141.0977 Y31.3672 Z-1.8317 I1.1763 J-0.4229
G1 X141.0626 Y31.2466 Z-1.8318
G3 X141.0429 Y31.17 Z-1.8319 I1.2002 J-0.3492
G1 X141.0155 Y31.0474 Z-1.8321
G3 X141.0007 Y30.9698 Z-1.8322 I1.2199 J-0.2726
G1 X140.9811 Y30.8457 Z-1.8323
G3 X140.9714 Y30.769 Z-1.8324 I1.2347 J-0.195
G1 X140.9595 Y30.644 Z-1.8326
G3 X140.9545 Y30.5644 Z-1.8327 I1.2444 J-0.1184
G1 X140.9506 Y30.4388 Z-1.8328
G3 Y30.3612 Z-1.8329 I1.2494 J-0.0388
G1 X140.9545 Y30.2356 Z-1.8331
G3 X140.9595 Y30.156 Z-1.8332 I1.2494 J0.0388
G1 X140.9714 Y30.031 Z-1.8334
G3 X140.9811 Y29.9543 I1.2444 J0.1184
G1 X141.0007 Y29.8302 Z-1.8336
G3 X141.0155 Y29.7526 Z-1.8337 I1.2347 J0.195
G1 X141.0429 Y29.63 Z-1.8339
G3 X141.0626 Y29.5534 Z-1.834 I1.2199 J0.2726
G1 X141.0977 Y29.4328 Z-1.8341
G3 X141.1216 Y29.3591 Z-1.8342 I1.2002 J0.3492
G1 X141.1641 Y29.2409 Z-1.8344
G3 X141.1932 Y29.1673 Z-1.8345 I1.1763 J0.4229
G1 X141.2431 Y29.052 Z-1.8346
G3 X141.2768 Y28.9805 Z-1.8347 I1.1472 J0.4964
G1 X141.3339 Y28.8685 Z-1.8349
G3 X141.3712 Y28.8006 Z-1.835 I1.1135 J0.568
G1 X141.4351 Y28.6924 Z-1.8351
G3 X141.4778 Y28.6252 Z-1.8352 I1.0762 J0.6359
G1 X141.5485 Y28.5213 Z-1.8354
G3 X141.5943 Y28.4584 Z-1.8355 I1.0335 J0.7031
G1 X141.65 Y28.3865 Z-1.8356
G1 Y24.65 Z-1.8402
G1 X136.4135 Z-1.8467
G1 X136.3421 Y24.7054 Z-1.8469
G3 X136.2788 Y24.7514 Z-1.847 I-0.7665 J-0.9874
G1 X136.1749 Y24.8221 Z-1.8471
G3 X136.1073 Y24.865 Z-1.8472 I-0.7032 J-1.0334
G1 X135.9991 Y24.9289 Z-1.8474
G3 X135.9317 Y24.966 Z-1.8475 I-0.6356 J-1.0763
G1 X135.8198 Y25.0231 Z-1.8476
G3 X135.7477 Y25.057 Z-1.8477 I-0.5682 J-1.1134
G1 X135.6323 Y25.1069 Z-1.8479
G3 X135.5591 Y25.1359 Z-1.848 I-0.4961 J-1.1473
G1 X135.4409 Y25.1784 Z-1.8481
G3 X135.3673 Y25.2023 Z-1.8482 I-0.4229 J-1.1763
G1 X135.2467 Y25.2374 Z-1.8484
G3 X135.17 Y25.2571 Z-1.8485 I-0.3493 J-1.2002
G1 X135.0474 Y25.2845 Z-1.8486
G3 X134.9698 Y25.2993 Z-1.8487 I-0.2726 J-1.2199
G1 X134.8457 Y25.3189 Z-1.8489
G3 X134.7691 Y25.3286 Z-1.849 I-0.195 J-1.2347
G1 X134.644 Y25.3405 Z-1.8491
G3 X134.5644 Y25.3455 Z-1.8492 I-0.1184 J-1.2444
G1 X134.4388 Y25.3494 Z-1.8494
G3 X134.3612 Z-1.8495 I-0.0388 J-1.2494
G1 X134.2356 Y25.3455 Z-1.8496
G3 X134.156 Y25.3405 Z-1.8497 I0.0388 J-1.2494
G1 X134.0309 Y25.3286 Z-1.8499
G3 X133.9543 Y25.3189 Z-1.85 I0.1184 J-1.2444
G1 X133.8302 Y25.2993 Z-1.8502
G3 X133.7526 Y25.2845 Z-1.8503 I0.195 J-1.2347
G1 X133.63 Y25.2571 Z-1.8504
G3 X133.5533 Y25.2374 Z-1.8505 I0.2726 J-1.2199
G1 X133.4327 Y25.2023 Z-1.8507
G3 X133.3594 Y25.1785 Z-1.8508 I0.3493 J-1.2002
G1 X133.2411 Y25.136 Z-1.8509
G3 X133.1672 Y25.1068 Z-1.851 I0.4226 J-1.1764
G1 X133.0519 Y25.0569 Z-1.8512
G3 X132.9802 Y25.0231 Z-1.8513 I0.4965 J-1.1472
G1 X132.8683 Y24.966 Z-1.8514
G3 X132.8009 Y24.9289 Z-1.8515 I0.5682 J-1.1134
G1 X132.6927 Y24.865 Z-1.8517
G3 X132.6251 Y24.8221 Z-1.8518 I0.6356 J-1.0763
G1 X132.5212 Y24.7514 Z-1.8519
G3 X132.4579 Y24.7054 Z-1.852 I0.7032 J-1.0334
G1 X132.3865 Y24.65 Z-1.8521
G1 X83.9135 Z-1.9124
G1 X83.8416 Y24.7057 Z-1.9125
G3 X83.7787 Y24.7515 Z-1.9126 I-0.7661 J-0.9877
G1 X83.6748 Y24.8222 Z-1.9128
G3 X83.6075 Y24.8649 Z-1.9129 I-0.7031 J-1.0335
G1 X83.4994 Y24.9288 Z-1.913
G3 X83.4315 Y24.9661 Z-1.9131 I-0.6359 J-1.0762
G1 X83.3195 Y25.0232 Z-1.9133
G3 X83.248 Y25.0569 Z-1.9134 I-0.568 J-1.1135
G1 X83.1327 Y25.1068 Z-1.9135
G3 X83.0591 Y25.1359 Z-1.9136 I-0.4964 J-1.1472
G1 X82.9409 Y25.1784 Z-1.9138
G3 X82.8672 Y25.2023 Z-1.9139 I-0.4229 J-1.1763
G1 X82.7465 Y25.2374 Z-1.914
G3 X82.67 Y25.2571 Z-1.9141 I-0.3492 J-1.2002
G1 X82.5474 Y25.2845 Z-1.9143
G3 X82.4698 Y25.2993 Z-1.9144 I-0.2726 J-1.2199
G1 X82.3457 Y25.3189 Z-1.9145
G3 X82.2691 Y25.3286 Z-1.9146 I-0.195 J-1.2347
G1 X82.144 Y25.3405 Z-1.9148
G3 X82.0644 Y25.3455 Z-1.9149 I-0.1184 J-1.2444
G1 X81.9388 Y25.3494 Z-1.915
G3 X81.8612 Z-1.9151 I-0.0388 J-1.2494
G1 X81.7356 Y25.3455 Z-1.9153
G3 X81.656 Y25.3405 Z-1.9154 I0.0388 J-1.2494
G1 X81.5309 Y25.3286 Z-1.9156
G3 X81.4543 Y25.3189 Z-1.9157 I0.1184 J-1.2444
G1 X81.3302 Y25.2993 Z-1.9158
G3 X81.2526 Y25.2845 Z-1.9159 I0.195 J-1.2347
G1 X81.13 Y25.2571 Z-1.9161
G3 X81.0535 Y25.2374 Z-1.9162 I0.2726 J-1.2199
G1 X80.9328 Y25.2023 Z-1.9163
G3 X80.8591 Y25.1784 Z-1.9164 I0.3492 J-1.2002
G1 X80.7409 Y25.1359 Z-1.9166
G3 X80.6673 Y25.1068 Z-1.9167 I0.4229 J-1.1763
G1 X80.552 Y25.0569 Z-1.9168
G3 X80.4805 Y25.0232 Z-1.9169 I0.4964 J-1.1472
G1 X80.3685 Y24.9661 Z-1.9171
G3 X80.3006 Y24.9288 Z-1.9172 I0.568 J-1.1135
G1 X80.1925 Y24.8649 Z-1.9173
G3 X80.1252 Y24.8222 Z-1.9174 I0.6359 J-1.0762
G1 X80.0213 Y24.7515 Z-1.9176
G3 X79.9584 Y24.7057 Z-1.9177 I0.7031 J-1.0335
G1 X79.8865 Y24.65 Z-1.9178
G1 X31.4135 Z-1.978
G1 X31.3421 Y24.7054 Z-1.9782
G3 X31.2788 Y24.7514 Z-1.9783 I-0.7665 J-0.9874
G1 X31.1749 Y24.8221 Z-1.9784
G3 X31.1073 Y24.865 Z-1.9785 I-0.7032 J-1.0334
G1 X30.9991 Y24.9289 Z-1.9787
G3 X30.9317 Y24.966 Z-1.9788 I-0.6356 J-1.0763
G1 X30.8198 Y25.0231 Z-1.9789
G3 X30.7481 Y25.0569 Z-1.979 I-0.5682 J-1.1134
G1 X30.6328 Y25.1068 Z-1.9792
G3 X30.5589 Y25.136 Z-1.9793 I-0.4965 J-1.1472
G1 X30.4406 Y25.1785 Z-1.9794
G3 X30.3673 Y25.2023 Z-1.9795 I-0.4226 J-1.1764
G1 X30.2467 Y25.2374 Z-1.9797
G3 X30.17 Y25.2571 Z-1.9798 I-0.3493 J-1.2002
G1 X30.0474 Y25.2845 Z-1.9799
G3 X29.9698 Y25.2993 Z-1.98 I-0.2726 J-1.2199
G1 X29.8457 Y25.3189 Z-1.9802
G3 X29.7691 Y25.3286 Z-1.9803 I-0.195 J-1.2347
G1 X29.644 Y25.3405 Z-1.9804
G3 X29.5644 Y25.3455 Z-1.9805 I-0.1184 J-1.2444
G1 X29.4388 Y25.3494 Z-1.9807
G3 X29.3612 Z-1.9808 I-0.0388 J-1.2494
G1 X29.2356 Y25.3455 Z-1.981
G3 X29.156 Y25.3405 Z-1.9811 I0.0388 J-1.2494
G1 X29.0309 Y25.3286 Z-1.9812
G3 X28.9543 Y25.3189 Z-1.9813 I0.1184 J-1.2444
G1 X28.8302 Y25.2993 Z-1.9815
G3 X28.7526 Y25.2845 Z-1.9816 I0.195 J-1.2347
G1 X28.63 Y25.2571 Z-1.9817
G3 X28.5533 Y25.2374 Z-1.9818 I0.2726 J-1.2199
G1 X28.4327 Y25.2023 Z-1.982
G3 X28.3591 Y25.1784 Z-1.9821 I0.3493 J-1.2002
G1 X28.2409 Y25.1359 Z-1.9822
G3 X28.1677 Y25.1069 Z-1.9823 I0.4229 J-1.1763
G1 X28.0523 Y25.057 Z-1.9825
G3 X27.9802 Y25.0231 Z-1.9826 I0.4961 J-1.1473
G1 X27.8683 Y24.966 Z-1.9827
G3 X27.8009 Y24.9289 Z-1.9828 I0.5682 J-1.1134
G1 X27.6927 Y24.865 Z-1.983
G3 X27.6251 Y24.8221 Z-1.9831 I0.6356 J-1.0763
G1 X27.5212 Y24.7514 Z-1.9832
