( Made using CamBam - http://www.cambam.co.uk )
( ssc_Front_PANELS_prod_v3_1 2/6/2021 11:08:51 AM )
( T2 : 2.0 )
( CUTVIEWER )
( FROM/0,0,5 )
( Select dummy tool to avoid warnings )
( TOOL/MILL,1,0,20.0,0 )
( STOCK/BLOCK,180.0,100.0,6.0,10.0,10.0,6.0 )
G21 G90 G91.1 G64 G40
G0 Z3.0
( T2 : 2.0 )
( Tool Taper coming soon )
( TOOL/MILL,2.0,0.0,0.0,0 )
T2 M6
( LED_display_window_profile )
G17
M3 S1000
G0 X140.4 Y62.9
G0 Z1.0
G1 F150.0 Z0.0
G1 F180.0 Y25.9 Z-0.0481
G1 X23.4 Z-0.2
G1 Y62.9 Z-0.2481
G1 X140.4 Z-0.4
G1 Y25.9 Z-0.4481
G1 X23.4 Z-0.6
G1 Y62.9 Z-0.6481
G1 X140.4 Z-0.8
G1 Y25.9 Z-0.8481
G1 X23.4 Z-1.0
G1 Y62.9 Z-1.0481
G1 X140.4 Z-1.2
G1 Y25.9 Z-1.2481
G1 X23.4 Z-1.4
G1 Y62.9 Z-1.4481
G1 X140.4 Z-1.6
G1 Y25.9 Z-1.6481
G1 X23.4 Z-1.8
G1 Y62.9 Z-1.8481
G1 X140.4 Z-2.0
G1 Y25.9 Z-2.0481
G1 X23.4 Z-2.2
G1 Y62.9 Z-2.2481
G1 X140.4 Z-2.4
G1 Y25.9 Z-2.4481
G1 X23.4 Z-2.6
G1 Y62.9 Z-2.6481
G1 X140.4 Z-2.8
G1 Y25.9 Z-2.8481
G1 X23.4 Z-3.0
G1 Y62.9 Z-3.0481
G1 X140.4 Z-3.2
G1 Y25.9 Z-3.2481
G1 X23.4 Z-3.4
G1 Y62.9 Z-3.4481
G1 X140.4 Z-3.6
G1 Y25.9 Z-3.6481
G1 X23.4 Z-3.8
G1 Y62.9 Z-3.8481
G1 X140.4 Z-4.0
G1 Y25.9 Z-4.0481
G1 X23.4 Z-4.2
G1 Y62.9 Z-4.2481
G1 X140.4 Z-4.4
G1 Y25.9 Z-4.4481
G1 X23.4 Z-4.6
G1 Y62.9 Z-4.6481
G1 X140.4 Z-4.8
G1 Y25.9 Z-4.8481
G1 X23.4 Z-5.0
G1 Y62.9 Z-5.0481
G1 X140.4 Z-5.2
G1 Y25.9 Z-5.2481
G1 X23.4 Z-5.4
G1 Y62.9 Z-5.4481
G1 X140.4 Z-5.6
G1 Y25.9 Z-5.6481
G1 X23.4 Z-5.8
G1 Y62.9 Z-5.8481
G1 X140.4 Z-6.0
G1 Y25.9 Z-6.036
G1 X23.4 Z-6.15
G1 Y62.9 Z-6.186
G1 X140.4 Z-6.3
G1 Y25.9
G1 X23.4
G1 Y62.9
G1 X140.4
( LED_display_fixing_profile )
S1000
G0 Z3.0
G0 X21.9 Y32.3259
G0 Z1.0
G1 F150.0 Z0.0
G1 F180.0 Y41.9741 Z-0.0119
G3 X21.9312 Y42.0123 Z-0.012 I-0.759 J0.6511
G1 X22.0082 Y42.1116 Z-0.0121
G3 X22.0448 Y42.1619 Z-0.0122 I-0.7902 J0.6129
G1 X22.1155 Y42.2659 Z-0.0124
G3 X22.1496 Y42.3196 I-0.8268 J0.5625
G1 X22.2135 Y42.4278 Z-0.0126
G3 X22.2434 Y42.4821 Z-0.0127 I-0.8609 J0.5087
G1 X22.3005 Y42.5941 Z-0.0128
G3 X22.3275 Y42.6513 Z-0.0129 I-0.8908 J0.4544
G1 X22.3774 Y42.7666 Z-0.0131
G3 X22.4006 Y42.8254 I-0.9178 J0.3972
G1 X22.4431 Y42.9437 Z-0.0133
G3 X22.4623 Y43.0026 Z-0.0134 I-0.941 J0.3383
G1 X22.4974 Y43.1233 Z-0.0135
G3 X22.5131 Y43.1845 Z-0.0136 I-0.9602 J0.2793
G1 X22.5405 Y43.3072 Z-0.0138
G3 X22.5524 Y43.3692 I-0.9759 J0.2181
G1 X22.572 Y43.4933 Z-0.014
G3 X22.5797 Y43.5546 Z-0.0141 I-0.9878 J0.156
G1 X22.5916 Y43.6797 Z-0.0142
G3 X22.5956 Y43.7434 Z-0.0143 I-0.9955 J0.0947
G1 X22.5995 Y43.869 Z-0.0145
G3 Y43.931 I-0.9995 J0.031
G1 X22.5956 Y44.0566 Z-0.0147
G3 X22.5916 Y44.1203 Z-0.0148 I-0.9995 J-0.031
G1 X22.5797 Y44.2454 Z-0.0149
G3 X22.572 Y44.3067 Z-0.015 I-0.9955 J-0.0947
G1 X22.5524 Y44.4308 Z-0.0152
G3 X22.5405 Y44.4928 I-0.9878 J-0.156
G1 X22.5131 Y44.6155 Z-0.0154
G3 X22.4974 Y44.6767 Z-0.0155 I-0.9759 J-0.2181
G1 X22.4623 Y44.7974 Z-0.0156
G3 X22.4431 Y44.8563 Z-0.0157 I-0.9602 J-0.2793
G1 X22.4006 Y44.9746 Z-0.0159
G3 X22.3774 Y45.0334 I-0.941 J-0.3383
G1 X22.3275 Y45.1487 Z-0.0161
G3 X22.3005 Y45.2059 Z-0.0162 I-0.9178 J-0.3972
G1 X22.2434 Y45.3179 Z-0.0163
G3 X22.2135 Y45.3722 Z-0.0164 I-0.8908 J-0.4544
G1 X22.1496 Y45.4804 Z-0.0165
G3 X22.1155 Y45.5341 Z-0.0166 I-0.8609 J-0.5087
G1 X22.0448 Y45.6381 Z-0.0168
G3 X22.0082 Y45.6884 Z-0.0169 I-0.8268 J-0.5625
G1 X21.9312 Y45.7877 Z-0.017
G3 X21.9 Y45.8259 Z-0.0171 I-0.7902 J-0.6129
G1 Y55.4741 Z-0.029
G3 X21.931 Y55.512 I-0.759 J0.6511
G1 X22.008 Y55.6112 Z-0.0292
G3 X22.0447 Y55.6618 Z-0.0293 I-0.79 J0.6132
G1 X22.1154 Y55.7657 Z-0.0294
G3 X22.1498 Y55.8198 Z-0.0295 I-0.8267 J0.5626
G1 X22.2137 Y55.928 Z-0.0297
G3 X22.2433 Y55.982 I-0.8611 J0.5085
G1 X22.3004 Y56.0939 Z-0.0299
G3 X22.3276 Y56.1515 Z-0.03 I-0.8907 J0.4545
G1 X22.3775 Y56.2669 Z-0.0301
G3 X22.4006 Y56.3254 Z-0.0302 I-0.9179 J0.3969
G1 X22.4431 Y56.4436 Z-0.0304
G3 X22.4623 Y56.5026 I-0.941 J0.3384
G1 X22.4974 Y56.6232 Z-0.0306
G3 X22.5131 Y56.6845 Z-0.0307 I-0.9602 J0.2794
G1 X22.5405 Y56.8071 Z-0.0308
G3 X22.5524 Y56.8692 Z-0.0309 I-0.9759 J0.2181
G1 X22.572 Y56.9933 Z-0.0311
G3 X22.5797 Y57.0546 I-0.9878 J0.156
G1 X22.5916 Y57.1797 Z-0.0313
G3 X22.5956 Y57.2434 Z-0.0314 I-0.9955 J0.0947
G1 X22.5995 Y57.369 Z-0.0315
G3 Y57.431 Z-0.0316 I-0.9995 J0.031
G1 X22.5956 Y57.5566 Z-0.0318
G3 X22.5916 Y57.6203 I-0.9995 J-0.031
G1 X22.5797 Y57.7454 Z-0.032
G3 X22.572 Y57.8067 Z-0.0321 I-0.9955 J-0.0947
G1 X22.5524 Y57.9308 Z-0.0322
G3 X22.5405 Y57.9929 Z-0.0323 I-0.9878 J-0.156
G1 X22.5131 Y58.1155 Z-0.0325
G3 X22.4974 Y58.1768 I-0.9759 J-0.2181
G1 X22.4623 Y58.2974 Z-0.0327
G3 X22.4431 Y58.3564 Z-0.0328 I-0.9602 J-0.2794
G1 X22.4006 Y58.4746 Z-0.0329
G3 X22.3775 Y58.5331 Z-0.033 I-0.941 J-0.3384
G1 X22.3276 Y58.6485 Z-0.0332
G3 X22.3004 Y58.7061 I-0.9179 J-0.3969
G1 X22.2433 Y58.818 Z-0.0334
G3 X22.2137 Y58.872 Z-0.0335 I-0.8907 J-0.4545
G1 X22.1498 Y58.9802 Z-0.0336
G3 X22.1154 Y59.0343 Z-0.0337 I-0.8611 J-0.5085
G1 X22.0447 Y59.1382 Z-0.0339
G3 X22.008 Y59.1888 I-0.8267 J-0.5626
G1 X21.931 Y59.288 Z-0.0341
G3 X21.9 Y59.3259 Z-0.0342 I-0.79 J-0.6132
G1 Y64.4 Z-0.0404
G1 X27.4741 Z-0.0473
G3 X27.512 Y64.369 Z-0.0474 I0.6511 J0.759
G1 X27.6112 Y64.292 Z-0.0475
G3 X27.6618 Y64.2553 Z-0.0476 I0.6132 J0.79
G1 X27.7657 Y64.1846 Z-0.0477
G3 X27.8198 Y64.1502 Z-0.0478 I0.5626 J0.8267
G1 X27.928 Y64.0863 Z-0.048
G3 X27.982 Y64.0567 Z-0.0481 I0.5085 J0.8611
G1 X28.0939 Y63.9996 Z-0.0482
G3 X28.1515 Y63.9724 Z-0.0483 I0.4545 J0.8907
G1 X28.2669 Y63.9225 Z-0.0484
G3 X28.3254 Y63.8994 Z-0.0485 I0.3969 J0.9179
G1 X28.4436 Y63.8569 Z-0.0487
G3 X28.5026 Y63.8377 Z-0.0488 I0.3384 J0.941
G1 X28.6232 Y63.8026 Z-0.0489
G3 X28.6845 Y63.7869 Z-0.049 I0.2794 J0.9602
G1 X28.8071 Y63.7595 Z-0.0491
G3 X28.8692 Y63.7476 Z-0.0492 I0.2181 J0.9759
G1 X28.9933 Y63.728 Z-0.0494
G3 X29.0546 Y63.7203 Z-0.0495 I0.156 J0.9878
G1 X29.1797 Y63.7084 Z-0.0496
G3 X29.2434 Y63.7044 Z-0.0497 I0.0947 J0.9955
G1 X29.369 Y63.7005 Z-0.0498
G3 X29.431 Z-0.0499 I0.031 J0.9995
G1 X29.5566 Y63.7044 Z-0.0501
G3 X29.6203 Y63.7084 Z-0.0502 I-0.031 J0.9995
G1 X29.7454 Y63.7203 Z-0.0503
G3 X29.8067 Y63.728 Z-0.0504 I-0.0947 J0.9955
G1 X29.9308 Y63.7476 Z-0.0505
G3 X29.9929 Y63.7595 Z-0.0506 I-0.156 J0.9878
G1 X30.1155 Y63.7869 Z-0.0508
G3 X30.1768 Y63.8026 Z-0.0509 I-0.2181 J0.9759
G1 X30.2974 Y63.8377 Z-0.051
G3 X30.3561 Y63.8568 Z-0.0511 I-0.2794 J0.9602
G1 X30.4744 Y63.8993 Z-0.0512
G3 X30.5335 Y63.9227 Z-0.0513 I-0.3381 J0.9411
G1 X30.6488 Y63.9726 Z-0.0515
G3 X30.7061 Y63.9996 Z-0.0516 I-0.3972 J0.9177
G1 X30.818 Y64.0567 Z-0.0517
G3 X30.872 Y64.0863 Z-0.0518 I-0.4545 J0.8907
G1 X30.9802 Y64.1502 Z-0.0519
G3 X31.0343 Y64.1846 Z-0.052 I-0.5085 J0.8611
G1 X31.1382 Y64.2553 Z-0.0522
G3 X31.1888 Y64.292 I-0.5626 J0.8267
G1 X31.288 Y64.369 Z-0.0524
G3 X31.3259 Y64.4 Z-0.0525 I-0.6132 J0.79
G1 X79.9741 Z-0.1125
G3 X80.0123 Y64.3688 Z-0.1126 I0.6511 J0.759
G1 X80.1116 Y64.2918 Z-0.1127
G3 X80.1619 Y64.2552 Z-0.1128 I0.6129 J0.7902
G1 X80.2659 Y64.1845 Z-0.113
G3 X80.3196 Y64.1504 Z-0.1131 I0.5625 J0.8268
G1 X80.4278 Y64.0865 Z-0.1132
G3 X80.4821 Y64.0566 Z-0.1133 I0.5087 J0.8609
G1 X80.5941 Y63.9995 Z-0.1134
G3 X80.6513 Y63.9725 Z-0.1135 I0.4544 J0.8908
G1 X80.7666 Y63.9226 Z-0.1137
G3 X80.8254 Y63.8994 Z-0.1138 I0.3972 J0.9178
G1 X80.9437 Y63.8569 Z-0.1139
G3 X81.0026 Y63.8377 Z-0.114 I0.3383 J0.941
G1 X81.1233 Y63.8026 Z-0.1141
G3 X81.1845 Y63.7869 Z-0.1142 I0.2793 J0.9602
G1 X81.3072 Y63.7595 Z-0.1144
G3 X81.3692 Y63.7476 Z-0.1145 I0.2181 J0.9759
G1 X81.4933 Y63.728 Z-0.1146
G3 X81.5546 Y63.7203 Z-0.1147 I0.156 J0.9878
G1 X81.6797 Y63.7084 Z-0.1148
G3 X81.7434 Y63.7044 Z-0.1149 I0.0947 J0.9955
G1 X81.869 Y63.7005 Z-0.1151
G3 X81.931 Z-0.1152 I0.031 J0.9995
G1 X82.0566 Y63.7044 Z-0.1153
G3 X82.1203 Y63.7084 Z-0.1154 I-0.031 J0.9995
G1 X82.2454 Y63.7203 Z-0.1155
G3 X82.3067 Y63.728 Z-0.1156 I-0.0947 J0.9955
G1 X82.4308 Y63.7476 Z-0.1158
G3 X82.4928 Y63.7595 I-0.156 J0.9878
G1 X82.6155 Y63.7869 Z-0.116
G3 X82.6767 Y63.8026 Z-0.1161 I-0.2181 J0.9759
G1 X82.7974 Y63.8377 Z-0.1162
G3 X82.8563 Y63.8569 Z-0.1163 I-0.2793 J0.9602
G1 X82.9746 Y63.8994 Z-0.1165
G3 X83.0334 Y63.9226 I-0.3383 J0.941
G1 X83.1487 Y63.9725 Z-0.1167
G3 X83.2059 Y63.9995 Z-0.1168 I-0.3972 J0.9178
G1 X83.3179 Y64.0566 Z-0.1169
G3 X83.3722 Y64.0865 Z-0.117 I-0.4544 J0.8908
G1 X83.4804 Y64.1504 Z-0.1172
G3 X83.5341 Y64.1845 I-0.5087 J0.8609
G1 X83.6381 Y64.2552 Z-0.1174
G3 X83.6884 Y64.2918 Z-0.1175 I-0.5625 J0.8268
G1 X83.7877 Y64.3688 Z-0.1176
G3 X83.8259 Y64.4 Z-0.1177 I-0.6129 J0.7902
G1 X132.4741 Z-0.1778
G3 X132.512 Y64.369 I0.6511 J0.759
G1 X132.6112 Y64.292 Z-0.178
G3 X132.6618 Y64.2553 Z-0.1781 I0.6132 J0.79
G1 X132.7657 Y64.1846 Z-0.1782
G3 X132.8198 Y64.1502 Z-0.1783 I0.5626 J0.8267
G1 X132.928 Y64.0863 Z-0.1784
G3 X132.982 Y64.0567 Z-0.1785 I0.5085 J0.8611
G1 X133.0939 Y63.9996 Z-0.1787
G3 X133.1512 Y63.9726 Z-0.1788 I0.4545 J0.8907
G1 X133.2665 Y63.9227 Z-0.1789
G3 X133.3256 Y63.8993 Z-0.179 I0.3972 J0.9177
G1 X133.4439 Y63.8568 Z-0.1791
G3 X133.5026 Y63.8377 Z-0.1792 I0.3381 J0.9411
G1 X133.6232 Y63.8026 Z-0.1794
G3 X133.6845 Y63.7869 I0.2794 J0.9602
G1 X133.8071 Y63.7595 Z-0.1796
G3 X133.8692 Y63.7476 Z-0.1797 I0.2181 J0.9759
G1 X133.9933 Y63.728 Z-0.1798
G3 X134.0546 Y63.7203 Z-0.1799 I0.156 J0.9878
G1 X134.1797 Y63.7084 Z-0.1801
G3 X134.2434 Y63.7044 I0.0947 J0.9955
G1 X134.369 Y63.7005 Z-0.1803
G3 X134.431 Z-0.1804 I0.031 J0.9995
G1 X134.5566 Y63.7044 Z-0.1805
G3 X134.6203 Y63.7084 Z-0.1806 I-0.031 J0.9995
G1 X134.7454 Y63.7203 Z-0.1808
G3 X134.8067 Y63.728 I-0.0947 J0.9955
G1 X134.9308 Y63.7476 Z-0.181
G3 X134.9929 Y63.7595 Z-0.1811 I-0.156 J0.9878
G1 X135.1155 Y63.7869 Z-0.1812
G3 X135.1768 Y63.8026 Z-0.1813 I-0.2181 J0.9759
G1 X135.2974 Y63.8377 Z-0.1815
G3 X135.3564 Y63.8569 I-0.2794 J0.9602
G1 X135.4746 Y63.8994 Z-0.1817
G3 X135.5331 Y63.9225 Z-0.1818 I-0.3384 J0.941
G1 X135.6485 Y63.9724 Z-0.1819
G3 X135.7061 Y63.9996 Z-0.182 I-0.3969 J0.9179
G1 X135.818 Y64.0567 Z-0.1822
G3 X135.872 Y64.0863 I-0.4545 J0.8907
G1 X135.9802 Y64.1502 Z-0.1824
G3 X136.0343 Y64.1846 Z-0.1825 I-0.5085 J0.8611
G1 X136.1382 Y64.2553 Z-0.1826
G3 X136.1888 Y64.292 Z-0.1827 I-0.5626 J0.8267
G1 X136.288 Y64.369 Z-0.1829
G3 X136.3259 Y64.4 I-0.6132 J0.79
G1 X141.9 Z-0.1898
G1 Y59.3259 Z-0.1961
G3 X141.869 Y59.288 I0.759 J-0.6511
G1 X141.792 Y59.1888 Z-0.1963
G3 X141.7553 Y59.1382 Z-0.1964 I0.79 J-0.6132
G1 X141.6846 Y59.0343 Z-0.1965
G3 X141.6502 Y58.9802 Z-0.1966 I0.8267 J-0.5626
G1 X141.5863 Y58.872 Z-0.1968
G3 X141.5567 Y58.818 I0.8611 J-0.5085
G1 X141.4996 Y58.7061 Z-0.197
G3 X141.4724 Y58.6485 Z-0.1971 I0.8907 J-0.4545
G1 X141.4225 Y58.5331 Z-0.1972
G3 X141.3994 Y58.4746 Z-0.1973 I0.9179 J-0.3969
G1 X141.3569 Y58.3564 Z-0.1975
G3 X141.3377 Y58.2974 I0.941 J-0.3384
G1 X141.3026 Y58.1768 Z-0.1977
G3 X141.2869 Y58.1155 Z-0.1978 I0.9602 J-0.2794
G1 X141.2595 Y57.9929 Z-0.1979
G3 X141.2476 Y57.9308 Z-0.198 I0.9759 J-0.2181
G1 X141.228 Y57.8067 Z-0.1981
G3 X141.2203 Y57.7454 Z-0.1982 I0.9878 J-0.156
G1 X141.2084 Y57.6203 Z-0.1984
G3 X141.2044 Y57.5566 Z-0.1985 I0.9955 J-0.0947
G1 X141.2005 Y57.431 Z-0.1986
G3 Y57.369 Z-0.1987 I0.9995 J-0.031
G1 X141.2044 Y57.2434 Z-0.1988
G3 X141.2084 Y57.1797 Z-0.1989 I0.9995 J0.031
G1 X141.2203 Y57.0546 Z-0.1991
G3 X141.228 Y56.9933 Z-0.1992 I0.9955 J0.0947
G1 X141.2476 Y56.8692 Z-0.1993
G3 X141.2595 Y56.8071 Z-0.1994 I0.9878 J0.156
G1 X141.2869 Y56.6845 Z-0.1995
G3 X141.3026 Y56.6232 Z-0.1996 I0.9759 J0.2181
G1 X141.3377 Y56.5026 Z-0.1998
G3 X141.3569 Y56.4436 Z-0.1999 I0.9602 J0.2794
G1 X141.3994 Y56.3254 Z-0.2
G3 X141.4225 Y56.2669 Z-0.2001 I0.941 J0.3384
G1 X141.4724 Y56.1515 Z-0.2002
G3 X141.4996 Y56.0939 Z-0.2003 I0.9179 J0.3969
G1 X141.5567 Y55.982 Z-0.2005
G3 X141.5863 Y55.928 Z-0.2006 I0.8907 J0.4545
G1 X141.6502 Y55.8198 Z-0.2007
G3 X141.6846 Y55.7657 Z-0.2008 I0.8611 J0.5085
G1 X141.7553 Y55.6618 Z-0.2009
G3 X141.792 Y55.6112 Z-0.201 I0.8267 J0.5626
G1 X141.869 Y55.512 Z-0.2012
G3 X141.9 Y55.4741 I0.79 J0.6132
G1 Y45.8259 Z-0.2131
G3 X141.8688 Y45.7877 Z-0.2132 I0.759 J-0.6511
G1 X141.7918 Y45.6884 Z-0.2134
G3 X141.7552 Y45.6381 I0.7902 J-0.6129
G1 X141.6845 Y45.5341 Z-0.2136
G3 X141.6504 Y45.4804 Z-0.2137 I0.8268 J-0.5625
G1 X141.5865 Y45.3722 Z-0.2138
G3 X141.5566 Y45.3179 Z-0.2139 I0.8609 J-0.5087
G1 X141.4995 Y45.2059 Z-0.2141
G3 X141.4725 Y45.1487 I0.8908 J-0.4544
G1 X141.4226 Y45.0334 Z-0.2143
G3 X141.3994 Y44.9746 Z-0.2144 I0.9178 J-0.3972
G1 X141.3569 Y44.8563 Z-0.2145
G3 X141.3377 Y44.7974 Z-0.2146 I0.941 J-0.3383
G1 X141.3026 Y44.6767 Z-0.2148
G3 X141.2869 Y44.6155 I0.9602 J-0.2793
G1 X141.2595 Y44.4928 Z-0.215
G3 X141.2476 Y44.4308 Z-0.2151 I0.9759 J-0.2181
G1 X141.228 Y44.3067 Z-0.2152
G3 X141.2203 Y44.2454 Z-0.2153 I0.9878 J-0.156
G1 X141.2084 Y44.1203 Z-0.2155
G3 X141.2044 Y44.0566 I0.9955 J-0.0947
G1 X141.2005 Y43.931 Z-0.2157
G3 Y43.869 Z-0.2158 I0.9995 J-0.031
G1 X141.2044 Y43.7434 Z-0.2159
G3 X141.2084 Y43.6797 Z-0.216 I0.9995 J0.031
G1 X141.2203 Y43.5546 Z-0.2162
G3 X141.228 Y43.4933 I0.9955 J0.0947
G1 X141.2476 Y43.3692 Z-0.2164
G3 X141.2595 Y43.3072 Z-0.2165 I0.9878 J0.156
G1 X141.2869 Y43.1845 Z-0.2166
G3 X141.3026 Y43.1233 Z-0.2167 I0.9759 J0.2181
G1 X141.3377 Y43.0026 Z-0.2169
G3 X141.3569 Y42.9437 I0.9602 J0.2793
G1 X141.3994 Y42.8254 Z-0.2171
G3 X141.4226 Y42.7666 Z-0.2172 I0.941 J0.3383
G1 X141.4725 Y42.6513 Z-0.2173
G3 X141.4995 Y42.5941 Z-0.2174 I0.9178 J0.3972
G1 X141.5566 Y42.4821 Z-0.2176
G3 X141.5865 Y42.4278 I0.8908 J0.4544
G1 X141.6504 Y42.3196 Z-0.2178
G3 X141.6845 Y42.2659 Z-0.2179 I0.8609 J0.5087
G1 X141.7552 Y42.1619 Z-0.218
G3 X141.7918 Y42.1116 Z-0.2181 I0.8268 J0.5625
G1 X141.8688 Y42.0123 Z-0.2183
G3 X141.9 Y41.9741 I0.7902 J0.6129
G1 Y32.3259 Z-0.2302
G3 X141.8688 Y32.2877 Z-0.2303 I0.759 J-0.6511
G1 X141.7918 Y32.1884 Z-0.2304
G3 X141.7552 Y32.1381 Z-0.2305 I0.7902 J-0.6129
G1 X141.6845 Y32.0341 Z-0.2307
G3 X141.6504 Y31.9804 Z-0.2308 I0.8268 J-0.5625
G1 X141.5865 Y31.8722 Z-0.2309
G3 X141.5566 Y31.8179 Z-0.231 I0.8609 J-0.5087
G1 X141.4995 Y31.7059 Z-0.2311
G3 X141.4725 Y31.6487 Z-0.2312 I0.8908 J-0.4544
G1 X141.4226 Y31.5334 Z-0.2314
G3 X141.3994 Y31.4746 I0.9178 J-0.3972
G1 X141.3569 Y31.3563 Z-0.2316
G3 X141.3377 Y31.2974 Z-0.2317 I0.941 J-0.3383
G1 X141.3026 Y31.1767 Z-0.2318
G3 X141.2869 Y31.1155 Z-0.2319 I0.9602 J-0.2793
G1 X141.2595 Y30.9928 Z-0.2321
G3 X141.2476 Y30.9308 I0.9759 J-0.2181
G1 X141.228 Y30.8067 Z-0.2323
G3 X141.2203 Y30.7454 Z-0.2324 I0.9878 J-0.156
G1 X141.2084 Y30.6203 Z-0.2325
G3 X141.2044 Y30.5566 Z-0.2326 I0.9955 J-0.0947
G1 X141.2005 Y30.431 Z-0.2328
G3 Y30.369 I0.9995 J-0.031
G1 X141.2044 Y30.2434 Z-0.233
G3 X141.2084 Y30.1797 Z-0.2331 I0.9995 J0.031
G1 X141.2203 Y30.0546 Z-0.2332
G3 X141.228 Y29.9933 Z-0.2333 I0.9955 J0.0947
G1 X141.2476 Y29.8692 Z-0.2335
G3 X141.2595 Y29.8072 I0.9878 J0.156
G1 X141.2869 Y29.6845 Z-0.2337
G3 X141.3026 Y29.6233 Z-0.2338 I0.9759 J0.2181
G1 X141.3377 Y29.5026 Z-0.2339
G3 X141.3569 Y29.4437 Z-0.234 I0.9602 J0.2793
G1 X141.3994 Y29.3254 Z-0.2342
G3 X141.4226 Y29.2666 I0.941 J0.3383
G1 X141.4725 Y29.1513 Z-0.2344
G3 X141.4995 Y29.0941 Z-0.2345 I0.9178 J0.3972
G1 X141.5566 Y28.9821 Z-0.2346
G3 X141.5865 Y28.9278 Z-0.2347 I0.8908 J0.4544
G1 X141.6504 Y28.8196 Z-0.2349
G3 X141.6845 Y28.7659 I0.8609 J0.5087
G1 X141.7552 Y28.6619 Z-0.2351
G3 X141.7918 Y28.6116 Z-0.2352 I0.8268 J0.5625
G1 X141.8688 Y28.5123 Z-0.2353
G3 X141.9 Y28.4741 Z-0.2354 I0.7902 J0.6129
G1 Y24.4 Z-0.2404
G1 X136.3259 Z-0.2473
G3 X136.288 Y24.431 Z-0.2474 I-0.6511 J-0.759
G1 X136.1888 Y24.508 Z-0.2475
G3 X136.1382 Y24.5447 Z-0.2476 I-0.6132 J-0.79
G1 X136.0343 Y24.6154 Z-0.2477
G3 X135.9802 Y24.6498 Z-0.2478 I-0.5626 J-0.8267
G1 X135.872 Y24.7137 Z-0.248
G3 X135.818 Y24.7433 Z-0.2481 I-0.5085 J-0.8611
G1 X135.7061 Y24.8004 Z-0.2482
G3 X135.6485 Y24.8276 Z-0.2483 I-0.4545 J-0.8907
G1 X135.5331 Y24.8775 Z-0.2484
G3 X135.4746 Y24.9006 Z-0.2485 I-0.3969 J-0.9179
G1 X135.3564 Y24.9431 Z-0.2487
G3 X135.2974 Y24.9623 Z-0.2488 I-0.3384 J-0.941
G1 X135.1768 Y24.9974 Z-0.2489
G3 X135.1155 Y25.0131 Z-0.249 I-0.2794 J-0.9602
G1 X134.9929 Y25.0405 Z-0.2491
G3 X134.9308 Y25.0524 Z-0.2492 I-0.2181 J-0.9759
G1 X134.8067 Y25.072 Z-0.2494
G3 X134.7454 Y25.0797 Z-0.2495 I-0.156 J-0.9878
G1 X134.6203 Y25.0916 Z-0.2496
G3 X134.5566 Y25.0956 Z-0.2497 I-0.0947 J-0.9955
G1 X134.431 Y25.0995 Z-0.2498
G3 X134.369 Z-0.2499 I-0.031 J-0.9995
G1 X134.2434 Y25.0956 Z-0.2501
G3 X134.1797 Y25.0916 Z-0.2502 I0.031 J-0.9995
G1 X134.0546 Y25.0797 Z-0.2503
G3 X133.9933 Y25.072 Z-0.2504 I0.0947 J-0.9955
G1 X133.8692 Y25.0524 Z-0.2505
G3 X133.8071 Y25.0405 Z-0.2506 I0.156 J-0.9878
G1 X133.6845 Y25.0131 Z-0.2508
G3 X133.6232 Y24.9974 Z-0.2509 I0.2181 J-0.9759
G1 X133.5026 Y24.9623 Z-0.251
G3 X133.4439 Y24.9432 Z-0.2511 I0.2794 J-0.9602
G1 X133.3256 Y24.9007 Z-0.2512
G3 X133.2665 Y24.8773 Z-0.2513 I0.3381 J-0.9411
G1 X133.1512 Y24.8274 Z-0.2515
G3 X133.0939 Y24.8004 Z-0.2516 I0.3972 J-0.9177
G1 X132.982 Y24.7433 Z-0.2517
G3 X132.928 Y24.7137 Z-0.2518 I0.4545 J-0.8907
G1 X132.8198 Y24.6498 Z-0.2519
G3 X132.7657 Y24.6154 Z-0.252 I0.5085 J-0.8611
G1 X132.6618 Y24.5447 Z-0.2522
G3 X132.6112 Y24.508 I0.5626 J-0.8267
G1 X132.512 Y24.431 Z-0.2524
G3 X132.4741 Y24.4 Z-0.2525 I0.6132 J-0.79
G1 X83.8259 Z-0.3125
G3 X83.7877 Y24.4312 Z-0.3126 I-0.6511 J-0.759
G1 X83.6884 Y24.5082 Z-0.3127
G3 X83.6381 Y24.5448 Z-0.3128 I-0.6129 J-0.7902
G1 X83.5341 Y24.6155 Z-0.313
G3 X83.4804 Y24.6496 Z-0.3131 I-0.5625 J-0.8268
G1 X83.3722 Y24.7135 Z-0.3132
G3 X83.3179 Y24.7434 Z-0.3133 I-0.5087 J-0.8609
G1 X83.2059 Y24.8005 Z-0.3134
G3 X83.1487 Y24.8275 Z-0.3135 I-0.4544 J-0.8908
G1 X83.0334 Y24.8774 Z-0.3137
G3 X82.9746 Y24.9006 Z-0.3138 I-0.3972 J-0.9178
G1 X82.8563 Y24.9431 Z-0.3139
G3 X82.7974 Y24.9623 Z-0.314 I-0.3383 J-0.941
G1 X82.6767 Y24.9974 Z-0.3141
G3 X82.6155 Y25.0131 Z-0.3142 I-0.2793 J-0.9602
G1 X82.4928 Y25.0405 Z-0.3144
G3 X82.4308 Y25.0524 Z-0.3145 I-0.2181 J-0.9759
G1 X82.3067 Y25.072 Z-0.3146
G3 X82.2454 Y25.0797 Z-0.3147 I-0.156 J-0.9878
G1 X82.1203 Y25.0916 Z-0.3148
G3 X82.0566 Y25.0956 Z-0.3149 I-0.0947 J-0.9955
G1 X81.931 Y25.0995 Z-0.3151
G3 X81.869 Z-0.3152 I-0.031 J-0.9995
G1 X81.7434 Y25.0956 Z-0.3153
G3 X81.6797 Y25.0916 Z-0.3154 I0.031 J-0.9995
G1 X81.5546 Y25.0797 Z-0.3155
G3 X81.4933 Y25.072 Z-0.3156 I0.0947 J-0.9955
G1 X81.3692 Y25.0524 Z-0.3158
G3 X81.3072 Y25.0405 I0.156 J-0.9878
G1 X81.1845 Y25.0131 Z-0.316
G3 X81.1233 Y24.9974 Z-0.3161 I0.2181 J-0.9759
G1 X81.0026 Y24.9623 Z-0.3162
G3 X80.9437 Y24.9431 Z-0.3163 I0.2793 J-0.9602
G1 X80.8254 Y24.9006 Z-0.3165
G3 X80.7666 Y24.8774 I0.3383 J-0.941
G1 X80.6513 Y24.8275 Z-0.3167
G3 X80.5941 Y24.8005 Z-0.3168 I0.3972 J-0.9178
G1 X80.4821 Y24.7434 Z-0.3169
G3 X80.4278 Y24.7135 Z-0.317 I0.4544 J-0.8908
G1 X80.3196 Y24.6496 Z-0.3172
G3 X80.2659 Y24.6155 I0.5087 J-0.8609
G1 X80.1619 Y24.5448 Z-0.3174
G3 X80.1116 Y24.5082 Z-0.3175 I0.5625 J-0.8268
G1 X80.0123 Y24.4312 Z-0.3176
G3 X79.9741 Y24.4 Z-0.3177 I0.6129 J-0.7902
G1 X31.3259 Z-0.3778
G3 X31.288 Y24.431 I-0.6511 J-0.759
G1 X31.1888 Y24.508 Z-0.378
G3 X31.1382 Y24.5447 Z-0.3781 I-0.6132 J-0.79
G1 X31.0343 Y24.6154 Z-0.3782
G3 X30.9802 Y24.6498 Z-0.3783 I-0.5626 J-0.8267
G1 X30.872 Y24.7137 Z-0.3784
G3 X30.818 Y24.7433 Z-0.3785 I-0.5085 J-0.8611
G1 X30.7061 Y24.8004 Z-0.3787
G3 X30.6488 Y24.8274 Z-0.3788 I-0.4545 J-0.8907
G1 X30.5335 Y24.8773 Z-0.3789
G3 X30.4744 Y24.9007 Z-0.379 I-0.3972 J-0.9177
G1 X30.3561 Y24.9432 Z-0.3791
G3 X30.2974 Y24.9623 Z-0.3792 I-0.3381 J-0.9411
G1 X30.1768 Y24.9974 Z-0.3794
G3 X30.1155 Y25.0131 I-0.2794 J-0.9602
G1 X29.9929 Y25.0405 Z-0.3796
G3 X29.9308 Y25.0524 Z-0.3797 I-0.2181 J-0.9759
G1 X29.8067 Y25.072 Z-0.3798
G3 X29.7454 Y25.0797 Z-0.3799 I-0.156 J-0.9878
G1 X29.6203 Y25.0916 Z-0.3801
G3 X29.5566 Y25.0956 I-0.0947 J-0.9955
G1 X29.431 Y25.0995 Z-0.3803
G3 X29.369 Z-0.3804 I-0.031 J-0.9995
G1 X29.2434 Y25.0956 Z-0.3805
G3 X29.1797 Y25.0916 Z-0.3806 I0.031 J-0.9995
G1 X29.0546 Y25.0797 Z-0.3808
G3 X28.9933 Y25.072 I0.0947 J-0.9955
G1 X28.8692 Y25.0524 Z-0.381
G3 X28.8071 Y25.0405 Z-0.3811 I0.156 J-0.9878
G1 X28.6845 Y25.0131 Z-0.3812
G3 X28.6232 Y24.9974 Z-0.3813 I0.2181 J-0.9759
G1 X28.5026 Y24.9623 Z-0.3815
G3 X28.4436 Y24.9431 I0.2794 J-0.9602
G1 X28.3254 Y24.9006 Z-0.3817
G3 X28.2669 Y24.8775 Z-0.3818 I0.3384 J-0.941
G1 X28.1515 Y24.8276 Z-0.3819
G3 X28.0939 Y24.8004 Z-0.382 I0.3969 J-0.9179
G1 X27.982 Y24.7433 Z-0.3822
G3 X27.928 Y24.7137 I0.4545 J-0.8907
G1 X27.8198 Y24.6498 Z-0.3824
G3 X27.7657 Y24.6154 Z-0.3825 I0.5085 J-0.8611
G1 X27.6618 Y24.5447 Z-0.3826
G3 X27.6112 Y24.508 Z-0.3827 I0.5626 J-0.8267
G1 X27.512 Y24.431 Z-0.3829
G3 X27.4741 Y24.4 I0.6132 J-0.79
G1 X21.9 Z-0.3898
G1 Y28.4741 Z-0.3948
G3 X21.9312 Y28.5123 Z-0.3949 I-0.759 J0.6511
G1 X22.0082 Y28.6116 Z-0.3951
G3 X22.0448 Y28.6619 I-0.7902 J0.6129
G1 X22.1155 Y28.7659 Z-0.3953
G3 X22.1496 Y28.8196 Z-0.3954 I-0.8268 J0.5625
G1 X22.2135 Y28.9278 Z-0.3955
G3 X22.2434 Y28.9821 Z-0.3956 I-0.8609 J0.5087
G1 X22.3005 Y29.0941 Z-0.3957
G3 X22.3275 Y29.1513 Z-0.3958 I-0.8908 J0.4544
G1 X22.3774 Y29.2666 Z-0.396
G3 X22.4006 Y29.3254 Z-0.3961 I-0.9178 J0.3972
G1 X22.4431 Y29.4437 Z-0.3962
G3 X22.4623 Y29.5026 Z-0.3963 I-0.941 J0.3383
G1 X22.4974 Y29.6233 Z-0.3964
G3 X22.5131 Y29.6845 Z-0.3965 I-0.9602 J0.2793
G1 X22.5405 Y29.8072 Z-0.3967
G3 X22.5524 Y29.8692 Z-0.3968 I-0.9759 J0.2181
G1 X22.572 Y29.9933 Z-0.3969
G3 X22.5797 Y30.0546 Z-0.397 I-0.9878 J0.156
G1 X22.5916 Y30.1797 Z-0.3971
G3 X22.5956 Y30.2434 Z-0.3972 I-0.9955 J0.0947
G1 X22.5995 Y30.369 Z-0.3974
G3 Y30.431 Z-0.3975 I-0.9995 J0.031
G1 X22.5956 Y30.5566 Z-0.3976
G3 X22.5916 Y30.6203 Z-0.3977 I-0.9995 J-0.031
G1 X22.5797 Y30.7454 Z-0.3978
G3 X22.572 Y30.8067 Z-0.3979 I-0.9955 J-0.0947
G1 X22.5524 Y30.9308 Z-0.3981
G3 X22.5405 Y30.9928 Z-0.3982 I-0.9878 J-0.156
G1 X22.5131 Y31.1155 Z-0.3983
G3 X22.4974 Y31.1767 Z-0.3984 I-0.9759 J-0.2181
G1 X22.4623 Y31.2974 Z-0.3985
G3 X22.4431 Y31.3563 Z-0.3986 I-0.9602 J-0.2793
G1 X22.4006 Y31.4746 Z-0.3988
G3 X22.3774 Y31.5334 Z-0.3989 I-0.941 J-0.3383
G1 X22.3275 Y31.6487 Z-0.399
G3 X22.3005 Y31.7059 Z-0.3991 I-0.9178 J-0.3972
G1 X22.2434 Y31.8179 Z-0.3992
G3 X22.2135 Y31.8722 Z-0.3993 I-0.8908 J-0.4544
G1 X22.1496 Y31.9804 Z-0.3995
G3 X22.1155 Y32.0341 Z-0.3996 I-0.8609 J-0.5087
G1 X22.0448 Y32.1381 Z-0.3997
G3 X22.0082 Y32.1884 Z-0.3998 I-0.8268 J-0.5625
G1 X21.9312 Y32.2877 Z-0.3999
G3 X21.9 Y32.3259 Z-0.4 I-0.7902 J-0.6129
G1 Y41.9741 Z-0.4119
G3 X21.9312 Y42.0123 Z-0.412 I-0.759 J0.6511
G1 X22.0082 Y42.1116 Z-0.4121
G3 X22.0448 Y42.1619 Z-0.4122 I-0.7902 J0.6129
G1 X22.1155 Y42.2659 Z-0.4124
G3 X22.1496 Y42.3196 I-0.8268 J0.5625
G1 X22.2135 Y42.4278 Z-0.4126
G3 X22.2434 Y42.4821 Z-0.4127 I-0.8609 J0.5087
G1 X22.3005 Y42.5941 Z-0.4128
G3 X22.3275 Y42.6513 Z-0.4129 I-0.8908 J0.4544
G1 X22.3774 Y42.7666 Z-0.4131
G3 X22.4006 Y42.8254 I-0.9178 J0.3972
G1 X22.4431 Y42.9437 Z-0.4133
G3 X22.4623 Y43.0026 Z-0.4134 I-0.941 J0.3383
G1 X22.4974 Y43.1233 Z-0.4135
G3 X22.5131 Y43.1845 Z-0.4136 I-0.9602 J0.2793
G1 X22.5405 Y43.3072 Z-0.4138
G3 X22.5524 Y43.3692 I-0.9759 J0.2181
G1 X22.572 Y43.4933 Z-0.414
G3 X22.5797 Y43.5546 Z-0.4141 I-0.9878 J0.156
G1 X22.5916 Y43.6797 Z-0.4142
G3 X22.5956 Y43.7434 Z-0.4143 I-0.9955 J0.0947
G1 X22.5995 Y43.869 Z-0.4145
G3 Y43.931 I-0.9995 J0.031
G1 X22.5956 Y44.0566 Z-0.4147
G3 X22.5916 Y44.1203 Z-0.4148 I-0.9995 J-0.031
G1 X22.5797 Y44.2454 Z-0.4149
G3 X22.572 Y44.3067 Z-0.415 I-0.9955 J-0.0947
G1 X22.5524 Y44.4308 Z-0.4152
G3 X22.5405 Y44.4928 I-0.9878 J-0.156
G1 X22.5131 Y44.6155 Z-0.4154
G3 X22.4974 Y44.6767 Z-0.4155 I-0.9759 J-0.2181
G1 X22.4623 Y44.7974 Z-0.4156
G3 X22.4431 Y44.8563 Z-0.4157 I-0.9602 J-0.2793
G1 X22.4006 Y44.9746 Z-0.4159
G3 X22.3774 Y45.0334 I-0.941 J-0.3383
G1 X22.3275 Y45.1487 Z-0.4161
G3 X22.3005 Y45.2059 Z-0.4162 I-0.9178 J-0.3972
G1 X22.2434 Y45.3179 Z-0.4163
G3 X22.2135 Y45.3722 Z-0.4164 I-0.8908 J-0.4544
G1 X22.1496 Y45.4804 Z-0.4165
G3 X22.1155 Y45.5341 Z-0.4166 I-0.8609 J-0.5087
G1 X22.0448 Y45.6381 Z-0.4168
G3 X22.0082 Y45.6884 Z-0.4169 I-0.8268 J-0.5625
G1 X21.9312 Y45.7877 Z-0.417
G3 X21.9 Y45.8259 Z-0.4171 I-0.7902 J-0.6129
G1 Y55.4741 Z-0.429
G3 X21.931 Y55.512 I-0.759 J0.6511
G1 X22.008 Y55.6112 Z-0.4292
G3 X22.0447 Y55.6618 Z-0.4293 I-0.79 J0.6132
G1 X22.1154 Y55.7657 Z-0.4294
G3 X22.1498 Y55.8198 Z-0.4295 I-0.8267 J0.5626
G1 X22.2137 Y55.928 Z-0.4297
G3 X22.2433 Y55.982 I-0.8611 J0.5085
G1 X22.3004 Y56.0939 Z-0.4299
G3 X22.3276 Y56.1515 Z-0.43 I-0.8907 J0.4545
G1 X22.3775 Y56.2669 Z-0.4301
G3 X22.4006 Y56.3254 Z-0.4302 I-0.9179 J0.3969
G1 X22.4431 Y56.4436 Z-0.4304
G3 X22.4623 Y56.5026 I-0.941 J0.3384
G1 X22.4974 Y56.6232 Z-0.4306
G3 X22.5131 Y56.6845 Z-0.4307 I-0.9602 J0.2794
G1 X22.5405 Y56.8071 Z-0.4308
G3 X22.5524 Y56.8692 Z-0.4309 I-0.9759 J0.2181
G1 X22.572 Y56.9933 Z-0.4311
G3 X22.5797 Y57.0546 I-0.9878 J0.156
G1 X22.5916 Y57.1797 Z-0.4313
G3 X22.5956 Y57.2434 Z-0.4314 I-0.9955 J0.0947
G1 X22.5995 Y57.369 Z-0.4315
G3 Y57.431 Z-0.4316 I-0.9995 J0.031
G1 X22.5956 Y57.5566 Z-0.4318
G3 X22.5916 Y57.6203 I-0.9995 J-0.031
G1 X22.5797 Y57.7454 Z-0.432
G3 X22.572 Y57.8067 Z-0.4321 I-0.9955 J-0.0947
G1 X22.5524 Y57.9308 Z-0.4322
G3 X22.5405 Y57.9929 Z-0.4323 I-0.9878 J-0.156
G1 X22.5131 Y58.1155 Z-0.4325
G3 X22.4974 Y58.1768 I-0.9759 J-0.2181
G1 X22.4623 Y58.2974 Z-0.4327
G3 X22.4431 Y58.3564 Z-0.4328 I-0.9602 J-0.2794
G1 X22.4006 Y58.4746 Z-0.4329
G3 X22.3775 Y58.5331 Z-0.433 I-0.941 J-0.3384
G1 X22.3276 Y58.6485 Z-0.4332
G3 X22.3004 Y58.7061 I-0.9179 J-0.3969
G1 X22.2433 Y58.818 Z-0.4334
G3 X22.2137 Y58.872 Z-0.4335 I-0.8907 J-0.4545
G1 X22.1498 Y58.9802 Z-0.4336
G3 X22.1154 Y59.0343 Z-0.4337 I-0.8611 J-0.5085
G1 X22.0447 Y59.1382 Z-0.4339
G3 X22.008 Y59.1888 I-0.8267 J-0.5626
G1 X21.931 Y59.288 Z-0.4341
G3 X21.9 Y59.3259 Z-0.4342 I-0.79 J-0.6132
G1 Y64.4 Z-0.4404
G1 X27.4741 Z-0.4473
G3 X27.512 Y64.369 Z-0.4474 I0.6511 J0.759
G1 X27.6112 Y64.292 Z-0.4475
G3 X27.6618 Y64.2553 Z-0.4476 I0.6132 J0.79
G1 X27.7657 Y64.1846 Z-0.4477
G3 X27.8198 Y64.1502 Z-0.4478 I0.5626 J0.8267
G1 X27.928 Y64.0863 Z-0.448
G3 X27.982 Y64.0567 Z-0.4481 I0.5085 J0.8611
G1 X28.0939 Y63.9996 Z-0.4482
G3 X28.1515 Y63.9724 Z-0.4483 I0.4545 J0.8907
G1 X28.2669 Y63.9225 Z-0.4484
G3 X28.3254 Y63.8994 Z-0.4485 I0.3969 J0.9179
G1 X28.4436 Y63.8569 Z-0.4487
G3 X28.5026 Y63.8377 Z-0.4488 I0.3384 J0.941
G1 X28.6232 Y63.8026 Z-0.4489
G3 X28.6845 Y63.7869 Z-0.449 I0.2794 J0.9602
G1 X28.8071 Y63.7595 Z-0.4491
G3 X28.8692 Y63.7476 Z-0.4492 I0.2181 J0.9759
G1 X28.9933 Y63.728 Z-0.4494
G3 X29.0546 Y63.7203 Z-0.4495 I0.156 J0.9878
G1 X29.1797 Y63.7084 Z-0.4496
G3 X29.2434 Y63.7044 Z-0.4497 I0.0947 J0.9955
G1 X29.369 Y63.7005 Z-0.4498
G3 X29.431 Z-0.4499 I0.031 J0.9995
G1 X29.5566 Y63.7044 Z-0.4501
G3 X29.6203 Y63.7084 Z-0.4502 I-0.031 J0.9995
G1 X29.7454 Y63.7203 Z-0.4503
G3 X29.8067 Y63.728 Z-0.4504 I-0.0947 J0.9955
G1 X29.9308 Y63.7476 Z-0.4505
G3 X29.9929 Y63.7595 Z-0.4506 I-0.156 J0.9878
G1 X30.1155 Y63.7869 Z-0.4508
G3 X30.1768 Y63.8026 Z-0.4509 I-0.2181 J0.9759
G1 X30.2974 Y63.8377 Z-0.451
G3 X30.3561 Y63.8568 Z-0.4511 I-0.2794 J0.9602
G1 X30.4744 Y63.8993 Z-0.4512
G3 X30.5335 Y63.9227 Z-0.4513 I-0.3381 J0.9411
G1 X30.6488 Y63.9726 Z-0.4515
G3 X30.7061 Y63.9996 Z-0.4516 I-0.3972 J0.9177
G1 X30.818 Y64.0567 Z-0.4517
G3 X30.872 Y64.0863 Z-0.4518 I-0.4545 J0.8907
G1 X30.9802 Y64.1502 Z-0.4519
G3 X31.0343 Y64.1846 Z-0.452 I-0.5085 J0.8611
G1 X31.1382 Y64.2553 Z-0.4522
G3 X31.1888 Y64.292 I-0.5626 J0.8267
G1 X31.288 Y64.369 Z-0.4524
G3 X31.3259 Y64.4 Z-0.4525 I-0.6132 J0.79
G1 X79.9741 Z-0.5125
G3 X80.0123 Y64.3688 Z-0.5126 I0.6511 J0.759
G1 X80.1116 Y64.2918 Z-0.5127
G3 X80.1619 Y64.2552 Z-0.5128 I0.6129 J0.7902
G1 X80.2659 Y64.1845 Z-0.513
G3 X80.3196 Y64.1504 Z-0.5131 I0.5625 J0.8268
G1 X80.4278 Y64.0865 Z-0.5132
G3 X80.4821 Y64.0566 Z-0.5133 I0.5087 J0.8609
G1 X80.5941 Y63.9995 Z-0.5134
G3 X80.6513 Y63.9725 Z-0.5135 I0.4544 J0.8908
G1 X80.7666 Y63.9226 Z-0.5137
G3 X80.8254 Y63.8994 Z-0.5138 I0.3972 J0.9178
G1 X80.9437 Y63.8569 Z-0.5139
G3 X81.0026 Y63.8377 Z-0.514 I0.3383 J0.941
G1 X81.1233 Y63.8026 Z-0.5141
G3 X81.1845 Y63.7869 Z-0.5142 I0.2793 J0.9602
G1 X81.3072 Y63.7595 Z-0.5144
G3 X81.3692 Y63.7476 Z-0.5145 I0.2181 J0.9759
G1 X81.4933 Y63.728 Z-0.5146
G3 X81.5546 Y63.7203 Z-0.5147 I0.156 J0.9878
G1 X81.6797 Y63.7084 Z-0.5148
G3 X81.7434 Y63.7044 Z-0.5149 I0.0947 J0.9955
G1 X81.869 Y63.7005 Z-0.5151
G3 X81.931 Z-0.5152 I0.031 J0.9995
G1 X82.0566 Y63.7044 Z-0.5153
G3 X82.1203 Y63.7084 Z-0.5154 I-0.031 J0.9995
G1 X82.2454 Y63.7203 Z-0.5155
G3 X82.3067 Y63.728 Z-0.5156 I-0.0947 J0.9955
G1 X82.4308 Y63.7476 Z-0.5158
G3 X82.4928 Y63.7595 I-0.156 J0.9878
G1 X82.6155 Y63.7869 Z-0.516
G3 X82.6767 Y63.8026 Z-0.5161 I-0.2181 J0.9759
G1 X82.7974 Y63.8377 Z-0.5162
G3 X82.8563 Y63.8569 Z-0.5163 I-0.2793 J0.9602
G1 X82.9746 Y63.8994 Z-0.5165
G3 X83.0334 Y63.9226 I-0.3383 J0.941
G1 X83.1487 Y63.9725 Z-0.5167
G3 X83.2059 Y63.9995 Z-0.5168 I-0.3972 J0.9178
G1 X83.3179 Y64.0566 Z-0.5169
G3 X83.3722 Y64.0865 Z-0.517 I-0.4544 J0.8908
G1 X83.4804 Y64.1504 Z-0.5172
G3 X83.5341 Y64.1845 I-0.5087 J0.8609
G1 X83.6381 Y64.2552 Z-0.5174
G3 X83.6884 Y64.2918 Z-0.5175 I-0.5625 J0.8268
G1 X83.7877 Y64.3688 Z-0.5176
G3 X83.8259 Y64.4 Z-0.5177 I-0.6129 J0.7902
G1 X132.4741 Z-0.5778
G3 X132.512 Y64.369 I0.6511 J0.759
G1 X132.6112 Y64.292 Z-0.578
G3 X132.6618 Y64.2553 Z-0.5781 I0.6132 J0.79
G1 X132.7657 Y64.1846 Z-0.5782
G3 X132.8198 Y64.1502 Z-0.5783 I0.5626 J0.8267
G1 X132.928 Y64.0863 Z-0.5784
G3 X132.982 Y64.0567 Z-0.5785 I0.5085 J0.8611
G1 X133.0939 Y63.9996 Z-0.5787
G3 X133.1512 Y63.9726 Z-0.5788 I0.4545 J0.8907
G1 X133.2665 Y63.9227 Z-0.5789
G3 X133.3256 Y63.8993 Z-0.579 I0.3972 J0.9177
G1 X133.4439 Y63.8568 Z-0.5791
G3 X133.5026 Y63.8377 Z-0.5792 I0.3381 J0.9411
G1 X133.6232 Y63.8026 Z-0.5794
G3 X133.6845 Y63.7869 I0.2794 J0.9602
G1 X133.8071 Y63.7595 Z-0.5796
G3 X133.8692 Y63.7476 Z-0.5797 I0.2181 J0.9759
G1 X133.9933 Y63.728 Z-0.5798
G3 X134.0546 Y63.7203 Z-0.5799 I0.156 J0.9878
G1 X134.1797 Y63.7084 Z-0.5801
G3 X134.2434 Y63.7044 I0.0947 J0.9955
G1 X134.369 Y63.7005 Z-0.5803
G3 X134.431 Z-0.5804 I0.031 J0.9995
G1 X134.5566 Y63.7044 Z-0.5805
G3 X134.6203 Y63.7084 Z-0.5806 I-0.031 J0.9995
G1 X134.7454 Y63.7203 Z-0.5808
G3 X134.8067 Y63.728 I-0.0947 J0.9955
G1 X134.9308 Y63.7476 Z-0.581
G3 X134.9929 Y63.7595 Z-0.5811 I-0.156 J0.9878
G1 X135.1155 Y63.7869 Z-0.5812
G3 X135.1768 Y63.8026 Z-0.5813 I-0.2181 J0.9759
G1 X135.2974 Y63.8377 Z-0.5815
G3 X135.3564 Y63.8569 I-0.2794 J0.9602
G1 X135.4746 Y63.8994 Z-0.5817
G3 X135.5331 Y63.9225 Z-0.5818 I-0.3384 J0.941
G1 X135.6485 Y63.9724 Z-0.5819
G3 X135.7061 Y63.9996 Z-0.582 I-0.3969 J0.9179
G1 X135.818 Y64.0567 Z-0.5822
G3 X135.872 Y64.0863 I-0.4545 J0.8907
G1 X135.9802 Y64.1502 Z-0.5824
G3 X136.0343 Y64.1846 Z-0.5825 I-0.5085 J0.8611
G1 X136.1382 Y64.2553 Z-0.5826
G3 X136.1888 Y64.292 Z-0.5827 I-0.5626 J0.8267
G1 X136.288 Y64.369 Z-0.5829
G3 X136.3259 Y64.4 I-0.6132 J0.79
G1 X141.9 Z-0.5898
G1 Y59.3259 Z-0.5961
G3 X141.869 Y59.288 I0.759 J-0.6511
G1 X141.792 Y59.1888 Z-0.5963
G3 X141.7553 Y59.1382 Z-0.5964 I0.79 J-0.6132
G1 X141.6846 Y59.0343 Z-0.5965
G3 X141.6502 Y58.9802 Z-0.5966 I0.8267 J-0.5626
G1 X141.5863 Y58.872 Z-0.5968
G3 X141.5567 Y58.818 I0.8611 J-0.5085
G1 X141.4996 Y58.7061 Z-0.597
G3 X141.4724 Y58.6485 Z-0.5971 I0.8907 J-0.4545
G1 X141.4225 Y58.5331 Z-0.5972
G3 X141.3994 Y58.4746 Z-0.5973 I0.9179 J-0.3969
G1 X141.3569 Y58.3564 Z-0.5975
G3 X141.3377 Y58.2974 I0.941 J-0.3384
G1 X141.3026 Y58.1768 Z-0.5977
G3 X141.2869 Y58.1155 Z-0.5978 I0.9602 J-0.2794
G1 X141.2595 Y57.9929 Z-0.5979
G3 X141.2476 Y57.9308 Z-0.598 I0.9759 J-0.2181
G1 X141.228 Y57.8067 Z-0.5981
G3 X141.2203 Y57.7454 Z-0.5982 I0.9878 J-0.156
G1 X141.2084 Y57.6203 Z-0.5984
G3 X141.2044 Y57.5566 Z-0.5985 I0.9955 J-0.0947
G1 X141.2005 Y57.431 Z-0.5986
G3 Y57.369 Z-0.5987 I0.9995 J-0.031
G1 X141.2044 Y57.2434 Z-0.5988
G3 X141.2084 Y57.1797 Z-0.5989 I0.9995 J0.031
G1 X141.2203 Y57.0546 Z-0.5991
G3 X141.228 Y56.9933 Z-0.5992 I0.9955 J0.0947
G1 X141.2476 Y56.8692 Z-0.5993
G3 X141.2595 Y56.8071 Z-0.5994 I0.9878 J0.156
G1 X141.2869 Y56.6845 Z-0.5995
G3 X141.3026 Y56.6232 Z-0.5996 I0.9759 J0.2181
G1 X141.3377 Y56.5026 Z-0.5998
G3 X141.3569 Y56.4436 Z-0.5999 I0.9602 J0.2794
G1 X141.3994 Y56.3254 Z-0.6
G3 X141.4225 Y56.2669 Z-0.6001 I0.941 J0.3384
G1 X141.4724 Y56.1515 Z-0.6002
G3 X141.4996 Y56.0939 Z-0.6003 I0.9179 J0.3969
G1 X141.5567 Y55.982 Z-0.6005
G3 X141.5863 Y55.928 Z-0.6006 I0.8907 J0.4545
G1 X141.6502 Y55.8198 Z-0.6007
G3 X141.6846 Y55.7657 Z-0.6008 I0.8611 J0.5085
G1 X141.7553 Y55.6618 Z-0.6009
G3 X141.792 Y55.6112 Z-0.601 I0.8267 J0.5626
G1 X141.869 Y55.512 Z-0.6012
G3 X141.9 Y55.4741 I0.79 J0.6132
G1 Y45.8259 Z-0.6131
G3 X141.8688 Y45.7877 Z-0.6132 I0.759 J-0.6511
G1 X141.7918 Y45.6884 Z-0.6134
G3 X141.7552 Y45.6381 I0.7902 J-0.6129
G1 X141.6845 Y45.5341 Z-0.6136
G3 X141.6504 Y45.4804 Z-0.6137 I0.8268 J-0.5625
G1 X141.5865 Y45.3722 Z-0.6138
G3 X141.5566 Y45.3179 Z-0.6139 I0.8609 J-0.5087
G1 X141.4995 Y45.2059 Z-0.6141
G3 X141.4725 Y45.1487 I0.8908 J-0.4544
G1 X141.4226 Y45.0334 Z-0.6143
G3 X141.3994 Y44.9746 Z-0.6144 I0.9178 J-0.3972
G1 X141.3569 Y44.8563 Z-0.6145
G3 X141.3377 Y44.7974 Z-0.6146 I0.941 J-0.3383
G1 X141.3026 Y44.6767 Z-0.6148
G3 X141.2869 Y44.6155 I0.9602 J-0.2793
G1 X141.2595 Y44.4928 Z-0.615
G3 X141.2476 Y44.4308 Z-0.6151 I0.9759 J-0.2181
G1 X141.228 Y44.3067 Z-0.6152
G3 X141.2203 Y44.2454 Z-0.6153 I0.9878 J-0.156
G1 X141.2084 Y44.1203 Z-0.6155
G3 X141.2044 Y44.0566 I0.9955 J-0.0947
G1 X141.2005 Y43.931 Z-0.6157
G3 Y43.869 Z-0.6158 I0.9995 J-0.031
G1 X141.2044 Y43.7434 Z-0.6159
G3 X141.2084 Y43.6797 Z-0.616 I0.9995 J0.031
G1 X141.2203 Y43.5546 Z-0.6162
G3 X141.228 Y43.4933 I0.9955 J0.0947
G1 X141.2476 Y43.3692 Z-0.6164
G3 X141.2595 Y43.3072 Z-0.6165 I0.9878 J0.156
G1 X141.2869 Y43.1845 Z-0.6166
G3 X141.3026 Y43.1233 Z-0.6167 I0.9759 J0.2181
G1 X141.3377 Y43.0026 Z-0.6169
G3 X141.3569 Y42.9437 I0.9602 J0.2793
G1 X141.3994 Y42.8254 Z-0.6171
G3 X141.4226 Y42.7666 Z-0.6172 I0.941 J0.3383
G1 X141.4725 Y42.6513 Z-0.6173
G3 X141.4995 Y42.5941 Z-0.6174 I0.9178 J0.3972
G1 X141.5566 Y42.4821 Z-0.6176
G3 X141.5865 Y42.4278 I0.8908 J0.4544
G1 X141.6504 Y42.3196 Z-0.6178
G3 X141.6845 Y42.2659 Z-0.6179 I0.8609 J0.5087
G1 X141.7552 Y42.1619 Z-0.618
G3 X141.7918 Y42.1116 Z-0.6181 I0.8268 J0.5625
G1 X141.8688 Y42.0123 Z-0.6183
G3 X141.9 Y41.9741 I0.7902 J0.6129
G1 Y32.3259 Z-0.6302
G3 X141.8688 Y32.2877 Z-0.6303 I0.759 J-0.6511
G1 X141.7918 Y32.1884 Z-0.6304
G3 X141.7552 Y32.1381 Z-0.6305 I0.7902 J-0.6129
G1 X141.6845 Y32.0341 Z-0.6307
G3 X141.6504 Y31.9804 Z-0.6308 I0.8268 J-0.5625
G1 X141.5865 Y31.8722 Z-0.6309
G3 X141.5566 Y31.8179 Z-0.631 I0.8609 J-0.5087
G1 X141.4995 Y31.7059 Z-0.6311
G3 X141.4725 Y31.6487 Z-0.6312 I0.8908 J-0.4544
G1 X141.4226 Y31.5334 Z-0.6314
G3 X141.3994 Y31.4746 I0.9178 J-0.3972
G1 X141.3569 Y31.3563 Z-0.6316
G3 X141.3377 Y31.2974 Z-0.6317 I0.941 J-0.3383
G1 X141.3026 Y31.1767 Z-0.6318
G3 X141.2869 Y31.1155 Z-0.6319 I0.9602 J-0.2793
G1 X141.2595 Y30.9928 Z-0.6321
G3 X141.2476 Y30.9308 I0.9759 J-0.2181
G1 X141.228 Y30.8067 Z-0.6323
G3 X141.2203 Y30.7454 Z-0.6324 I0.9878 J-0.156
G1 X141.2084 Y30.6203 Z-0.6325
G3 X141.2044 Y30.5566 Z-0.6326 I0.9955 J-0.0947
G1 X141.2005 Y30.431 Z-0.6328
G3 Y30.369 I0.9995 J-0.031
G1 X141.2044 Y30.2434 Z-0.633
G3 X141.2084 Y30.1797 Z-0.6331 I0.9995 J0.031
G1 X141.2203 Y30.0546 Z-0.6332
G3 X141.228 Y29.9933 Z-0.6333 I0.9955 J0.0947
G1 X141.2476 Y29.8692 Z-0.6335
G3 X141.2595 Y29.8072 I0.9878 J0.156
G1 X141.2869 Y29.6845 Z-0.6337
G3 X141.3026 Y29.6233 Z-0.6338 I0.9759 J0.2181
G1 X141.3377 Y29.5026 Z-0.6339
G3 X141.3569 Y29.4437 Z-0.634 I0.9602 J0.2793
G1 X141.3994 Y29.3254 Z-0.6342
G3 X141.4226 Y29.2666 I0.941 J0.3383
G1 X141.4725 Y29.1513 Z-0.6344
G3 X141.4995 Y29.0941 Z-0.6345 I0.9178 J0.3972
G1 X141.5566 Y28.9821 Z-0.6346
G3 X141.5865 Y28.9278 Z-0.6347 I0.8908 J0.4544
G1 X141.6504 Y28.8196 Z-0.6349
G3 X141.6845 Y28.7659 I0.8609 J0.5087
G1 X141.7552 Y28.6619 Z-0.6351
G3 X141.7918 Y28.6116 Z-0.6352 I0.8268 J0.5625
G1 X141.8688 Y28.5123 Z-0.6353
G3 X141.9 Y28.4741 Z-0.6354 I0.7902 J0.6129
G1 Y24.4 Z-0.6404
G1 X136.3259 Z-0.6473
G3 X136.288 Y24.431 Z-0.6474 I-0.6511 J-0.759
G1 X136.1888 Y24.508 Z-0.6475
G3 X136.1382 Y24.5447 Z-0.6476 I-0.6132 J-0.79
G1 X136.0343 Y24.6154 Z-0.6477
G3 X135.9802 Y24.6498 Z-0.6478 I-0.5626 J-0.8267
G1 X135.872 Y24.7137 Z-0.648
G3 X135.818 Y24.7433 Z-0.6481 I-0.5085 J-0.8611
G1 X135.7061 Y24.8004 Z-0.6482
G3 X135.6485 Y24.8276 Z-0.6483 I-0.4545 J-0.8907
G1 X135.5331 Y24.8775 Z-0.6484
G3 X135.4746 Y24.9006 Z-0.6485 I-0.3969 J-0.9179
G1 X135.3564 Y24.9431 Z-0.6487
G3 X135.2974 Y24.9623 Z-0.6488 I-0.3384 J-0.941
G1 X135.1768 Y24.9974 Z-0.6489
G3 X135.1155 Y25.0131 Z-0.649 I-0.2794 J-0.9602
G1 X134.9929 Y25.0405 Z-0.6491
G3 X134.9308 Y25.0524 Z-0.6492 I-0.2181 J-0.9759
G1 X134.8067 Y25.072 Z-0.6494
G3 X134.7454 Y25.0797 Z-0.6495 I-0.156 J-0.9878
G1 X134.6203 Y25.0916 Z-0.6496
G3 X134.5566 Y25.0956 Z-0.6497 I-0.0947 J-0.9955
G1 X134.431 Y25.0995 Z-0.6498
G3 X134.369 Z-0.6499 I-0.031 J-0.9995
G1 X134.2434 Y25.0956 Z-0.6501
G3 X134.1797 Y25.0916 Z-0.6502 I0.031 J-0.9995
G1 X134.0546 Y25.0797 Z-0.6503
G3 X133.9933 Y25.072 Z-0.6504 I0.0947 J-0.9955
G1 X133.8692 Y25.0524 Z-0.6505
G3 X133.8071 Y25.0405 Z-0.6506 I0.156 J-0.9878
G1 X133.6845 Y25.0131 Z-0.6508
G3 X133.6232 Y24.9974 Z-0.6509 I0.2181 J-0.9759
G1 X133.5026 Y24.9623 Z-0.651
G3 X133.4439 Y24.9432 Z-0.6511 I0.2794 J-0.9602
G1 X133.3256 Y24.9007 Z-0.6512
G3 X133.2665 Y24.8773 Z-0.6513 I0.3381 J-0.9411
G1 X133.1512 Y24.8274 Z-0.6515
G3 X133.0939 Y24.8004 Z-0.6516 I0.3972 J-0.9177
G1 X132.982 Y24.7433 Z-0.6517
G3 X132.928 Y24.7137 Z-0.6518 I0.4545 J-0.8907
G1 X132.8198 Y24.6498 Z-0.6519
G3 X132.7657 Y24.6154 Z-0.652 I0.5085 J-0.8611
G1 X132.6618 Y24.5447 Z-0.6522
G3 X132.6112 Y24.508 I0.5626 J-0.8267
G1 X132.512 Y24.431 Z-0.6524
G3 X132.4741 Y24.4 Z-0.6525 I0.6132 J-0.79
G1 X83.8259 Z-0.7125
G3 X83.7877 Y24.4312 Z-0.7126 I-0.6511 J-0.759
G1 X83.6884 Y24.5082 Z-0.7127
G3 X83.6381 Y24.5448 Z-0.7128 I-0.6129 J-0.7902
G1 X83.5341 Y24.6155 Z-0.713
G3 X83.4804 Y24.6496 Z-0.7131 I-0.5625 J-0.8268
G1 X83.3722 Y24.7135 Z-0.7132
G3 X83.3179 Y24.7434 Z-0.7133 I-0.5087 J-0.8609
G1 X83.2059 Y24.8005 Z-0.7134
G3 X83.1487 Y24.8275 Z-0.7135 I-0.4544 J-0.8908
G1 X83.0334 Y24.8774 Z-0.7137
G3 X82.9746 Y24.9006 Z-0.7138 I-0.3972 J-0.9178
G1 X82.8563 Y24.9431 Z-0.7139
G3 X82.7974 Y24.9623 Z-0.714 I-0.3383 J-0.941
G1 X82.6767 Y24.9974 Z-0.7141
G3 X82.6155 Y25.0131 Z-0.7142 I-0.2793 J-0.9602
G1 X82.4928 Y25.0405 Z-0.7144
G3 X82.4308 Y25.0524 Z-0.7145 I-0.2181 J-0.9759
G1 X82.3067 Y25.072 Z-0.7146
G3 X82.2454 Y25.0797 Z-0.7147 I-0.156 J-0.9878
G1 X82.1203 Y25.0916 Z-0.7148
G3 X82.0566 Y25.0956 Z-0.7149 I-0.0947 J-0.9955
G1 X81.931 Y25.0995 Z-0.7151
G3 X81.869 Z-0.7152 I-0.031 J-0.9995
G1 X81.7434 Y25.0956 Z-0.7153
G3 X81.6797 Y25.0916 Z-0.7154 I0.031 J-0.9995
G1 X81.5546 Y25.0797 Z-0.7155
G3 X81.4933 Y25.072 Z-0.7156 I0.0947 J-0.9955
G1 X81.3692 Y25.0524 Z-0.7158
G3 X81.3072 Y25.0405 I0.156 J-0.9878
G1 X81.1845 Y25.0131 Z-0.716
G3 X81.1233 Y24.9974 Z-0.7161 I0.2181 J-0.9759
G1 X81.0026 Y24.9623 Z-0.7162
G3 X80.9437 Y24.9431 Z-0.7163 I0.2793 J-0.9602
G1 X80.8254 Y24.9006 Z-0.7165
G3 X80.7666 Y24.8774 I0.3383 J-0.941
G1 X80.6513 Y24.8275 Z-0.7167
G3 X80.5941 Y24.8005 Z-0.7168 I0.3972 J-0.9178
G1 X80.4821 Y24.7434 Z-0.7169
G3 X80.4278 Y24.7135 Z-0.717 I0.4544 J-0.8908
G1 X80.3196 Y24.6496 Z-0.7172
G3 X80.2659 Y24.6155 I0.5087 J-0.8609
G1 X80.1619 Y24.5448 Z-0.7174
G3 X80.1116 Y24.5082 Z-0.7175 I0.5625 J-0.8268
G1 X80.0123 Y24.4312 Z-0.7176
G3 X79.9741 Y24.4 Z-0.7177 I0.6129 J-0.7902
G1 X31.3259 Z-0.7778
G3 X31.288 Y24.431 I-0.6511 J-0.759
G1 X31.1888 Y24.508 Z-0.778
G3 X31.1382 Y24.5447 Z-0.7781 I-0.6132 J-0.79
G1 X31.0343 Y24.6154 Z-0.7782
G3 X30.9802 Y24.6498 Z-0.7783 I-0.5626 J-0.8267
G1 X30.872 Y24.7137 Z-0.7784
G3 X30.818 Y24.7433 Z-0.7785 I-0.5085 J-0.8611
G1 X30.7061 Y24.8004 Z-0.7787
G3 X30.6488 Y24.8274 Z-0.7788 I-0.4545 J-0.8907
G1 X30.5335 Y24.8773 Z-0.7789
G3 X30.4744 Y24.9007 Z-0.779 I-0.3972 J-0.9177
G1 X30.3561 Y24.9432 Z-0.7791
G3 X30.2974 Y24.9623 Z-0.7792 I-0.3381 J-0.9411
G1 X30.1768 Y24.9974 Z-0.7794
G3 X30.1155 Y25.0131 I-0.2794 J-0.9602
G1 X29.9929 Y25.0405 Z-0.7796
G3 X29.9308 Y25.0524 Z-0.7797 I-0.2181 J-0.9759
G1 X29.8067 Y25.072 Z-0.7798
G3 X29.7454 Y25.0797 Z-0.7799 I-0.156 J-0.9878
G1 X29.6203 Y25.0916 Z-0.7801
G3 X29.5566 Y25.0956 I-0.0947 J-0.9955
G1 X29.431 Y25.0995 Z-0.7803
G3 X29.369 Z-0.7804 I-0.031 J-0.9995
G1 X29.2434 Y25.0956 Z-0.7805
G3 X29.1797 Y25.0916 Z-0.7806 I0.031 J-0.9995
G1 X29.0546 Y25.0797 Z-0.7808
G3 X28.9933 Y25.072 I0.0947 J-0.9955
G1 X28.8692 Y25.0524 Z-0.781
G3 X28.8071 Y25.0405 Z-0.7811 I0.156 J-0.9878
G1 X28.6845 Y25.0131 Z-0.7812
G3 X28.6232 Y24.9974 Z-0.7813 I0.2181 J-0.9759
G1 X28.5026 Y24.9623 Z-0.7815
G3 X28.4436 Y24.9431 I0.2794 J-0.9602
G1 X28.3254 Y24.9006 Z-0.7817
G3 X28.2669 Y24.8775 Z-0.7818 I0.3384 J-0.941
G1 X28.1515 Y24.8276 Z-0.7819
G3 X28.0939 Y24.8004 Z-0.782 I0.3969 J-0.9179
G1 X27.982 Y24.7433 Z-0.7822
G3 X27.928 Y24.7137 I0.4545 J-0.8907
G1 X27.8198 Y24.6498 Z-0.7824
G3 X27.7657 Y24.6154 Z-0.7825 I0.5085 J-0.8611
G1 X27.6618 Y24.5447 Z-0.7826
G3 X27.6112 Y24.508 Z-0.7827 I0.5626 J-0.8267
G1 X27.512 Y24.431 Z-0.7829
G3 X27.4741 Y24.4 I0.6132 J-0.79
G1 X21.9 Z-0.7898
G1 Y28.4741 Z-0.7948
G3 X21.9312 Y28.5123 Z-0.7949 I-0.759 J0.6511
G1 X22.0082 Y28.6116 Z-0.7951
G3 X22.0448 Y28.6619 I-0.7902 J0.6129
G1 X22.1155 Y28.7659 Z-0.7953
G3 X22.1496 Y28.8196 Z-0.7954 I-0.8268 J0.5625
G1 X22.2135 Y28.9278 Z-0.7955
G3 X22.2434 Y28.9821 Z-0.7956 I-0.8609 J0.5087
G1 X22.3005 Y29.0941 Z-0.7957
G3 X22.3275 Y29.1513 Z-0.7958 I-0.8908 J0.4544
G1 X22.3774 Y29.2666 Z-0.796
G3 X22.4006 Y29.3254 Z-0.7961 I-0.9178 J0.3972
G1 X22.4431 Y29.4437 Z-0.7962
G3 X22.4623 Y29.5026 Z-0.7963 I-0.941 J0.3383
G1 X22.4974 Y29.6233 Z-0.7964
G3 X22.5131 Y29.6845 Z-0.7965 I-0.9602 J0.2793
G1 X22.5405 Y29.8072 Z-0.7967
G3 X22.5524 Y29.8692 Z-0.7968 I-0.9759 J0.2181
G1 X22.572 Y29.9933 Z-0.7969
G3 X22.5797 Y30.0546 Z-0.797 I-0.9878 J0.156
G1 X22.5916 Y30.1797 Z-0.7971
G3 X22.5956 Y30.2434 Z-0.7972 I-0.9955 J0.0947
G1 X22.5995 Y30.369 Z-0.7974
G3 Y30.431 Z-0.7975 I-0.9995 J0.031
G1 X22.5956 Y30.5566 Z-0.7976
G3 X22.5916 Y30.6203 Z-0.7977 I-0.9995 J-0.031
G1 X22.5797 Y30.7454 Z-0.7978
G3 X22.572 Y30.8067 Z-0.7979 I-0.9955 J-0.0947
G1 X22.5524 Y30.9308 Z-0.7981
G3 X22.5405 Y30.9928 Z-0.7982 I-0.9878 J-0.156
G1 X22.5131 Y31.1155 Z-0.7983
G3 X22.4974 Y31.1767 Z-0.7984 I-0.9759 J-0.2181
G1 X22.4623 Y31.2974 Z-0.7985
G3 X22.4431 Y31.3563 Z-0.7986 I-0.9602 J-0.2793
G1 X22.4006 Y31.4746 Z-0.7988
G3 X22.3774 Y31.5334 Z-0.7989 I-0.941 J-0.3383
G1 X22.3275 Y31.6487 Z-0.799
G3 X22.3005 Y31.7059 Z-0.7991 I-0.9178 J-0.3972
G1 X22.2434 Y31.8179 Z-0.7992
G3 X22.2135 Y31.8722 Z-0.7993 I-0.8908 J-0.4544
G1 X22.1496 Y31.9804 Z-0.7995
G3 X22.1155 Y32.0341 Z-0.7996 I-0.8609 J-0.5087
G1 X22.0448 Y32.1381 Z-0.7997
G3 X22.0082 Y32.1884 Z-0.7998 I-0.8268 J-0.5625
G1 X21.9312 Y32.2877 Z-0.7999
G3 X21.9 Y32.3259 Z-0.8 I-0.7902 J-0.6129
G1 Y41.9741 Z-0.8119
G3 X21.9312 Y42.0123 Z-0.812 I-0.759 J0.6511
G1 X22.0082 Y42.1116 Z-0.8121
G3 X22.0448 Y42.1619 Z-0.8122 I-0.7902 J0.6129
G1 X22.1155 Y42.2659 Z-0.8124
G3 X22.1496 Y42.3196 I-0.8268 J0.5625
G1 X22.2135 Y42.4278 Z-0.8126
G3 X22.2434 Y42.4821 Z-0.8127 I-0.8609 J0.5087
G1 X22.3005 Y42.5941 Z-0.8128
G3 X22.3275 Y42.6513 Z-0.8129 I-0.8908 J0.4544
G1 X22.3774 Y42.7666 Z-0.8131
G3 X22.4006 Y42.8254 I-0.9178 J0.3972
G1 X22.4431 Y42.9437 Z-0.8133
G3 X22.4623 Y43.0026 Z-0.8134 I-0.941 J0.3383
G1 X22.4974 Y43.1233 Z-0.8135
G3 X22.5131 Y43.1845 Z-0.8136 I-0.9602 J0.2793
G1 X22.5405 Y43.3072 Z-0.8138
G3 X22.5524 Y43.3692 I-0.9759 J0.2181
G1 X22.572 Y43.4933 Z-0.814
G3 X22.5797 Y43.5546 Z-0.8141 I-0.9878 J0.156
G1 X22.5916 Y43.6797 Z-0.8142
G3 X22.5956 Y43.7434 Z-0.8143 I-0.9955 J0.0947
G1 X22.5995 Y43.869 Z-0.8145
G3 Y43.931 I-0.9995 J0.031
G1 X22.5956 Y44.0566 Z-0.8147
G3 X22.5916 Y44.1203 Z-0.8148 I-0.9995 J-0.031
G1 X22.5797 Y44.2454 Z-0.8149
G3 X22.572 Y44.3067 Z-0.815 I-0.9955 J-0.0947
G1 X22.5524 Y44.4308 Z-0.8152
G3 X22.5405 Y44.4928 I-0.9878 J-0.156
G1 X22.5131 Y44.6155 Z-0.8154
G3 X22.4974 Y44.6767 Z-0.8155 I-0.9759 J-0.2181
G1 X22.4623 Y44.7974 Z-0.8156
G3 X22.4431 Y44.8563 Z-0.8157 I-0.9602 J-0.2793
G1 X22.4006 Y44.9746 Z-0.8159
G3 X22.3774 Y45.0334 I-0.941 J-0.3383
G1 X22.3275 Y45.1487 Z-0.8161
G3 X22.3005 Y45.2059 Z-0.8162 I-0.9178 J-0.3972
G1 X22.2434 Y45.3179 Z-0.8163
G3 X22.2135 Y45.3722 Z-0.8164 I-0.8908 J-0.4544
G1 X22.1496 Y45.4804 Z-0.8165
G3 X22.1155 Y45.5341 Z-0.8166 I-0.8609 J-0.5087
G1 X22.0448 Y45.6381 Z-0.8168
G3 X22.0082 Y45.6884 Z-0.8169 I-0.8268 J-0.5625
G1 X21.9312 Y45.7877 Z-0.817
G3 X21.9 Y45.8259 Z-0.8171 I-0.7902 J-0.6129
G1 Y55.4741 Z-0.829
G3 X21.931 Y55.512 I-0.759 J0.6511
G1 X22.008 Y55.6112 Z-0.8292
G3 X22.0447 Y55.6618 Z-0.8293 I-0.79 J0.6132
G1 X22.1154 Y55.7657 Z-0.8294
G3 X22.1498 Y55.8198 Z-0.8295 I-0.8267 J0.5626
G1 X22.2137 Y55.928 Z-0.8297
G3 X22.2433 Y55.982 I-0.8611 J0.5085
G1 X22.3004 Y56.0939 Z-0.8299
G3 X22.3276 Y56.1515 Z-0.83 I-0.8907 J0.4545
G1 X22.3775 Y56.2669 Z-0.8301
G3 X22.4006 Y56.3254 Z-0.8302 I-0.9179 J0.3969
G1 X22.4431 Y56.4436 Z-0.8304
G3 X22.4623 Y56.5026 I-0.941 J0.3384
G1 X22.4974 Y56.6232 Z-0.8306
G3 X22.5131 Y56.6845 Z-0.8307 I-0.9602 J0.2794
G1 X22.5405 Y56.8071 Z-0.8308
G3 X22.5524 Y56.8692 Z-0.8309 I-0.9759 J0.2181
G1 X22.572 Y56.9933 Z-0.8311
G3 X22.5797 Y57.0546 I-0.9878 J0.156
G1 X22.5916 Y57.1797 Z-0.8313
G3 X22.5956 Y57.2434 Z-0.8314 I-0.9955 J0.0947
G1 X22.5995 Y57.369 Z-0.8315
G3 Y57.431 Z-0.8316 I-0.9995 J0.031
G1 X22.5956 Y57.5566 Z-0.8318
G3 X22.5916 Y57.6203 I-0.9995 J-0.031
G1 X22.5797 Y57.7454 Z-0.832
G3 X22.572 Y57.8067 Z-0.8321 I-0.9955 J-0.0947
G1 X22.5524 Y57.9308 Z-0.8322
G3 X22.5405 Y57.9929 Z-0.8323 I-0.9878 J-0.156
G1 X22.5131 Y58.1155 Z-0.8325
G3 X22.4974 Y58.1768 I-0.9759 J-0.2181
G1 X22.4623 Y58.2974 Z-0.8327
G3 X22.4431 Y58.3564 Z-0.8328 I-0.9602 J-0.2794
G1 X22.4006 Y58.4746 Z-0.8329
G3 X22.3775 Y58.5331 Z-0.833 I-0.941 J-0.3384
G1 X22.3276 Y58.6485 Z-0.8332
G3 X22.3004 Y58.7061 I-0.9179 J-0.3969
G1 X22.2433 Y58.818 Z-0.8334
G3 X22.2137 Y58.872 Z-0.8335 I-0.8907 J-0.4545
G1 X22.1498 Y58.9802 Z-0.8336
G3 X22.1154 Y59.0343 Z-0.8337 I-0.8611 J-0.5085
G1 X22.0447 Y59.1382 Z-0.8339
G3 X22.008 Y59.1888 I-0.8267 J-0.5626
G1 X21.931 Y59.288 Z-0.8341
G3 X21.9 Y59.3259 Z-0.8342 I-0.79 J-0.6132
G1 Y64.4 Z-0.8404
G1 X27.4741 Z-0.8473
G3 X27.512 Y64.369 Z-0.8474 I0.6511 J0.759
G1 X27.6112 Y64.292 Z-0.8475
G3 X27.6618 Y64.2553 Z-0.8476 I0.6132 J0.79
G1 X27.7657 Y64.1846 Z-0.8477
G3 X27.8198 Y64.1502 Z-0.8478 I0.5626 J0.8267
G1 X27.928 Y64.0863 Z-0.848
G3 X27.982 Y64.0567 Z-0.8481 I0.5085 J0.8611
G1 X28.0939 Y63.9996 Z-0.8482
G3 X28.1515 Y63.9724 Z-0.8483 I0.4545 J0.8907
G1 X28.2669 Y63.9225 Z-0.8484
G3 X28.3254 Y63.8994 Z-0.8485 I0.3969 J0.9179
G1 X28.4436 Y63.8569 Z-0.8487
G3 X28.5026 Y63.8377 Z-0.8488 I0.3384 J0.941
G1 X28.6232 Y63.8026 Z-0.8489
G3 X28.6845 Y63.7869 Z-0.849 I0.2794 J0.9602
G1 X28.8071 Y63.7595 Z-0.8491
G3 X28.8692 Y63.7476 Z-0.8492 I0.2181 J0.9759
G1 X28.9933 Y63.728 Z-0.8494
G3 X29.0546 Y63.7203 Z-0.8495 I0.156 J0.9878
G1 X29.1797 Y63.7084 Z-0.8496
G3 X29.2434 Y63.7044 Z-0.8497 I0.0947 J0.9955
G1 X29.369 Y63.7005 Z-0.8498
G3 X29.431 Z-0.8499 I0.031 J0.9995
G1 X29.5566 Y63.7044 Z-0.8501
G3 X29.6203 Y63.7084 Z-0.8502 I-0.031 J0.9995
G1 X29.7454 Y63.7203 Z-0.8503
G3 X29.8067 Y63.728 Z-0.8504 I-0.0947 J0.9955
G1 X29.9308 Y63.7476 Z-0.8505
G3 X29.9929 Y63.7595 Z-0.8506 I-0.156 J0.9878
G1 X30.1155 Y63.7869 Z-0.8508
G3 X30.1768 Y63.8026 Z-0.8509 I-0.2181 J0.9759
G1 X30.2974 Y63.8377 Z-0.851
G3 X30.3561 Y63.8568 Z-0.8511 I-0.2794 J0.9602
G1 X30.4744 Y63.8993 Z-0.8512
G3 X30.5335 Y63.9227 Z-0.8513 I-0.3381 J0.9411
G1 X30.6488 Y63.9726 Z-0.8515
G3 X30.7061 Y63.9996 Z-0.8516 I-0.3972 J0.9177
G1 X30.818 Y64.0567 Z-0.8517
G3 X30.872 Y64.0863 Z-0.8518 I-0.4545 J0.8907
G1 X30.9802 Y64.1502 Z-0.8519
G3 X31.0343 Y64.1846 Z-0.852 I-0.5085 J0.8611
G1 X31.1382 Y64.2553 Z-0.8522
G3 X31.1888 Y64.292 I-0.5626 J0.8267
G1 X31.288 Y64.369 Z-0.8524
G3 X31.3259 Y64.4 Z-0.8525 I-0.6132 J0.79
G1 X79.9741 Z-0.9125
G3 X80.0123 Y64.3688 Z-0.9126 I0.6511 J0.759
G1 X80.1116 Y64.2918 Z-0.9127
G3 X80.1619 Y64.2552 Z-0.9128 I0.6129 J0.7902
G1 X80.2659 Y64.1845 Z-0.913
G3 X80.3196 Y64.1504 Z-0.9131 I0.5625 J0.8268
G1 X80.4278 Y64.0865 Z-0.9132
G3 X80.4821 Y64.0566 Z-0.9133 I0.5087 J0.8609
G1 X80.5941 Y63.9995 Z-0.9134
G3 X80.6513 Y63.9725 Z-0.9135 I0.4544 J0.8908
G1 X80.7666 Y63.9226 Z-0.9137
G3 X80.8254 Y63.8994 Z-0.9138 I0.3972 J0.9178
G1 X80.9437 Y63.8569 Z-0.9139
G3 X81.0026 Y63.8377 Z-0.914 I0.3383 J0.941
G1 X81.1233 Y63.8026 Z-0.9141
G3 X81.1845 Y63.7869 Z-0.9142 I0.2793 J0.9602
G1 X81.3072 Y63.7595 Z-0.9144
G3 X81.3692 Y63.7476 Z-0.9145 I0.2181 J0.9759
G1 X81.4933 Y63.728 Z-0.9146
G3 X81.5546 Y63.7203 Z-0.9147 I0.156 J0.9878
G1 X81.6797 Y63.7084 Z-0.9148
G3 X81.7434 Y63.7044 Z-0.9149 I0.0947 J0.9955
G1 X81.869 Y63.7005 Z-0.9151
G3 X81.931 Z-0.9152 I0.031 J0.9995
G1 X82.0566 Y63.7044 Z-0.9153
G3 X82.1203 Y63.7084 Z-0.9154 I-0.031 J0.9995
G1 X82.2454 Y63.7203 Z-0.9155
G3 X82.3067 Y63.728 Z-0.9156 I-0.0947 J0.9955
G1 X82.4308 Y63.7476 Z-0.9158
G3 X82.4928 Y63.7595 I-0.156 J0.9878
G1 X82.6155 Y63.7869 Z-0.916
G3 X82.6767 Y63.8026 Z-0.9161 I-0.2181 J0.9759
G1 X82.7974 Y63.8377 Z-0.9162
G3 X82.8563 Y63.8569 Z-0.9163 I-0.2793 J0.9602
G1 X82.9746 Y63.8994 Z-0.9165
G3 X83.0334 Y63.9226 I-0.3383 J0.941
G1 X83.1487 Y63.9725 Z-0.9167
G3 X83.2059 Y63.9995 Z-0.9168 I-0.3972 J0.9178
G1 X83.3179 Y64.0566 Z-0.9169
G3 X83.3722 Y64.0865 Z-0.917 I-0.4544 J0.8908
G1 X83.4804 Y64.1504 Z-0.9172
G3 X83.5341 Y64.1845 I-0.5087 J0.8609
G1 X83.6381 Y64.2552 Z-0.9174
G3 X83.6884 Y64.2918 Z-0.9175 I-0.5625 J0.8268
G1 X83.7877 Y64.3688 Z-0.9176
G3 X83.8259 Y64.4 Z-0.9177 I-0.6129 J0.7902
G1 X132.4741 Z-0.9778
G3 X132.512 Y64.369 I0.6511 J0.759
G1 X132.6112 Y64.292 Z-0.978
G3 X132.6618 Y64.2553 Z-0.9781 I0.6132 J0.79
G1 X132.7657 Y64.1846 Z-0.9782
G3 X132.8198 Y64.1502 Z-0.9783 I0.5626 J0.8267
G1 X132.928 Y64.0863 Z-0.9784
G3 X132.982 Y64.0567 Z-0.9785 I0.5085 J0.8611
G1 X133.0939 Y63.9996 Z-0.9787
G3 X133.1512 Y63.9726 Z-0.9788 I0.4545 J0.8907
G1 X133.2665 Y63.9227 Z-0.9789
G3 X133.3256 Y63.8993 Z-0.979 I0.3972 J0.9177
G1 X133.4439 Y63.8568 Z-0.9791
G3 X133.5026 Y63.8377 Z-0.9792 I0.3381 J0.9411
G1 X133.6232 Y63.8026 Z-0.9794
G3 X133.6845 Y63.7869 I0.2794 J0.9602
G1 X133.8071 Y63.7595 Z-0.9796
G3 X133.8692 Y63.7476 Z-0.9797 I0.2181 J0.9759
G1 X133.9933 Y63.728 Z-0.9798
G3 X134.0546 Y63.7203 Z-0.9799 I0.156 J0.9878
G1 X134.1797 Y63.7084 Z-0.9801
G3 X134.2434 Y63.7044 I0.0947 J0.9955
G1 X134.369 Y63.7005 Z-0.9803
G3 X134.431 Z-0.9804 I0.031 J0.9995
G1 X134.5566 Y63.7044 Z-0.9805
G3 X134.6203 Y63.7084 Z-0.9806 I-0.031 J0.9995
G1 X134.7454 Y63.7203 Z-0.9808
G3 X134.8067 Y63.728 I-0.0947 J0.9955
G1 X134.9308 Y63.7476 Z-0.981
G3 X134.9929 Y63.7595 Z-0.9811 I-0.156 J0.9878
G1 X135.1155 Y63.7869 Z-0.9812
G3 X135.1768 Y63.8026 Z-0.9813 I-0.2181 J0.9759
G1 X135.2974 Y63.8377 Z-0.9815
G3 X135.3564 Y63.8569 I-0.2794 J0.9602
G1 X135.4746 Y63.8994 Z-0.9817
G3 X135.5331 Y63.9225 Z-0.9818 I-0.3384 J0.941
G1 X135.6485 Y63.9724 Z-0.9819
G3 X135.7061 Y63.9996 Z-0.982 I-0.3969 J0.9179
G1 X135.818 Y64.0567 Z-0.9822
G3 X135.872 Y64.0863 I-0.4545 J0.8907
G1 X135.9802 Y64.1502 Z-0.9824
G3 X136.0343 Y64.1846 Z-0.9825 I-0.5085 J0.8611
G1 X136.1382 Y64.2553 Z-0.9826
G3 X136.1888 Y64.292 Z-0.9827 I-0.5626 J0.8267
G1 X136.288 Y64.369 Z-0.9829
G3 X136.3259 Y64.4 I-0.6132 J0.79
G1 X141.9 Z-0.9898
G1 Y59.3259 Z-0.9961
G3 X141.869 Y59.288 I0.759 J-0.6511
G1 X141.792 Y59.1888 Z-0.9963
G3 X141.7553 Y59.1382 Z-0.9964 I0.79 J-0.6132
G1 X141.6846 Y59.0343 Z-0.9965
G3 X141.6502 Y58.9802 Z-0.9966 I0.8267 J-0.5626
G1 X141.5863 Y58.872 Z-0.9968
G3 X141.5567 Y58.818 I0.8611 J-0.5085
G1 X141.4996 Y58.7061 Z-0.997
G3 X141.4724 Y58.6485 Z-0.9971 I0.8907 J-0.4545
G1 X141.4225 Y58.5331 Z-0.9972
G3 X141.3994 Y58.4746 Z-0.9973 I0.9179 J-0.3969
G1 X141.3569 Y58.3564 Z-0.9975
G3 X141.3377 Y58.2974 I0.941 J-0.3384
G1 X141.3026 Y58.1768 Z-0.9977
G3 X141.2869 Y58.1155 Z-0.9978 I0.9602 J-0.2794
G1 X141.2595 Y57.9929 Z-0.9979
G3 X141.2476 Y57.9308 Z-0.998 I0.9759 J-0.2181
G1 X141.228 Y57.8067 Z-0.9981
G3 X141.2203 Y57.7454 Z-0.9982 I0.9878 J-0.156
G1 X141.2084 Y57.6203 Z-0.9984
G3 X141.2044 Y57.5566 Z-0.9985 I0.9955 J-0.0947
G1 X141.2005 Y57.431 Z-0.9986
G3 Y57.369 Z-0.9987 I0.9995 J-0.031
G1 X141.2044 Y57.2434 Z-0.9988
G3 X141.2084 Y57.1797 Z-0.9989 I0.9995 J0.031
G1 X141.2203 Y57.0546 Z-0.9991
G3 X141.228 Y56.9933 Z-0.9992 I0.9955 J0.0947
G1 X141.2476 Y56.8692 Z-0.9993
G3 X141.2595 Y56.8071 Z-0.9994 I0.9878 J0.156
G1 X141.2869 Y56.6845 Z-0.9995
G3 X141.3026 Y56.6232 Z-0.9996 I0.9759 J0.2181
G1 X141.3377 Y56.5026 Z-0.9998
G3 X141.3569 Y56.4436 Z-0.9999 I0.9602 J0.2794
G1 X141.3994 Y56.3254 Z-1.0
G3 X141.4225 Y56.2669 Z-1.0001 I0.941 J0.3384
G1 X141.4724 Y56.1515 Z-1.0002
G3 X141.4996 Y56.0939 Z-1.0003 I0.9179 J0.3969
G1 X141.5567 Y55.982 Z-1.0005
G3 X141.5863 Y55.928 Z-1.0006 I0.8907 J0.4545
G1 X141.6502 Y55.8198 Z-1.0007
G3 X141.6846 Y55.7657 Z-1.0008 I0.8611 J0.5085
G1 X141.7553 Y55.6618 Z-1.0009
G3 X141.792 Y55.6112 Z-1.001 I0.8267 J0.5626
G1 X141.869 Y55.512 Z-1.0012
G3 X141.9 Y55.4741 I0.79 J0.6132
G1 Y45.8259 Z-1.0131
G3 X141.8688 Y45.7877 Z-1.0132 I0.759 J-0.6511
G1 X141.7918 Y45.6884 Z-1.0134
G3 X141.7552 Y45.6381 I0.7902 J-0.6129
G1 X141.6845 Y45.5341 Z-1.0136
G3 X141.6504 Y45.4804 Z-1.0137 I0.8268 J-0.5625
G1 X141.5865 Y45.3722 Z-1.0138
G3 X141.5566 Y45.3179 Z-1.0139 I0.8609 J-0.5087
G1 X141.4995 Y45.2059 Z-1.0141
G3 X141.4725 Y45.1487 I0.8908 J-0.4544
G1 X141.4226 Y45.0334 Z-1.0143
G3 X141.3994 Y44.9746 Z-1.0144 I0.9178 J-0.3972
G1 X141.3569 Y44.8563 Z-1.0145
G3 X141.3377 Y44.7974 Z-1.0146 I0.941 J-0.3383
G1 X141.3026 Y44.6767 Z-1.0148
G3 X141.2869 Y44.6155 I0.9602 J-0.2793
G1 X141.2595 Y44.4928 Z-1.015
G3 X141.2476 Y44.4308 Z-1.0151 I0.9759 J-0.2181
G1 X141.228 Y44.3067 Z-1.0152
G3 X141.2203 Y44.2454 Z-1.0153 I0.9878 J-0.156
G1 X141.2084 Y44.1203 Z-1.0155
G3 X141.2044 Y44.0566 I0.9955 J-0.0947
G1 X141.2005 Y43.931 Z-1.0157
G3 Y43.869 Z-1.0158 I0.9995 J-0.031
G1 X141.2044 Y43.7434 Z-1.0159
G3 X141.2084 Y43.6797 Z-1.016 I0.9995 J0.031
G1 X141.2203 Y43.5546 Z-1.0162
G3 X141.228 Y43.4933 I0.9955 J0.0947
G1 X141.2476 Y43.3692 Z-1.0164
G3 X141.2595 Y43.3072 Z-1.0165 I0.9878 J0.156
G1 X141.2869 Y43.1845 Z-1.0166
G3 X141.3026 Y43.1233 Z-1.0167 I0.9759 J0.2181
G1 X141.3377 Y43.0026 Z-1.0169
G3 X141.3569 Y42.9437 I0.9602 J0.2793
G1 X141.3994 Y42.8254 Z-1.0171
G3 X141.4226 Y42.7666 Z-1.0172 I0.941 J0.3383
G1 X141.4725 Y42.6513 Z-1.0173
G3 X141.4995 Y42.5941 Z-1.0174 I0.9178 J0.3972
G1 X141.5566 Y42.4821 Z-1.0176
G3 X141.5865 Y42.4278 I0.8908 J0.4544
G1 X141.6504 Y42.3196 Z-1.0178
G3 X141.6845 Y42.2659 Z-1.0179 I0.8609 J0.5087
G1 X141.7552 Y42.1619 Z-1.018
G3 X141.7918 Y42.1116 Z-1.0181 I0.8268 J0.5625
G1 X141.8688 Y42.0123 Z-1.0183
G3 X141.9 Y41.9741 I0.7902 J0.6129
G1 Y32.3259 Z-1.0302
G3 X141.8688 Y32.2877 Z-1.0303 I0.759 J-0.6511
G1 X141.7918 Y32.1884 Z-1.0304
G3 X141.7552 Y32.1381 Z-1.0305 I0.7902 J-0.6129
G1 X141.6845 Y32.0341 Z-1.0307
G3 X141.6504 Y31.9804 Z-1.0308 I0.8268 J-0.5625
G1 X141.5865 Y31.8722 Z-1.0309
G3 X141.5566 Y31.8179 Z-1.031 I0.8609 J-0.5087
G1 X141.4995 Y31.7059 Z-1.0311
G3 X141.4725 Y31.6487 Z-1.0312 I0.8908 J-0.4544
G1 X141.4226 Y31.5334 Z-1.0314
G3 X141.3994 Y31.4746 I0.9178 J-0.3972
G1 X141.3569 Y31.3563 Z-1.0316
G3 X141.3377 Y31.2974 Z-1.0317 I0.941 J-0.3383
G1 X141.3026 Y31.1767 Z-1.0318
G3 X141.2869 Y31.1155 Z-1.0319 I0.9602 J-0.2793
G1 X141.2595 Y30.9928 Z-1.0321
G3 X141.2476 Y30.9308 I0.9759 J-0.2181
G1 X141.228 Y30.8067 Z-1.0323
G3 X141.2203 Y30.7454 Z-1.0324 I0.9878 J-0.156
G1 X141.2084 Y30.6203 Z-1.0325
G3 X141.2044 Y30.5566 Z-1.0326 I0.9955 J-0.0947
G1 X141.2005 Y30.431 Z-1.0328
G3 Y30.369 I0.9995 J-0.031
G1 X141.2044 Y30.2434 Z-1.033
G3 X141.2084 Y30.1797 Z-1.0331 I0.9995 J0.031
G1 X141.2203 Y30.0546 Z-1.0332
G3 X141.228 Y29.9933 Z-1.0333 I0.9955 J0.0947
G1 X141.2476 Y29.8692 Z-1.0335
G3 X141.2595 Y29.8072 I0.9878 J0.156
G1 X141.2869 Y29.6845 Z-1.0337
G3 X141.3026 Y29.6233 Z-1.0338 I0.9759 J0.2181
G1 X141.3377 Y29.5026 Z-1.0339
G3 X141.3569 Y29.4437 Z-1.034 I0.9602 J0.2793
G1 X141.3994 Y29.3254 Z-1.0342
G3 X141.4226 Y29.2666 I0.941 J0.3383
G1 X141.4725 Y29.1513 Z-1.0344
G3 X141.4995 Y29.0941 Z-1.0345 I0.9178 J0.3972
G1 X141.5566 Y28.9821 Z-1.0346
G3 X141.5865 Y28.9278 Z-1.0347 I0.8908 J0.4544
G1 X141.6504 Y28.8196 Z-1.0349
G3 X141.6845 Y28.7659 I0.8609 J0.5087
G1 X141.7552 Y28.6619 Z-1.0351
G3 X141.7918 Y28.6116 Z-1.0352 I0.8268 J0.5625
G1 X141.8688 Y28.5123 Z-1.0353
G3 X141.9 Y28.4741 Z-1.0354 I0.7902 J0.6129
G1 Y24.4 Z-1.0404
G1 X136.3259 Z-1.0473
G3 X136.288 Y24.431 Z-1.0474 I-0.6511 J-0.759
G1 X136.1888 Y24.508 Z-1.0475
G3 X136.1382 Y24.5447 Z-1.0476 I-0.6132 J-0.79
G1 X136.0343 Y24.6154 Z-1.0477
G3 X135.9802 Y24.6498 Z-1.0478 I-0.5626 J-0.8267
G1 X135.872 Y24.7137 Z-1.048
G3 X135.818 Y24.7433 Z-1.0481 I-0.5085 J-0.8611
G1 X135.7061 Y24.8004 Z-1.0482
G3 X135.6485 Y24.8276 Z-1.0483 I-0.4545 J-0.8907
G1 X135.5331 Y24.8775 Z-1.0484
G3 X135.4746 Y24.9006 Z-1.0485 I-0.3969 J-0.9179
G1 X135.3564 Y24.9431 Z-1.0487
G3 X135.2974 Y24.9623 Z-1.0488 I-0.3384 J-0.941
G1 X135.1768 Y24.9974 Z-1.0489
G3 X135.1155 Y25.0131 Z-1.049 I-0.2794 J-0.9602
G1 X134.9929 Y25.0405 Z-1.0491
G3 X134.9308 Y25.0524 Z-1.0492 I-0.2181 J-0.9759
G1 X134.8067 Y25.072 Z-1.0494
G3 X134.7454 Y25.0797 Z-1.0495 I-0.156 J-0.9878
G1 X134.6203 Y25.0916 Z-1.0496
G3 X134.5566 Y25.0956 Z-1.0497 I-0.0947 J-0.9955
G1 X134.431 Y25.0995 Z-1.0498
G3 X134.369 Z-1.0499 I-0.031 J-0.9995
G1 X134.2434 Y25.0956 Z-1.0501
G3 X134.1797 Y25.0916 Z-1.0502 I0.031 J-0.9995
G1 X134.0546 Y25.0797 Z-1.0503
G3 X133.9933 Y25.072 Z-1.0504 I0.0947 J-0.9955
G1 X133.8692 Y25.0524 Z-1.0505
G3 X133.8071 Y25.0405 Z-1.0506 I0.156 J-0.9878
G1 X133.6845 Y25.0131 Z-1.0508
G3 X133.6232 Y24.9974 Z-1.0509 I0.2181 J-0.9759
G1 X133.5026 Y24.9623 Z-1.051
G3 X133.4439 Y24.9432 Z-1.0511 I0.2794 J-0.9602
G1 X133.3256 Y24.9007 Z-1.0512
G3 X133.2665 Y24.8773 Z-1.0513 I0.3381 J-0.9411
G1 X133.1512 Y24.8274 Z-1.0515
G3 X133.0939 Y24.8004 Z-1.0516 I0.3972 J-0.9177
G1 X132.982 Y24.7433 Z-1.0517
G3 X132.928 Y24.7137 Z-1.0518 I0.4545 J-0.8907
G1 X132.8198 Y24.6498 Z-1.0519
G3 X132.7657 Y24.6154 Z-1.052 I0.5085 J-0.8611
G1 X132.6618 Y24.5447 Z-1.0522
G3 X132.6112 Y24.508 I0.5626 J-0.8267
G1 X132.512 Y24.431 Z-1.0524
G3 X132.4741 Y24.4 Z-1.0525 I0.6132 J-0.79
G1 X83.8259 Z-1.1125
G3 X83.7877 Y24.4312 Z-1.1126 I-0.6511 J-0.759
G1 X83.6884 Y24.5082 Z-1.1127
G3 X83.6381 Y24.5448 Z-1.1128 I-0.6129 J-0.7902
G1 X83.5341 Y24.6155 Z-1.113
G3 X83.4804 Y24.6496 Z-1.1131 I-0.5625 J-0.8268
G1 X83.3722 Y24.7135 Z-1.1132
G3 X83.3179 Y24.7434 Z-1.1133 I-0.5087 J-0.8609
G1 X83.2059 Y24.8005 Z-1.1134
G3 X83.1487 Y24.8275 Z-1.1135 I-0.4544 J-0.8908
G1 X83.0334 Y24.8774 Z-1.1137
G3 X82.9746 Y24.9006 Z-1.1138 I-0.3972 J-0.9178
G1 X82.8563 Y24.9431 Z-1.1139
G3 X82.7974 Y24.9623 Z-1.114 I-0.3383 J-0.941
G1 X82.6767 Y24.9974 Z-1.1141
G3 X82.6155 Y25.0131 Z-1.1142 I-0.2793 J-0.9602
G1 X82.4928 Y25.0405 Z-1.1144
G3 X82.4308 Y25.0524 Z-1.1145 I-0.2181 J-0.9759
G1 X82.3067 Y25.072 Z-1.1146
G3 X82.2454 Y25.0797 Z-1.1147 I-0.156 J-0.9878
G1 X82.1203 Y25.0916 Z-1.1148
G3 X82.0566 Y25.0956 Z-1.1149 I-0.0947 J-0.9955
G1 X81.931 Y25.0995 Z-1.1151
G3 X81.869 Z-1.1152 I-0.031 J-0.9995
G1 X81.7434 Y25.0956 Z-1.1153
G3 X81.6797 Y25.0916 Z-1.1154 I0.031 J-0.9995
G1 X81.5546 Y25.0797 Z-1.1155
G3 X81.4933 Y25.072 Z-1.1156 I0.0947 J-0.9955
G1 X81.3692 Y25.0524 Z-1.1158
G3 X81.3072 Y25.0405 I0.156 J-0.9878
G1 X81.1845 Y25.0131 Z-1.116
G3 X81.1233 Y24.9974 Z-1.1161 I0.2181 J-0.9759
G1 X81.0026 Y24.9623 Z-1.1162
G3 X80.9437 Y24.9431 Z-1.1163 I0.2793 J-0.9602
G1 X80.8254 Y24.9006 Z-1.1165
G3 X80.7666 Y24.8774 I0.3383 J-0.941
G1 X80.6513 Y24.8275 Z-1.1167
G3 X80.5941 Y24.8005 Z-1.1168 I0.3972 J-0.9178
G1 X80.4821 Y24.7434 Z-1.1169
G3 X80.4278 Y24.7135 Z-1.117 I0.4544 J-0.8908
G1 X80.3196 Y24.6496 Z-1.1172
G3 X80.2659 Y24.6155 I0.5087 J-0.8609
G1 X80.1619 Y24.5448 Z-1.1174
G3 X80.1116 Y24.5082 Z-1.1175 I0.5625 J-0.8268
G1 X80.0123 Y24.4312 Z-1.1176
G3 X79.9741 Y24.4 Z-1.1177 I0.6129 J-0.7902
G1 X31.3259 Z-1.1778
G3 X31.288 Y24.431 I-0.6511 J-0.759
G1 X31.1888 Y24.508 Z-1.178
G3 X31.1382 Y24.5447 Z-1.1781 I-0.6132 J-0.79
G1 X31.0343 Y24.6154 Z-1.1782
G3 X30.9802 Y24.6498 Z-1.1783 I-0.5626 J-0.8267
G1 X30.872 Y24.7137 Z-1.1784
G3 X30.818 Y24.7433 Z-1.1785 I-0.5085 J-0.8611
G1 X30.7061 Y24.8004 Z-1.1787
G3 X30.6488 Y24.8274 Z-1.1788 I-0.4545 J-0.8907
G1 X30.5335 Y24.8773 Z-1.1789
G3 X30.4744 Y24.9007 Z-1.179 I-0.3972 J-0.9177
G1 X30.3561 Y24.9432 Z-1.1791
G3 X30.2974 Y24.9623 Z-1.1792 I-0.3381 J-0.9411
G1 X30.1768 Y24.9974 Z-1.1794
G3 X30.1155 Y25.0131 I-0.2794 J-0.9602
G1 X29.9929 Y25.0405 Z-1.1796
G3 X29.9308 Y25.0524 Z-1.1797 I-0.2181 J-0.9759
G1 X29.8067 Y25.072 Z-1.1798
G3 X29.7454 Y25.0797 Z-1.1799 I-0.156 J-0.9878
G1 X29.6203 Y25.0916 Z-1.1801
G3 X29.5566 Y25.0956 I-0.0947 J-0.9955
G1 X29.431 Y25.0995 Z-1.1803
G3 X29.369 Z-1.1804 I-0.031 J-0.9995
G1 X29.2434 Y25.0956 Z-1.1805
G3 X29.1797 Y25.0916 Z-1.1806 I0.031 J-0.9995
G1 X29.0546 Y25.0797 Z-1.1808
G3 X28.9933 Y25.072 I0.0947 J-0.9955
G1 X28.8692 Y25.0524 Z-1.181
G3 X28.8071 Y25.0405 Z-1.1811 I0.156 J-0.9878
G1 X28.6845 Y25.0131 Z-1.1812
G3 X28.6232 Y24.9974 Z-1.1813 I0.2181 J-0.9759
G1 X28.5026 Y24.9623 Z-1.1815
G3 X28.4436 Y24.9431 I0.2794 J-0.9602
G1 X28.3254 Y24.9006 Z-1.1817
G3 X28.2669 Y24.8775 Z-1.1818 I0.3384 J-0.941
G1 X28.1515 Y24.8276 Z-1.1819
G3 X28.0939 Y24.8004 Z-1.182 I0.3969 J-0.9179
G1 X27.982 Y24.7433 Z-1.1822
G3 X27.928 Y24.7137 I0.4545 J-0.8907
G1 X27.8198 Y24.6498 Z-1.1824
G3 X27.7657 Y24.6154 Z-1.1825 I0.5085 J-0.8611
G1 X27.6618 Y24.5447 Z-1.1826
G3 X27.6112 Y24.508 Z-1.1827 I0.5626 J-0.8267
G1 X27.512 Y24.431 Z-1.1829
G3 X27.4741 Y24.4 I0.6132 J-0.79
G1 X21.9 Z-1.1898
G1 Y28.4741 Z-1.1948
G3 X21.9312 Y28.5123 Z-1.1949 I-0.759 J0.6511
G1 X22.0082 Y28.6116 Z-1.1951
G3 X22.0448 Y28.6619 I-0.7902 J0.6129
G1 X22.1155 Y28.7659 Z-1.1953
G3 X22.1496 Y28.8196 Z-1.1954 I-0.8268 J0.5625
G1 X22.2135 Y28.9278 Z-1.1955
G3 X22.2434 Y28.9821 Z-1.1956 I-0.8609 J0.5087
G1 X22.3005 Y29.0941 Z-1.1957
G3 X22.3275 Y29.1513 Z-1.1958 I-0.8908 J0.4544
G1 X22.3774 Y29.2666 Z-1.196
G3 X22.4006 Y29.3254 Z-1.1961 I-0.9178 J0.3972
G1 X22.4431 Y29.4437 Z-1.1962
G3 X22.4623 Y29.5026 Z-1.1963 I-0.941 J0.3383
G1 X22.4974 Y29.6233 Z-1.1964
G3 X22.5131 Y29.6845 Z-1.1965 I-0.9602 J0.2793
G1 X22.5405 Y29.8072 Z-1.1967
G3 X22.5524 Y29.8692 Z-1.1968 I-0.9759 J0.2181
G1 X22.572 Y29.9933 Z-1.1969
G3 X22.5797 Y30.0546 Z-1.197 I-0.9878 J0.156
G1 X22.5916 Y30.1797 Z-1.1971
G3 X22.5956 Y30.2434 Z-1.1972 I-0.9955 J0.0947
G1 X22.5995 Y30.369 Z-1.1974
G3 Y30.431 Z-1.1975 I-0.9995 J0.031
G1 X22.5956 Y30.5566 Z-1.1976
G3 X22.5916 Y30.6203 Z-1.1977 I-0.9995 J-0.031
G1 X22.5797 Y30.7454 Z-1.1978
G3 X22.572 Y30.8067 Z-1.1979 I-0.9955 J-0.0947
G1 X22.5524 Y30.9308 Z-1.1981
G3 X22.5405 Y30.9928 Z-1.1982 I-0.9878 J-0.156
G1 X22.5131 Y31.1155 Z-1.1983
G3 X22.4974 Y31.1767 Z-1.1984 I-0.9759 J-0.2181
G1 X22.4623 Y31.2974 Z-1.1985
G3 X22.4431 Y31.3563 Z-1.1986 I-0.9602 J-0.2793
G1 X22.4006 Y31.4746 Z-1.1988
G3 X22.3774 Y31.5334 Z-1.1989 I-0.941 J-0.3383
G1 X22.3275 Y31.6487 Z-1.199
G3 X22.3005 Y31.7059 Z-1.1991 I-0.9178 J-0.3972
G1 X22.2434 Y31.8179 Z-1.1992
G3 X22.2135 Y31.8722 Z-1.1993 I-0.8908 J-0.4544
G1 X22.1496 Y31.9804 Z-1.1995
G3 X22.1155 Y32.0341 Z-1.1996 I-0.8609 J-0.5087
G1 X22.0448 Y32.1381 Z-1.1997
G3 X22.0082 Y32.1884 Z-1.1998 I-0.8268 J-0.5625
G1 X21.9312 Y32.2877 Z-1.1999
G3 X21.9 Y32.3259 Z-1.2 I-0.7902 J-0.6129
G1 Y41.9741 Z-1.2119
G3 X21.9312 Y42.0123 Z-1.212 I-0.759 J0.6511
G1 X22.0082 Y42.1116 Z-1.2121
G3 X22.0448 Y42.1619 Z-1.2122 I-0.7902 J0.6129
G1 X22.1155 Y42.2659 Z-1.2124
G3 X22.1496 Y42.3196 I-0.8268 J0.5625
G1 X22.2135 Y42.4278 Z-1.2126
G3 X22.2434 Y42.4821 Z-1.2127 I-0.8609 J0.5087
G1 X22.3005 Y42.5941 Z-1.2128
G3 X22.3275 Y42.6513 Z-1.2129 I-0.8908 J0.4544
G1 X22.3774 Y42.7666 Z-1.2131
G3 X22.4006 Y42.8254 I-0.9178 J0.3972
G1 X22.4431 Y42.9437 Z-1.2133
G3 X22.4623 Y43.0026 Z-1.2134 I-0.941 J0.3383
G1 X22.4974 Y43.1233 Z-1.2135
G3 X22.5131 Y43.1845 Z-1.2136 I-0.9602 J0.2793
G1 X22.5405 Y43.3072 Z-1.2138
G3 X22.5524 Y43.3692 I-0.9759 J0.2181
G1 X22.572 Y43.4933 Z-1.214
G3 X22.5797 Y43.5546 Z-1.2141 I-0.9878 J0.156
G1 X22.5916 Y43.6797 Z-1.2142
G3 X22.5956 Y43.7434 Z-1.2143 I-0.9955 J0.0947
G1 X22.5995 Y43.869 Z-1.2145
G3 Y43.931 I-0.9995 J0.031
G1 X22.5956 Y44.0566 Z-1.2147
G3 X22.5916 Y44.1203 Z-1.2148 I-0.9995 J-0.031
G1 X22.5797 Y44.2454 Z-1.2149
G3 X22.572 Y44.3067 Z-1.215 I-0.9955 J-0.0947
G1 X22.5524 Y44.4308 Z-1.2152
G3 X22.5405 Y44.4928 I-0.9878 J-0.156
G1 X22.5131 Y44.6155 Z-1.2154
G3 X22.4974 Y44.6767 Z-1.2155 I-0.9759 J-0.2181
G1 X22.4623 Y44.7974 Z-1.2156
G3 X22.4431 Y44.8563 Z-1.2157 I-0.9602 J-0.2793
G1 X22.4006 Y44.9746 Z-1.2159
G3 X22.3774 Y45.0334 I-0.941 J-0.3383
G1 X22.3275 Y45.1487 Z-1.2161
G3 X22.3005 Y45.2059 Z-1.2162 I-0.9178 J-0.3972
G1 X22.2434 Y45.3179 Z-1.2163
G3 X22.2135 Y45.3722 Z-1.2164 I-0.8908 J-0.4544
G1 X22.1496 Y45.4804 Z-1.2165
G3 X22.1155 Y45.5341 Z-1.2166 I-0.8609 J-0.5087
G1 X22.0448 Y45.6381 Z-1.2168
G3 X22.0082 Y45.6884 Z-1.2169 I-0.8268 J-0.5625
G1 X21.9312 Y45.7877 Z-1.217
G3 X21.9 Y45.8259 Z-1.2171 I-0.7902 J-0.6129
G1 Y55.4741 Z-1.229
G3 X21.931 Y55.512 I-0.759 J0.6511
G1 X22.008 Y55.6112 Z-1.2292
G3 X22.0447 Y55.6618 Z-1.2293 I-0.79 J0.6132
G1 X22.1154 Y55.7657 Z-1.2294
G3 X22.1498 Y55.8198 Z-1.2295 I-0.8267 J0.5626
G1 X22.2137 Y55.928 Z-1.2297
G3 X22.2433 Y55.982 I-0.8611 J0.5085
G1 X22.3004 Y56.0939 Z-1.2299
G3 X22.3276 Y56.1515 Z-1.23 I-0.8907 J0.4545
G1 X22.3775 Y56.2669 Z-1.2301
G3 X22.4006 Y56.3254 Z-1.2302 I-0.9179 J0.3969
G1 X22.4431 Y56.4436 Z-1.2304
G3 X22.4623 Y56.5026 I-0.941 J0.3384
G1 X22.4974 Y56.6232 Z-1.2306
G3 X22.5131 Y56.6845 Z-1.2307 I-0.9602 J0.2794
G1 X22.5405 Y56.8071 Z-1.2308
G3 X22.5524 Y56.8692 Z-1.2309 I-0.9759 J0.2181
G1 X22.572 Y56.9933 Z-1.2311
G3 X22.5797 Y57.0546 I-0.9878 J0.156
G1 X22.5916 Y57.1797 Z-1.2313
G3 X22.5956 Y57.2434 Z-1.2314 I-0.9955 J0.0947
G1 X22.5995 Y57.369 Z-1.2315
G3 Y57.431 Z-1.2316 I-0.9995 J0.031
G1 X22.5956 Y57.5566 Z-1.2318
G3 X22.5916 Y57.6203 I-0.9995 J-0.031
G1 X22.5797 Y57.7454 Z-1.232
G3 X22.572 Y57.8067 Z-1.2321 I-0.9955 J-0.0947
G1 X22.5524 Y57.9308 Z-1.2322
G3 X22.5405 Y57.9929 Z-1.2323 I-0.9878 J-0.156
G1 X22.5131 Y58.1155 Z-1.2325
G3 X22.4974 Y58.1768 I-0.9759 J-0.2181
G1 X22.4623 Y58.2974 Z-1.2327
G3 X22.4431 Y58.3564 Z-1.2328 I-0.9602 J-0.2794
G1 X22.4006 Y58.4746 Z-1.2329
G3 X22.3775 Y58.5331 Z-1.233 I-0.941 J-0.3384
G1 X22.3276 Y58.6485 Z-1.2332
G3 X22.3004 Y58.7061 I-0.9179 J-0.3969
G1 X22.2433 Y58.818 Z-1.2334
G3 X22.2137 Y58.872 Z-1.2335 I-0.8907 J-0.4545
G1 X22.1498 Y58.9802 Z-1.2336
G3 X22.1154 Y59.0343 Z-1.2337 I-0.8611 J-0.5085
G1 X22.0447 Y59.1382 Z-1.2339
G3 X22.008 Y59.1888 I-0.8267 J-0.5626
G1 X21.931 Y59.288 Z-1.2341
G3 X21.9 Y59.3259 Z-1.2342 I-0.79 J-0.6132
G1 Y64.4 Z-1.2404
G1 X27.4741 Z-1.2473
G3 X27.512 Y64.369 Z-1.2474 I0.6511 J0.759
G1 X27.6112 Y64.292 Z-1.2475
G3 X27.6618 Y64.2553 Z-1.2476 I0.6132 J0.79
G1 X27.7657 Y64.1846 Z-1.2477
G3 X27.8198 Y64.1502 Z-1.2478 I0.5626 J0.8267
G1 X27.928 Y64.0863 Z-1.248
G3 X27.982 Y64.0567 Z-1.2481 I0.5085 J0.8611
G1 X28.0939 Y63.9996 Z-1.2482
G3 X28.1515 Y63.9724 Z-1.2483 I0.4545 J0.8907
G1 X28.2669 Y63.9225 Z-1.2484
G3 X28.3254 Y63.8994 Z-1.2485 I0.3969 J0.9179
G1 X28.4436 Y63.8569 Z-1.2487
G3 X28.5026 Y63.8377 Z-1.2488 I0.3384 J0.941
G1 X28.6232 Y63.8026 Z-1.2489
G3 X28.6845 Y63.7869 Z-1.249 I0.2794 J0.9602
G1 X28.8071 Y63.7595 Z-1.2491
G3 X28.8692 Y63.7476 Z-1.2492 I0.2181 J0.9759
G1 X28.9933 Y63.728 Z-1.2494
G3 X29.0546 Y63.7203 Z-1.2495 I0.156 J0.9878
G1 X29.1797 Y63.7084 Z-1.2496
G3 X29.2434 Y63.7044 Z-1.2497 I0.0947 J0.9955
G1 X29.369 Y63.7005 Z-1.2498
G3 X29.431 Z-1.2499 I0.031 J0.9995
G1 X29.5566 Y63.7044 Z-1.2501
G3 X29.6203 Y63.7084 Z-1.2502 I-0.031 J0.9995
G1 X29.7454 Y63.7203 Z-1.2503
G3 X29.8067 Y63.728 Z-1.2504 I-0.0947 J0.9955
G1 X29.9308 Y63.7476 Z-1.2505
G3 X29.9929 Y63.7595 Z-1.2506 I-0.156 J0.9878
G1 X30.1155 Y63.7869 Z-1.2508
G3 X30.1768 Y63.8026 Z-1.2509 I-0.2181 J0.9759
G1 X30.2974 Y63.8377 Z-1.251
G3 X30.3561 Y63.8568 Z-1.2511 I-0.2794 J0.9602
G1 X30.4744 Y63.8993 Z-1.2512
G3 X30.5335 Y63.9227 Z-1.2513 I-0.3381 J0.9411
G1 X30.6488 Y63.9726 Z-1.2515
G3 X30.7061 Y63.9996 Z-1.2516 I-0.3972 J0.9177
G1 X30.818 Y64.0567 Z-1.2517
G3 X30.872 Y64.0863 Z-1.2518 I-0.4545 J0.8907
G1 X30.9802 Y64.1502 Z-1.2519
G3 X31.0343 Y64.1846 Z-1.252 I-0.5085 J0.8611
G1 X31.1382 Y64.2553 Z-1.2522
G3 X31.1888 Y64.292 I-0.5626 J0.8267
G1 X31.288 Y64.369 Z-1.2524
G3 X31.3259 Y64.4 Z-1.2525 I-0.6132 J0.79
G1 X79.9741 Z-1.3125
G3 X80.0123 Y64.3688 Z-1.3126 I0.6511 J0.759
G1 X80.1116 Y64.2918 Z-1.3127
G3 X80.1619 Y64.2552 Z-1.3128 I0.6129 J0.7902
G1 X80.2659 Y64.1845 Z-1.313
G3 X80.3196 Y64.1504 Z-1.3131 I0.5625 J0.8268
G1 X80.4278 Y64.0865 Z-1.3132
G3 X80.4821 Y64.0566 Z-1.3133 I0.5087 J0.8609
G1 X80.5941 Y63.9995 Z-1.3134
G3 X80.6513 Y63.9725 Z-1.3135 I0.4544 J0.8908
G1 X80.7666 Y63.9226 Z-1.3137
G3 X80.8254 Y63.8994 Z-1.3138 I0.3972 J0.9178
G1 X80.9437 Y63.8569 Z-1.3139
G3 X81.0026 Y63.8377 Z-1.314 I0.3383 J0.941
G1 X81.1233 Y63.8026 Z-1.3141
G3 X81.1845 Y63.7869 Z-1.3142 I0.2793 J0.9602
G1 X81.3072 Y63.7595 Z-1.3144
G3 X81.3692 Y63.7476 Z-1.3145 I0.2181 J0.9759
G1 X81.4933 Y63.728 Z-1.3146
G3 X81.5546 Y63.7203 Z-1.3147 I0.156 J0.9878
G1 X81.6797 Y63.7084 Z-1.3148
G3 X81.7434 Y63.7044 Z-1.3149 I0.0947 J0.9955
G1 X81.869 Y63.7005 Z-1.3151
G3 X81.931 Z-1.3152 I0.031 J0.9995
G1 X82.0566 Y63.7044 Z-1.3153
G3 X82.1203 Y63.7084 Z-1.3154 I-0.031 J0.9995
G1 X82.2454 Y63.7203 Z-1.3155
G3 X82.3067 Y63.728 Z-1.3156 I-0.0947 J0.9955
G1 X82.4308 Y63.7476 Z-1.3158
G3 X82.4928 Y63.7595 I-0.156 J0.9878
G1 X82.6155 Y63.7869 Z-1.316
G3 X82.6767 Y63.8026 Z-1.3161 I-0.2181 J0.9759
G1 X82.7974 Y63.8377 Z-1.3162
G3 X82.8563 Y63.8569 Z-1.3163 I-0.2793 J0.9602
G1 X82.9746 Y63.8994 Z-1.3165
G3 X83.0334 Y63.9226 I-0.3383 J0.941
G1 X83.1487 Y63.9725 Z-1.3167
G3 X83.2059 Y63.9995 Z-1.3168 I-0.3972 J0.9178
G1 X83.3179 Y64.0566 Z-1.3169
G3 X83.3722 Y64.0865 Z-1.317 I-0.4544 J0.8908
G1 X83.4804 Y64.1504 Z-1.3172
G3 X83.5341 Y64.1845 I-0.5087 J0.8609
G1 X83.6381 Y64.2552 Z-1.3174
G3 X83.6884 Y64.2918 Z-1.3175 I-0.5625 J0.8268
G1 X83.7877 Y64.3688 Z-1.3176
G3 X83.8259 Y64.4 Z-1.3177 I-0.6129 J0.7902
G1 X132.4741 Z-1.3778
G3 X132.512 Y64.369 I0.6511 J0.759
G1 X132.6112 Y64.292 Z-1.378
G3 X132.6618 Y64.2553 Z-1.3781 I0.6132 J0.79
G1 X132.7657 Y64.1846 Z-1.3782
G3 X132.8198 Y64.1502 Z-1.3783 I0.5626 J0.8267
G1 X132.928 Y64.0863 Z-1.3784
G3 X132.982 Y64.0567 Z-1.3785 I0.5085 J0.8611
G1 X133.0939 Y63.9996 Z-1.3787
G3 X133.1512 Y63.9726 Z-1.3788 I0.4545 J0.8907
G1 X133.2665 Y63.9227 Z-1.3789
G3 X133.3256 Y63.8993 Z-1.379 I0.3972 J0.9177
G1 X133.4439 Y63.8568 Z-1.3791
G3 X133.5026 Y63.8377 Z-1.3792 I0.3381 J0.9411
G1 X133.6232 Y63.8026 Z-1.3794
G3 X133.6845 Y63.7869 I0.2794 J0.9602
G1 X133.8071 Y63.7595 Z-1.3796
G3 X133.8692 Y63.7476 Z-1.3797 I0.2181 J0.9759
G1 X133.9933 Y63.728 Z-1.3798
G3 X134.0546 Y63.7203 Z-1.3799 I0.156 J0.9878
G1 X134.1797 Y63.7084 Z-1.3801
G3 X134.2434 Y63.7044 I0.0947 J0.9955
G1 X134.369 Y63.7005 Z-1.3803
G3 X134.431 Z-1.3804 I0.031 J0.9995
G1 X134.5566 Y63.7044 Z-1.3805
G3 X134.6203 Y63.7084 Z-1.3806 I-0.031 J0.9995
G1 X134.7454 Y63.7203 Z-1.3808
G3 X134.8067 Y63.728 I-0.0947 J0.9955
G1 X134.9308 Y63.7476 Z-1.381
G3 X134.9929 Y63.7595 Z-1.3811 I-0.156 J0.9878
G1 X135.1155 Y63.7869 Z-1.3812
G3 X135.1768 Y63.8026 Z-1.3813 I-0.2181 J0.9759
G1 X135.2974 Y63.8377 Z-1.3815
G3 X135.3564 Y63.8569 I-0.2794 J0.9602
G1 X135.4746 Y63.8994 Z-1.3817
G3 X135.5331 Y63.9225 Z-1.3818 I-0.3384 J0.941
G1 X135.6485 Y63.9724 Z-1.3819
G3 X135.7061 Y63.9996 Z-1.382 I-0.3969 J0.9179
G1 X135.818 Y64.0567 Z-1.3822
G3 X135.872 Y64.0863 I-0.4545 J0.8907
G1 X135.9802 Y64.1502 Z-1.3824
G3 X136.0343 Y64.1846 Z-1.3825 I-0.5085 J0.8611
G1 X136.1382 Y64.2553 Z-1.3826
G3 X136.1888 Y64.292 Z-1.3827 I-0.5626 J0.8267
G1 X136.288 Y64.369 Z-1.3829
G3 X136.3259 Y64.4 I-0.6132 J0.79
G1 X141.9 Z-1.3898
G1 Y59.3259 Z-1.3961
G3 X141.869 Y59.288 I0.759 J-0.6511
G1 X141.792 Y59.1888 Z-1.3963
G3 X141.7553 Y59.1382 Z-1.3964 I0.79 J-0.6132
G1 X141.6846 Y59.0343 Z-1.3965
G3 X141.6502 Y58.9802 Z-1.3966 I0.8267 J-0.5626
G1 X141.5863 Y58.872 Z-1.3968
G3 X141.5567 Y58.818 I0.8611 J-0.5085
G1 X141.4996 Y58.7061 Z-1.397
G3 X141.4724 Y58.6485 Z-1.3971 I0.8907 J-0.4545
G1 X141.4225 Y58.5331 Z-1.3972
G3 X141.3994 Y58.4746 Z-1.3973 I0.9179 J-0.3969
G1 X141.3569 Y58.3564 Z-1.3975
G3 X141.3377 Y58.2974 I0.941 J-0.3384
G1 X141.3026 Y58.1768 Z-1.3977
G3 X141.2869 Y58.1155 Z-1.3978 I0.9602 J-0.2794
G1 X141.2595 Y57.9929 Z-1.3979
G3 X141.2476 Y57.9308 Z-1.398 I0.9759 J-0.2181
G1 X141.228 Y57.8067 Z-1.3981
G3 X141.2203 Y57.7454 Z-1.3982 I0.9878 J-0.156
G1 X141.2084 Y57.6203 Z-1.3984
G3 X141.2044 Y57.5566 Z-1.3985 I0.9955 J-0.0947
G1 X141.2005 Y57.431 Z-1.3986
G3 Y57.369 Z-1.3987 I0.9995 J-0.031
G1 X141.2044 Y57.2434 Z-1.3988
G3 X141.2084 Y57.1797 Z-1.3989 I0.9995 J0.031
G1 X141.2203 Y57.0546 Z-1.3991
G3 X141.228 Y56.9933 Z-1.3992 I0.9955 J0.0947
G1 X141.2476 Y56.8692 Z-1.3993
G3 X141.2595 Y56.8071 Z-1.3994 I0.9878 J0.156
G1 X141.2869 Y56.6845 Z-1.3995
G3 X141.3026 Y56.6232 Z-1.3996 I0.9759 J0.2181
G1 X141.3377 Y56.5026 Z-1.3998
G3 X141.3569 Y56.4436 Z-1.3999 I0.9602 J0.2794
G1 X141.3994 Y56.3254 Z-1.4
G3 X141.4225 Y56.2669 Z-1.4001 I0.941 J0.3384
G1 X141.4724 Y56.1515 Z-1.4002
G3 X141.4996 Y56.0939 Z-1.4003 I0.9179 J0.3969
G1 X141.5567 Y55.982 Z-1.4005
G3 X141.5863 Y55.928 Z-1.4006 I0.8907 J0.4545
G1 X141.6502 Y55.8198 Z-1.4007
G3 X141.6846 Y55.7657 Z-1.4008 I0.8611 J0.5085
G1 X141.7553 Y55.6618 Z-1.4009
G3 X141.792 Y55.6112 Z-1.401 I0.8267 J0.5626
G1 X141.869 Y55.512 Z-1.4012
G3 X141.9 Y55.4741 I0.79 J0.6132
G1 Y45.8259 Z-1.4131
G3 X141.8688 Y45.7877 Z-1.4132 I0.759 J-0.6511
G1 X141.7918 Y45.6884 Z-1.4134
G3 X141.7552 Y45.6381 I0.7902 J-0.6129
G1 X141.6845 Y45.5341 Z-1.4136
G3 X141.6504 Y45.4804 Z-1.4137 I0.8268 J-0.5625
G1 X141.5865 Y45.3722 Z-1.4138
G3 X141.5566 Y45.3179 Z-1.4139 I0.8609 J-0.5087
G1 X141.4995 Y45.2059 Z-1.4141
G3 X141.4725 Y45.1487 I0.8908 J-0.4544
G1 X141.4226 Y45.0334 Z-1.4143
G3 X141.3994 Y44.9746 Z-1.4144 I0.9178 J-0.3972
G1 X141.3569 Y44.8563 Z-1.4145
G3 X141.3377 Y44.7974 Z-1.4146 I0.941 J-0.3383
G1 X141.3026 Y44.6767 Z-1.4148
G3 X141.2869 Y44.6155 I0.9602 J-0.2793
G1 X141.2595 Y44.4928 Z-1.415
G3 X141.2476 Y44.4308 Z-1.4151 I0.9759 J-0.2181
G1 X141.228 Y44.3067 Z-1.4152
G3 X141.2203 Y44.2454 Z-1.4153 I0.9878 J-0.156
G1 X141.2084 Y44.1203 Z-1.4155
G3 X141.2044 Y44.0566 I0.9955 J-0.0947
G1 X141.2005 Y43.931 Z-1.4157
G3 Y43.869 Z-1.4158 I0.9995 J-0.031
G1 X141.2044 Y43.7434 Z-1.4159
G3 X141.2084 Y43.6797 Z-1.416 I0.9995 J0.031
G1 X141.2203 Y43.5546 Z-1.4162
G3 X141.228 Y43.4933 I0.9955 J0.0947
G1 X141.2476 Y43.3692 Z-1.4164
G3 X141.2595 Y43.3072 Z-1.4165 I0.9878 J0.156
G1 X141.2869 Y43.1845 Z-1.4166
G3 X141.3026 Y43.1233 Z-1.4167 I0.9759 J0.2181
G1 X141.3377 Y43.0026 Z-1.4169
G3 X141.3569 Y42.9437 I0.9602 J0.2793
G1 X141.3994 Y42.8254 Z-1.4171
G3 X141.4226 Y42.7666 Z-1.4172 I0.941 J0.3383
G1 X141.4725 Y42.6513 Z-1.4173
G3 X141.4995 Y42.5941 Z-1.4174 I0.9178 J0.3972
G1 X141.5566 Y42.4821 Z-1.4176
G3 X141.5865 Y42.4278 I0.8908 J0.4544
G1 X141.6504 Y42.3196 Z-1.4178
G3 X141.6845 Y42.2659 Z-1.4179 I0.8609 J0.5087
G1 X141.7552 Y42.1619 Z-1.418
G3 X141.7918 Y42.1116 Z-1.4181 I0.8268 J0.5625
G1 X141.8688 Y42.0123 Z-1.4183
G3 X141.9 Y41.9741 I0.7902 J0.6129
G1 Y32.3259 Z-1.4302
G3 X141.8688 Y32.2877 Z-1.4303 I0.759 J-0.6511
G1 X141.7918 Y32.1884 Z-1.4304
G3 X141.7552 Y32.1381 Z-1.4305 I0.7902 J-0.6129
G1 X141.6845 Y32.0341 Z-1.4307
G3 X141.6504 Y31.9804 Z-1.4308 I0.8268 J-0.5625
G1 X141.5865 Y31.8722 Z-1.4309
G3 X141.5566 Y31.8179 Z-1.431 I0.8609 J-0.5087
G1 X141.4995 Y31.7059 Z-1.4311
G3 X141.4725 Y31.6487 Z-1.4312 I0.8908 J-0.4544
G1 X141.4226 Y31.5334 Z-1.4314
G3 X141.3994 Y31.4746 I0.9178 J-0.3972
G1 X141.3569 Y31.3563 Z-1.4316
G3 X141.3377 Y31.2974 Z-1.4317 I0.941 J-0.3383
G1 X141.3026 Y31.1767 Z-1.4318
G3 X141.2869 Y31.1155 Z-1.4319 I0.9602 J-0.2793
G1 X141.2595 Y30.9928 Z-1.4321
G3 X141.2476 Y30.9308 I0.9759 J-0.2181
G1 X141.228 Y30.8067 Z-1.4323
G3 X141.2203 Y30.7454 Z-1.4324 I0.9878 J-0.156
G1 X141.2084 Y30.6203 Z-1.4325
G3 X141.2044 Y30.5566 Z-1.4326 I0.9955 J-0.0947
G1 X141.2005 Y30.431 Z-1.4328
G3 Y30.369 I0.9995 J-0.031
G1 X141.2044 Y30.2434 Z-1.433
G3 X141.2084 Y30.1797 Z-1.4331 I0.9995 J0.031
G1 X141.2203 Y30.0546 Z-1.4332
G3 X141.228 Y29.9933 Z-1.4333 I0.9955 J0.0947
G1 X141.2476 Y29.8692 Z-1.4335
G3 X141.2595 Y29.8072 I0.9878 J0.156
G1 X141.2869 Y29.6845 Z-1.4337
G3 X141.3026 Y29.6233 Z-1.4338 I0.9759 J0.2181
G1 X141.3377 Y29.5026 Z-1.4339
G3 X141.3569 Y29.4437 Z-1.434 I0.9602 J0.2793
G1 X141.3994 Y29.3254 Z-1.4342
G3 X141.4226 Y29.2666 I0.941 J0.3383
G1 X141.4725 Y29.1513 Z-1.4344
G3 X141.4995 Y29.0941 Z-1.4345 I0.9178 J0.3972
G1 X141.5566 Y28.9821 Z-1.4346
G3 X141.5865 Y28.9278 Z-1.4347 I0.8908 J0.4544
G1 X141.6504 Y28.8196 Z-1.4349
G3 X141.6845 Y28.7659 I0.8609 J0.5087
G1 X141.7552 Y28.6619 Z-1.4351
G3 X141.7918 Y28.6116 Z-1.4352 I0.8268 J0.5625
G1 X141.8688 Y28.5123 Z-1.4353
G3 X141.9 Y28.4741 Z-1.4354 I0.7902 J0.6129
G1 Y24.4 Z-1.4404
G1 X136.3259 Z-1.4473
G3 X136.288 Y24.431 Z-1.4474 I-0.6511 J-0.759
G1 X136.1888 Y24.508 Z-1.4475
G3 X136.1382 Y24.5447 Z-1.4476 I-0.6132 J-0.79
G1 X136.0343 Y24.6154 Z-1.4477
G3 X135.9802 Y24.6498 Z-1.4478 I-0.5626 J-0.8267
G1 X135.872 Y24.7137 Z-1.448
G3 X135.818 Y24.7433 Z-1.4481 I-0.5085 J-0.8611
G1 X135.7061 Y24.8004 Z-1.4482
G3 X135.6485 Y24.8276 Z-1.4483 I-0.4545 J-0.8907
G1 X135.5331 Y24.8775 Z-1.4484
G3 X135.4746 Y24.9006 Z-1.4485 I-0.3969 J-0.9179
G1 X135.3564 Y24.9431 Z-1.4487
G3 X135.2974 Y24.9623 Z-1.4488 I-0.3384 J-0.941
G1 X135.1768 Y24.9974 Z-1.4489
G3 X135.1155 Y25.0131 Z-1.449 I-0.2794 J-0.9602
G1 X134.9929 Y25.0405 Z-1.4491
G3 X134.9308 Y25.0524 Z-1.4492 I-0.2181 J-0.9759
G1 X134.8067 Y25.072 Z-1.4494
G3 X134.7454 Y25.0797 Z-1.4495 I-0.156 J-0.9878
G1 X134.6203 Y25.0916 Z-1.4496
G3 X134.5566 Y25.0956 Z-1.4497 I-0.0947 J-0.9955
G1 X134.431 Y25.0995 Z-1.4498
G3 X134.369 Z-1.4499 I-0.031 J-0.9995
G1 X134.2434 Y25.0956 Z-1.4501
G3 X134.1797 Y25.0916 Z-1.4502 I0.031 J-0.9995
G1 X134.0546 Y25.0797 Z-1.4503
G3 X133.9933 Y25.072 Z-1.4504 I0.0947 J-0.9955
G1 X133.8692 Y25.0524 Z-1.4505
G3 X133.8071 Y25.0405 Z-1.4506 I0.156 J-0.9878
G1 X133.6845 Y25.0131 Z-1.4508
G3 X133.6232 Y24.9974 Z-1.4509 I0.2181 J-0.9759
G1 X133.5026 Y24.9623 Z-1.451
G3 X133.4439 Y24.9432 Z-1.4511 I0.2794 J-0.9602
G1 X133.3256 Y24.9007 Z-1.4512
G3 X133.2665 Y24.8773 Z-1.4513 I0.3381 J-0.9411
G1 X133.1512 Y24.8274 Z-1.4515
G3 X133.0939 Y24.8004 Z-1.4516 I0.3972 J-0.9177
G1 X132.982 Y24.7433 Z-1.4517
G3 X132.928 Y24.7137 Z-1.4518 I0.4545 J-0.8907
G1 X132.8198 Y24.6498 Z-1.4519
G3 X132.7657 Y24.6154 Z-1.452 I0.5085 J-0.8611
G1 X132.6618 Y24.5447 Z-1.4522
G3 X132.6112 Y24.508 I0.5626 J-0.8267
G1 X132.512 Y24.431 Z-1.4524
G3 X132.4741 Y24.4 Z-1.4525 I0.6132 J-0.79
G1 X83.8259 Z-1.5125
G3 X83.7877 Y24.4312 Z-1.5126 I-0.6511 J-0.759
G1 X83.6884 Y24.5082 Z-1.5127
G3 X83.6381 Y24.5448 Z-1.5128 I-0.6129 J-0.7902
G1 X83.5341 Y24.6155 Z-1.513
G3 X83.4804 Y24.6496 Z-1.5131 I-0.5625 J-0.8268
G1 X83.3722 Y24.7135 Z-1.5132
G3 X83.3179 Y24.7434 Z-1.5133 I-0.5087 J-0.8609
G1 X83.2059 Y24.8005 Z-1.5134
G3 X83.1487 Y24.8275 Z-1.5135 I-0.4544 J-0.8908
G1 X83.0334 Y24.8774 Z-1.5137
G3 X82.9746 Y24.9006 Z-1.5138 I-0.3972 J-0.9178
G1 X82.8563 Y24.9431 Z-1.5139
G3 X82.7974 Y24.9623 Z-1.514 I-0.3383 J-0.941
G1 X82.6767 Y24.9974 Z-1.5141
G3 X82.6155 Y25.0131 Z-1.5142 I-0.2793 J-0.9602
G1 X82.4928 Y25.0405 Z-1.5144
G3 X82.4308 Y25.0524 Z-1.5145 I-0.2181 J-0.9759
G1 X82.3067 Y25.072 Z-1.5146
G3 X82.2454 Y25.0797 Z-1.5147 I-0.156 J-0.9878
G1 X82.1203 Y25.0916 Z-1.5148
G3 X82.0566 Y25.0956 Z-1.5149 I-0.0947 J-0.9955
G1 X81.931 Y25.0995 Z-1.5151
G3 X81.869 Z-1.5152 I-0.031 J-0.9995
G1 X81.7434 Y25.0956 Z-1.5153
G3 X81.6797 Y25.0916 Z-1.5154 I0.031 J-0.9995
G1 X81.5546 Y25.0797 Z-1.5155
G3 X81.4933 Y25.072 Z-1.5156 I0.0947 J-0.9955
G1 X81.3692 Y25.0524 Z-1.5158
G3 X81.3072 Y25.0405 I0.156 J-0.9878
G1 X81.1845 Y25.0131 Z-1.516
G3 X81.1233 Y24.9974 Z-1.5161 I0.2181 J-0.9759
G1 X81.0026 Y24.9623 Z-1.5162
G3 X80.9437 Y24.9431 Z-1.5163 I0.2793 J-0.9602
G1 X80.8254 Y24.9006 Z-1.5165
G3 X80.7666 Y24.8774 I0.3383 J-0.941
G1 X80.6513 Y24.8275 Z-1.5167
G3 X80.5941 Y24.8005 Z-1.5168 I0.3972 J-0.9178
G1 X80.4821 Y24.7434 Z-1.5169
G3 X80.4278 Y24.7135 Z-1.517 I0.4544 J-0.8908
G1 X80.3196 Y24.6496 Z-1.5172
G3 X80.2659 Y24.6155 I0.5087 J-0.8609
G1 X80.1619 Y24.5448 Z-1.5174
G3 X80.1116 Y24.5082 Z-1.5175 I0.5625 J-0.8268
G1 X80.0123 Y24.4312 Z-1.5176
G3 X79.9741 Y24.4 Z-1.5177 I0.6129 J-0.7902
G1 X31.3259 Z-1.5778
G3 X31.288 Y24.431 I-0.6511 J-0.759
G1 X31.1888 Y24.508 Z-1.578
G3 X31.1382 Y24.5447 Z-1.5781 I-0.6132 J-0.79
G1 X31.0343 Y24.6154 Z-1.5782
G3 X30.9802 Y24.6498 Z-1.5783 I-0.5626 J-0.8267
G1 X30.872 Y24.7137 Z-1.5784
G3 X30.818 Y24.7433 Z-1.5785 I-0.5085 J-0.8611
G1 X30.7061 Y24.8004 Z-1.5787
G3 X30.6488 Y24.8274 Z-1.5788 I-0.4545 J-0.8907
G1 X30.5335 Y24.8773 Z-1.5789
G3 X30.4744 Y24.9007 Z-1.579 I-0.3972 J-0.9177
G1 X30.3561 Y24.9432 Z-1.5791
G3 X30.2974 Y24.9623 Z-1.5792 I-0.3381 J-0.9411
G1 X30.1768 Y24.9974 Z-1.5794
G3 X30.1155 Y25.0131 I-0.2794 J-0.9602
G1 X29.9929 Y25.0405 Z-1.5796
G3 X29.9308 Y25.0524 Z-1.5797 I-0.2181 J-0.9759
G1 X29.8067 Y25.072 Z-1.5798
G3 X29.7454 Y25.0797 Z-1.5799 I-0.156 J-0.9878
G1 X29.6203 Y25.0916 Z-1.5801
G3 X29.5566 Y25.0956 I-0.0947 J-0.9955
G1 X29.431 Y25.0995 Z-1.5803
G3 X29.369 Z-1.5804 I-0.031 J-0.9995
G1 X29.2434 Y25.0956 Z-1.5805
G3 X29.1797 Y25.0916 Z-1.5806 I0.031 J-0.9995
G1 X29.0546 Y25.0797 Z-1.5808
G3 X28.9933 Y25.072 I0.0947 J-0.9955
G1 X28.8692 Y25.0524 Z-1.581
G3 X28.8071 Y25.0405 Z-1.5811 I0.156 J-0.9878
G1 X28.6845 Y25.0131 Z-1.5812
G3 X28.6232 Y24.9974 Z-1.5813 I0.2181 J-0.9759
G1 X28.5026 Y24.9623 Z-1.5815
G3 X28.4436 Y24.9431 I0.2794 J-0.9602
G1 X28.3254 Y24.9006 Z-1.5817
G3 X28.2669 Y24.8775 Z-1.5818 I0.3384 J-0.941
G1 X28.1515 Y24.8276 Z-1.5819
G3 X28.0939 Y24.8004 Z-1.582 I0.3969 J-0.9179
G1 X27.982 Y24.7433 Z-1.5822
G3 X27.928 Y24.7137 I0.4545 J-0.8907
G1 X27.8198 Y24.6498 Z-1.5824
G3 X27.7657 Y24.6154 Z-1.5825 I0.5085 J-0.8611
G1 X27.6618 Y24.5447 Z-1.5826
G3 X27.6112 Y24.508 Z-1.5827 I0.5626 J-0.8267
G1 X27.512 Y24.431 Z-1.5829
G3 X27.4741 Y24.4 I0.6132 J-0.79
G1 X21.9 Z-1.5898
G1 Y28.4741 Z-1.5948
G3 X21.9312 Y28.5123 Z-1.5949 I-0.759 J0.6511
G1 X22.0082 Y28.6116 Z-1.5951
G3 X22.0448 Y28.6619 I-0.7902 J0.6129
G1 X22.1155 Y28.7659 Z-1.5953
G3 X22.1496 Y28.8196 Z-1.5954 I-0.8268 J0.5625
G1 X22.2135 Y28.9278 Z-1.5955
G3 X22.2434 Y28.9821 Z-1.5956 I-0.8609 J0.5087
G1 X22.3005 Y29.0941 Z-1.5957
G3 X22.3275 Y29.1513 Z-1.5958 I-0.8908 J0.4544
G1 X22.3774 Y29.2666 Z-1.596
G3 X22.4006 Y29.3254 Z-1.5961 I-0.9178 J0.3972
G1 X22.4431 Y29.4437 Z-1.5962
G3 X22.4623 Y29.5026 Z-1.5963 I-0.941 J0.3383
G1 X22.4974 Y29.6233 Z-1.5964
G3 X22.5131 Y29.6845 Z-1.5965 I-0.9602 J0.2793
G1 X22.5405 Y29.8072 Z-1.5967
G3 X22.5524 Y29.8692 Z-1.5968 I-0.9759 J0.2181
G1 X22.572 Y29.9933 Z-1.5969
G3 X22.5797 Y30.0546 Z-1.597 I-0.9878 J0.156
G1 X22.5916 Y30.1797 Z-1.5971
G3 X22.5956 Y30.2434 Z-1.5972 I-0.9955 J0.0947
G1 X22.5995 Y30.369 Z-1.5974
G3 Y30.431 Z-1.5975 I-0.9995 J0.031
G1 X22.5956 Y30.5566 Z-1.5976
G3 X22.5916 Y30.6203 Z-1.5977 I-0.9995 J-0.031
G1 X22.5797 Y30.7454 Z-1.5978
G3 X22.572 Y30.8067 Z-1.5979 I-0.9955 J-0.0947
G1 X22.5524 Y30.9308 Z-1.5981
G3 X22.5405 Y30.9928 Z-1.5982 I-0.9878 J-0.156
G1 X22.5131 Y31.1155 Z-1.5983
G3 X22.4974 Y31.1767 Z-1.5984 I-0.9759 J-0.2181
G1 X22.4623 Y31.2974 Z-1.5985
G3 X22.4431 Y31.3563 Z-1.5986 I-0.9602 J-0.2793
G1 X22.4006 Y31.4746 Z-1.5988
G3 X22.3774 Y31.5334 Z-1.5989 I-0.941 J-0.3383
G1 X22.3275 Y31.6487 Z-1.599
G3 X22.3005 Y31.7059 Z-1.5991 I-0.9178 J-0.3972
G1 X22.2434 Y31.8179 Z-1.5992
G3 X22.2135 Y31.8722 Z-1.5993 I-0.8908 J-0.4544
G1 X22.1496 Y31.9804 Z-1.5995
G3 X22.1155 Y32.0341 Z-1.5996 I-0.8609 J-0.5087
G1 X22.0448 Y32.1381 Z-1.5997
G3 X22.0082 Y32.1884 Z-1.5998 I-0.8268 J-0.5625
G1 X21.9312 Y32.2877 Z-1.5999
G3 X21.9 Y32.3259 Z-1.6 I-0.7902 J-0.6129
G1 Y41.9741 Z-1.6119
G3 X21.9312 Y42.0123 Z-1.612 I-0.759 J0.6511
G1 X22.0082 Y42.1116 Z-1.6121
G3 X22.0448 Y42.1619 Z-1.6122 I-0.7902 J0.6129
G1 X22.1155 Y42.2659 Z-1.6124
G3 X22.1496 Y42.3196 I-0.8268 J0.5625
G1 X22.2135 Y42.4278 Z-1.6126
G3 X22.2434 Y42.4821 Z-1.6127 I-0.8609 J0.5087
G1 X22.3005 Y42.5941 Z-1.6128
G3 X22.3275 Y42.6513 Z-1.6129 I-0.8908 J0.4544
G1 X22.3774 Y42.7666 Z-1.6131
G3 X22.4006 Y42.8254 I-0.9178 J0.3972
G1 X22.4431 Y42.9437 Z-1.6133
G3 X22.4623 Y43.0026 Z-1.6134 I-0.941 J0.3383
G1 X22.4974 Y43.1233 Z-1.6135
G3 X22.5131 Y43.1845 Z-1.6136 I-0.9602 J0.2793
G1 X22.5405 Y43.3072 Z-1.6138
G3 X22.5524 Y43.3692 I-0.9759 J0.2181
G1 X22.572 Y43.4933 Z-1.614
G3 X22.5797 Y43.5546 Z-1.6141 I-0.9878 J0.156
G1 X22.5916 Y43.6797 Z-1.6142
G3 X22.5956 Y43.7434 Z-1.6143 I-0.9955 J0.0947
G1 X22.5995 Y43.869 Z-1.6145
G3 Y43.931 I-0.9995 J0.031
G1 X22.5956 Y44.0566 Z-1.6147
G3 X22.5916 Y44.1203 Z-1.6148 I-0.9995 J-0.031
G1 X22.5797 Y44.2454 Z-1.6149
G3 X22.572 Y44.3067 Z-1.615 I-0.9955 J-0.0947
G1 X22.5524 Y44.4308 Z-1.6152
G3 X22.5405 Y44.4928 I-0.9878 J-0.156
G1 X22.5131 Y44.6155 Z-1.6154
G3 X22.4974 Y44.6767 Z-1.6155 I-0.9759 J-0.2181
G1 X22.4623 Y44.7974 Z-1.6156
G3 X22.4431 Y44.8563 Z-1.6157 I-0.9602 J-0.2793
G1 X22.4006 Y44.9746 Z-1.6159
G3 X22.3774 Y45.0334 I-0.941 J-0.3383
G1 X22.3275 Y45.1487 Z-1.6161
G3 X22.3005 Y45.2059 Z-1.6162 I-0.9178 J-0.3972
G1 X22.2434 Y45.3179 Z-1.6163
G3 X22.2135 Y45.3722 Z-1.6164 I-0.8908 J-0.4544
G1 X22.1496 Y45.4804 Z-1.6165
G3 X22.1155 Y45.5341 Z-1.6166 I-0.8609 J-0.5087
G1 X22.0448 Y45.6381 Z-1.6168
G3 X22.0082 Y45.6884 Z-1.6169 I-0.8268 J-0.5625
G1 X21.9312 Y45.7877 Z-1.617
G3 X21.9 Y45.8259 Z-1.6171 I-0.7902 J-0.6129
G1 Y55.4741 Z-1.629
G3 X21.931 Y55.512 I-0.759 J0.6511
G1 X22.008 Y55.6112 Z-1.6292
G3 X22.0447 Y55.6618 Z-1.6293 I-0.79 J0.6132
G1 X22.1154 Y55.7657 Z-1.6294
G3 X22.1498 Y55.8198 Z-1.6295 I-0.8267 J0.5626
G1 X22.2137 Y55.928 Z-1.6297
G3 X22.2433 Y55.982 I-0.8611 J0.5085
G1 X22.3004 Y56.0939 Z-1.6299
G3 X22.3276 Y56.1515 Z-1.63 I-0.8907 J0.4545
G1 X22.3775 Y56.2669 Z-1.6301
G3 X22.4006 Y56.3254 Z-1.6302 I-0.9179 J0.3969
G1 X22.4431 Y56.4436 Z-1.6304
G3 X22.4623 Y56.5026 I-0.941 J0.3384
G1 X22.4974 Y56.6232 Z-1.6306
G3 X22.5131 Y56.6845 Z-1.6307 I-0.9602 J0.2794
G1 X22.5405 Y56.8071 Z-1.6308
G3 X22.5524 Y56.8692 Z-1.6309 I-0.9759 J0.2181
G1 X22.572 Y56.9933 Z-1.6311
G3 X22.5797 Y57.0546 I-0.9878 J0.156
G1 X22.5916 Y57.1797 Z-1.6313
G3 X22.5956 Y57.2434 Z-1.6314 I-0.9955 J0.0947
G1 X22.5995 Y57.369 Z-1.6315
G3 Y57.431 Z-1.6316 I-0.9995 J0.031
G1 X22.5956 Y57.5566 Z-1.6318
G3 X22.5916 Y57.6203 I-0.9995 J-0.031
G1 X22.5797 Y57.7454 Z-1.632
G3 X22.572 Y57.8067 Z-1.6321 I-0.9955 J-0.0947
G1 X22.5524 Y57.9308 Z-1.6322
G3 X22.5405 Y57.9929 Z-1.6323 I-0.9878 J-0.156
G1 X22.5131 Y58.1155 Z-1.6325
G3 X22.4974 Y58.1768 I-0.9759 J-0.2181
G1 X22.4623 Y58.2974 Z-1.6327
G3 X22.4431 Y58.3564 Z-1.6328 I-0.9602 J-0.2794
G1 X22.4006 Y58.4746 Z-1.6329
G3 X22.3775 Y58.5331 Z-1.633 I-0.941 J-0.3384
G1 X22.3276 Y58.6485 Z-1.6332
G3 X22.3004 Y58.7061 I-0.9179 J-0.3969
G1 X22.2433 Y58.818 Z-1.6334
G3 X22.2137 Y58.872 Z-1.6335 I-0.8907 J-0.4545
G1 X22.1498 Y58.9802 Z-1.6336
G3 X22.1154 Y59.0343 Z-1.6337 I-0.8611 J-0.5085
G1 X22.0447 Y59.1382 Z-1.6339
G3 X22.008 Y59.1888 I-0.8267 J-0.5626
G1 X21.931 Y59.288 Z-1.6341
G3 X21.9 Y59.3259 Z-1.6342 I-0.79 J-0.6132
G1 Y64.4 Z-1.6404
G1 X27.4741 Z-1.6473
G3 X27.512 Y64.369 Z-1.6474 I0.6511 J0.759
G1 X27.6112 Y64.292 Z-1.6475
G3 X27.6618 Y64.2553 Z-1.6476 I0.6132 J0.79
G1 X27.7657 Y64.1846 Z-1.6477
G3 X27.8198 Y64.1502 Z-1.6478 I0.5626 J0.8267
G1 X27.928 Y64.0863 Z-1.648
G3 X27.982 Y64.0567 Z-1.6481 I0.5085 J0.8611
G1 X28.0939 Y63.9996 Z-1.6482
G3 X28.1515 Y63.9724 Z-1.6483 I0.4545 J0.8907
G1 X28.2669 Y63.9225 Z-1.6484
G3 X28.3254 Y63.8994 Z-1.6485 I0.3969 J0.9179
G1 X28.4436 Y63.8569 Z-1.6487
G3 X28.5026 Y63.8377 Z-1.6488 I0.3384 J0.941
G1 X28.6232 Y63.8026 Z-1.6489
G3 X28.6845 Y63.7869 Z-1.649 I0.2794 J0.9602
G1 X28.8071 Y63.7595 Z-1.6491
G3 X28.8692 Y63.7476 Z-1.6492 I0.2181 J0.9759
G1 X28.9933 Y63.728 Z-1.6494
G3 X29.0546 Y63.7203 Z-1.6495 I0.156 J0.9878
G1 X29.1797 Y63.7084 Z-1.6496
G3 X29.2434 Y63.7044 Z-1.6497 I0.0947 J0.9955
G1 X29.369 Y63.7005 Z-1.6498
G3 X29.431 Z-1.6499 I0.031 J0.9995
G1 X29.5566 Y63.7044 Z-1.6501
G3 X29.6203 Y63.7084 Z-1.6502 I-0.031 J0.9995
G1 X29.7454 Y63.7203 Z-1.6503
G3 X29.8067 Y63.728 Z-1.6504 I-0.0947 J0.9955
G1 X29.9308 Y63.7476 Z-1.6505
G3 X29.9929 Y63.7595 Z-1.6506 I-0.156 J0.9878
G1 X30.1155 Y63.7869 Z-1.6508
G3 X30.1768 Y63.8026 Z-1.6509 I-0.2181 J0.9759
G1 X30.2974 Y63.8377 Z-1.651
G3 X30.3561 Y63.8568 Z-1.6511 I-0.2794 J0.9602
G1 X30.4744 Y63.8993 Z-1.6512
G3 X30.5335 Y63.9227 Z-1.6513 I-0.3381 J0.9411
G1 X30.6488 Y63.9726 Z-1.6515
G3 X30.7061 Y63.9996 Z-1.6516 I-0.3972 J0.9177
G1 X30.818 Y64.0567 Z-1.6517
G3 X30.872 Y64.0863 Z-1.6518 I-0.4545 J0.8907
G1 X30.9802 Y64.1502 Z-1.6519
G3 X31.0343 Y64.1846 Z-1.652 I-0.5085 J0.8611
G1 X31.1382 Y64.2553 Z-1.6522
G3 X31.1888 Y64.292 I-0.5626 J0.8267
G1 X31.288 Y64.369 Z-1.6524
G3 X31.3259 Y64.4 Z-1.6525 I-0.6132 J0.79
G1 X79.9741 Z-1.7125
G3 X80.0123 Y64.3688 Z-1.7126 I0.6511 J0.759
G1 X80.1116 Y64.2918 Z-1.7127
G3 X80.1619 Y64.2552 Z-1.7128 I0.6129 J0.7902
G1 X80.2659 Y64.1845 Z-1.713
G3 X80.3196 Y64.1504 Z-1.7131 I0.5625 J0.8268
G1 X80.4278 Y64.0865 Z-1.7132
G3 X80.4821 Y64.0566 Z-1.7133 I0.5087 J0.8609
G1 X80.5941 Y63.9995 Z-1.7134
G3 X80.6513 Y63.9725 Z-1.7135 I0.4544 J0.8908
G1 X80.7666 Y63.9226 Z-1.7137
G3 X80.8254 Y63.8994 Z-1.7138 I0.3972 J0.9178
G1 X80.9437 Y63.8569 Z-1.7139
G3 X81.0026 Y63.8377 Z-1.714 I0.3383 J0.941
G1 X81.1233 Y63.8026 Z-1.7141
G3 X81.1845 Y63.7869 Z-1.7142 I0.2793 J0.9602
G1 X81.3072 Y63.7595 Z-1.7144
G3 X81.3692 Y63.7476 Z-1.7145 I0.2181 J0.9759
G1 X81.4933 Y63.728 Z-1.7146
G3 X81.5546 Y63.7203 Z-1.7147 I0.156 J0.9878
G1 X81.6797 Y63.7084 Z-1.7148
G3 X81.7434 Y63.7044 Z-1.7149 I0.0947 J0.9955
G1 X81.869 Y63.7005 Z-1.7151
G3 X81.931 Z-1.7152 I0.031 J0.9995
G1 X82.0566 Y63.7044 Z-1.7153
G3 X82.1203 Y63.7084 Z-1.7154 I-0.031 J0.9995
G1 X82.2454 Y63.7203 Z-1.7155
G3 X82.3067 Y63.728 Z-1.7156 I-0.0947 J0.9955
G1 X82.4308 Y63.7476 Z-1.7158
G3 X82.4928 Y63.7595 I-0.156 J0.9878
G1 X82.6155 Y63.7869 Z-1.716
G3 X82.6767 Y63.8026 Z-1.7161 I-0.2181 J0.9759
G1 X82.7974 Y63.8377 Z-1.7162
G3 X82.8563 Y63.8569 Z-1.7163 I-0.2793 J0.9602
G1 X82.9746 Y63.8994 Z-1.7165
G3 X83.0334 Y63.9226 I-0.3383 J0.941
G1 X83.1487 Y63.9725 Z-1.7167
G3 X83.2059 Y63.9995 Z-1.7168 I-0.3972 J0.9178
G1 X83.3179 Y64.0566 Z-1.7169
G3 X83.3722 Y64.0865 Z-1.717 I-0.4544 J0.8908
G1 X83.4804 Y64.1504 Z-1.7172
G3 X83.5341 Y64.1845 I-0.5087 J0.8609
G1 X83.6381 Y64.2552 Z-1.7174
G3 X83.6884 Y64.2918 Z-1.7175 I-0.5625 J0.8268
G1 X83.7877 Y64.3688 Z-1.7176
G3 X83.8259 Y64.4 Z-1.7177 I-0.6129 J0.7902
G1 X132.4741 Z-1.7778
G3 X132.512 Y64.369 I0.6511 J0.759
G1 X132.6112 Y64.292 Z-1.778
G3 X132.6618 Y64.2553 Z-1.7781 I0.6132 J0.79
G1 X132.7657 Y64.1846 Z-1.7782
G3 X132.8198 Y64.1502 Z-1.7783 I0.5626 J0.8267
G1 X132.928 Y64.0863 Z-1.7784
G3 X132.982 Y64.0567 Z-1.7785 I0.5085 J0.8611
G1 X133.0939 Y63.9996 Z-1.7787
G3 X133.1512 Y63.9726 Z-1.7788 I0.4545 J0.8907
G1 X133.2665 Y63.9227 Z-1.7789
G3 X133.3256 Y63.8993 Z-1.779 I0.3972 J0.9177
G1 X133.4439 Y63.8568 Z-1.7791
G3 X133.5026 Y63.8377 Z-1.7792 I0.3381 J0.9411
G1 X133.6232 Y63.8026 Z-1.7794
G3 X133.6845 Y63.7869 I0.2794 J0.9602
G1 X133.8071 Y63.7595 Z-1.7796
G3 X133.8692 Y63.7476 Z-1.7797 I0.2181 J0.9759
G1 X133.9933 Y63.728 Z-1.7798
G3 X134.0546 Y63.7203 Z-1.7799 I0.156 J0.9878
G1 X134.1797 Y63.7084 Z-1.7801
G3 X134.2434 Y63.7044 I0.0947 J0.9955
G1 X134.369 Y63.7005 Z-1.7803
G3 X134.431 Z-1.7804 I0.031 J0.9995
G1 X134.5566 Y63.7044 Z-1.7805
G3 X134.6203 Y63.7084 Z-1.7806 I-0.031 J0.9995
G1 X134.7454 Y63.7203 Z-1.7808
G3 X134.8067 Y63.728 I-0.0947 J0.9955
G1 X134.9308 Y63.7476 Z-1.781
G3 X134.9929 Y63.7595 Z-1.7811 I-0.156 J0.9878
G1 X135.1155 Y63.7869 Z-1.7812
G3 X135.1768 Y63.8026 Z-1.7813 I-0.2181 J0.9759
G1 X135.2974 Y63.8377 Z-1.7815
G3 X135.3564 Y63.8569 I-0.2794 J0.9602
G1 X135.4746 Y63.8994 Z-1.7817
G3 X135.5331 Y63.9225 Z-1.7818 I-0.3384 J0.941
G1 X135.6485 Y63.9724 Z-1.7819
G3 X135.7061 Y63.9996 Z-1.782 I-0.3969 J0.9179
G1 X135.818 Y64.0567 Z-1.7822
G3 X135.872 Y64.0863 I-0.4545 J0.8907
G1 X135.9802 Y64.1502 Z-1.7824
G3 X136.0343 Y64.1846 Z-1.7825 I-0.5085 J0.8611
G1 X136.1382 Y64.2553 Z-1.7826
G3 X136.1888 Y64.292 Z-1.7827 I-0.5626 J0.8267
G1 X136.288 Y64.369 Z-1.7829
G3 X136.3259 Y64.4 I-0.6132 J0.79
G1 X141.9 Z-1.7898
G1 Y59.3259 Z-1.7961
G3 X141.869 Y59.288 I0.759 J-0.6511
G1 X141.792 Y59.1888 Z-1.7963
G3 X141.7553 Y59.1382 Z-1.7964 I0.79 J-0.6132
G1 X141.6846 Y59.0343 Z-1.7965
G3 X141.6502 Y58.9802 Z-1.7966 I0.8267 J-0.5626
G1 X141.5863 Y58.872 Z-1.7968
G3 X141.5567 Y58.818 I0.8611 J-0.5085
G1 X141.4996 Y58.7061 Z-1.797
G3 X141.4724 Y58.6485 Z-1.7971 I0.8907 J-0.4545
G1 X141.4225 Y58.5331 Z-1.7972
G3 X141.3994 Y58.4746 Z-1.7973 I0.9179 J-0.3969
G1 X141.3569 Y58.3564 Z-1.7975
G3 X141.3377 Y58.2974 I0.941 J-0.3384
G1 X141.3026 Y58.1768 Z-1.7977
G3 X141.2869 Y58.1155 Z-1.7978 I0.9602 J-0.2794
G1 X141.2595 Y57.9929 Z-1.7979
G3 X141.2476 Y57.9308 Z-1.798 I0.9759 J-0.2181
G1 X141.228 Y57.8067 Z-1.7981
G3 X141.2203 Y57.7454 Z-1.7982 I0.9878 J-0.156
G1 X141.2084 Y57.6203 Z-1.7984
G3 X141.2044 Y57.5566 Z-1.7985 I0.9955 J-0.0947
G1 X141.2005 Y57.431 Z-1.7986
G3 Y57.369 Z-1.7987 I0.9995 J-0.031
G1 X141.2044 Y57.2434 Z-1.7988
G3 X141.2084 Y57.1797 Z-1.7989 I0.9995 J0.031
G1 X141.2203 Y57.0546 Z-1.7991
G3 X141.228 Y56.9933 Z-1.7992 I0.9955 J0.0947
G1 X141.2476 Y56.8692 Z-1.7993
G3 X141.2595 Y56.8071 Z-1.7994 I0.9878 J0.156
G1 X141.2869 Y56.6845 Z-1.7995
G3 X141.3026 Y56.6232 Z-1.7996 I0.9759 J0.2181
G1 X141.3377 Y56.5026 Z-1.7998
G3 X141.3569 Y56.4436 Z-1.7999 I0.9602 J0.2794
G1 X141.3994 Y56.3254 Z-1.8
G3 X141.4225 Y56.2669 Z-1.8001 I0.941 J0.3384
G1 X141.4724 Y56.1515 Z-1.8002
G3 X141.4996 Y56.0939 Z-1.8003 I0.9179 J0.3969
G1 X141.5567 Y55.982 Z-1.8005
G3 X141.5863 Y55.928 Z-1.8006 I0.8907 J0.4545
G1 X141.6502 Y55.8198 Z-1.8007
G3 X141.6846 Y55.7657 Z-1.8008 I0.8611 J0.5085
G1 X141.7553 Y55.6618 Z-1.8009
G3 X141.792 Y55.6112 Z-1.801 I0.8267 J0.5626
G1 X141.869 Y55.512 Z-1.8012
G3 X141.9 Y55.4741 I0.79 J0.6132
G1 Y45.8259 Z-1.8131
G3 X141.8688 Y45.7877 Z-1.8132 I0.759 J-0.6511
G1 X141.7918 Y45.6884 Z-1.8134
G3 X141.7552 Y45.6381 I0.7902 J-0.6129
G1 X141.6845 Y45.5341 Z-1.8136
G3 X141.6504 Y45.4804 Z-1.8137 I0.8268 J-0.5625
G1 X141.5865 Y45.3722 Z-1.8138
G3 X141.5566 Y45.3179 Z-1.8139 I0.8609 J-0.5087
G1 X141.4995 Y45.2059 Z-1.8141
G3 X141.4725 Y45.1487 I0.8908 J-0.4544
G1 X141.4226 Y45.0334 Z-1.8143
G3 X141.3994 Y44.9746 Z-1.8144 I0.9178 J-0.3972
G1 X141.3569 Y44.8563 Z-1.8145
G3 X141.3377 Y44.7974 Z-1.8146 I0.941 J-0.3383
G1 X141.3026 Y44.6767 Z-1.8148
G3 X141.2869 Y44.6155 I0.9602 J-0.2793
G1 X141.2595 Y44.4928 Z-1.815
G3 X141.2476 Y44.4308 Z-1.8151 I0.9759 J-0.2181
G1 X141.228 Y44.3067 Z-1.8152
G3 X141.2203 Y44.2454 Z-1.8153 I0.9878 J-0.156
G1 X141.2084 Y44.1203 Z-1.8155
G3 X141.2044 Y44.0566 I0.9955 J-0.0947
G1 X141.2005 Y43.931 Z-1.8157
G3 Y43.869 Z-1.8158 I0.9995 J-0.031
G1 X141.2044 Y43.7434 Z-1.8159
G3 X141.2084 Y43.6797 Z-1.816 I0.9995 J0.031
G1 X141.2203 Y43.5546 Z-1.8162
G3 X141.228 Y43.4933 I0.9955 J0.0947
G1 X141.2476 Y43.3692 Z-1.8164
G3 X141.2595 Y43.3072 Z-1.8165 I0.9878 J0.156
G1 X141.2869 Y43.1845 Z-1.8166
G3 X141.3026 Y43.1233 Z-1.8167 I0.9759 J0.2181
G1 X141.3377 Y43.0026 Z-1.8169
G3 X141.3569 Y42.9437 I0.9602 J0.2793
G1 X141.3994 Y42.8254 Z-1.8171
G3 X141.4226 Y42.7666 Z-1.8172 I0.941 J0.3383
G1 X141.4725 Y42.6513 Z-1.8173
G3 X141.4995 Y42.5941 Z-1.8174 I0.9178 J0.3972
G1 X141.5566 Y42.4821 Z-1.8176
G3 X141.5865 Y42.4278 I0.8908 J0.4544
G1 X141.6504 Y42.3196 Z-1.8178
G3 X141.6845 Y42.2659 Z-1.8179 I0.8609 J0.5087
G1 X141.7552 Y42.1619 Z-1.818
G3 X141.7918 Y42.1116 Z-1.8181 I0.8268 J0.5625
G1 X141.8688 Y42.0123 Z-1.8183
G3 X141.9 Y41.9741 I0.7902 J0.6129
G1 Y32.3259 Z-1.8302
G3 X141.8688 Y32.2877 Z-1.8303 I0.759 J-0.6511
G1 X141.7918 Y32.1884 Z-1.8304
G3 X141.7552 Y32.1381 Z-1.8305 I0.7902 J-0.6129
G1 X141.6845 Y32.0341 Z-1.8307
G3 X141.6504 Y31.9804 Z-1.8308 I0.8268 J-0.5625
G1 X141.5865 Y31.8722 Z-1.8309
G3 X141.5566 Y31.8179 Z-1.831 I0.8609 J-0.5087
G1 X141.4995 Y31.7059 Z-1.8311
G3 X141.4725 Y31.6487 Z-1.8312 I0.8908 J-0.4544
G1 X141.4226 Y31.5334 Z-1.8314
G3 X141.3994 Y31.4746 I0.9178 J-0.3972
G1 X141.3569 Y31.3563 Z-1.8316
G3 X141.3377 Y31.2974 Z-1.8317 I0.941 J-0.3383
G1 X141.3026 Y31.1767 Z-1.8318
G3 X141.2869 Y31.1155 Z-1.8319 I0.9602 J-0.2793
G1 X141.2595 Y30.9928 Z-1.8321
G3 X141.2476 Y30.9308 I0.9759 J-0.2181
G1 X141.228 Y30.8067 Z-1.8323
G3 X141.2203 Y30.7454 Z-1.8324 I0.9878 J-0.156
G1 X141.2084 Y30.6203 Z-1.8325
G3 X141.2044 Y30.5566 Z-1.8326 I0.9955 J-0.0947
G1 X141.2005 Y30.431 Z-1.8328
G3 Y30.369 I0.9995 J-0.031
G1 X141.2044 Y30.2434 Z-1.833
G3 X141.2084 Y30.1797 Z-1.8331 I0.9995 J0.031
G1 X141.2203 Y30.0546 Z-1.8332
G3 X141.228 Y29.9933 Z-1.8333 I0.9955 J0.0947
G1 X141.2476 Y29.8692 Z-1.8335
G3 X141.2595 Y29.8072 I0.9878 J0.156
G1 X141.2869 Y29.6845 Z-1.8337
G3 X141.3026 Y29.6233 Z-1.8338 I0.9759 J0.2181
G1 X141.3377 Y29.5026 Z-1.8339
G3 X141.3569 Y29.4437 Z-1.834 I0.9602 J0.2793
G1 X141.3994 Y29.3254 Z-1.8342
G3 X141.4226 Y29.2666 I0.941 J0.3383
G1 X141.4725 Y29.1513 Z-1.8344
G3 X141.4995 Y29.0941 Z-1.8345 I0.9178 J0.3972
G1 X141.5566 Y28.9821 Z-1.8346
G3 X141.5865 Y28.9278 Z-1.8347 I0.8908 J0.4544
G1 X141.6504 Y28.8196 Z-1.8349
G3 X141.6845 Y28.7659 I0.8609 J0.5087
G1 X141.7552 Y28.6619 Z-1.8351
G3 X141.7918 Y28.6116 Z-1.8352 I0.8268 J0.5625
G1 X141.8688 Y28.5123 Z-1.8353
G3 X141.9 Y28.4741 Z-1.8354 I0.7902 J0.6129
G1 Y24.4 Z-1.8404
G1 X136.3259 Z-1.8473
G3 X136.288 Y24.431 Z-1.8474 I-0.6511 J-0.759
G1 X136.1888 Y24.508 Z-1.8475
G3 X136.1382 Y24.5447 Z-1.8476 I-0.6132 J-0.79
G1 X136.0343 Y24.6154 Z-1.8477
G3 X135.9802 Y24.6498 Z-1.8478 I-0.5626 J-0.8267
G1 X135.872 Y24.7137 Z-1.848
G3 X135.818 Y24.7433 Z-1.8481 I-0.5085 J-0.8611
G1 X135.7061 Y24.8004 Z-1.8482
G3 X135.6485 Y24.8276 Z-1.8483 I-0.4545 J-0.8907
G1 X135.5331 Y24.8775 Z-1.8484
G3 X135.4746 Y24.9006 Z-1.8485 I-0.3969 J-0.9179
G1 X135.3564 Y24.9431 Z-1.8487
G3 X135.2974 Y24.9623 Z-1.8488 I-0.3384 J-0.941
G1 X135.1768 Y24.9974 Z-1.8489
G3 X135.1155 Y25.0131 Z-1.849 I-0.2794 J-0.9602
G1 X134.9929 Y25.0405 Z-1.8491
G3 X134.9308 Y25.0524 Z-1.8492 I-0.2181 J-0.9759
G1 X134.8067 Y25.072 Z-1.8494
G3 X134.7454 Y25.0797 Z-1.8495 I-0.156 J-0.9878
G1 X134.6203 Y25.0916 Z-1.8496
G3 X134.5566 Y25.0956 Z-1.8497 I-0.0947 J-0.9955
G1 X134.431 Y25.0995 Z-1.8498
G3 X134.369 Z-1.8499 I-0.031 J-0.9995
G1 X134.2434 Y25.0956 Z-1.8501
G3 X134.1797 Y25.0916 Z-1.8502 I0.031 J-0.9995
G1 X134.0546 Y25.0797 Z-1.8503
G3 X133.9933 Y25.072 Z-1.8504 I0.0947 J-0.9955
G1 X133.8692 Y25.0524 Z-1.8505
G3 X133.8071 Y25.0405 Z-1.8506 I0.156 J-0.9878
G1 X133.6845 Y25.0131 Z-1.8508
G3 X133.6232 Y24.9974 Z-1.8509 I0.2181 J-0.9759
G1 X133.5026 Y24.9623 Z-1.851
G3 X133.4439 Y24.9432 Z-1.8511 I0.2794 J-0.9602
G1 X133.3256 Y24.9007 Z-1.8512
G3 X133.2665 Y24.8773 Z-1.8513 I0.3381 J-0.9411
G1 X133.1512 Y24.8274 Z-1.8515
G3 X133.0939 Y24.8004 Z-1.8516 I0.3972 J-0.9177
G1 X132.982 Y24.7433 Z-1.8517
G3 X132.928 Y24.7137 Z-1.8518 I0.4545 J-0.8907
G1 X132.8198 Y24.6498 Z-1.8519
G3 X132.7657 Y24.6154 Z-1.852 I0.5085 J-0.8611
G1 X132.6618 Y24.5447 Z-1.8522
G3 X132.6112 Y24.508 I0.5626 J-0.8267
G1 X132.512 Y24.431 Z-1.8524
G3 X132.4741 Y24.4 Z-1.8525 I0.6132 J-0.79
G1 X83.8259 Z-1.9125
G3 X83.7877 Y24.4312 Z-1.9126 I-0.6511 J-0.759
G1 X83.6884 Y24.5082 Z-1.9127
G3 X83.6381 Y24.5448 Z-1.9128 I-0.6129 J-0.7902
G1 X83.5341 Y24.6155 Z-1.913
G3 X83.4804 Y24.6496 Z-1.9131 I-0.5625 J-0.8268
G1 X83.3722 Y24.7135 Z-1.9132
G3 X83.3179 Y24.7434 Z-1.9133 I-0.5087 J-0.8609
G1 X83.2059 Y24.8005 Z-1.9134
G3 X83.1487 Y24.8275 Z-1.9135 I-0.4544 J-0.8908
G1 X83.0334 Y24.8774 Z-1.9137
G3 X82.9746 Y24.9006 Z-1.9138 I-0.3972 J-0.9178
G1 X82.8563 Y24.9431 Z-1.9139
G3 X82.7974 Y24.9623 Z-1.914 I-0.3383 J-0.941
G1 X82.6767 Y24.9974 Z-1.9141
G3 X82.6155 Y25.0131 Z-1.9142 I-0.2793 J-0.9602
G1 X82.4928 Y25.0405 Z-1.9144
G3 X82.4308 Y25.0524 Z-1.9145 I-0.2181 J-0.9759
G1 X82.3067 Y25.072 Z-1.9146
G3 X82.2454 Y25.0797 Z-1.9147 I-0.156 J-0.9878
G1 X82.1203 Y25.0916 Z-1.9148
