( Made using CamBam - http://www.cambam.co.uk )
( topPanel 1/31/2021 11:18:36 PM )
( T2 : 2.0 )
( CUTVIEWER )
( FROM/0,0,5 )
( Select dummy tool to avoid warnings )
( TOOL/MILL,1,0,20.0,0 )
( STOCK/BLOCK,180.0,100.0,4.0,90.0,50.0,4.0 )
G21 G90 G91.1 G64 G40
G0 Z3.0
( T2 : 2.0 )
( Tool Taper coming soon )
( TOOL/MILL,2.0,0.0,0.0,0 )
T2 M6
( Pocket1 )
G17
M3 S1000
G0 X81.0 Y-39.3267
G0 Z1.0
G1 F300.0 Z0.0
G1 F800.0 Y-39.5 Z-0.0002
G1 X-81.0 Z-0.2
G1 Y-39.3267 Z-0.2002
G3 X-80.0 Y-39.4984 Z-0.2014 I1.0 J2.8267
G1 X80.0 Z-0.3987
G3 X81.0 Y-39.3267 Z-0.4 I0.0 J2.9984
G1 F300.0 X80.8666 Y-38.9496
G3 F800.0 X81.4 Y-38.689 I-0.8666 J2.4496
G1 Y-39.9
G1 X-81.4
G1 Y-38.689
G3 X-80.0 Y-39.0984 I1.4 J2.189
G1 X80.0
G3 X80.8666 Y-38.9496 I0.0 J2.5984
G1 F300.0 X80.5998 Y-38.1954
G3 F800.0 X81.7984 Y-36.5 I-0.5998 J1.6954
G1 Y38.5
G3 X80.0 Y40.2984 I-1.7984 J0.0
G1 X-80.0
G3 X-81.7984 Y38.5 I0.0 J-1.7984
G1 Y-36.5
G3 X-80.0 Y-38.2984 I1.7984 J0.0
G1 X80.0
G3 X80.5998 Y-38.1954 I0.0 J1.7984
G1 F300.0 X80.3335 Y-37.4427
G3 F800.0 X81.0 Y-36.5 I-0.3335 J0.9427
G1 Y38.5
G3 X80.0 Y39.5 I-1.0 J0.0
G1 X-80.0
G3 X-81.0 Y38.5 I0.0 J-1.0
G1 Y-36.5
G3 X-80.0 Y-37.5 I1.0 J0.0
G1 X80.0
G3 X80.3335 Y-37.4427 I0.0 J1.0
G0 Z3.0
G0 X82.2
G0 Z1.0
G1 F300.0 Z0.0
G1 F800.0 Y-40.7 Z-0.0027
G1 X-82.2 Z-0.1364
G1 Y40.7 Z-0.2027
G1 X82.2 Z-0.3364
G1 Y-37.4427 Z-0.4
G1 F300.0 X83.0
G1 F800.0 Y-41.5
G1 X-83.0
G1 Y41.5
G1 X83.0
G1 Y-37.4427
G0 Z3.0
G0 X81.0 Y-39.3267
G0 Z0.6
G1 F300.0 Z-0.4
G1 F800.0 Y-39.5 Z-0.4002
G1 X-81.0 Z-0.6
G1 Y-39.3267 Z-0.6002
G3 X-80.0 Y-39.4984 Z-0.6014 I1.0 J2.8267
G1 X80.0 Z-0.7987
G3 X81.0 Y-39.3267 Z-0.8 I0.0 J2.9984
G1 F300.0 X80.8666 Y-38.9496
G3 F800.0 X81.4 Y-38.689 I-0.8666 J2.4496
G1 Y-39.9
G1 X-81.4
G1 Y-38.689
G3 X-80.0 Y-39.0984 I1.4 J2.189
G1 X80.0
G3 X80.8666 Y-38.9496 I0.0 J2.5984
G1 F300.0 X80.5998 Y-38.1954
G3 F800.0 X81.7984 Y-36.5 I-0.5998 J1.6954
G1 Y38.5
G3 X80.0 Y40.2984 I-1.7984 J0.0
G1 X-80.0
G3 X-81.7984 Y38.5 I0.0 J-1.7984
G1 Y-36.5
G3 X-80.0 Y-38.2984 I1.7984 J0.0
G1 X80.0
G3 X80.5998 Y-38.1954 I0.0 J1.7984
G1 F300.0 X80.3335 Y-37.4427
G3 F800.0 X81.0 Y-36.5 I-0.3335 J0.9427
G1 Y38.5
G3 X80.0 Y39.5 I-1.0 J0.0
G1 X-80.0
G3 X-81.0 Y38.5 I0.0 J-1.0
G1 Y-36.5
G3 X-80.0 Y-37.5 I1.0 J0.0
G1 X80.0
G3 X80.3335 Y-37.4427 I0.0 J1.0
G0 Z3.0
G0 X82.2
G0 Z0.6
G1 F300.0 Z-0.4
G1 F800.0 Y-40.7 Z-0.4027
G1 X-82.2 Z-0.5364
G1 Y40.7 Z-0.6027
G1 X82.2 Z-0.7364
G1 Y-37.4427 Z-0.8
G1 F300.0 X83.0
G1 F800.0 Y-41.5
G1 X-83.0
G1 Y41.5
G1 X83.0
G1 Y-37.4427
G0 Z3.0
G0 X81.0 Y-39.3267
G0 Z0.2
G1 F300.0 Z-0.8
G1 F800.0 Y-39.5 Z-0.8002
G1 X-81.0 Z-1.0
G1 Y-39.3267 Z-1.0002
G3 X-80.0 Y-39.4984 Z-1.0014 I1.0 J2.8267
G1 X80.0 Z-1.1987
G3 X81.0 Y-39.3267 Z-1.2 I0.0 J2.9984
G1 F300.0 X80.8666 Y-38.9496
G3 F800.0 X81.4 Y-38.689 I-0.8666 J2.4496
G1 Y-39.9
G1 X-81.4
G1 Y-38.689
G3 X-80.0 Y-39.0984 I1.4 J2.189
G1 X80.0
G3 X80.8666 Y-38.9496 I0.0 J2.5984
G1 F300.0 X80.5998 Y-38.1954
G3 F800.0 X81.7984 Y-36.5 I-0.5998 J1.6954
G1 Y38.5
G3 X80.0 Y40.2984 I-1.7984 J0.0
G1 X-80.0
G3 X-81.7984 Y38.5 I0.0 J-1.7984
G1 Y-36.5
G3 X-80.0 Y-38.2984 I1.7984 J0.0
G1 X80.0
G3 X80.5998 Y-38.1954 I0.0 J1.7984
G1 F300.0 X80.3335 Y-37.4427
G3 F800.0 X81.0 Y-36.5 I-0.3335 J0.9427
G1 Y38.5
G3 X80.0 Y39.5 I-1.0 J0.0
G1 X-80.0
G3 X-81.0 Y38.5 I0.0 J-1.0
G1 Y-36.5
G3 X-80.0 Y-37.5 I1.0 J0.0
G1 X80.0
G3 X80.3335 Y-37.4427 I0.0 J1.0
G0 Z3.0
G0 X82.2
G0 Z0.2
G1 F300.0 Z-0.8
G1 F800.0 Y-40.7 Z-0.8027
G1 X-82.2 Z-0.9364
G1 Y40.7 Z-1.0027
G1 X82.2 Z-1.1364
G1 Y-37.4427 Z-1.2
G1 F300.0 X83.0
G1 F800.0 Y-41.5
G1 X-83.0
G1 Y41.5
G1 X83.0
G1 Y-37.4427
G0 Z3.0
G0 X81.0 Y-39.3267
G0 Z-0.2
G1 F300.0 Z-1.2
G1 F800.0 Y-39.5 Z-1.2002
G1 X-81.0 Z-1.4
G1 Y-39.3267 Z-1.4002
G3 X-80.0 Y-39.4984 Z-1.4014 I1.0 J2.8267
G1 X80.0 Z-1.5987
G3 X81.0 Y-39.3267 Z-1.6 I0.0 J2.9984
G1 F300.0 X80.8666 Y-38.9496
G3 F800.0 X81.4 Y-38.689 I-0.8666 J2.4496
G1 Y-39.9
G1 X-81.4
G1 Y-38.689
G3 X-80.0 Y-39.0984 I1.4 J2.189
G1 X80.0
G3 X80.8666 Y-38.9496 I0.0 J2.5984
G1 F300.0 X80.5998 Y-38.1954
G3 F800.0 X81.7984 Y-36.5 I-0.5998 J1.6954
G1 Y38.5
G3 X80.0 Y40.2984 I-1.7984 J0.0
G1 X-80.0
G3 X-81.7984 Y38.5 I0.0 J-1.7984
G1 Y-36.5
G3 X-80.0 Y-38.2984 I1.7984 J0.0
G1 X80.0
G3 X80.5998 Y-38.1954 I0.0 J1.7984
G1 F300.0 X80.3335 Y-37.4427
G3 F800.0 X81.0 Y-36.5 I-0.3335 J0.9427
G1 Y38.5
G3 X80.0 Y39.5 I-1.0 J0.0
G1 X-80.0
G3 X-81.0 Y38.5 I0.0 J-1.0
G1 Y-36.5
G3 X-80.0 Y-37.5 I1.0 J0.0
G1 X80.0
G3 X80.3335 Y-37.4427 I0.0 J1.0
G0 Z3.0
G0 X82.2
G0 Z-0.2
G1 F300.0 Z-1.2
G1 F800.0 Y-40.7 Z-1.2027
G1 X-82.2 Z-1.3364
G1 Y40.7 Z-1.4027
G1 X82.2 Z-1.5364
G1 Y-37.4427 Z-1.6
G1 F300.0 X83.0
G1 F800.0 Y-41.5
G1 X-83.0
G1 Y41.5
G1 X83.0
G1 Y-37.4427
G0 Z3.0
G0 X81.0 Y-39.3267
G0 Z-0.6
G1 F300.0 Z-1.6
G1 F800.0 Y-39.5 Z-1.6002
G1 X-81.0 Z-1.8
G1 Y-39.3267 Z-1.8002
G3 X-80.0 Y-39.4984 Z-1.8014 I1.0 J2.8267
G1 X80.0 Z-1.9987
G3 X81.0 Y-39.3267 Z-2.0 I0.0 J2.9984
G1 Y-39.5
G1 X-81.0
G1 Y-39.3267
G3 X-80.0 Y-39.4984 I1.0 J2.8267
G1 X80.0
G3 X81.0 Y-39.3267 I0.0 J2.9984
G1 F300.0 X80.8666 Y-38.9496
G3 F800.0 X81.4 Y-38.689 I-0.8666 J2.4496
G1 Y-39.9
G1 X-81.4
G1 Y-38.689
G3 X-80.0 Y-39.0984 I1.4 J2.189
G1 X80.0
G3 X80.8666 Y-38.9496 I0.0 J2.5984
G1 F300.0 X80.5998 Y-38.1954
G3 F800.0 X81.7984 Y-36.5 I-0.5998 J1.6954
G1 Y38.5
G3 X80.0 Y40.2984 I-1.7984 J0.0
G1 X-80.0
G3 X-81.7984 Y38.5 I0.0 J-1.7984
G1 Y-36.5
G3 X-80.0 Y-38.2984 I1.7984 J0.0
G1 X80.0
G3 X80.5998 Y-38.1954 I0.0 J1.7984
G1 F300.0 X80.3335 Y-37.4427
G3 F800.0 X81.0 Y-36.5 I-0.3335 J0.9427
G1 Y38.5
G3 X80.0 Y39.5 I-1.0 J0.0
G1 X-80.0
G3 X-81.0 Y38.5 I0.0 J-1.0
G1 Y-36.5
G3 X-80.0 Y-37.5 I1.0 J0.0
G1 X80.0
G3 X80.3335 Y-37.4427 I0.0 J1.0
G0 Z3.0
G0 X82.2
G0 Z-0.6
G1 F300.0 Z-1.6
G1 F800.0 Y-40.7 Z-1.6027
G1 X-82.2 Z-1.7364
G1 Y40.7 Z-1.8027
G1 X82.2 Z-1.9364
G1 Y-37.4427 Z-2.0
G1 Y-40.7
G1 X-82.2
G1 Y40.7
G1 X82.2
G1 Y-37.4427
G1 F300.0 X83.0
G1 F800.0 Y-41.5
G1 X-83.0
G1 Y41.5
G1 X83.0
G1 Y-37.4427
( Profile1 )
S1000
G0 Z3.0
G0 X84.0 Y43.5
G0 Z1.0
G1 F300.0 Z0.0
G1 F800.0 X-84.0 Z-0.1312
G3 X-85.0 Y42.5 Z-0.1324 I0.0 J-1.0
G1 Y-42.5 Z-0.1988
G3 X-84.0 Y-43.5 Z-0.2 I1.0 J0.0
G1 X84.0 Z-0.3312
G3 X85.0 Y-42.5 Z-0.3324 I0.0 J1.0
G1 Y42.5 Z-0.3988
G3 X84.0 Y43.5 Z-0.4 I-1.0 J0.0
G1 X-84.0 Z-0.5312
G3 X-85.0 Y42.5 Z-0.5324 I0.0 J-1.0
G1 Y-42.5 Z-0.5988
G3 X-84.0 Y-43.5 Z-0.6 I1.0 J0.0
G1 X84.0 Z-0.7312
G3 X85.0 Y-42.5 Z-0.7324 I0.0 J1.0
G1 Y42.5 Z-0.7988
G3 X84.0 Y43.5 Z-0.8 I-1.0 J0.0
G1 X-84.0 Z-0.9312
G3 X-85.0 Y42.5 Z-0.9324 I0.0 J-1.0
G1 Y-42.5 Z-0.9988
G3 X-84.0 Y-43.5 Z-1.0 I1.0 J0.0
G1 X84.0 Z-1.1312
G3 X85.0 Y-42.5 Z-1.1324 I0.0 J1.0
G1 Y42.5 Z-1.1988
G3 X84.0 Y43.5 Z-1.2 I-1.0 J0.0
G1 X-84.0 Z-1.3312
G3 X-85.0 Y42.5 Z-1.3324 I0.0 J-1.0
G1 Y-42.5 Z-1.3988
G3 X-84.0 Y-43.5 Z-1.4 I1.0 J0.0
G1 X84.0 Z-1.5312
G3 X85.0 Y-42.5 Z-1.5324 I0.0 J1.0
G1 Y42.5 Z-1.5988
G3 X84.0 Y43.5 Z-1.6 I-1.0 J0.0
G1 X-84.0 Z-1.7312
G3 X-85.0 Y42.5 Z-1.7324 I0.0 J-1.0
G1 Y-42.5 Z-1.7988
G3 X-84.0 Y-43.5 Z-1.8 I1.0 J0.0
G1 X84.0 Z-1.9312
G3 X85.0 Y-42.5 Z-1.9324 I0.0 J1.0
G1 Y42.5 Z-1.9988
G3 X84.0 Y43.5 Z-2.0 I-1.0 J0.0
G1 X-84.0 Z-2.1312
G3 X-85.0 Y42.5 Z-2.1324 I0.0 J-1.0
G1 Y-42.5 Z-2.1988
G3 X-84.0 Y-43.5 Z-2.2 I1.0 J0.0
G1 X84.0 Z-2.3312
G3 X85.0 Y-42.5 Z-2.3324 I0.0 J1.0
G1 Y42.5 Z-2.3988
G3 X84.0 Y43.5 Z-2.4 I-1.0 J0.0
G1 X-84.0 Z-2.5312
G3 X-85.0 Y42.5 Z-2.5324 I0.0 J-1.0
G1 Y-42.5 Z-2.5988
G3 X-84.0 Y-43.5 Z-2.6 I1.0 J0.0
G1 X84.0 Z-2.7312
G3 X85.0 Y-42.5 Z-2.7324 I0.0 J1.0
G1 Y42.5 Z-2.7988
G3 X84.0 Y43.5 Z-2.8 I-1.0 J0.0
G1 X-84.0 Z-2.9312
G3 X-85.0 Y42.5 Z-2.9324 I0.0 J-1.0
G1 Y-42.5 Z-2.9988
G3 X-84.0 Y-43.5 Z-3.0 I1.0 J0.0
G1 X84.0 Z-3.1312
G3 X85.0 Y-42.5 Z-3.1324 I0.0 J1.0
G1 Y42.5 Z-3.1988
G3 X84.0 Y43.5 Z-3.2 I-1.0 J0.0
G1 X-84.0 Z-3.3312
G3 X-85.0 Y42.5 Z-3.3324 I0.0 J-1.0
G1 Y-42.5 Z-3.3988
G3 X-84.0 Y-43.5 Z-3.4 I1.0 J0.0
G1 X84.0 Z-3.5312
G3 X85.0 Y-42.5 Z-3.5324 I0.0 J1.0
G1 Y42.5 Z-3.5988
G3 X84.0 Y43.5 Z-3.6 I-1.0 J0.0
G1 X-84.0 Z-3.7312
G3 X-85.0 Y42.5 Z-3.7324 I0.0 J-1.0
G1 Y-42.5 Z-3.7988
G3 X-84.0 Y-43.5 Z-3.8 I1.0 J0.0
G1 X84.0 Z-3.9312
G3 X85.0 Y-42.5 Z-3.9324 I0.0 J1.0
G1 Y42.5 Z-3.9988
G3 X84.0 Y43.5 Z-4.0 I-1.0 J0.0
G1 X-84.0 Z-4.0656
G3 X-85.0 Y42.5 Z-4.0662 I0.0 J-1.0
G1 Y-42.5 Z-4.0994
G3 X-84.0 Y-43.5 Z-4.1 I1.0 J0.0
G1 X84.0 Z-4.1656
G3 X85.0 Y-42.5 Z-4.1662 I0.0 J1.0
G1 Y42.5 Z-4.1994
G3 X84.0 Y43.5 Z-4.2 I-1.0 J0.0
G1 X-84.0
G3 X-85.0 Y42.5 I0.0 J-1.0
G1 Y-42.5
G3 X-84.0 Y-43.5 I1.0 J0.0
G1 X84.0
G3 X85.0 Y-42.5 I0.0 J1.0
G1 Y42.5
G3 X84.0 Y43.5 I-1.0 J0.0
G0 Z3.0
M5
M30
