( Made using CamBam - http://www.cambam.co.uk )
( frontpanel 1/31/2021 6:29:04 PM )
( T2 : 2.0 )
( CUTVIEWER )
( FROM/0,0,5 )
( Select dummy tool to avoid warnings )
( TOOL/MILL,1,0,20.0,0 )
( STOCK/BLOCK,180.0,100.0,6.0,90.0,50.0,3.0 )
G21 G90 G91.1 G64 G40
G0 Z6.0
( T2 : 2.0 )
( Tool Taper coming soon )
( TOOL/MILL,2.0,0.0,0.0,0 )
T2 M6
( NeoStickPocket )
G17
M3 S1000
G0 X49.6 Y-24.9
G0 Z4.0
G1 F150.0 Z3.0
G1 F400.0 Y-25.1 Z2.9997
G1 X-69.6 Z2.8
G1 Y-24.9 Z2.7997
G1 X49.6 Z2.6
G1 F150.0 Y-24.5
G1 F400.0 X50.0
G1 Y-25.5
G1 X-70.0
G1 Y-24.5
G1 X49.6
G1 F150.0 Y-23.7
G1 F400.0 X50.8
G1 Y-26.3
G1 X-70.8
G1 Y-23.7
G1 X49.6
G1 F150.0 Y-22.9
G1 F400.0 X51.6
G1 Y-27.1
G1 X-71.6
G1 Y-22.9
G1 X49.6
G1 F150.0 Y-22.1
G1 F400.0 X52.4
G1 Y-27.9
G1 X-72.4
G1 Y-22.1
G1 X49.6
G1 F150.0 Y-21.3
G1 F400.0 X53.2
G1 Y-28.7
G1 X-73.2
G1 Y-21.3
G1 X49.6
G1 F150.0 Y-20.5
G1 F400.0 X54.0
G1 Y-29.5
G1 X-74.0
G1 Y-20.5
G1 X49.6
G0 Z6.0
G0 Y-24.9
G0 Z3.6
G1 F150.0 Z2.6
G1 F400.0 Y-25.1 Z2.5997
G1 X-69.6 Z2.4
G1 Y-24.9 Z2.3997
G1 X49.6 Z2.2
G1 F150.0 Y-24.5
G1 F400.0 X50.0
G1 Y-25.5
G1 X-70.0
G1 Y-24.5
G1 X49.6
G1 F150.0 Y-23.7
G1 F400.0 X50.8
G1 Y-26.3
G1 X-70.8
G1 Y-23.7
G1 X49.6
G1 F150.0 Y-22.9
G1 F400.0 X51.6
G1 Y-27.1
G1 X-71.6
G1 Y-22.9
G1 X49.6
G1 F150.0 Y-22.1
G1 F400.0 X52.4
G1 Y-27.9
G1 X-72.4
G1 Y-22.1
G1 X49.6
G1 F150.0 Y-21.3
G1 F400.0 X53.2
G1 Y-28.7
G1 X-73.2
G1 Y-21.3
G1 X49.6
G1 F150.0 Y-20.5
G1 F400.0 X54.0
G1 Y-29.5
G1 X-74.0
G1 Y-20.5
G1 X49.6
G0 Z6.0
G0 Y-24.9
G0 Z3.2
G1 F150.0 Z2.2
G1 F400.0 Y-25.1 Z2.1998
G1 X-69.6 Z2.1
G1 Y-24.9 Z2.0998
G1 X49.6 Z2.0
G1 Y-25.1
G1 X-69.6
G1 Y-24.9
G1 X49.6
G1 F150.0 Y-24.5
G1 F400.0 X50.0
G1 Y-25.5
G1 X-70.0
G1 Y-24.5
G1 X49.6
G1 F150.0 Y-23.7
G1 F400.0 X50.8
G1 Y-26.3
G1 X-70.8
G1 Y-23.7
G1 X49.6
G1 F150.0 Y-22.9
G1 F400.0 X51.6
G1 Y-27.1
G1 X-71.6
G1 Y-22.9
G1 X49.6
G1 F150.0 Y-22.1
G1 F400.0 X52.4
G1 Y-27.9
G1 X-72.4
G1 Y-22.1
G1 X49.6
G1 F150.0 Y-21.3
G1 F400.0 X53.2
G1 Y-28.7
G1 X-73.2
G1 Y-21.3
G1 X49.6
G1 F150.0 Y-20.5
G1 F400.0 X54.0
G1 Y-29.5
G1 X-74.0
G1 Y-20.5
G1 X49.6
( NeoPixel_trail_Pocket )
S1000
G0 Z6.0
G0 X-52.4 Y-23.1
G0 Z4.0
G1 F150.0 Z3.0
G1 F400.0 X52.4 Z2.8
G1 X-52.4 Z2.6
G1 F150.0 X-53.2
G1 F400.0 Y-22.3
G1 X53.2
G1 Y-23.9
G1 X-53.2
G1 Y-23.1
G1 F150.0 X-54.0
G1 F400.0 Y-21.5
G1 X54.0
G1 Y-24.7
G1 X-54.0
G1 Y-23.1
G0 Z6.0
G0 X-52.4
G0 Z3.6
G1 F150.0 Z2.6
G1 F400.0 X52.4 Z2.4
G1 X-52.4 Z2.2
G1 F150.0 X-53.2
G1 F400.0 Y-22.3
G1 X53.2
G1 Y-23.9
G1 X-53.2
G1 Y-23.1
G1 F150.0 X-54.0
G1 F400.0 Y-21.5
G1 X54.0
G1 Y-24.7
G1 X-54.0
G1 Y-23.1
G0 Z6.0
G0 X-52.4
G0 Z3.2
G1 F150.0 Z2.2
G1 F400.0 X52.4 Z2.0
G1 X-52.4 Z1.8
G1 F150.0 X-53.2
G1 F400.0 Y-22.3
G1 X53.2
G1 Y-23.9
G1 X-53.2
G1 Y-23.1
G1 F150.0 X-54.0
G1 F400.0 Y-21.5
G1 X54.0
G1 Y-24.7
G1 X-54.0
G1 Y-23.1
G0 Z6.0
G0 X-52.4
G1 F150.0 Z1.8
G1 F400.0 X52.4 Z1.6
G1 X-52.4 Z1.4
G1 F150.0 X-53.2
G1 F400.0 Y-22.3
G1 X53.2
G1 Y-23.9
G1 X-53.2
G1 Y-23.1
G1 F150.0 X-54.0
G1 F400.0 Y-21.5
G1 X54.0
G1 Y-24.7
G1 X-54.0
G1 Y-23.1
G0 Z6.0
G0 X-52.4
G1 F150.0 Z1.4
G1 F400.0 X52.4 Z1.2
G1 X-52.4 Z1.0
G1 F150.0 X-53.2
G1 F400.0 Y-22.3
G1 X53.2
G1 Y-23.9
G1 X-53.2
G1 Y-23.1
G1 F150.0 X-54.0
G1 F400.0 Y-21.5
G1 X54.0
G1 Y-24.7
G1 X-54.0
G1 Y-23.1
G0 Z6.0
G0 X-52.4
G1 F150.0 Z1.0
G1 F400.0 X52.4 Z0.8
G1 X-52.4 Z0.6
G1 F150.0 X-53.2
G1 F400.0 Y-22.3
G1 X53.2
G1 Y-23.9
G1 X-53.2
G1 Y-23.1
G1 F150.0 X-54.0
G1 F400.0 Y-21.5
G1 X54.0
G1 Y-24.7
G1 X-54.0
G1 Y-23.1
G0 Z6.0
G0 X-52.4
G1 F150.0 Z0.6
G1 F400.0 X52.4 Z0.4
G1 X-52.4 Z0.2
G1 F150.0 X-53.2
G1 F400.0 Y-22.3
G1 X53.2
G1 Y-23.9
G1 X-53.2
G1 Y-23.1
G1 F150.0 X-54.0
G1 F400.0 Y-21.5
G1 X54.0
G1 Y-24.7
G1 X-54.0
G1 Y-23.1
G0 Z6.0
G0 X-52.4
G1 F150.0 Z0.2
G1 F400.0 X52.4 Z0.1
G1 X-52.4 Z0.0
G1 X52.4
G1 X-52.4
G1 F150.0 X-53.2
G1 F400.0 Y-22.3
G1 X53.2
G1 Y-23.9
G1 X-53.2
G1 Y-23.1
G1 F150.0 X-54.0
G1 F400.0 Y-21.5
G1 X54.0
G1 Y-24.7
G1 X-54.0
G1 Y-23.1
( NeoPixel_Resistor_Trail_Pocket )
S1000
G0 Z6.0
G0 X-53.6 Y-27.85
G0 Z4.0
G1 F150.0 Z3.0
G1 F400.0 X53.6 Z2.8013
G1 Y-28.55 Z2.8
G1 X-53.6 Z2.6013
G1 Y-27.85 Z2.6
G1 F150.0 Y-27.45
G1 F400.0 X54.0
G1 Y-28.95
G1 X-54.0
G1 Y-27.45
G1 X-53.6
G1 F150.0 Y-27.85
G1 F400.0 X53.6 Z2.4013
G1 Y-28.55 Z2.4
G1 X-53.6 Z2.2013
G1 Y-27.85 Z2.2
G1 F150.0 Y-27.45
G1 F400.0 X54.0
G1 Y-28.95
G1 X-54.0
G1 Y-27.45
G1 X-53.6
G1 F150.0 Y-27.85
G1 F400.0 X53.6 Z2.0013
G1 Y-28.55 Z2.0
G1 X-53.6 Z1.8013
G1 Y-27.85 Z1.8
G1 F150.0 Y-27.45
G1 F400.0 X54.0
G1 Y-28.95
G1 X-54.0
G1 Y-27.45
G1 X-53.6
G1 F150.0 Y-27.85
G1 F400.0 X53.6 Z1.6013
G1 Y-28.55 Z1.6
G1 X-53.6 Z1.4013
G1 Y-27.85 Z1.4
G1 F150.0 Y-27.45
G1 F400.0 X54.0
G1 Y-28.95
G1 X-54.0
G1 Y-27.45
G1 X-53.6
G1 F150.0 Y-27.85
G1 F400.0 X53.6 Z1.2013
G1 Y-28.55 Z1.2
G1 X-53.6 Z1.0013
G1 Y-27.85 Z1.0
G1 X53.6
G1 Y-28.55
G1 X-53.6
G1 Y-27.85
G1 F150.0 Y-27.45
G1 F400.0 X54.0
G1 Y-28.95
G1 X-54.0
G1 Y-27.45
G1 X-53.6
( LDR_pocket_outer )
S1000
G0 Z6.0
G0 X71.1255 Y6.6093
G0 Z4.0
G1 F150.0 Z3.0
G1 F400.0 X71.1011 Y6.6148 Z2.996
G1 X71.0771 Y6.6217 Z2.992
G1 X71.0536 Y6.6302 Z2.988
G1 X71.0305 Y6.6402 Z2.984
G1 X71.0085 Y6.6514 Z2.98
G1 X70.9871 Y6.6641 Z2.976
G1 X70.9662 Y6.6783 Z2.972
G1 X70.9466 Y6.6935 Z2.968
G1 X70.9279 Y6.71 Z2.964
G1 X70.9098 Y6.728 Z2.9599
G1 X70.8933 Y6.7467 Z2.9559
G1 X70.8785 Y6.7659 Z2.9521
G1 X70.8644 Y6.7866 Z2.948
G1 X70.8515 Y6.8084 Z2.944
G1 X70.84 Y6.8309 Z2.9399
G1 X70.8301 Y6.8539 Z2.9359
G1 X70.8218 Y6.8769 Z2.932
G1 X70.8149 Y6.9007 Z2.9281
G1 X70.8093 Y6.9258 Z2.9239
G1 X70.8054 Y6.9502 Z2.92
G1 X70.8031 Y6.9748 Z2.916
G1 X70.8023 Y7.0 Z2.912
G1 X70.8031 Y7.0252 Z2.908
G1 X70.8054 Y7.0498 Z2.904
G1 X70.8093 Y7.0742 Z2.9
G1 X70.8149 Y7.0993 Z2.8959
G1 X70.8218 Y7.1231 Z2.892
G1 X70.8301 Y7.1461 Z2.888
G1 X70.84 Y7.1691 Z2.884
G1 X70.8515 Y7.1916 Z2.88
G1 X70.8644 Y7.2134 Z2.8759
G1 X70.8784 Y7.2341 Z2.8719
G1 X70.8932 Y7.2531 Z2.8681
G1 X70.9098 Y7.2719 Z2.8641
G1 X70.9281 Y7.2902 Z2.8599
G1 X70.9468 Y7.3067 Z2.8559
G1 X70.9658 Y7.3215 Z2.8521
G1 X70.9868 Y7.3357 Z2.848
G1 X71.0085 Y7.3486 Z2.844
G1 X71.0308 Y7.3599 Z2.84
G1 X71.054 Y7.3699 Z2.8359
G1 X71.0768 Y7.3782 Z2.832
G1 X71.1007 Y7.3851 Z2.8281
G1 X71.1259 Y7.3907 Z2.8239
G1 X71.1502 Y7.3946 Z2.82
G1 X71.1748 Y7.3969 Z2.816
G1 X71.2 Y7.3977 Z2.812
G1 X71.2252 Y7.3969 Z2.808
G1 X71.2498 Y7.3946 Z2.804
G1 X71.2743 Y7.3907 Z2.8
G1 X71.2993 Y7.3851 Z2.7959
G1 X71.323 Y7.3783 Z2.792
G1 X71.346 Y7.3699 Z2.7881
G1 X71.3692 Y7.3599 Z2.784
G1 X71.3915 Y7.3486 Z2.78
G1 X71.4132 Y7.3357 Z2.776
G1 X71.4342 Y7.3215 Z2.7719
G1 X71.4532 Y7.3067 Z2.7681
G1 X71.4719 Y7.2902 Z2.7641
G1 X71.4902 Y7.2719 Z2.7599
G1 X71.5068 Y7.2531 Z2.7559
G1 X71.5216 Y7.2341 Z2.752
G1 X71.5356 Y7.2134 Z2.748
G1 X71.5485 Y7.1916 Z2.744
G1 X71.56 Y7.1691 Z2.7399
G1 X71.5699 Y7.1461 Z2.7359
G1 X71.5782 Y7.1231 Z2.732
G1 X71.5851 Y7.0993 Z2.728
G1 X71.5907 Y7.0742 Z2.7239
G1 X71.5946 Y7.0498 Z2.72
G1 X71.5969 Y7.0252 Z2.716
G1 X71.5977 Y7.0 Z2.712
G1 X71.5969 Y6.9748 Z2.708
G1 X71.5946 Y6.9502 Z2.704
G1 X71.5907 Y6.9258 Z2.7
G1 X71.5851 Y6.9007 Z2.6959
G1 X71.5782 Y6.8769 Z2.692
G1 X71.5699 Y6.8539 Z2.688
G1 X71.56 Y6.8309 Z2.684
G1 X71.5485 Y6.8084 Z2.68
G1 X71.5356 Y6.7866 Z2.6759
G1 X71.5215 Y6.7659 Z2.6719
G1 X71.5067 Y6.7467 Z2.668
G1 X71.4902 Y6.728 Z2.664
G1 X71.4721 Y6.71 Z2.66
G1 X71.4534 Y6.6935 Z2.656
G1 X71.4338 Y6.6783 Z2.652
G1 X71.4129 Y6.6641 Z2.648
G1 X71.3915 Y6.6514 Z2.644
G1 X71.3695 Y6.6402 Z2.64
G1 X71.3464 Y6.6302 Z2.636
G1 X71.3227 Y6.6217 Z2.632
G1 X71.2989 Y6.6148 Z2.628
G1 X71.2746 Y6.6093 Z2.624
G1 X71.2499 Y6.6054 Z2.62
G1 X71.225 Y6.6031 Z2.616
G1 X71.2 Y6.6023 Z2.612
G1 X71.175 Y6.6031 Z2.608
G1 X71.1501 Y6.6054 Z2.604
G1 X71.1255 Y6.6093 Z2.6
G1 F150.0 X71.0383 Y6.2189
G1 F400.0 X71.0016 Y6.2271
G1 X70.9534 Y6.2411
G1 X70.9063 Y6.2581
G1 X70.8601 Y6.2781
G1 X70.8157 Y6.3007
G1 X70.7726 Y6.3262
G1 X70.731 Y6.3545
G1 X70.6915 Y6.3851
G1 X70.6539 Y6.4183
G1 X70.6181 Y6.454
G1 X70.585 Y6.4916
G1 X70.5547 Y6.5307
G1 X70.5265 Y6.5722
G1 X70.5008 Y6.6156
G1 X70.4779 Y6.6605
G1 X70.458 Y6.7066
G1 X70.4412 Y6.7532
G1 X70.4272 Y6.8012
G1 X70.4162 Y6.8508
G1 X70.4084 Y6.9
G1 X70.4037 Y6.9497
G1 X70.4021 Y7.0
G1 X70.4037 Y7.0503
G1 X70.4084 Y7.1
G1 X70.4162 Y7.1492
G1 X70.4272 Y7.1988
G1 X70.4412 Y7.2468
G1 X70.458 Y7.2934
G1 X70.4779 Y7.3395
G1 X70.5008 Y7.3844
G1 X70.5265 Y7.4278
G1 X70.5547 Y7.4693
G1 X70.5849 Y7.5082
G1 X70.6181 Y7.5459
G1 X70.6541 Y7.5819
G1 X70.6917 Y7.615
G1 X70.7307 Y7.6453
G1 X70.7724 Y7.6736
G1 X70.8157 Y7.6993
G1 X70.8604 Y7.722
G1 X70.9066 Y7.742
G1 X70.9532 Y7.7588
G1 X71.0012 Y7.7727
G1 X71.0509 Y7.7838
G1 X71.1 Y7.7916
G1 X71.1497 Y7.7963
G1 X71.2 Y7.7979
G1 X71.2503 Y7.7963
G1 X71.3 Y7.7916
G1 X71.3493 Y7.7838
G1 X71.3988 Y7.7727
G1 X71.4466 Y7.7589
G1 X71.4934 Y7.742
G1 X71.5396 Y7.722
G1 X71.5843 Y7.6993
G1 X71.6276 Y7.6736
G1 X71.6693 Y7.6453
G1 X71.7083 Y7.615
G1 X71.7459 Y7.5819
G1 X71.7819 Y7.5459
G1 X71.8151 Y7.5082
G1 X71.8453 Y7.4693
G1 X71.8735 Y7.4278
G1 X71.8992 Y7.3844
G1 X71.9221 Y7.3395
G1 X71.942 Y7.2934
G1 X71.9588 Y7.2468
G1 X71.9728 Y7.1988
G1 X71.9838 Y7.1492
G1 X71.9916 Y7.1
G1 X71.9963 Y7.0503
G1 X71.9979 Y7.0
G1 X71.9963 Y6.9497
G1 X71.9916 Y6.9
G1 X71.9838 Y6.8508
G1 X71.9728 Y6.8012
G1 X71.9588 Y6.7532
G1 X71.942 Y6.7066
G1 X71.9221 Y6.6605
G1 X71.8992 Y6.6156
G1 X71.8735 Y6.5722
G1 X71.8453 Y6.5307
G1 X71.815 Y6.4916
G1 X71.7819 Y6.454
G1 X71.7461 Y6.4183
G1 X71.7085 Y6.3851
G1 X71.669 Y6.3545
G1 X71.6274 Y6.3262
G1 X71.5843 Y6.3007
G1 X71.5399 Y6.2781
G1 X71.4937 Y6.2581
G1 X71.4464 Y6.2411
G1 X71.3985 Y6.2271
G1 X71.3496 Y6.2162
G1 X71.3 Y6.2084
G1 X71.2501 Y6.2037
G1 X71.2 Y6.2021
G1 X71.1499 Y6.2037
G1 X71.1 Y6.2084
G1 X71.0505 Y6.2162
G1 X71.0383 Y6.2189
G1 F150.0 X70.8637 Y5.4382
G1 F400.0 X70.8025 Y5.4519
G1 X70.7061 Y5.4799
G1 X70.6116 Y5.5139
G1 X70.5194 Y5.5538
G1 X70.4301 Y5.5993
G1 X70.3437 Y5.6504
G1 X70.2605 Y5.707
G1 X70.1813 Y5.7684
G1 X70.106 Y5.8348
G1 X70.0347 Y5.9061
G1 X69.9683 Y5.9814
G1 X69.9071 Y6.0603
G1 X69.8506 Y6.1434
G1 X69.7994 Y6.23
G1 X69.7537 Y6.3197
G1 X69.7138 Y6.4119
G1 X69.6799 Y6.5059
G1 X69.652 Y6.6022
G1 X69.63 Y6.7007
G1 X69.6143 Y6.7997
G1 X69.6049 Y6.8995
G1 X69.6017 Y7.0
G1 X69.6049 Y7.1005
G1 X69.6143 Y7.2003
G1 X69.63 Y7.2993
G1 X69.652 Y7.3977
G1 X69.6799 Y7.4941
G1 X69.7138 Y7.5881
G1 X69.7537 Y7.6803
G1 X69.7994 Y7.77
G1 X69.8506 Y7.8566
G1 X69.9071 Y7.9397
G1 X69.9682 Y8.0185
G1 X70.0347 Y8.0938
G1 X70.1062 Y8.1653
G1 X70.1814 Y8.2317
G1 X70.2603 Y8.2929
G1 X70.3436 Y8.3494
G1 X70.4301 Y8.4006
G1 X70.5196 Y8.4462
G1 X70.6119 Y8.4862
G1 X70.7059 Y8.52
G1 X70.8022 Y8.548
G1 X70.9008 Y8.57
G1 X70.9997 Y8.5857
G1 X71.0994 Y8.5951
G1 X71.2 Y8.5983
G1 X71.3006 Y8.5951
G1 X71.4003 Y8.5857
G1 X71.4993 Y8.57
G1 X71.5978 Y8.548
G1 X71.694 Y8.5201
G1 X71.7881 Y8.4862
G1 X71.8804 Y8.4462
G1 X71.9699 Y8.4006
G1 X72.0564 Y8.3494
G1 X72.1397 Y8.2929
G1 X72.2186 Y8.2317
G1 X72.2938 Y8.1653
G1 X72.3653 Y8.0938
G1 X72.4318 Y8.0185
G1 X72.4929 Y7.9397
G1 X72.5494 Y7.8566
G1 X72.6006 Y7.77
G1 X72.6463 Y7.6803
G1 X72.6862 Y7.5881
G1 X72.7201 Y7.4941
G1 X72.748 Y7.3977
G1 X72.77 Y7.2993
G1 X72.7857 Y7.2003
G1 X72.7951 Y7.1005
G1 X72.7983 Y7.0
G1 X72.7951 Y6.8995
G1 X72.7857 Y6.7997
G1 X72.77 Y6.7007
G1 X72.748 Y6.6022
G1 X72.7201 Y6.5059
G1 X72.6862 Y6.4119
G1 X72.6463 Y6.3197
G1 X72.6006 Y6.23
G1 X72.5494 Y6.1434
G1 X72.4929 Y6.0603
G1 X72.4317 Y5.9814
G1 X72.3653 Y5.9061
G1 X72.294 Y5.8348
G1 X72.2187 Y5.7684
G1 X72.1395 Y5.707
G1 X72.0563 Y5.6504
G1 X71.9699 Y5.5993
G1 X71.8806 Y5.5538
G1 X71.7884 Y5.5139
G1 X71.6938 Y5.4799
G1 X71.5975 Y5.4519
G1 X71.4996 Y5.43
G1 X71.4004 Y5.4143
G1 X71.3004 Y5.4048
G1 X71.2 Y5.4017
G1 X71.0996 Y5.4048
G1 X70.9996 Y5.4143
G1 X70.9006 Y5.43
G1 X70.8637 Y5.4382
G1 F150.0 X70.6892 Y4.6575
G1 F400.0 X70.6035 Y4.6766
G1 X70.4587 Y4.7187
G1 X70.317 Y4.7697
G1 X70.1786 Y4.8296
G1 X70.0445 Y4.8979
G1 X69.9148 Y4.9746
G1 X69.7901 Y5.0594
G1 X69.6711 Y5.1517
G1 X69.558 Y5.2514
G1 X69.4513 Y5.3581
G1 X69.3516 Y5.4711
G1 X69.2595 Y5.5899
G1 X69.1748 Y5.7146
G1 X69.098 Y5.8444
G1 X69.0295 Y5.9788
G1 X68.9696 Y6.1172
G1 X68.9187 Y6.2586
G1 X68.8767 Y6.4033
G1 X68.8438 Y6.5507
G1 X68.8202 Y6.6994
G1 X68.806 Y6.8493
G1 X68.8013 Y7.0
G1 X68.806 Y7.1507
G1 X68.8202 Y7.3006
G1 X68.8438 Y7.4493
G1 X68.8767 Y7.5967
G1 X68.9187 Y7.7414
G1 X68.9696 Y7.8828
G1 X69.0295 Y8.0212
G1 X69.098 Y8.1556
G1 X69.1748 Y8.2854
G1 X69.2595 Y8.4101
G1 X69.3516 Y8.5288
G1 X69.4513 Y8.6418
G1 X69.5582 Y8.7487
G1 X69.6712 Y8.8484
G1 X69.7899 Y8.9404
G1 X69.9147 Y9.0252
G1 X70.0445 Y9.102
G1 X70.1788 Y9.1704
G1 X70.3172 Y9.2304
G1 X70.4586 Y9.2813
G1 X70.6033 Y9.3233
G1 X70.7508 Y9.3562
G1 X70.8994 Y9.3798
G1 X71.0492 Y9.394
G1 X71.2 Y9.3987
G1 X71.3508 Y9.394
G1 X71.5006 Y9.3798
G1 X71.6493 Y9.3562
G1 X71.7968 Y9.3233
G1 X71.9413 Y9.2813
G1 X72.0828 Y9.2304
G1 X72.2212 Y9.1704
G1 X72.3555 Y9.102
G1 X72.4853 Y9.0252
G1 X72.6101 Y8.9404
G1 X72.7288 Y8.8484
G1 X72.8418 Y8.7487
G1 X72.9487 Y8.6418
G1 X73.0484 Y8.5288
G1 X73.1405 Y8.4101
G1 X73.2252 Y8.2854
G1 X73.302 Y8.1556
G1 X73.3705 Y8.0212
G1 X73.4304 Y7.8828
G1 X73.4813 Y7.7414
G1 X73.5233 Y7.5967
G1 X73.5562 Y7.4493
G1 X73.5798 Y7.3006
G1 X73.594 Y7.1507
G1 X73.5987 Y7.0
G1 X73.594 Y6.8493
G1 X73.5798 Y6.6994
G1 X73.5562 Y6.5507
G1 X73.5233 Y6.4033
G1 X73.4813 Y6.2586
G1 X73.4304 Y6.1172
G1 X73.3705 Y5.9788
G1 X73.302 Y5.8444
G1 X73.2252 Y5.7146
G1 X73.1405 Y5.5899
G1 X73.0484 Y5.4711
G1 X72.9487 Y5.3581
G1 X72.842 Y5.2514
G1 X72.7289 Y5.1517
G1 X72.6099 Y5.0594
G1 X72.4852 Y4.9746
G1 X72.3555 Y4.8979
G1 X72.2214 Y4.8296
G1 X72.083 Y4.7697
G1 X71.9411 Y4.7187
G1 X71.7966 Y4.6766
G1 X71.6495 Y4.6438
G1 X71.5007 Y4.6202
G1 X71.3507 Y4.606
G1 X71.2 Y4.6013
G1 X71.0493 Y4.606
G1 X70.8993 Y4.6202
G1 X70.7506 Y4.6438
G1 X70.6892 Y4.6575
G1 F150.0 X70.5147 Y3.8768
G1 F400.0 X70.4045 Y3.9014
G1 X70.2114 Y3.9575
G1 X70.0223 Y4.0255
G1 X69.8378 Y4.1054
G1 X69.6588 Y4.1966
G1 X69.4859 Y4.2989
G1 X69.3196 Y4.4119
G1 X69.1609 Y4.535
G1 X69.0101 Y4.6679
G1 X68.8679 Y4.8102
G1 X68.7349 Y4.9609
G1 X68.612 Y5.1195
G1 X68.499 Y5.2857
G1 X68.3966 Y5.4588
G1 X68.3053 Y5.638
G1 X68.2255 Y5.8225
G1 X68.1575 Y6.0113
G1 X68.1014 Y6.2043
G1 X68.0576 Y6.4007
G1 X68.0261 Y6.599
G1 X68.0072 Y6.7991
G1 X68.0009 Y7.0
G1 X68.0072 Y7.2009
G1 X68.0261 Y7.401
G1 X68.0576 Y7.5993
G1 X68.1014 Y7.7957
G1 X68.1575 Y7.9887
G1 X68.2255 Y8.1775
G1 X68.3053 Y8.362
G1 X68.3966 Y8.5412
G1 X68.499 Y8.7143
G1 X68.6119 Y8.8805
G1 X68.7349 Y9.039
G1 X68.8679 Y9.1898
G1 X69.0102 Y9.3321
G1 X69.1609 Y9.4651
G1 X69.3195 Y9.588
G1 X69.4858 Y9.701
G1 X69.6588 Y9.8034
G1 X69.8379 Y9.8946
G1 X70.0225 Y9.9745
G1 X70.2113 Y10.0425
G1 X70.4043 Y10.0985
G1 X70.6007 Y10.1424
G1 X70.799 Y10.1739
G1 X70.999 Y10.1928
G1 X71.2 Y10.1991
G1 X71.401 Y10.1928
G1 X71.601 Y10.1739
G1 X71.7993 Y10.1424
G1 X71.9958 Y10.0985
G1 X72.1886 Y10.0425
G1 X72.3775 Y9.9745
G1 X72.5621 Y9.8946
G1 X72.7412 Y9.8034
G1 X72.9142 Y9.701
G1 X73.0805 Y9.588
G1 X73.2391 Y9.4651
G1 X73.3898 Y9.3321
G1 X73.5321 Y9.1898
G1 X73.6651 Y9.039
G1 X73.7881 Y8.8805
G1 X73.901 Y8.7143
G1 X74.0034 Y8.5412
G1 X74.0947 Y8.362
G1 X74.1745 Y8.1775
G1 X74.2425 Y7.9887
G1 X74.2986 Y7.7957
G1 X74.3424 Y7.5993
G1 X74.3739 Y7.401
G1 X74.3928 Y7.2009
G1 X74.3991 Y7.0
G1 X74.3928 Y6.7991
G1 X74.3739 Y6.599
G1 X74.3424 Y6.4007
G1 X74.2986 Y6.2043
G1 X74.2425 Y6.0113
G1 X74.1745 Y5.8225
G1 X74.0947 Y5.638
G1 X74.0034 Y5.4588
G1 X73.901 Y5.2857
G1 X73.788 Y5.1195
G1 X73.6651 Y4.9609
G1 X73.5321 Y4.8102
G1 X73.3899 Y4.6679
G1 X73.2391 Y4.535
G1 X73.0804 Y4.4119
G1 X72.9141 Y4.2989
G1 X72.7412 Y4.1966
G1 X72.5622 Y4.1054
G1 X72.3777 Y4.0255
G1 X72.1885 Y3.9574
G1 X71.9956 Y3.9014
G1 X71.7995 Y3.8576
G1 X71.601 Y3.8261
G1 X71.4009 Y3.8072
G1 X71.2 Y3.8009
G1 X70.9991 Y3.8072
G1 X70.799 Y3.8261
G1 X70.6006 Y3.8575
G1 X70.5147 Y3.8768
G1 F150.0 X70.3401 Y3.096
G1 F400.0 X70.2054 Y3.1261
G1 X69.9641 Y3.1962
G1 X69.7277 Y3.2814
G1 X69.4971 Y3.3811
G1 X69.2732 Y3.4952
G1 X69.057 Y3.6231
G1 X68.8492 Y3.7643
G1 X68.6507 Y3.9183
G1 X68.4622 Y4.0845
G1 X68.2845 Y4.2622
G1 X68.1183 Y4.4507
G1 X67.9644 Y4.6491
G1 X67.8232 Y4.8569
G1 X67.6952 Y5.0732
G1 X67.5811 Y5.2972
G1 X67.4813 Y5.5278
G1 X67.3962 Y5.764
G1 X67.3262 Y6.0053
G1 X67.2714 Y6.2506
G1 X67.232 Y6.4987
G1 X67.2084 Y6.7488
G1 X67.2005 Y7.0
G1 X67.2084 Y7.2512
G1 X67.232 Y7.5013
G1 X67.2714 Y7.7494
G1 X67.3262 Y7.9947
G1 X67.3962 Y8.236
G1 X67.4813 Y8.4722
G1 X67.5811 Y8.7028
G1 X67.6952 Y8.9268
G1 X67.8232 Y9.1431
G1 X67.9644 Y9.3509
G1 X68.1182 Y9.5493
G1 X68.2845 Y9.7377
G1 X68.4623 Y9.9155
G1 X68.6507 Y10.0818
G1 X68.8491 Y10.2356
G1 X69.057 Y10.3768
G1 X69.2732 Y10.5048
G1 X69.4971 Y10.6188
G1 X69.7278 Y10.7187
G1 X69.964 Y10.8038
G1 X70.2053 Y10.8738
G1 X70.4507 Y10.9286
G1 X70.6987 Y10.968
G1 X70.9488 Y10.9916
G1 X71.2 Y10.9995
G1 X71.4512 Y10.9916
G1 X71.7013 Y10.968
G1 X71.9494 Y10.9286
G1 X72.1948 Y10.8738
G1 X72.4359 Y10.8038
G1 X72.6722 Y10.7187
G1 X72.9029 Y10.6188
G1 X73.1268 Y10.5048
G1 X73.343 Y10.3768
G1 X73.5509 Y10.2356
G1 X73.7493 Y10.0818
G1 X73.9377 Y9.9155
G1 X74.1155 Y9.7377
G1 X74.2818 Y9.5493
G1 X74.4356 Y9.3509
G1 X74.5768 Y9.1431
G1 X74.7048 Y8.9268
G1 X74.8189 Y8.7028
G1 X74.9187 Y8.4722
G1 X75.0038 Y8.236
G1 X75.0738 Y7.9947
G1 X75.1286 Y7.7494
G1 X75.168 Y7.5013
G1 X75.1916 Y7.2512
G1 X75.1995 Y7.0
G1 X75.1916 Y6.7488
G1 X75.168 Y6.4987
G1 X75.1286 Y6.2506
G1 X75.0738 Y6.0053
G1 X75.0038 Y5.764
G1 X74.9187 Y5.5278
G1 X74.8189 Y5.2972
G1 X74.7048 Y5.0732
G1 X74.5768 Y4.8569
G1 X74.4356 Y4.6491
G1 X74.2817 Y4.4507
G1 X74.1155 Y4.2622
G1 X73.9378 Y4.0845
G1 X73.7493 Y3.9183
G1 X73.5508 Y3.7643
G1 X73.343 Y3.6231
G1 X73.1268 Y3.4952
G1 X72.9029 Y3.3811
G1 X72.6723 Y3.2814
G1 X72.4359 Y3.1962
G1 X72.1947 Y3.1261
G1 X71.9494 Y3.0713
G1 X71.7013 Y3.032
G1 X71.4512 Y3.0084
G1 X71.2 Y3.0005
G1 X70.9488 Y3.0084
G1 X70.6987 Y3.032
G1 X70.4506 Y3.0713
G1 X70.3401 Y3.096
G0 Z6.0
G0 X71.1255 Y6.6093
G0 Z3.6
G1 F150.0 Z2.6
G1 F400.0 X71.1011 Y6.6148 Z2.596
G1 X71.0771 Y6.6217 Z2.592
G1 X71.0536 Y6.6302 Z2.588
G1 X71.0305 Y6.6402 Z2.584
G1 X71.0085 Y6.6514 Z2.58
G1 X70.9871 Y6.6641 Z2.576
G1 X70.9662 Y6.6783 Z2.572
G1 X70.9466 Y6.6935 Z2.568
G1 X70.9279 Y6.71 Z2.564
G1 X70.9098 Y6.728 Z2.5599
G1 X70.8933 Y6.7467 Z2.5559
G1 X70.8785 Y6.7659 Z2.5521
G1 X70.8644 Y6.7866 Z2.548
G1 X70.8515 Y6.8084 Z2.544
G1 X70.84 Y6.8309 Z2.5399
G1 X70.8301 Y6.8539 Z2.5359
G1 X70.8218 Y6.8769 Z2.532
G1 X70.8149 Y6.9007 Z2.5281
G1 X70.8093 Y6.9258 Z2.5239
G1 X70.8054 Y6.9502 Z2.52
G1 X70.8031 Y6.9748 Z2.516
G1 X70.8023 Y7.0 Z2.512
G1 X70.8031 Y7.0252 Z2.508
G1 X70.8054 Y7.0498 Z2.504
G1 X70.8093 Y7.0742 Z2.5
G1 X70.8149 Y7.0993 Z2.4959
G1 X70.8218 Y7.1231 Z2.492
G1 X70.8301 Y7.1461 Z2.488
G1 X70.84 Y7.1691 Z2.484
G1 X70.8515 Y7.1916 Z2.48
G1 X70.8644 Y7.2134 Z2.4759
G1 X70.8784 Y7.2341 Z2.4719
G1 X70.8932 Y7.2531 Z2.4681
G1 X70.9098 Y7.2719 Z2.4641
G1 X70.9281 Y7.2902 Z2.4599
G1 X70.9468 Y7.3067 Z2.4559
G1 X70.9658 Y7.3215 Z2.4521
G1 X70.9868 Y7.3357 Z2.448
G1 X71.0085 Y7.3486 Z2.444
G1 X71.0308 Y7.3599 Z2.44
G1 X71.054 Y7.3699 Z2.4359
G1 X71.0768 Y7.3782 Z2.432
G1 X71.1007 Y7.3851 Z2.4281
G1 X71.1259 Y7.3907 Z2.4239
G1 X71.1502 Y7.3946 Z2.42
G1 X71.1748 Y7.3969 Z2.416
G1 X71.2 Y7.3977 Z2.412
G1 X71.2252 Y7.3969 Z2.408
G1 X71.2498 Y7.3946 Z2.404
G1 X71.2743 Y7.3907 Z2.4
G1 X71.2993 Y7.3851 Z2.3959
G1 X71.323 Y7.3783 Z2.392
G1 X71.346 Y7.3699 Z2.3881
G1 X71.3692 Y7.3599 Z2.384
G1 X71.3915 Y7.3486 Z2.38
G1 X71.4132 Y7.3357 Z2.376
G1 X71.4342 Y7.3215 Z2.3719
G1 X71.4532 Y7.3067 Z2.3681
G1 X71.4719 Y7.2902 Z2.3641
G1 X71.4902 Y7.2719 Z2.3599
G1 X71.5068 Y7.2531 Z2.3559
G1 X71.5216 Y7.2341 Z2.352
G1 X71.5356 Y7.2134 Z2.348
G1 X71.5485 Y7.1916 Z2.344
G1 X71.56 Y7.1691 Z2.3399
G1 X71.5699 Y7.1461 Z2.3359
G1 X71.5782 Y7.1231 Z2.332
G1 X71.5851 Y7.0993 Z2.328
G1 X71.5907 Y7.0742 Z2.3239
G1 X71.5946 Y7.0498 Z2.32
G1 X71.5969 Y7.0252 Z2.316
G1 X71.5977 Y7.0 Z2.312
G1 X71.5969 Y6.9748 Z2.308
G1 X71.5946 Y6.9502 Z2.304
G1 X71.5907 Y6.9258 Z2.3
G1 X71.5851 Y6.9007 Z2.2959
G1 X71.5782 Y6.8769 Z2.292
G1 X71.5699 Y6.8539 Z2.288
G1 X71.56 Y6.8309 Z2.284
G1 X71.5485 Y6.8084 Z2.28
G1 X71.5356 Y6.7866 Z2.2759
G1 X71.5215 Y6.7659 Z2.2719
G1 X71.5067 Y6.7467 Z2.268
G1 X71.4902 Y6.728 Z2.264
G1 X71.4721 Y6.71 Z2.26
G1 X71.4534 Y6.6935 Z2.256
G1 X71.4338 Y6.6783 Z2.252
G1 X71.4129 Y6.6641 Z2.248
G1 X71.3915 Y6.6514 Z2.244
G1 X71.3695 Y6.6402 Z2.24
G1 X71.3464 Y6.6302 Z2.236
G1 X71.3227 Y6.6217 Z2.232
G1 X71.2989 Y6.6148 Z2.228
G1 X71.2746 Y6.6093 Z2.224
G1 X71.2499 Y6.6054 Z2.22
G1 X71.225 Y6.6031 Z2.216
G1 X71.2 Y6.6023 Z2.212
G1 X71.175 Y6.6031 Z2.208
G1 X71.1501 Y6.6054 Z2.204
G1 X71.1255 Y6.6093 Z2.2
G1 F150.0 X71.0383 Y6.2189
G1 F400.0 X71.0016 Y6.2271
G1 X70.9534 Y6.2411
G1 X70.9063 Y6.2581
G1 X70.8601 Y6.2781
G1 X70.8157 Y6.3007
G1 X70.7726 Y6.3262
G1 X70.731 Y6.3545
G1 X70.6915 Y6.3851
G1 X70.6539 Y6.4183
G1 X70.6181 Y6.454
G1 X70.585 Y6.4916
G1 X70.5547 Y6.5307
G1 X70.5265 Y6.5722
G1 X70.5008 Y6.6156
G1 X70.4779 Y6.6605
G1 X70.458 Y6.7066
G1 X70.4412 Y6.7532
G1 X70.4272 Y6.8012
G1 X70.4162 Y6.8508
G1 X70.4084 Y6.9
G1 X70.4037 Y6.9497
G1 X70.4021 Y7.0
G1 X70.4037 Y7.0503
G1 X70.4084 Y7.1
G1 X70.4162 Y7.1492
G1 X70.4272 Y7.1988
G1 X70.4412 Y7.2468
G1 X70.458 Y7.2934
G1 X70.4779 Y7.3395
G1 X70.5008 Y7.3844
G1 X70.5265 Y7.4278
G1 X70.5547 Y7.4693
G1 X70.5849 Y7.5082
G1 X70.6181 Y7.5459
G1 X70.6541 Y7.5819
G1 X70.6917 Y7.615
G1 X70.7307 Y7.6453
G1 X70.7724 Y7.6736
G1 X70.8157 Y7.6993
G1 X70.8604 Y7.722
G1 X70.9066 Y7.742
G1 X70.9532 Y7.7588
G1 X71.0012 Y7.7727
G1 X71.0509 Y7.7838
G1 X71.1 Y7.7916
G1 X71.1497 Y7.7963
G1 X71.2 Y7.7979
G1 X71.2503 Y7.7963
G1 X71.3 Y7.7916
G1 X71.3493 Y7.7838
G1 X71.3988 Y7.7727
G1 X71.4466 Y7.7589
G1 X71.4934 Y7.742
G1 X71.5396 Y7.722
G1 X71.5843 Y7.6993
G1 X71.6276 Y7.6736
G1 X71.6693 Y7.6453
G1 X71.7083 Y7.615
G1 X71.7459 Y7.5819
G1 X71.7819 Y7.5459
G1 X71.8151 Y7.5082
G1 X71.8453 Y7.4693
G1 X71.8735 Y7.4278
G1 X71.8992 Y7.3844
G1 X71.9221 Y7.3395
G1 X71.942 Y7.2934
G1 X71.9588 Y7.2468
G1 X71.9728 Y7.1988
G1 X71.9838 Y7.1492
G1 X71.9916 Y7.1
G1 X71.9963 Y7.0503
G1 X71.9979 Y7.0
G1 X71.9963 Y6.9497
G1 X71.9916 Y6.9
G1 X71.9838 Y6.8508
G1 X71.9728 Y6.8012
G1 X71.9588 Y6.7532
G1 X71.942 Y6.7066
G1 X71.9221 Y6.6605
G1 X71.8992 Y6.6156
G1 X71.8735 Y6.5722
G1 X71.8453 Y6.5307
G1 X71.815 Y6.4916
G1 X71.7819 Y6.454
G1 X71.7461 Y6.4183
G1 X71.7085 Y6.3851
G1 X71.669 Y6.3545
G1 X71.6274 Y6.3262
G1 X71.5843 Y6.3007
G1 X71.5399 Y6.2781
G1 X71.4937 Y6.2581
G1 X71.4464 Y6.2411
G1 X71.3985 Y6.2271
G1 X71.3496 Y6.2162
G1 X71.3 Y6.2084
G1 X71.2501 Y6.2037
G1 X71.2 Y6.2021
G1 X71.1499 Y6.2037
G1 X71.1 Y6.2084
G1 X71.0505 Y6.2162
G1 X71.0383 Y6.2189
G1 F150.0 X70.8637 Y5.4382
G1 F400.0 X70.8025 Y5.4519
G1 X70.7061 Y5.4799
G1 X70.6116 Y5.5139
G1 X70.5194 Y5.5538
G1 X70.4301 Y5.5993
G1 X70.3437 Y5.6504
G1 X70.2605 Y5.707
G1 X70.1813 Y5.7684
G1 X70.106 Y5.8348
G1 X70.0347 Y5.9061
G1 X69.9683 Y5.9814
G1 X69.9071 Y6.0603
G1 X69.8506 Y6.1434
G1 X69.7994 Y6.23
G1 X69.7537 Y6.3197
G1 X69.7138 Y6.4119
G1 X69.6799 Y6.5059
G1 X69.652 Y6.6022
G1 X69.63 Y6.7007
G1 X69.6143 Y6.7997
G1 X69.6049 Y6.8995
G1 X69.6017 Y7.0
G1 X69.6049 Y7.1005
G1 X69.6143 Y7.2003
G1 X69.63 Y7.2993
G1 X69.652 Y7.3977
G1 X69.6799 Y7.4941
G1 X69.7138 Y7.5881
G1 X69.7537 Y7.6803
G1 X69.7994 Y7.77
G1 X69.8506 Y7.8566
G1 X69.9071 Y7.9397
G1 X69.9682 Y8.0185
G1 X70.0347 Y8.0938
G1 X70.1062 Y8.1653
G1 X70.1814 Y8.2317
G1 X70.2603 Y8.2929
G1 X70.3436 Y8.3494
G1 X70.4301 Y8.4006
G1 X70.5196 Y8.4462
G1 X70.6119 Y8.4862
G1 X70.7059 Y8.52
G1 X70.8022 Y8.548
G1 X70.9008 Y8.57
G1 X70.9997 Y8.5857
G1 X71.0994 Y8.5951
G1 X71.2 Y8.5983
G1 X71.3006 Y8.5951
G1 X71.4003 Y8.5857
G1 X71.4993 Y8.57
G1 X71.5978 Y8.548
G1 X71.694 Y8.5201
G1 X71.7881 Y8.4862
G1 X71.8804 Y8.4462
G1 X71.9699 Y8.4006
G1 X72.0564 Y8.3494
G1 X72.1397 Y8.2929
G1 X72.2186 Y8.2317
G1 X72.2938 Y8.1653
G1 X72.3653 Y8.0938
G1 X72.4318 Y8.0185
G1 X72.4929 Y7.9397
G1 X72.5494 Y7.8566
G1 X72.6006 Y7.77
G1 X72.6463 Y7.6803
G1 X72.6862 Y7.5881
G1 X72.7201 Y7.4941
G1 X72.748 Y7.3977
G1 X72.77 Y7.2993
G1 X72.7857 Y7.2003
G1 X72.7951 Y7.1005
G1 X72.7983 Y7.0
G1 X72.7951 Y6.8995
G1 X72.7857 Y6.7997
G1 X72.77 Y6.7007
G1 X72.748 Y6.6022
G1 X72.7201 Y6.5059
G1 X72.6862 Y6.4119
G1 X72.6463 Y6.3197
G1 X72.6006 Y6.23
G1 X72.5494 Y6.1434
G1 X72.4929 Y6.0603
G1 X72.4317 Y5.9814
G1 X72.3653 Y5.9061
G1 X72.294 Y5.8348
G1 X72.2187 Y5.7684
G1 X72.1395 Y5.707
G1 X72.0563 Y5.6504
G1 X71.9699 Y5.5993
G1 X71.8806 Y5.5538
G1 X71.7884 Y5.5139
G1 X71.6938 Y5.4799
G1 X71.5975 Y5.4519
G1 X71.4996 Y5.43
G1 X71.4004 Y5.4143
G1 X71.3004 Y5.4048
G1 X71.2 Y5.4017
G1 X71.0996 Y5.4048
G1 X70.9996 Y5.4143
G1 X70.9006 Y5.43
G1 X70.8637 Y5.4382
G1 F150.0 X70.6892 Y4.6575
G1 F400.0 X70.6035 Y4.6766
G1 X70.4587 Y4.7187
G1 X70.317 Y4.7697
G1 X70.1786 Y4.8296
G1 X70.0445 Y4.8979
G1 X69.9148 Y4.9746
G1 X69.7901 Y5.0594
G1 X69.6711 Y5.1517
G1 X69.558 Y5.2514
G1 X69.4513 Y5.3581
G1 X69.3516 Y5.4711
G1 X69.2595 Y5.5899
G1 X69.1748 Y5.7146
G1 X69.098 Y5.8444
G1 X69.0295 Y5.9788
G1 X68.9696 Y6.1172
G1 X68.9187 Y6.2586
G1 X68.8767 Y6.4033
G1 X68.8438 Y6.5507
G1 X68.8202 Y6.6994
G1 X68.806 Y6.8493
G1 X68.8013 Y7.0
G1 X68.806 Y7.1507
G1 X68.8202 Y7.3006
G1 X68.8438 Y7.4493
G1 X68.8767 Y7.5967
G1 X68.9187 Y7.7414
G1 X68.9696 Y7.8828
G1 X69.0295 Y8.0212
G1 X69.098 Y8.1556
G1 X69.1748 Y8.2854
G1 X69.2595 Y8.4101
G1 X69.3516 Y8.5288
G1 X69.4513 Y8.6418
G1 X69.5582 Y8.7487
G1 X69.6712 Y8.8484
G1 X69.7899 Y8.9404
G1 X69.9147 Y9.0252
G1 X70.0445 Y9.102
G1 X70.1788 Y9.1704
G1 X70.3172 Y9.2304
G1 X70.4586 Y9.2813
G1 X70.6033 Y9.3233
G1 X70.7508 Y9.3562
G1 X70.8994 Y9.3798
G1 X71.0492 Y9.394
G1 X71.2 Y9.3987
G1 X71.3508 Y9.394
G1 X71.5006 Y9.3798
G1 X71.6493 Y9.3562
G1 X71.7968 Y9.3233
G1 X71.9413 Y9.2813
G1 X72.0828 Y9.2304
G1 X72.2212 Y9.1704
G1 X72.3555 Y9.102
G1 X72.4853 Y9.0252
G1 X72.6101 Y8.9404
G1 X72.7288 Y8.8484
G1 X72.8418 Y8.7487
G1 X72.9487 Y8.6418
G1 X73.0484 Y8.5288
G1 X73.1405 Y8.4101
G1 X73.2252 Y8.2854
G1 X73.302 Y8.1556
G1 X73.3705 Y8.0212
G1 X73.4304 Y7.8828
G1 X73.4813 Y7.7414
G1 X73.5233 Y7.5967
G1 X73.5562 Y7.4493
G1 X73.5798 Y7.3006
G1 X73.594 Y7.1507
G1 X73.5987 Y7.0
G1 X73.594 Y6.8493
G1 X73.5798 Y6.6994
G1 X73.5562 Y6.5507
G1 X73.5233 Y6.4033
G1 X73.4813 Y6.2586
G1 X73.4304 Y6.1172
G1 X73.3705 Y5.9788
G1 X73.302 Y5.8444
G1 X73.2252 Y5.7146
G1 X73.1405 Y5.5899
G1 X73.0484 Y5.4711
G1 X72.9487 Y5.3581
G1 X72.842 Y5.2514
G1 X72.7289 Y5.1517
G1 X72.6099 Y5.0594
G1 X72.4852 Y4.9746
G1 X72.3555 Y4.8979
G1 X72.2214 Y4.8296
G1 X72.083 Y4.7697
G1 X71.9411 Y4.7187
G1 X71.7966 Y4.6766
G1 X71.6495 Y4.6438
G1 X71.5007 Y4.6202
G1 X71.3507 Y4.606
G1 X71.2 Y4.6013
G1 X71.0493 Y4.606
G1 X70.8993 Y4.6202
G1 X70.7506 Y4.6438
G1 X70.6892 Y4.6575
G1 F150.0 X70.5147 Y3.8768
G1 F400.0 X70.4045 Y3.9014
G1 X70.2114 Y3.9575
G1 X70.0223 Y4.0255
G1 X69.8378 Y4.1054
G1 X69.6588 Y4.1966
G1 X69.4859 Y4.2989
G1 X69.3196 Y4.4119
G1 X69.1609 Y4.535
G1 X69.0101 Y4.6679
G1 X68.8679 Y4.8102
G1 X68.7349 Y4.9609
G1 X68.612 Y5.1195
G1 X68.499 Y5.2857
G1 X68.3966 Y5.4588
G1 X68.3053 Y5.638
G1 X68.2255 Y5.8225
G1 X68.1575 Y6.0113
G1 X68.1014 Y6.2043
G1 X68.0576 Y6.4007
G1 X68.0261 Y6.599
G1 X68.0072 Y6.7991
G1 X68.0009 Y7.0
G1 X68.0072 Y7.2009
G1 X68.0261 Y7.401
G1 X68.0576 Y7.5993
G1 X68.1014 Y7.7957
G1 X68.1575 Y7.9887
G1 X68.2255 Y8.1775
G1 X68.3053 Y8.362
G1 X68.3966 Y8.5412
G1 X68.499 Y8.7143
G1 X68.6119 Y8.8805
G1 X68.7349 Y9.039
G1 X68.8679 Y9.1898
G1 X69.0102 Y9.3321
G1 X69.1609 Y9.4651
G1 X69.3195 Y9.588
G1 X69.4858 Y9.701
G1 X69.6588 Y9.8034
G1 X69.8379 Y9.8946
G1 X70.0225 Y9.9745
G1 X70.2113 Y10.0425
G1 X70.4043 Y10.0985
G1 X70.6007 Y10.1424
G1 X70.799 Y10.1739
G1 X70.999 Y10.1928
G1 X71.2 Y10.1991
G1 X71.401 Y10.1928
G1 X71.601 Y10.1739
G1 X71.7993 Y10.1424
G1 X71.9958 Y10.0985
G1 X72.1886 Y10.0425
G1 X72.3775 Y9.9745
G1 X72.5621 Y9.8946
G1 X72.7412 Y9.8034
G1 X72.9142 Y9.701
G1 X73.0805 Y9.588
G1 X73.2391 Y9.4651
G1 X73.3898 Y9.3321
G1 X73.5321 Y9.1898
G1 X73.6651 Y9.039
G1 X73.7881 Y8.8805
G1 X73.901 Y8.7143
G1 X74.0034 Y8.5412
G1 X74.0947 Y8.362
G1 X74.1745 Y8.1775
G1 X74.2425 Y7.9887
G1 X74.2986 Y7.7957
G1 X74.3424 Y7.5993
G1 X74.3739 Y7.401
G1 X74.3928 Y7.2009
G1 X74.3991 Y7.0
G1 X74.3928 Y6.7991
G1 X74.3739 Y6.599
G1 X74.3424 Y6.4007
G1 X74.2986 Y6.2043
G1 X74.2425 Y6.0113
G1 X74.1745 Y5.8225
G1 X74.0947 Y5.638
G1 X74.0034 Y5.4588
G1 X73.901 Y5.2857
G1 X73.788 Y5.1195
G1 X73.6651 Y4.9609
G1 X73.5321 Y4.8102
G1 X73.3899 Y4.6679
G1 X73.2391 Y4.535
G1 X73.0804 Y4.4119
G1 X72.9141 Y4.2989
G1 X72.7412 Y4.1966
G1 X72.5622 Y4.1054
G1 X72.3777 Y4.0255
G1 X72.1885 Y3.9574
G1 X71.9956 Y3.9014
G1 X71.7995 Y3.8576
G1 X71.601 Y3.8261
G1 X71.4009 Y3.8072
G1 X71.2 Y3.8009
G1 X70.9991 Y3.8072
G1 X70.799 Y3.8261
G1 X70.6006 Y3.8575
G1 X70.5147 Y3.8768
G1 F150.0 X70.3401 Y3.096
G1 F400.0 X70.2054 Y3.1261
G1 X69.9641 Y3.1962
G1 X69.7277 Y3.2814
G1 X69.4971 Y3.3811
G1 X69.2732 Y3.4952
G1 X69.057 Y3.6231
G1 X68.8492 Y3.7643
G1 X68.6507 Y3.9183
G1 X68.4622 Y4.0845
G1 X68.2845 Y4.2622
G1 X68.1183 Y4.4507
G1 X67.9644 Y4.6491
G1 X67.8232 Y4.8569
G1 X67.6952 Y5.0732
G1 X67.5811 Y5.2972
G1 X67.4813 Y5.5278
G1 X67.3962 Y5.764
G1 X67.3262 Y6.0053
G1 X67.2714 Y6.2506
G1 X67.232 Y6.4987
G1 X67.2084 Y6.7488
G1 X67.2005 Y7.0
G1 X67.2084 Y7.2512
G1 X67.232 Y7.5013
G1 X67.2714 Y7.7494
G1 X67.3262 Y7.9947
G1 X67.3962 Y8.236
G1 X67.4813 Y8.4722
G1 X67.5811 Y8.7028
G1 X67.6952 Y8.9268
G1 X67.8232 Y9.1431
G1 X67.9644 Y9.3509
G1 X68.1182 Y9.5493
G1 X68.2845 Y9.7377
G1 X68.4623 Y9.9155
G1 X68.6507 Y10.0818
G1 X68.8491 Y10.2356
G1 X69.057 Y10.3768
G1 X69.2732 Y10.5048
G1 X69.4971 Y10.6188
G1 X69.7278 Y10.7187
G1 X69.964 Y10.8038
G1 X70.2053 Y10.8738
G1 X70.4507 Y10.9286
G1 X70.6987 Y10.968
G1 X70.9488 Y10.9916
G1 X71.2 Y10.9995
G1 X71.4512 Y10.9916
G1 X71.7013 Y10.968
G1 X71.9494 Y10.9286
G1 X72.1948 Y10.8738
G1 X72.4359 Y10.8038
G1 X72.6722 Y10.7187
G1 X72.9029 Y10.6188
G1 X73.1268 Y10.5048
G1 X73.343 Y10.3768
G1 X73.5509 Y10.2356
G1 X73.7493 Y10.0818
G1 X73.9377 Y9.9155
G1 X74.1155 Y9.7377
G1 X74.2818 Y9.5493
G1 X74.4356 Y9.3509
G1 X74.5768 Y9.1431
G1 X74.7048 Y8.9268
G1 X74.8189 Y8.7028
G1 X74.9187 Y8.4722
G1 X75.0038 Y8.236
G1 X75.0738 Y7.9947
G1 X75.1286 Y7.7494
G1 X75.168 Y7.5013
G1 X75.1916 Y7.2512
G1 X75.1995 Y7.0
G1 X75.1916 Y6.7488
G1 X75.168 Y6.4987
G1 X75.1286 Y6.2506
G1 X75.0738 Y6.0053
G1 X75.0038 Y5.764
G1 X74.9187 Y5.5278
G1 X74.8189 Y5.2972
G1 X74.7048 Y5.0732
G1 X74.5768 Y4.8569
G1 X74.4356 Y4.6491
G1 X74.2817 Y4.4507
G1 X74.1155 Y4.2622
G1 X73.9378 Y4.0845
G1 X73.7493 Y3.9183
G1 X73.5508 Y3.7643
G1 X73.343 Y3.6231
G1 X73.1268 Y3.4952
G1 X72.9029 Y3.3811
G1 X72.6723 Y3.2814
G1 X72.4359 Y3.1962
G1 X72.1947 Y3.1261
G1 X71.9494 Y3.0713
G1 X71.7013 Y3.032
G1 X71.4512 Y3.0084
G1 X71.2 Y3.0005
G1 X70.9488 Y3.0084
G1 X70.6987 Y3.032
G1 X70.4506 Y3.0713
G1 X70.3401 Y3.096
G0 Z6.0
G0 X71.1255 Y6.6093
G0 Z3.2
G1 F150.0 Z2.2
G1 F400.0 X71.1011 Y6.6148 Z2.196
G1 X71.0771 Y6.6217 Z2.192
G1 X71.0536 Y6.6302 Z2.188
G1 X71.0305 Y6.6402 Z2.184
G1 X71.0085 Y6.6514 Z2.18
G1 X70.9871 Y6.6641 Z2.176
G1 X70.9662 Y6.6783 Z2.172
G1 X70.9466 Y6.6935 Z2.168
G1 X70.9279 Y6.71 Z2.164
G1 X70.9098 Y6.728 Z2.1599
G1 X70.8933 Y6.7467 Z2.1559
G1 X70.8785 Y6.7659 Z2.1521
G1 X70.8644 Y6.7866 Z2.148
G1 X70.8515 Y6.8084 Z2.144
G1 X70.84 Y6.8309 Z2.1399
G1 X70.8301 Y6.8539 Z2.1359
G1 X70.8218 Y6.8769 Z2.132
G1 X70.8149 Y6.9007 Z2.1281
G1 X70.8093 Y6.9258 Z2.1239
G1 X70.8054 Y6.9502 Z2.12
G1 X70.8031 Y6.9748 Z2.116
G1 X70.8023 Y7.0 Z2.112
G1 X70.8031 Y7.0252 Z2.108
G1 X70.8054 Y7.0498 Z2.104
G1 X70.8093 Y7.0742 Z2.1
G1 X70.8149 Y7.0993 Z2.0959
G1 X70.8218 Y7.1231 Z2.092
G1 X70.8301 Y7.1461 Z2.088
G1 X70.84 Y7.1691 Z2.084
G1 X70.8515 Y7.1916 Z2.08
G1 X70.8644 Y7.2134 Z2.0759
G1 X70.8784 Y7.2341 Z2.0719
G1 X70.8932 Y7.2531 Z2.0681
G1 X70.9098 Y7.2719 Z2.0641
G1 X70.9281 Y7.2902 Z2.0599
G1 X70.9468 Y7.3067 Z2.0559
G1 X70.9658 Y7.3215 Z2.0521
G1 X70.9868 Y7.3357 Z2.048
G1 X71.0085 Y7.3486 Z2.044
G1 X71.0308 Y7.3599 Z2.04
G1 X71.054 Y7.3699 Z2.0359
G1 X71.0768 Y7.3782 Z2.032
G1 X71.1007 Y7.3851 Z2.0281
G1 X71.1259 Y7.3907 Z2.0239
G1 X71.1502 Y7.3946 Z2.02
G1 X71.1748 Y7.3969 Z2.016
G1 X71.2 Y7.3977 Z2.012
G1 X71.2252 Y7.3969 Z2.008
G1 X71.2498 Y7.3946 Z2.004
G1 X71.2743 Y7.3907 Z2.0
G1 X71.2993 Y7.3851 Z1.9959
G1 X71.323 Y7.3783 Z1.992
G1 X71.346 Y7.3699 Z1.9881
G1 X71.3692 Y7.3599 Z1.984
G1 X71.3915 Y7.3486 Z1.98
G1 X71.4132 Y7.3357 Z1.976
G1 X71.4342 Y7.3215 Z1.9719
G1 X71.4532 Y7.3067 Z1.9681
G1 X71.4719 Y7.2902 Z1.9641
G1 X71.4902 Y7.2719 Z1.9599
G1 X71.5068 Y7.2531 Z1.9559
G1 X71.5216 Y7.2341 Z1.952
G1 X71.5356 Y7.2134 Z1.948
G1 X71.5485 Y7.1916 Z1.944
G1 X71.56 Y7.1691 Z1.9399
G1 X71.5699 Y7.1461 Z1.9359
G1 X71.5782 Y7.1231 Z1.932
G1 X71.5851 Y7.0993 Z1.928
G1 X71.5907 Y7.0742 Z1.9239
G1 X71.5946 Y7.0498 Z1.92
G1 X71.5969 Y7.0252 Z1.916
G1 X71.5977 Y7.0 Z1.912
G1 X71.5969 Y6.9748 Z1.908
G1 X71.5946 Y6.9502 Z1.904
G1 X71.5907 Y6.9258 Z1.9
G1 X71.5851 Y6.9007 Z1.8959
G1 X71.5782 Y6.8769 Z1.892
G1 X71.5699 Y6.8539 Z1.888
G1 X71.56 Y6.8309 Z1.884
G1 X71.5485 Y6.8084 Z1.88
G1 X71.5356 Y6.7866 Z1.8759
G1 X71.5215 Y6.7659 Z1.8719
G1 X71.5067 Y6.7467 Z1.868
G1 X71.4902 Y6.728 Z1.864
G1 X71.4721 Y6.71 Z1.86
G1 X71.4534 Y6.6935 Z1.856
G1 X71.4338 Y6.6783 Z1.852
G1 X71.4129 Y6.6641 Z1.848
G1 X71.3915 Y6.6514 Z1.844
G1 X71.3695 Y6.6402 Z1.84
G1 X71.3464 Y6.6302 Z1.836
G1 X71.3227 Y6.6217 Z1.832
G1 X71.2989 Y6.6148 Z1.828
G1 X71.2746 Y6.6093 Z1.824
G1 X71.2499 Y6.6054 Z1.82
G1 X71.225 Y6.6031 Z1.816
G1 X71.2 Y6.6023 Z1.812
G1 X71.175 Y6.6031 Z1.808
G1 X71.1501 Y6.6054 Z1.804
G1 X71.1255 Y6.6093 Z1.8
G1 F150.0 X71.0383 Y6.2189
G1 F400.0 X71.0016 Y6.2271
G1 X70.9534 Y6.2411
G1 X70.9063 Y6.2581
G1 X70.8601 Y6.2781
G1 X70.8157 Y6.3007
G1 X70.7726 Y6.3262
G1 X70.731 Y6.3545
G1 X70.6915 Y6.3851
G1 X70.6539 Y6.4183
G1 X70.6181 Y6.454
G1 X70.585 Y6.4916
G1 X70.5547 Y6.5307
G1 X70.5265 Y6.5722
G1 X70.5008 Y6.6156
G1 X70.4779 Y6.6605
G1 X70.458 Y6.7066
G1 X70.4412 Y6.7532
G1 X70.4272 Y6.8012
G1 X70.4162 Y6.8508
G1 X70.4084 Y6.9
G1 X70.4037 Y6.9497
G1 X70.4021 Y7.0
G1 X70.4037 Y7.0503
G1 X70.4084 Y7.1
G1 X70.4162 Y7.1492
G1 X70.4272 Y7.1988
G1 X70.4412 Y7.2468
G1 X70.458 Y7.2934
G1 X70.4779 Y7.3395
G1 X70.5008 Y7.3844
G1 X70.5265 Y7.4278
G1 X70.5547 Y7.4693
G1 X70.5849 Y7.5082
G1 X70.6181 Y7.5459
G1 X70.6541 Y7.5819
G1 X70.6917 Y7.615
G1 X70.7307 Y7.6453
G1 X70.7724 Y7.6736
G1 X70.8157 Y7.6993
G1 X70.8604 Y7.722
G1 X70.9066 Y7.742
G1 X70.9532 Y7.7588
G1 X71.0012 Y7.7727
G1 X71.0509 Y7.7838
G1 X71.1 Y7.7916
G1 X71.1497 Y7.7963
G1 X71.2 Y7.7979
G1 X71.2503 Y7.7963
G1 X71.3 Y7.7916
G1 X71.3493 Y7.7838
G1 X71.3988 Y7.7727
G1 X71.4466 Y7.7589
G1 X71.4934 Y7.742
G1 X71.5396 Y7.722
G1 X71.5843 Y7.6993
G1 X71.6276 Y7.6736
G1 X71.6693 Y7.6453
G1 X71.7083 Y7.615
G1 X71.7459 Y7.5819
G1 X71.7819 Y7.5459
G1 X71.8151 Y7.5082
G1 X71.8453 Y7.4693
G1 X71.8735 Y7.4278
G1 X71.8992 Y7.3844
G1 X71.9221 Y7.3395
G1 X71.942 Y7.2934
G1 X71.9588 Y7.2468
G1 X71.9728 Y7.1988
G1 X71.9838 Y7.1492
G1 X71.9916 Y7.1
G1 X71.9963 Y7.0503
G1 X71.9979 Y7.0
G1 X71.9963 Y6.9497
G1 X71.9916 Y6.9
G1 X71.9838 Y6.8508
G1 X71.9728 Y6.8012
G1 X71.9588 Y6.7532
G1 X71.942 Y6.7066
G1 X71.9221 Y6.6605
G1 X71.8992 Y6.6156
G1 X71.8735 Y6.5722
G1 X71.8453 Y6.5307
G1 X71.815 Y6.4916
G1 X71.7819 Y6.454
G1 X71.7461 Y6.4183
G1 X71.7085 Y6.3851
G1 X71.669 Y6.3545
G1 X71.6274 Y6.3262
G1 X71.5843 Y6.3007
G1 X71.5399 Y6.2781
G1 X71.4937 Y6.2581
G1 X71.4464 Y6.2411
G1 X71.3985 Y6.2271
G1 X71.3496 Y6.2162
G1 X71.3 Y6.2084
G1 X71.2501 Y6.2037
G1 X71.2 Y6.2021
G1 X71.1499 Y6.2037
G1 X71.1 Y6.2084
G1 X71.0505 Y6.2162
G1 X71.0383 Y6.2189
G1 F150.0 X70.8637 Y5.4382
G1 F400.0 X70.8025 Y5.4519
G1 X70.7061 Y5.4799
G1 X70.6116 Y5.5139
G1 X70.5194 Y5.5538
G1 X70.4301 Y5.5993
G1 X70.3437 Y5.6504
G1 X70.2605 Y5.707
G1 X70.1813 Y5.7684
G1 X70.106 Y5.8348
G1 X70.0347 Y5.9061
G1 X69.9683 Y5.9814
G1 X69.9071 Y6.0603
G1 X69.8506 Y6.1434
G1 X69.7994 Y6.23
G1 X69.7537 Y6.3197
G1 X69.7138 Y6.4119
G1 X69.6799 Y6.5059
G1 X69.652 Y6.6022
G1 X69.63 Y6.7007
G1 X69.6143 Y6.7997
G1 X69.6049 Y6.8995
G1 X69.6017 Y7.0
G1 X69.6049 Y7.1005
G1 X69.6143 Y7.2003
G1 X69.63 Y7.2993
G1 X69.652 Y7.3977
G1 X69.6799 Y7.4941
G1 X69.7138 Y7.5881
G1 X69.7537 Y7.6803
G1 X69.7994 Y7.77
G1 X69.8506 Y7.8566
G1 X69.9071 Y7.9397
G1 X69.9682 Y8.0185
G1 X70.0347 Y8.0938
G1 X70.1062 Y8.1653
G1 X70.1814 Y8.2317
G1 X70.2603 Y8.2929
G1 X70.3436 Y8.3494
G1 X70.4301 Y8.4006
G1 X70.5196 Y8.4462
G1 X70.6119 Y8.4862
G1 X70.7059 Y8.52
G1 X70.8022 Y8.548
G1 X70.9008 Y8.57
G1 X70.9997 Y8.5857
G1 X71.0994 Y8.5951
G1 X71.2 Y8.5983
G1 X71.3006 Y8.5951
G1 X71.4003 Y8.5857
G1 X71.4993 Y8.57
G1 X71.5978 Y8.548
G1 X71.694 Y8.5201
G1 X71.7881 Y8.4862
G1 X71.8804 Y8.4462
G1 X71.9699 Y8.4006
G1 X72.0564 Y8.3494
G1 X72.1397 Y8.2929
G1 X72.2186 Y8.2317
G1 X72.2938 Y8.1653
G1 X72.3653 Y8.0938
G1 X72.4318 Y8.0185
G1 X72.4929 Y7.9397
G1 X72.5494 Y7.8566
G1 X72.6006 Y7.77
G1 X72.6463 Y7.6803
G1 X72.6862 Y7.5881
G1 X72.7201 Y7.4941
G1 X72.748 Y7.3977
G1 X72.77 Y7.2993
G1 X72.7857 Y7.2003
G1 X72.7951 Y7.1005
G1 X72.7983 Y7.0
G1 X72.7951 Y6.8995
G1 X72.7857 Y6.7997
G1 X72.77 Y6.7007
G1 X72.748 Y6.6022
G1 X72.7201 Y6.5059
G1 X72.6862 Y6.4119
G1 X72.6463 Y6.3197
G1 X72.6006 Y6.23
G1 X72.5494 Y6.1434
G1 X72.4929 Y6.0603
G1 X72.4317 Y5.9814
G1 X72.3653 Y5.9061
G1 X72.294 Y5.8348
G1 X72.2187 Y5.7684
G1 X72.1395 Y5.707
G1 X72.0563 Y5.6504
G1 X71.9699 Y5.5993
G1 X71.8806 Y5.5538
G1 X71.7884 Y5.5139
G1 X71.6938 Y5.4799
G1 X71.5975 Y5.4519
G1 X71.4996 Y5.43
G1 X71.4004 Y5.4143
G1 X71.3004 Y5.4048
G1 X71.2 Y5.4017
G1 X71.0996 Y5.4048
G1 X70.9996 Y5.4143
G1 X70.9006 Y5.43
G1 X70.8637 Y5.4382
G1 F150.0 X70.6892 Y4.6575
G1 F400.0 X70.6035 Y4.6766
G1 X70.4587 Y4.7187
G1 X70.317 Y4.7697
G1 X70.1786 Y4.8296
G1 X70.0445 Y4.8979
G1 X69.9148 Y4.9746
G1 X69.7901 Y5.0594
G1 X69.6711 Y5.1517
G1 X69.558 Y5.2514
G1 X69.4513 Y5.3581
G1 X69.3516 Y5.4711
G1 X69.2595 Y5.5899
G1 X69.1748 Y5.7146
G1 X69.098 Y5.8444
G1 X69.0295 Y5.9788
G1 X68.9696 Y6.1172
G1 X68.9187 Y6.2586
G1 X68.8767 Y6.4033
G1 X68.8438 Y6.5507
G1 X68.8202 Y6.6994
G1 X68.806 Y6.8493
G1 X68.8013 Y7.0
G1 X68.806 Y7.1507
G1 X68.8202 Y7.3006
G1 X68.8438 Y7.4493
G1 X68.8767 Y7.5967
G1 X68.9187 Y7.7414
G1 X68.9696 Y7.8828
G1 X69.0295 Y8.0212
G1 X69.098 Y8.1556
G1 X69.1748 Y8.2854
G1 X69.2595 Y8.4101
G1 X69.3516 Y8.5288
G1 X69.4513 Y8.6418
G1 X69.5582 Y8.7487
G1 X69.6712 Y8.8484
G1 X69.7899 Y8.9404
G1 X69.9147 Y9.0252
G1 X70.0445 Y9.102
G1 X70.1788 Y9.1704
G1 X70.3172 Y9.2304
G1 X70.4586 Y9.2813
G1 X70.6033 Y9.3233
G1 X70.7508 Y9.3562
G1 X70.8994 Y9.3798
G1 X71.0492 Y9.394
G1 X71.2 Y9.3987
G1 X71.3508 Y9.394
G1 X71.5006 Y9.3798
G1 X71.6493 Y9.3562
G1 X71.7968 Y9.3233
G1 X71.9413 Y9.2813
G1 X72.0828 Y9.2304
G1 X72.2212 Y9.1704
G1 X72.3555 Y9.102
G1 X72.4853 Y9.0252
G1 X72.6101 Y8.9404
G1 X72.7288 Y8.8484
G1 X72.8418 Y8.7487
G1 X72.9487 Y8.6418
G1 X73.0484 Y8.5288
G1 X73.1405 Y8.4101
G1 X73.2252 Y8.2854
G1 X73.302 Y8.1556
G1 X73.3705 Y8.0212
G1 X73.4304 Y7.8828
G1 X73.4813 Y7.7414
G1 X73.5233 Y7.5967
G1 X73.5562 Y7.4493
G1 X73.5798 Y7.3006
G1 X73.594 Y7.1507
G1 X73.5987 Y7.0
G1 X73.594 Y6.8493
G1 X73.5798 Y6.6994
G1 X73.5562 Y6.5507
G1 X73.5233 Y6.4033
G1 X73.4813 Y6.2586
G1 X73.4304 Y6.1172
G1 X73.3705 Y5.9788
G1 X73.302 Y5.8444
G1 X73.2252 Y5.7146
G1 X73.1405 Y5.5899
G1 X73.0484 Y5.4711
G1 X72.9487 Y5.3581
G1 X72.842 Y5.2514
G1 X72.7289 Y5.1517
G1 X72.6099 Y5.0594
G1 X72.4852 Y4.9746
G1 X72.3555 Y4.8979
G1 X72.2214 Y4.8296
G1 X72.083 Y4.7697
G1 X71.9411 Y4.7187
G1 X71.7966 Y4.6766
G1 X71.6495 Y4.6438
G1 X71.5007 Y4.6202
G1 X71.3507 Y4.606
G1 X71.2 Y4.6013
G1 X71.0493 Y4.606
G1 X70.8993 Y4.6202
G1 X70.7506 Y4.6438
G1 X70.6892 Y4.6575
G1 F150.0 X70.5147 Y3.8768
G1 F400.0 X70.4045 Y3.9014
G1 X70.2114 Y3.9575
G1 X70.0223 Y4.0255
G1 X69.8378 Y4.1054
G1 X69.6588 Y4.1966
G1 X69.4859 Y4.2989
G1 X69.3196 Y4.4119
G1 X69.1609 Y4.535
G1 X69.0101 Y4.6679
G1 X68.8679 Y4.8102
G1 X68.7349 Y4.9609
G1 X68.612 Y5.1195
G1 X68.499 Y5.2857
G1 X68.3966 Y5.4588
G1 X68.3053 Y5.638
G1 X68.2255 Y5.8225
G1 X68.1575 Y6.0113
G1 X68.1014 Y6.2043
G1 X68.0576 Y6.4007
G1 X68.0261 Y6.599
G1 X68.0072 Y6.7991
G1 X68.0009 Y7.0
G1 X68.0072 Y7.2009
G1 X68.0261 Y7.401
G1 X68.0576 Y7.5993
G1 X68.1014 Y7.7957
G1 X68.1575 Y7.9887
G1 X68.2255 Y8.1775
G1 X68.3053 Y8.362
G1 X68.3966 Y8.5412
G1 X68.499 Y8.7143
G1 X68.6119 Y8.8805
G1 X68.7349 Y9.039
G1 X68.8679 Y9.1898
G1 X69.0102 Y9.3321
G1 X69.1609 Y9.4651
G1 X69.3195 Y9.588
G1 X69.4858 Y9.701
G1 X69.6588 Y9.8034
G1 X69.8379 Y9.8946
G1 X70.0225 Y9.9745
G1 X70.2113 Y10.0425
G1 X70.4043 Y10.0985
G1 X70.6007 Y10.1424
G1 X70.799 Y10.1739
G1 X70.999 Y10.1928
G1 X71.2 Y10.1991
G1 X71.401 Y10.1928
G1 X71.601 Y10.1739
G1 X71.7993 Y10.1424
G1 X71.9958 Y10.0985
G1 X72.1886 Y10.0425
G1 X72.3775 Y9.9745
G1 X72.5621 Y9.8946
G1 X72.7412 Y9.8034
G1 X72.9142 Y9.701
G1 X73.0805 Y9.588
G1 X73.2391 Y9.4651
G1 X73.3898 Y9.3321
G1 X73.5321 Y9.1898
G1 X73.6651 Y9.039
G1 X73.7881 Y8.8805
G1 X73.901 Y8.7143
G1 X74.0034 Y8.5412
G1 X74.0947 Y8.362
G1 X74.1745 Y8.1775
G1 X74.2425 Y7.9887
G1 X74.2986 Y7.7957
G1 X74.3424 Y7.5993
G1 X74.3739 Y7.401
G1 X74.3928 Y7.2009
G1 X74.3991 Y7.0
G1 X74.3928 Y6.7991
G1 X74.3739 Y6.599
G1 X74.3424 Y6.4007
G1 X74.2986 Y6.2043
G1 X74.2425 Y6.0113
G1 X74.1745 Y5.8225
G1 X74.0947 Y5.638
G1 X74.0034 Y5.4588
G1 X73.901 Y5.2857
G1 X73.788 Y5.1195
G1 X73.6651 Y4.9609
G1 X73.5321 Y4.8102
G1 X73.3899 Y4.6679
G1 X73.2391 Y4.535
G1 X73.0804 Y4.4119
G1 X72.9141 Y4.2989
G1 X72.7412 Y4.1966
G1 X72.5622 Y4.1054
G1 X72.3777 Y4.0255
G1 X72.1885 Y3.9574
G1 X71.9956 Y3.9014
G1 X71.7995 Y3.8576
G1 X71.601 Y3.8261
G1 X71.4009 Y3.8072
G1 X71.2 Y3.8009
G1 X70.9991 Y3.8072
G1 X70.799 Y3.8261
G1 X70.6006 Y3.8575
G1 X70.5147 Y3.8768
G1 F150.0 X70.3401 Y3.096
G1 F400.0 X70.2054 Y3.1261
G1 X69.9641 Y3.1962
G1 X69.7277 Y3.2814
G1 X69.4971 Y3.3811
G1 X69.2732 Y3.4952
G1 X69.057 Y3.6231
G1 X68.8492 Y3.7643
G1 X68.6507 Y3.9183
G1 X68.4622 Y4.0845
G1 X68.2845 Y4.2622
G1 X68.1183 Y4.4507
G1 X67.9644 Y4.6491
G1 X67.8232 Y4.8569
G1 X67.6952 Y5.0732
G1 X67.5811 Y5.2972
G1 X67.4813 Y5.5278
G1 X67.3962 Y5.764
G1 X67.3262 Y6.0053
G1 X67.2714 Y6.2506
G1 X67.232 Y6.4987
G1 X67.2084 Y6.7488
G1 X67.2005 Y7.0
G1 X67.2084 Y7.2512
G1 X67.232 Y7.5013
G1 X67.2714 Y7.7494
G1 X67.3262 Y7.9947
G1 X67.3962 Y8.236
G1 X67.4813 Y8.4722
G1 X67.5811 Y8.7028
G1 X67.6952 Y8.9268
G1 X67.8232 Y9.1431
G1 X67.9644 Y9.3509
G1 X68.1182 Y9.5493
G1 X68.2845 Y9.7377
G1 X68.4623 Y9.9155
G1 X68.6507 Y10.0818
G1 X68.8491 Y10.2356
G1 X69.057 Y10.3768
G1 X69.2732 Y10.5048
G1 X69.4971 Y10.6188
G1 X69.7278 Y10.7187
G1 X69.964 Y10.8038
G1 X70.2053 Y10.8738
G1 X70.4507 Y10.9286
G1 X70.6987 Y10.968
G1 X70.9488 Y10.9916
G1 X71.2 Y10.9995
G1 X71.4512 Y10.9916
G1 X71.7013 Y10.968
G1 X71.9494 Y10.9286
G1 X72.1948 Y10.8738
G1 X72.4359 Y10.8038
G1 X72.6722 Y10.7187
G1 X72.9029 Y10.6188
G1 X73.1268 Y10.5048
G1 X73.343 Y10.3768
G1 X73.5509 Y10.2356
G1 X73.7493 Y10.0818
G1 X73.9377 Y9.9155
G1 X74.1155 Y9.7377
G1 X74.2818 Y9.5493
G1 X74.4356 Y9.3509
G1 X74.5768 Y9.1431
G1 X74.7048 Y8.9268
G1 X74.8189 Y8.7028
G1 X74.9187 Y8.4722
G1 X75.0038 Y8.236
G1 X75.0738 Y7.9947
G1 X75.1286 Y7.7494
G1 X75.168 Y7.5013
G1 X75.1916 Y7.2512
G1 X75.1995 Y7.0
G1 X75.1916 Y6.7488
G1 X75.168 Y6.4987
G1 X75.1286 Y6.2506
G1 X75.0738 Y6.0053
G1 X75.0038 Y5.764
G1 X74.9187 Y5.5278
G1 X74.8189 Y5.2972
G1 X74.7048 Y5.0732
G1 X74.5768 Y4.8569
G1 X74.4356 Y4.6491
G1 X74.2817 Y4.4507
G1 X74.1155 Y4.2622
G1 X73.9378 Y4.0845
G1 X73.7493 Y3.9183
G1 X73.5508 Y3.7643
G1 X73.343 Y3.6231
G1 X73.1268 Y3.4952
G1 X72.9029 Y3.3811
G1 X72.6723 Y3.2814
G1 X72.4359 Y3.1962
G1 X72.1947 Y3.1261
G1 X71.9494 Y3.0713
G1 X71.7013 Y3.032
G1 X71.4512 Y3.0084
G1 X71.2 Y3.0005
G1 X70.9488 Y3.0084
G1 X70.6987 Y3.032
G1 X70.4506 Y3.0713
G1 X70.3401 Y3.096
G0 Z6.0
G0 X71.1255 Y6.6093
G1 F150.0 Z1.8
G1 F400.0 X71.1011 Y6.6148 Z1.796
G1 X71.0771 Y6.6217 Z1.792
G1 X71.0536 Y6.6302 Z1.788
G1 X71.0305 Y6.6402 Z1.784
G1 X71.0085 Y6.6514 Z1.78
G1 X70.9871 Y6.6641 Z1.776
G1 X70.9662 Y6.6783 Z1.772
G1 X70.9466 Y6.6935 Z1.768
G1 X70.9279 Y6.71 Z1.764
G1 X70.9098 Y6.728 Z1.7599
G1 X70.8933 Y6.7467 Z1.7559
G1 X70.8785 Y6.7659 Z1.7521
G1 X70.8644 Y6.7866 Z1.748
G1 X70.8515 Y6.8084 Z1.744
G1 X70.84 Y6.8309 Z1.7399
G1 X70.8301 Y6.8539 Z1.7359
G1 X70.8218 Y6.8769 Z1.732
G1 X70.8149 Y6.9007 Z1.7281
G1 X70.8093 Y6.9258 Z1.7239
G1 X70.8054 Y6.9502 Z1.72
G1 X70.8031 Y6.9748 Z1.716
G1 X70.8023 Y7.0 Z1.712
G1 X70.8031 Y7.0252 Z1.708
G1 X70.8054 Y7.0498 Z1.704
G1 X70.8093 Y7.0742 Z1.7
G1 X70.8149 Y7.0993 Z1.6959
G1 X70.8218 Y7.1231 Z1.692
G1 X70.8301 Y7.1461 Z1.688
G1 X70.84 Y7.1691 Z1.684
G1 X70.8515 Y7.1916 Z1.68
G1 X70.8644 Y7.2134 Z1.6759
G1 X70.8784 Y7.2341 Z1.6719
G1 X70.8932 Y7.2531 Z1.6681
G1 X70.9098 Y7.2719 Z1.6641
G1 X70.9281 Y7.2902 Z1.6599
G1 X70.9468 Y7.3067 Z1.6559
G1 X70.9658 Y7.3215 Z1.6521
G1 X70.9868 Y7.3357 Z1.648
G1 X71.0085 Y7.3486 Z1.644
G1 X71.0308 Y7.3599 Z1.64
G1 X71.054 Y7.3699 Z1.6359
G1 X71.0768 Y7.3782 Z1.632
G1 X71.1007 Y7.3851 Z1.6281
G1 X71.1259 Y7.3907 Z1.6239
G1 X71.1502 Y7.3946 Z1.62
G1 X71.1748 Y7.3969 Z1.616
G1 X71.2 Y7.3977 Z1.612
G1 X71.2252 Y7.3969 Z1.608
G1 X71.2498 Y7.3946 Z1.604
G1 X71.2743 Y7.3907 Z1.6
G1 X71.2993 Y7.3851 Z1.5959
G1 X71.323 Y7.3783 Z1.592
G1 X71.346 Y7.3699 Z1.5881
G1 X71.3692 Y7.3599 Z1.584
G1 X71.3915 Y7.3486 Z1.58
G1 X71.4132 Y7.3357 Z1.576
G1 X71.4342 Y7.3215 Z1.5719
G1 X71.4532 Y7.3067 Z1.5681
G1 X71.4719 Y7.2902 Z1.5641
G1 X71.4902 Y7.2719 Z1.5599
G1 X71.5068 Y7.2531 Z1.5559
G1 X71.5216 Y7.2341 Z1.552
G1 X71.5356 Y7.2134 Z1.548
G1 X71.5485 Y7.1916 Z1.544
G1 X71.56 Y7.1691 Z1.5399
G1 X71.5699 Y7.1461 Z1.5359
G1 X71.5782 Y7.1231 Z1.532
G1 X71.5851 Y7.0993 Z1.528
G1 X71.5907 Y7.0742 Z1.5239
G1 X71.5946 Y7.0498 Z1.52
G1 X71.5969 Y7.0252 Z1.516
G1 X71.5977 Y7.0 Z1.512
G1 X71.5969 Y6.9748 Z1.508
G1 X71.5946 Y6.9502 Z1.504
G1 X71.5907 Y6.9258 Z1.5
G1 X71.5851 Y6.9007 Z1.4959
G1 X71.5782 Y6.8769 Z1.492
G1 X71.5699 Y6.8539 Z1.488
G1 X71.56 Y6.8309 Z1.484
G1 X71.5485 Y6.8084 Z1.48
G1 X71.5356 Y6.7866 Z1.4759
G1 X71.5215 Y6.7659 Z1.4719
G1 X71.5067 Y6.7467 Z1.468
G1 X71.4902 Y6.728 Z1.464
G1 X71.4721 Y6.71 Z1.46
G1 X71.4534 Y6.6935 Z1.456
G1 X71.4338 Y6.6783 Z1.452
G1 X71.4129 Y6.6641 Z1.448
G1 X71.3915 Y6.6514 Z1.444
G1 X71.3695 Y6.6402 Z1.44
G1 X71.3464 Y6.6302 Z1.436
G1 X71.3227 Y6.6217 Z1.432
G1 X71.2989 Y6.6148 Z1.428
G1 X71.2746 Y6.6093 Z1.424
G1 X71.2499 Y6.6054 Z1.42
G1 X71.225 Y6.6031 Z1.416
G1 X71.2 Y6.6023 Z1.412
G1 X71.175 Y6.6031 Z1.408
G1 X71.1501 Y6.6054 Z1.404
G1 X71.1255 Y6.6093 Z1.4
G1 F150.0 X71.0383 Y6.2189
G1 F400.0 X71.0016 Y6.2271
G1 X70.9534 Y6.2411
G1 X70.9063 Y6.2581
G1 X70.8601 Y6.2781
G1 X70.8157 Y6.3007
G1 X70.7726 Y6.3262
G1 X70.731 Y6.3545
G1 X70.6915 Y6.3851
G1 X70.6539 Y6.4183
G1 X70.6181 Y6.454
G1 X70.585 Y6.4916
G1 X70.5547 Y6.5307
G1 X70.5265 Y6.5722
G1 X70.5008 Y6.6156
G1 X70.4779 Y6.6605
G1 X70.458 Y6.7066
G1 X70.4412 Y6.7532
G1 X70.4272 Y6.8012
G1 X70.4162 Y6.8508
G1 X70.4084 Y6.9
G1 X70.4037 Y6.9497
G1 X70.4021 Y7.0
G1 X70.4037 Y7.0503
G1 X70.4084 Y7.1
G1 X70.4162 Y7.1492
G1 X70.4272 Y7.1988
G1 X70.4412 Y7.2468
G1 X70.458 Y7.2934
G1 X70.4779 Y7.3395
G1 X70.5008 Y7.3844
G1 X70.5265 Y7.4278
G1 X70.5547 Y7.4693
G1 X70.5849 Y7.5082
G1 X70.6181 Y7.5459
G1 X70.6541 Y7.5819
G1 X70.6917 Y7.615
G1 X70.7307 Y7.6453
G1 X70.7724 Y7.6736
G1 X70.8157 Y7.6993
G1 X70.8604 Y7.722
G1 X70.9066 Y7.742
G1 X70.9532 Y7.7588
G1 X71.0012 Y7.7727
G1 X71.0509 Y7.7838
G1 X71.1 Y7.7916
G1 X71.1497 Y7.7963
G1 X71.2 Y7.7979
G1 X71.2503 Y7.7963
G1 X71.3 Y7.7916
G1 X71.3493 Y7.7838
G1 X71.3988 Y7.7727
G1 X71.4466 Y7.7589
G1 X71.4934 Y7.742
G1 X71.5396 Y7.722
G1 X71.5843 Y7.6993
G1 X71.6276 Y7.6736
G1 X71.6693 Y7.6453
G1 X71.7083 Y7.615
G1 X71.7459 Y7.5819
G1 X71.7819 Y7.5459
G1 X71.8151 Y7.5082
G1 X71.8453 Y7.4693
G1 X71.8735 Y7.4278
G1 X71.8992 Y7.3844
G1 X71.9221 Y7.3395
G1 X71.942 Y7.2934
G1 X71.9588 Y7.2468
G1 X71.9728 Y7.1988
G1 X71.9838 Y7.1492
G1 X71.9916 Y7.1
G1 X71.9963 Y7.0503
G1 X71.9979 Y7.0
G1 X71.9963 Y6.9497
G1 X71.9916 Y6.9
G1 X71.9838 Y6.8508
G1 X71.9728 Y6.8012
G1 X71.9588 Y6.7532
G1 X71.942 Y6.7066
G1 X71.9221 Y6.6605
G1 X71.8992 Y6.6156
G1 X71.8735 Y6.5722
G1 X71.8453 Y6.5307
G1 X71.815 Y6.4916
G1 X71.7819 Y6.454
G1 X71.7461 Y6.4183
G1 X71.7085 Y6.3851
G1 X71.669 Y6.3545
G1 X71.6274 Y6.3262
G1 X71.5843 Y6.3007
G1 X71.5399 Y6.2781
G1 X71.4937 Y6.2581
G1 X71.4464 Y6.2411
G1 X71.3985 Y6.2271
G1 X71.3496 Y6.2162
G1 X71.3 Y6.2084
G1 X71.2501 Y6.2037
G1 X71.2 Y6.2021
G1 X71.1499 Y6.2037
G1 X71.1 Y6.2084
G1 X71.0505 Y6.2162
G1 X71.0383 Y6.2189
G1 F150.0 X70.8637 Y5.4382
G1 F400.0 X70.8025 Y5.4519
G1 X70.7061 Y5.4799
G1 X70.6116 Y5.5139
G1 X70.5194 Y5.5538
G1 X70.4301 Y5.5993
G1 X70.3437 Y5.6504
G1 X70.2605 Y5.707
G1 X70.1813 Y5.7684
G1 X70.106 Y5.8348
G1 X70.0347 Y5.9061
G1 X69.9683 Y5.9814
G1 X69.9071 Y6.0603
G1 X69.8506 Y6.1434
G1 X69.7994 Y6.23
G1 X69.7537 Y6.3197
G1 X69.7138 Y6.4119
G1 X69.6799 Y6.5059
G1 X69.652 Y6.6022
G1 X69.63 Y6.7007
G1 X69.6143 Y6.7997
G1 X69.6049 Y6.8995
G1 X69.6017 Y7.0
G1 X69.6049 Y7.1005
G1 X69.6143 Y7.2003
G1 X69.63 Y7.2993
G1 X69.652 Y7.3977
G1 X69.6799 Y7.4941
G1 X69.7138 Y7.5881
G1 X69.7537 Y7.6803
G1 X69.7994 Y7.77
G1 X69.8506 Y7.8566
G1 X69.9071 Y7.9397
G1 X69.9682 Y8.0185
G1 X70.0347 Y8.0938
G1 X70.1062 Y8.1653
G1 X70.1814 Y8.2317
G1 X70.2603 Y8.2929
G1 X70.3436 Y8.3494
G1 X70.4301 Y8.4006
G1 X70.5196 Y8.4462
G1 X70.6119 Y8.4862
G1 X70.7059 Y8.52
G1 X70.8022 Y8.548
G1 X70.9008 Y8.57
G1 X70.9997 Y8.5857
G1 X71.0994 Y8.5951
G1 X71.2 Y8.5983
G1 X71.3006 Y8.5951
G1 X71.4003 Y8.5857
G1 X71.4993 Y8.57
G1 X71.5978 Y8.548
G1 X71.694 Y8.5201
G1 X71.7881 Y8.4862
G1 X71.8804 Y8.4462
G1 X71.9699 Y8.4006
G1 X72.0564 Y8.3494
G1 X72.1397 Y8.2929
G1 X72.2186 Y8.2317
G1 X72.2938 Y8.1653
G1 X72.3653 Y8.0938
G1 X72.4318 Y8.0185
G1 X72.4929 Y7.9397
G1 X72.5494 Y7.8566
G1 X72.6006 Y7.77
G1 X72.6463 Y7.6803
G1 X72.6862 Y7.5881
G1 X72.7201 Y7.4941
G1 X72.748 Y7.3977
G1 X72.77 Y7.2993
G1 X72.7857 Y7.2003
G1 X72.7951 Y7.1005
G1 X72.7983 Y7.0
G1 X72.7951 Y6.8995
G1 X72.7857 Y6.7997
G1 X72.77 Y6.7007
G1 X72.748 Y6.6022
G1 X72.7201 Y6.5059
G1 X72.6862 Y6.4119
G1 X72.6463 Y6.3197
G1 X72.6006 Y6.23
G1 X72.5494 Y6.1434
G1 X72.4929 Y6.0603
G1 X72.4317 Y5.9814
G1 X72.3653 Y5.9061
G1 X72.294 Y5.8348
G1 X72.2187 Y5.7684
G1 X72.1395 Y5.707
G1 X72.0563 Y5.6504
G1 X71.9699 Y5.5993
G1 X71.8806 Y5.5538
G1 X71.7884 Y5.5139
G1 X71.6938 Y5.4799
G1 X71.5975 Y5.4519
G1 X71.4996 Y5.43
G1 X71.4004 Y5.4143
G1 X71.3004 Y5.4048
G1 X71.2 Y5.4017
G1 X71.0996 Y5.4048
G1 X70.9996 Y5.4143
G1 X70.9006 Y5.43
G1 X70.8637 Y5.4382
G1 F150.0 X70.6892 Y4.6575
G1 F400.0 X70.6035 Y4.6766
G1 X70.4587 Y4.7187
G1 X70.317 Y4.7697
G1 X70.1786 Y4.8296
G1 X70.0445 Y4.8979
G1 X69.9148 Y4.9746
G1 X69.7901 Y5.0594
G1 X69.6711 Y5.1517
G1 X69.558 Y5.2514
G1 X69.4513 Y5.3581
G1 X69.3516 Y5.4711
G1 X69.2595 Y5.5899
G1 X69.1748 Y5.7146
G1 X69.098 Y5.8444
G1 X69.0295 Y5.9788
G1 X68.9696 Y6.1172
G1 X68.9187 Y6.2586
G1 X68.8767 Y6.4033
G1 X68.8438 Y6.5507
G1 X68.8202 Y6.6994
G1 X68.806 Y6.8493
G1 X68.8013 Y7.0
G1 X68.806 Y7.1507
G1 X68.8202 Y7.3006
G1 X68.8438 Y7.4493
G1 X68.8767 Y7.5967
G1 X68.9187 Y7.7414
G1 X68.9696 Y7.8828
G1 X69.0295 Y8.0212
G1 X69.098 Y8.1556
G1 X69.1748 Y8.2854
G1 X69.2595 Y8.4101
G1 X69.3516 Y8.5288
G1 X69.4513 Y8.6418
G1 X69.5582 Y8.7487
G1 X69.6712 Y8.8484
G1 X69.7899 Y8.9404
G1 X69.9147 Y9.0252
G1 X70.0445 Y9.102
G1 X70.1788 Y9.1704
G1 X70.3172 Y9.2304
G1 X70.4586 Y9.2813
G1 X70.6033 Y9.3233
G1 X70.7508 Y9.3562
G1 X70.8994 Y9.3798
G1 X71.0492 Y9.394
G1 X71.2 Y9.3987
G1 X71.3508 Y9.394
G1 X71.5006 Y9.3798
G1 X71.6493 Y9.3562
G1 X71.7968 Y9.3233
G1 X71.9413 Y9.2813
G1 X72.0828 Y9.2304
G1 X72.2212 Y9.1704
G1 X72.3555 Y9.102
G1 X72.4853 Y9.0252
G1 X72.6101 Y8.9404
G1 X72.7288 Y8.8484
G1 X72.8418 Y8.7487
G1 X72.9487 Y8.6418
G1 X73.0484 Y8.5288
G1 X73.1405 Y8.4101
G1 X73.2252 Y8.2854
G1 X73.302 Y8.1556
G1 X73.3705 Y8.0212
G1 X73.4304 Y7.8828
G1 X73.4813 Y7.7414
G1 X73.5233 Y7.5967
G1 X73.5562 Y7.4493
G1 X73.5798 Y7.3006
G1 X73.594 Y7.1507
G1 X73.5987 Y7.0
G1 X73.594 Y6.8493
G1 X73.5798 Y6.6994
G1 X73.5562 Y6.5507
G1 X73.5233 Y6.4033
G1 X73.4813 Y6.2586
G1 X73.4304 Y6.1172
G1 X73.3705 Y5.9788
G1 X73.302 Y5.8444
G1 X73.2252 Y5.7146
G1 X73.1405 Y5.5899
G1 X73.0484 Y5.4711
G1 X72.9487 Y5.3581
G1 X72.842 Y5.2514
G1 X72.7289 Y5.1517
G1 X72.6099 Y5.0594
G1 X72.4852 Y4.9746
G1 X72.3555 Y4.8979
G1 X72.2214 Y4.8296
G1 X72.083 Y4.7697
G1 X71.9411 Y4.7187
G1 X71.7966 Y4.6766
G1 X71.6495 Y4.6438
G1 X71.5007 Y4.6202
G1 X71.3507 Y4.606
G1 X71.2 Y4.6013
G1 X71.0493 Y4.606
G1 X70.8993 Y4.6202
G1 X70.7506 Y4.6438
G1 X70.6892 Y4.6575
G1 F150.0 X70.5147 Y3.8768
G1 F400.0 X70.4045 Y3.9014
G1 X70.2114 Y3.9575
G1 X70.0223 Y4.0255
G1 X69.8378 Y4.1054
G1 X69.6588 Y4.1966
G1 X69.4859 Y4.2989
G1 X69.3196 Y4.4119
G1 X69.1609 Y4.535
G1 X69.0101 Y4.6679
G1 X68.8679 Y4.8102
G1 X68.7349 Y4.9609
G1 X68.612 Y5.1195
G1 X68.499 Y5.2857
G1 X68.3966 Y5.4588
G1 X68.3053 Y5.638
G1 X68.2255 Y5.8225
G1 X68.1575 Y6.0113
G1 X68.1014 Y6.2043
G1 X68.0576 Y6.4007
G1 X68.0261 Y6.599
G1 X68.0072 Y6.7991
G1 X68.0009 Y7.0
G1 X68.0072 Y7.2009
G1 X68.0261 Y7.401
G1 X68.0576 Y7.5993
G1 X68.1014 Y7.7957
G1 X68.1575 Y7.9887
G1 X68.2255 Y8.1775
G1 X68.3053 Y8.362
G1 X68.3966 Y8.5412
G1 X68.499 Y8.7143
G1 X68.6119 Y8.8805
G1 X68.7349 Y9.039
G1 X68.8679 Y9.1898
G1 X69.0102 Y9.3321
G1 X69.1609 Y9.4651
G1 X69.3195 Y9.588
G1 X69.4858 Y9.701
G1 X69.6588 Y9.8034
G1 X69.8379 Y9.8946
G1 X70.0225 Y9.9745
G1 X70.2113 Y10.0425
G1 X70.4043 Y10.0985
G1 X70.6007 Y10.1424
G1 X70.799 Y10.1739
G1 X70.999 Y10.1928
G1 X71.2 Y10.1991
G1 X71.401 Y10.1928
G1 X71.601 Y10.1739
G1 X71.7993 Y10.1424
G1 X71.9958 Y10.0985
G1 X72.1886 Y10.0425
G1 X72.3775 Y9.9745
G1 X72.5621 Y9.8946
G1 X72.7412 Y9.8034
G1 X72.9142 Y9.701
G1 X73.0805 Y9.588
G1 X73.2391 Y9.4651
G1 X73.3898 Y9.3321
G1 X73.5321 Y9.1898
G1 X73.6651 Y9.039
G1 X73.7881 Y8.8805
G1 X73.901 Y8.7143
G1 X74.0034 Y8.5412
G1 X74.0947 Y8.362
G1 X74.1745 Y8.1775
G1 X74.2425 Y7.9887
G1 X74.2986 Y7.7957
G1 X74.3424 Y7.5993
G1 X74.3739 Y7.401
G1 X74.3928 Y7.2009
G1 X74.3991 Y7.0
G1 X74.3928 Y6.7991
G1 X74.3739 Y6.599
G1 X74.3424 Y6.4007
G1 X74.2986 Y6.2043
G1 X74.2425 Y6.0113
G1 X74.1745 Y5.8225
G1 X74.0947 Y5.638
G1 X74.0034 Y5.4588
G1 X73.901 Y5.2857
G1 X73.788 Y5.1195
G1 X73.6651 Y4.9609
G1 X73.5321 Y4.8102
G1 X73.3899 Y4.6679
G1 X73.2391 Y4.535
G1 X73.0804 Y4.4119
G1 X72.9141 Y4.2989
G1 X72.7412 Y4.1966
G1 X72.5622 Y4.1054
G1 X72.3777 Y4.0255
G1 X72.1885 Y3.9574
G1 X71.9956 Y3.9014
G1 X71.7995 Y3.8576
G1 X71.601 Y3.8261
G1 X71.4009 Y3.8072
G1 X71.2 Y3.8009
G1 X70.9991 Y3.8072
G1 X70.799 Y3.8261
G1 X70.6006 Y3.8575
G1 X70.5147 Y3.8768
G1 F150.0 X70.3401 Y3.096
G1 F400.0 X70.2054 Y3.1261
G1 X69.9641 Y3.1962
G1 X69.7277 Y3.2814
G1 X69.4971 Y3.3811
G1 X69.2732 Y3.4952
G1 X69.057 Y3.6231
G1 X68.8492 Y3.7643
G1 X68.6507 Y3.9183
G1 X68.4622 Y4.0845
G1 X68.2845 Y4.2622
G1 X68.1183 Y4.4507
G1 X67.9644 Y4.6491
G1 X67.8232 Y4.8569
G1 X67.6952 Y5.0732
G1 X67.5811 Y5.2972
G1 X67.4813 Y5.5278
G1 X67.3962 Y5.764
G1 X67.3262 Y6.0053
G1 X67.2714 Y6.2506
G1 X67.232 Y6.4987
G1 X67.2084 Y6.7488
G1 X67.2005 Y7.0
G1 X67.2084 Y7.2512
G1 X67.232 Y7.5013
G1 X67.2714 Y7.7494
G1 X67.3262 Y7.9947
G1 X67.3962 Y8.236
G1 X67.4813 Y8.4722
G1 X67.5811 Y8.7028
G1 X67.6952 Y8.9268
G1 X67.8232 Y9.1431
G1 X67.9644 Y9.3509
G1 X68.1182 Y9.5493
G1 X68.2845 Y9.7377
G1 X68.4623 Y9.9155
G1 X68.6507 Y10.0818
G1 X68.8491 Y10.2356
G1 X69.057 Y10.3768
G1 X69.2732 Y10.5048
G1 X69.4971 Y10.6188
G1 X69.7278 Y10.7187
G1 X69.964 Y10.8038
G1 X70.2053 Y10.8738
G1 X70.4507 Y10.9286
G1 X70.6987 Y10.968
G1 X70.9488 Y10.9916
G1 X71.2 Y10.9995
G1 X71.4512 Y10.9916
G1 X71.7013 Y10.968
G1 X71.9494 Y10.9286
G1 X72.1948 Y10.8738
G1 X72.4359 Y10.8038
G1 X72.6722 Y10.7187
G1 X72.9029 Y10.6188
G1 X73.1268 Y10.5048
G1 X73.343 Y10.3768
G1 X73.5509 Y10.2356
G1 X73.7493 Y10.0818
G1 X73.9377 Y9.9155
G1 X74.1155 Y9.7377
G1 X74.2818 Y9.5493
G1 X74.4356 Y9.3509
G1 X74.5768 Y9.1431
G1 X74.7048 Y8.9268
G1 X74.8189 Y8.7028
G1 X74.9187 Y8.4722
G1 X75.0038 Y8.236
G1 X75.0738 Y7.9947
G1 X75.1286 Y7.7494
G1 X75.168 Y7.5013
G1 X75.1916 Y7.2512
G1 X75.1995 Y7.0
G1 X75.1916 Y6.7488
G1 X75.168 Y6.4987
G1 X75.1286 Y6.2506
G1 X75.0738 Y6.0053
G1 X75.0038 Y5.764
G1 X74.9187 Y5.5278
G1 X74.8189 Y5.2972
G1 X74.7048 Y5.0732
G1 X74.5768 Y4.8569
G1 X74.4356 Y4.6491
G1 X74.2817 Y4.4507
G1 X74.1155 Y4.2622
G1 X73.9378 Y4.0845
G1 X73.7493 Y3.9183
G1 X73.5508 Y3.7643
G1 X73.343 Y3.6231
G1 X73.1268 Y3.4952
G1 X72.9029 Y3.3811
G1 X72.6723 Y3.2814
G1 X72.4359 Y3.1962
G1 X72.1947 Y3.1261
G1 X71.9494 Y3.0713
G1 X71.7013 Y3.032
G1 X71.4512 Y3.0084
G1 X71.2 Y3.0005
G1 X70.9488 Y3.0084
G1 X70.6987 Y3.032
G1 X70.4506 Y3.0713
G1 X70.3401 Y3.096
G0 Z6.0
G0 X71.1255 Y6.6093
G1 F150.0 Z1.4
G1 F400.0 X71.1011 Y6.6148 Z1.396
G1 X71.0771 Y6.6217 Z1.392
G1 X71.0536 Y6.6302 Z1.388
G1 X71.0305 Y6.6402 Z1.384
G1 X71.0085 Y6.6514 Z1.38
G1 X70.9871 Y6.6641 Z1.376
G1 X70.9662 Y6.6783 Z1.372
G1 X70.9466 Y6.6935 Z1.368
G1 X70.9279 Y6.71 Z1.364
G1 X70.9098 Y6.728 Z1.3599
G1 X70.8933 Y6.7467 Z1.3559
G1 X70.8785 Y6.7659 Z1.3521
G1 X70.8644 Y6.7866 Z1.348
G1 X70.8515 Y6.8084 Z1.344
G1 X70.84 Y6.8309 Z1.3399
G1 X70.8301 Y6.8539 Z1.3359
G1 X70.8218 Y6.8769 Z1.332
G1 X70.8149 Y6.9007 Z1.3281
G1 X70.8093 Y6.9258 Z1.3239
G1 X70.8054 Y6.9502 Z1.32
G1 X70.8031 Y6.9748 Z1.316
G1 X70.8023 Y7.0 Z1.312
G1 X70.8031 Y7.0252 Z1.308
G1 X70.8054 Y7.0498 Z1.304
G1 X70.8093 Y7.0742 Z1.3
G1 X70.8149 Y7.0993 Z1.2959
G1 X70.8218 Y7.1231 Z1.292
G1 X70.8301 Y7.1461 Z1.288
G1 X70.84 Y7.1691 Z1.284
G1 X70.8515 Y7.1916 Z1.28
G1 X70.8644 Y7.2134 Z1.2759
G1 X70.8784 Y7.2341 Z1.2719
G1 X70.8932 Y7.2531 Z1.2681
G1 X70.9098 Y7.2719 Z1.2641
G1 X70.9281 Y7.2902 Z1.2599
G1 X70.9468 Y7.3067 Z1.2559
G1 X70.9658 Y7.3215 Z1.2521
G1 X70.9868 Y7.3357 Z1.248
G1 X71.0085 Y7.3486 Z1.244
G1 X71.0308 Y7.3599 Z1.24
G1 X71.054 Y7.3699 Z1.2359
G1 X71.0768 Y7.3782 Z1.232
G1 X71.1007 Y7.3851 Z1.2281
G1 X71.1259 Y7.3907 Z1.2239
G1 X71.1502 Y7.3946 Z1.22
G1 X71.1748 Y7.3969 Z1.216
G1 X71.2 Y7.3977 Z1.212
G1 X71.2252 Y7.3969 Z1.208
G1 X71.2498 Y7.3946 Z1.204
G1 X71.2743 Y7.3907 Z1.2
G1 X71.2993 Y7.3851 Z1.1959
G1 X71.323 Y7.3783 Z1.192
G1 X71.346 Y7.3699 Z1.1881
G1 X71.3692 Y7.3599 Z1.184
G1 X71.3915 Y7.3486 Z1.18
G1 X71.4132 Y7.3357 Z1.176
G1 X71.4342 Y7.3215 Z1.1719
G1 X71.4532 Y7.3067 Z1.1681
G1 X71.4719 Y7.2902 Z1.1641
G1 X71.4902 Y7.2719 Z1.1599
G1 X71.5068 Y7.2531 Z1.1559
G1 X71.5216 Y7.2341 Z1.152
G1 X71.5356 Y7.2134 Z1.148
G1 X71.5485 Y7.1916 Z1.144
G1 X71.56 Y7.1691 Z1.1399
G1 X71.5699 Y7.1461 Z1.1359
G1 X71.5782 Y7.1231 Z1.132
G1 X71.5851 Y7.0993 Z1.128
G1 X71.5907 Y7.0742 Z1.1239
G1 X71.5946 Y7.0498 Z1.12
G1 X71.5969 Y7.0252 Z1.116
G1 X71.5977 Y7.0 Z1.112
G1 X71.5969 Y6.9748 Z1.108
G1 X71.5946 Y6.9502 Z1.104
G1 X71.5907 Y6.9258 Z1.1
G1 X71.5851 Y6.9007 Z1.0959
G1 X71.5782 Y6.8769 Z1.092
G1 X71.5699 Y6.8539 Z1.088
G1 X71.56 Y6.8309 Z1.084
G1 X71.5485 Y6.8084 Z1.08
G1 X71.5356 Y6.7866 Z1.0759
G1 X71.5215 Y6.7659 Z1.0719
G1 X71.5067 Y6.7467 Z1.068
G1 X71.4902 Y6.728 Z1.064
G1 X71.4721 Y6.71 Z1.06
G1 X71.4534 Y6.6935 Z1.056
G1 X71.4338 Y6.6783 Z1.052
G1 X71.4129 Y6.6641 Z1.048
G1 X71.3915 Y6.6514 Z1.044
G1 X71.3695 Y6.6402 Z1.04
G1 X71.3464 Y6.6302 Z1.036
G1 X71.3227 Y6.6217 Z1.032
G1 X71.2989 Y6.6148 Z1.028
G1 X71.2746 Y6.6093 Z1.024
G1 X71.2499 Y6.6054 Z1.02
G1 X71.225 Y6.6031 Z1.016
G1 X71.2 Y6.6023 Z1.012
G1 X71.175 Y6.6031 Z1.008
G1 X71.1501 Y6.6054 Z1.004
G1 X71.1255 Y6.6093 Z1.0
G1 F150.0 X71.0383 Y6.2189
G1 F400.0 X71.0016 Y6.2271
G1 X70.9534 Y6.2411
G1 X70.9063 Y6.2581
G1 X70.8601 Y6.2781
G1 X70.8157 Y6.3007
G1 X70.7726 Y6.3262
G1 X70.731 Y6.3545
G1 X70.6915 Y6.3851
G1 X70.6539 Y6.4183
G1 X70.6181 Y6.454
G1 X70.585 Y6.4916
G1 X70.5547 Y6.5307
G1 X70.5265 Y6.5722
G1 X70.5008 Y6.6156
G1 X70.4779 Y6.6605
G1 X70.458 Y6.7066
G1 X70.4412 Y6.7532
G1 X70.4272 Y6.8012
G1 X70.4162 Y6.8508
G1 X70.4084 Y6.9
G1 X70.4037 Y6.9497
G1 X70.4021 Y7.0
G1 X70.4037 Y7.0503
G1 X70.4084 Y7.1
G1 X70.4162 Y7.1492
G1 X70.4272 Y7.1988
G1 X70.4412 Y7.2468
G1 X70.458 Y7.2934
G1 X70.4779 Y7.3395
G1 X70.5008 Y7.3844
G1 X70.5265 Y7.4278
G1 X70.5547 Y7.4693
G1 X70.5849 Y7.5082
G1 X70.6181 Y7.5459
G1 X70.6541 Y7.5819
G1 X70.6917 Y7.615
G1 X70.7307 Y7.6453
G1 X70.7724 Y7.6736
G1 X70.8157 Y7.6993
G1 X70.8604 Y7.722
G1 X70.9066 Y7.742
G1 X70.9532 Y7.7588
G1 X71.0012 Y7.7727
G1 X71.0509 Y7.7838
G1 X71.1 Y7.7916
G1 X71.1497 Y7.7963
G1 X71.2 Y7.7979
G1 X71.2503 Y7.7963
G1 X71.3 Y7.7916
G1 X71.3493 Y7.7838
G1 X71.3988 Y7.7727
G1 X71.4466 Y7.7589
G1 X71.4934 Y7.742
G1 X71.5396 Y7.722
G1 X71.5843 Y7.6993
G1 X71.6276 Y7.6736
G1 X71.6693 Y7.6453
G1 X71.7083 Y7.615
G1 X71.7459 Y7.5819
G1 X71.7819 Y7.5459
G1 X71.8151 Y7.5082
G1 X71.8453 Y7.4693
G1 X71.8735 Y7.4278
G1 X71.8992 Y7.3844
G1 X71.9221 Y7.3395
G1 X71.942 Y7.2934
G1 X71.9588 Y7.2468
G1 X71.9728 Y7.1988
G1 X71.9838 Y7.1492
G1 X71.9916 Y7.1
G1 X71.9963 Y7.0503
G1 X71.9979 Y7.0
G1 X71.9963 Y6.9497
G1 X71.9916 Y6.9
G1 X71.9838 Y6.8508
G1 X71.9728 Y6.8012
G1 X71.9588 Y6.7532
G1 X71.942 Y6.7066
G1 X71.9221 Y6.6605
G1 X71.8992 Y6.6156
G1 X71.8735 Y6.5722
G1 X71.8453 Y6.5307
G1 X71.815 Y6.4916
G1 X71.7819 Y6.454
G1 X71.7461 Y6.4183
G1 X71.7085 Y6.3851
G1 X71.669 Y6.3545
G1 X71.6274 Y6.3262
G1 X71.5843 Y6.3007
G1 X71.5399 Y6.2781
G1 X71.4937 Y6.2581
G1 X71.4464 Y6.2411
G1 X71.3985 Y6.2271
G1 X71.3496 Y6.2162
G1 X71.3 Y6.2084
G1 X71.2501 Y6.2037
G1 X71.2 Y6.2021
G1 X71.1499 Y6.2037
G1 X71.1 Y6.2084
G1 X71.0505 Y6.2162
G1 X71.0383 Y6.2189
G1 F150.0 X70.8637 Y5.4382
G1 F400.0 X70.8025 Y5.4519
G1 X70.7061 Y5.4799
G1 X70.6116 Y5.5139
G1 X70.5194 Y5.5538
G1 X70.4301 Y5.5993
G1 X70.3437 Y5.6504
G1 X70.2605 Y5.707
G1 X70.1813 Y5.7684
G1 X70.106 Y5.8348
G1 X70.0347 Y5.9061
G1 X69.9683 Y5.9814
G1 X69.9071 Y6.0603
G1 X69.8506 Y6.1434
G1 X69.7994 Y6.23
G1 X69.7537 Y6.3197
G1 X69.7138 Y6.4119
G1 X69.6799 Y6.5059
G1 X69.652 Y6.6022
G1 X69.63 Y6.7007
G1 X69.6143 Y6.7997
G1 X69.6049 Y6.8995
G1 X69.6017 Y7.0
G1 X69.6049 Y7.1005
G1 X69.6143 Y7.2003
G1 X69.63 Y7.2993
G1 X69.652 Y7.3977
G1 X69.6799 Y7.4941
G1 X69.7138 Y7.5881
G1 X69.7537 Y7.6803
G1 X69.7994 Y7.77
G1 X69.8506 Y7.8566
G1 X69.9071 Y7.9397
G1 X69.9682 Y8.0185
G1 X70.0347 Y8.0938
G1 X70.1062 Y8.1653
G1 X70.1814 Y8.2317
G1 X70.2603 Y8.2929
G1 X70.3436 Y8.3494
G1 X70.4301 Y8.4006
G1 X70.5196 Y8.4462
G1 X70.6119 Y8.4862
G1 X70.7059 Y8.52
G1 X70.8022 Y8.548
G1 X70.9008 Y8.57
G1 X70.9997 Y8.5857
G1 X71.0994 Y8.5951
G1 X71.2 Y8.5983
G1 X71.3006 Y8.5951
G1 X71.4003 Y8.5857
G1 X71.4993 Y8.57
G1 X71.5978 Y8.548
G1 X71.694 Y8.5201
G1 X71.7881 Y8.4862
G1 X71.8804 Y8.4462
G1 X71.9699 Y8.4006
G1 X72.0564 Y8.3494
G1 X72.1397 Y8.2929
G1 X72.2186 Y8.2317
G1 X72.2938 Y8.1653
G1 X72.3653 Y8.0938
G1 X72.4318 Y8.0185
G1 X72.4929 Y7.9397
G1 X72.5494 Y7.8566
G1 X72.6006 Y7.77
G1 X72.6463 Y7.6803
G1 X72.6862 Y7.5881
G1 X72.7201 Y7.4941
G1 X72.748 Y7.3977
G1 X72.77 Y7.2993
G1 X72.7857 Y7.2003
G1 X72.7951 Y7.1005
G1 X72.7983 Y7.0
G1 X72.7951 Y6.8995
G1 X72.7857 Y6.7997
G1 X72.77 Y6.7007
G1 X72.748 Y6.6022
G1 X72.7201 Y6.5059
G1 X72.6862 Y6.4119
G1 X72.6463 Y6.3197
G1 X72.6006 Y6.23
G1 X72.5494 Y6.1434
G1 X72.4929 Y6.0603
G1 X72.4317 Y5.9814
G1 X72.3653 Y5.9061
G1 X72.294 Y5.8348
G1 X72.2187 Y5.7684
G1 X72.1395 Y5.707
G1 X72.0563 Y5.6504
G1 X71.9699 Y5.5993
G1 X71.8806 Y5.5538
G1 X71.7884 Y5.5139
G1 X71.6938 Y5.4799
G1 X71.5975 Y5.4519
G1 X71.4996 Y5.43
G1 X71.4004 Y5.4143
G1 X71.3004 Y5.4048
G1 X71.2 Y5.4017
G1 X71.0996 Y5.4048
G1 X70.9996 Y5.4143
G1 X70.9006 Y5.43
G1 X70.8637 Y5.4382
G1 F150.0 X70.6892 Y4.6575
G1 F400.0 X70.6035 Y4.6766
G1 X70.4587 Y4.7187
G1 X70.317 Y4.7697
G1 X70.1786 Y4.8296
G1 X70.0445 Y4.8979
G1 X69.9148 Y4.9746
G1 X69.7901 Y5.0594
G1 X69.6711 Y5.1517
G1 X69.558 Y5.2514
G1 X69.4513 Y5.3581
G1 X69.3516 Y5.4711
G1 X69.2595 Y5.5899
G1 X69.1748 Y5.7146
G1 X69.098 Y5.8444
G1 X69.0295 Y5.9788
G1 X68.9696 Y6.1172
G1 X68.9187 Y6.2586
G1 X68.8767 Y6.4033
G1 X68.8438 Y6.5507
G1 X68.8202 Y6.6994
G1 X68.806 Y6.8493
G1 X68.8013 Y7.0
G1 X68.806 Y7.1507
G1 X68.8202 Y7.3006
G1 X68.8438 Y7.4493
G1 X68.8767 Y7.5967
G1 X68.9187 Y7.7414
G1 X68.9696 Y7.8828
G1 X69.0295 Y8.0212
G1 X69.098 Y8.1556
G1 X69.1748 Y8.2854
G1 X69.2595 Y8.4101
G1 X69.3516 Y8.5288
G1 X69.4513 Y8.6418
G1 X69.5582 Y8.7487
G1 X69.6712 Y8.8484
G1 X69.7899 Y8.9404
G1 X69.9147 Y9.0252
G1 X70.0445 Y9.102
G1 X70.1788 Y9.1704
G1 X70.3172 Y9.2304
G1 X70.4586 Y9.2813
G1 X70.6033 Y9.3233
G1 X70.7508 Y9.3562
G1 X70.8994 Y9.3798
G1 X71.0492 Y9.394
G1 X71.2 Y9.3987
G1 X71.3508 Y9.394
G1 X71.5006 Y9.3798
G1 X71.6493 Y9.3562
G1 X71.7968 Y9.3233
G1 X71.9413 Y9.2813
G1 X72.0828 Y9.2304
G1 X72.2212 Y9.1704
G1 X72.3555 Y9.102
G1 X72.4853 Y9.0252
G1 X72.6101 Y8.9404
G1 X72.7288 Y8.8484
G1 X72.8418 Y8.7487
G1 X72.9487 Y8.6418
G1 X73.0484 Y8.5288
G1 X73.1405 Y8.4101
G1 X73.2252 Y8.2854
G1 X73.302 Y8.1556
G1 X73.3705 Y8.0212
G1 X73.4304 Y7.8828
G1 X73.4813 Y7.7414
G1 X73.5233 Y7.5967
G1 X73.5562 Y7.4493
G1 X73.5798 Y7.3006
G1 X73.594 Y7.1507
G1 X73.5987 Y7.0
G1 X73.594 Y6.8493
G1 X73.5798 Y6.6994
G1 X73.5562 Y6.5507
G1 X73.5233 Y6.4033
G1 X73.4813 Y6.2586
G1 X73.4304 Y6.1172
G1 X73.3705 Y5.9788
G1 X73.302 Y5.8444
G1 X73.2252 Y5.7146
G1 X73.1405 Y5.5899
G1 X73.0484 Y5.4711
G1 X72.9487 Y5.3581
G1 X72.842 Y5.2514
G1 X72.7289 Y5.1517
G1 X72.6099 Y5.0594
G1 X72.4852 Y4.9746
G1 X72.3555 Y4.8979
G1 X72.2214 Y4.8296
G1 X72.083 Y4.7697
G1 X71.9411 Y4.7187
G1 X71.7966 Y4.6766
G1 X71.6495 Y4.6438
G1 X71.5007 Y4.6202
G1 X71.3507 Y4.606
G1 X71.2 Y4.6013
G1 X71.0493 Y4.606
G1 X70.8993 Y4.6202
G1 X70.7506 Y4.6438
G1 X70.6892 Y4.6575
G1 F150.0 X70.5147 Y3.8768
G1 F400.0 X70.4045 Y3.9014
G1 X70.2114 Y3.9575
G1 X70.0223 Y4.0255
G1 X69.8378 Y4.1054
G1 X69.6588 Y4.1966
G1 X69.4859 Y4.2989
G1 X69.3196 Y4.4119
G1 X69.1609 Y4.535
G1 X69.0101 Y4.6679
G1 X68.8679 Y4.8102
G1 X68.7349 Y4.9609
G1 X68.612 Y5.1195
G1 X68.499 Y5.2857
G1 X68.3966 Y5.4588
G1 X68.3053 Y5.638
G1 X68.2255 Y5.8225
G1 X68.1575 Y6.0113
G1 X68.1014 Y6.2043
G1 X68.0576 Y6.4007
G1 X68.0261 Y6.599
G1 X68.0072 Y6.7991
G1 X68.0009 Y7.0
G1 X68.0072 Y7.2009
G1 X68.0261 Y7.401
G1 X68.0576 Y7.5993
G1 X68.1014 Y7.7957
G1 X68.1575 Y7.9887
G1 X68.2255 Y8.1775
G1 X68.3053 Y8.362
G1 X68.3966 Y8.5412
G1 X68.499 Y8.7143
G1 X68.6119 Y8.8805
G1 X68.7349 Y9.039
G1 X68.8679 Y9.1898
G1 X69.0102 Y9.3321
G1 X69.1609 Y9.4651
G1 X69.3195 Y9.588
G1 X69.4858 Y9.701
G1 X69.6588 Y9.8034
G1 X69.8379 Y9.8946
G1 X70.0225 Y9.9745
G1 X70.2113 Y10.0425
G1 X70.4043 Y10.0985
G1 X70.6007 Y10.1424
G1 X70.799 Y10.1739
G1 X70.999 Y10.1928
G1 X71.2 Y10.1991
G1 X71.401 Y10.1928
G1 X71.601 Y10.1739
G1 X71.7993 Y10.1424
G1 X71.9958 Y10.0985
G1 X72.1886 Y10.0425
G1 X72.3775 Y9.9745
G1 X72.5621 Y9.8946
G1 X72.7412 Y9.8034
G1 X72.9142 Y9.701
G1 X73.0805 Y9.588
G1 X73.2391 Y9.4651
G1 X73.3898 Y9.3321
G1 X73.5321 Y9.1898
G1 X73.6651 Y9.039
G1 X73.7881 Y8.8805
G1 X73.901 Y8.7143
G1 X74.0034 Y8.5412
G1 X74.0947 Y8.362
G1 X74.1745 Y8.1775
G1 X74.2425 Y7.9887
G1 X74.2986 Y7.7957
G1 X74.3424 Y7.5993
G1 X74.3739 Y7.401
G1 X74.3928 Y7.2009
G1 X74.3991 Y7.0
G1 X74.3928 Y6.7991
G1 X74.3739 Y6.599
G1 X74.3424 Y6.4007
G1 X74.2986 Y6.2043
G1 X74.2425 Y6.0113
G1 X74.1745 Y5.8225
G1 X74.0947 Y5.638
G1 X74.0034 Y5.4588
G1 X73.901 Y5.2857
G1 X73.788 Y5.1195
G1 X73.6651 Y4.9609
G1 X73.5321 Y4.8102
G1 X73.3899 Y4.6679
G1 X73.2391 Y4.535
G1 X73.0804 Y4.4119
G1 X72.9141 Y4.2989
G1 X72.7412 Y4.1966
G1 X72.5622 Y4.1054
G1 X72.3777 Y4.0255
G1 X72.1885 Y3.9574
G1 X71.9956 Y3.9014
G1 X71.7995 Y3.8576
G1 X71.601 Y3.8261
G1 X71.4009 Y3.8072
G1 X71.2 Y3.8009
G1 X70.9991 Y3.8072
G1 X70.799 Y3.8261
G1 X70.6006 Y3.8575
G1 X70.5147 Y3.8768
G1 F150.0 X70.3401 Y3.096
G1 F400.0 X70.2054 Y3.1261
G1 X69.9641 Y3.1962
G1 X69.7277 Y3.2814
G1 X69.4971 Y3.3811
G1 X69.2732 Y3.4952
G1 X69.057 Y3.6231
G1 X68.8492 Y3.7643
G1 X68.6507 Y3.9183
G1 X68.4622 Y4.0845
G1 X68.2845 Y4.2622
G1 X68.1183 Y4.4507
G1 X67.9644 Y4.6491
G1 X67.8232 Y4.8569
G1 X67.6952 Y5.0732
G1 X67.5811 Y5.2972
G1 X67.4813 Y5.5278
G1 X67.3962 Y5.764
G1 X67.3262 Y6.0053
G1 X67.2714 Y6.2506
G1 X67.232 Y6.4987
G1 X67.2084 Y6.7488
G1 X67.2005 Y7.0
G1 X67.2084 Y7.2512
G1 X67.232 Y7.5013
G1 X67.2714 Y7.7494
G1 X67.3262 Y7.9947
G1 X67.3962 Y8.236
G1 X67.4813 Y8.4722
G1 X67.5811 Y8.7028
G1 X67.6952 Y8.9268
G1 X67.8232 Y9.1431
G1 X67.9644 Y9.3509
G1 X68.1182 Y9.5493
G1 X68.2845 Y9.7377
G1 X68.4623 Y9.9155
G1 X68.6507 Y10.0818
G1 X68.8491 Y10.2356
G1 X69.057 Y10.3768
G1 X69.2732 Y10.5048
G1 X69.4971 Y10.6188
G1 X69.7278 Y10.7187
G1 X69.964 Y10.8038
G1 X70.2053 Y10.8738
G1 X70.4507 Y10.9286
G1 X70.6987 Y10.968
G1 X70.9488 Y10.9916
G1 X71.2 Y10.9995
G1 X71.4512 Y10.9916
G1 X71.7013 Y10.968
G1 X71.9494 Y10.9286
G1 X72.1948 Y10.8738
G1 X72.4359 Y10.8038
G1 X72.6722 Y10.7187
G1 X72.9029 Y10.6188
G1 X73.1268 Y10.5048
G1 X73.343 Y10.3768
G1 X73.5509 Y10.2356
G1 X73.7493 Y10.0818
G1 X73.9377 Y9.9155
G1 X74.1155 Y9.7377
G1 X74.2818 Y9.5493
G1 X74.4356 Y9.3509
G1 X74.5768 Y9.1431
G1 X74.7048 Y8.9268
G1 X74.8189 Y8.7028
G1 X74.9187 Y8.4722
G1 X75.0038 Y8.236
G1 X75.0738 Y7.9947
G1 X75.1286 Y7.7494
G1 X75.168 Y7.5013
G1 X75.1916 Y7.2512
G1 X75.1995 Y7.0
G1 X75.1916 Y6.7488
G1 X75.168 Y6.4987
G1 X75.1286 Y6.2506
G1 X75.0738 Y6.0053
G1 X75.0038 Y5.764
G1 X74.9187 Y5.5278
G1 X74.8189 Y5.2972
G1 X74.7048 Y5.0732
G1 X74.5768 Y4.8569
G1 X74.4356 Y4.6491
G1 X74.2817 Y4.4507
G1 X74.1155 Y4.2622
G1 X73.9378 Y4.0845
G1 X73.7493 Y3.9183
G1 X73.5508 Y3.7643
G1 X73.343 Y3.6231
G1 X73.1268 Y3.4952
G1 X72.9029 Y3.3811
G1 X72.6723 Y3.2814
G1 X72.4359 Y3.1962
G1 X72.1947 Y3.1261
G1 X71.9494 Y3.0713
G1 X71.7013 Y3.032
G1 X71.4512 Y3.0084
G1 X71.2 Y3.0005
G1 X70.9488 Y3.0084
G1 X70.6987 Y3.032
G1 X70.4506 Y3.0713
G1 X70.3401 Y3.096
G0 Z6.0
G0 X71.1255 Y6.6093
G1 F150.0 Z1.0
G1 F400.0 X71.1011 Y6.6148 Z0.996
G1 X71.0771 Y6.6217 Z0.992
G1 X71.0536 Y6.6302 Z0.988
G1 X71.0305 Y6.6402 Z0.984
G1 X71.0085 Y6.6514 Z0.98
G1 X70.9871 Y6.6641 Z0.976
G1 X70.9662 Y6.6783 Z0.972
G1 X70.9466 Y6.6935 Z0.968
G1 X70.9279 Y6.71 Z0.964
G1 X70.9098 Y6.728 Z0.9599
G1 X70.8933 Y6.7467 Z0.9559
G1 X70.8785 Y6.7659 Z0.9521
G1 X70.8644 Y6.7866 Z0.948
G1 X70.8515 Y6.8084 Z0.944
G1 X70.84 Y6.8309 Z0.9399
G1 X70.8301 Y6.8539 Z0.9359
G1 X70.8218 Y6.8769 Z0.932
G1 X70.8149 Y6.9007 Z0.9281
G1 X70.8093 Y6.9258 Z0.9239
G1 X70.8054 Y6.9502 Z0.92
G1 X70.8031 Y6.9748 Z0.916
G1 X70.8023 Y7.0 Z0.912
G1 X70.8031 Y7.0252 Z0.908
G1 X70.8054 Y7.0498 Z0.904
G1 X70.8093 Y7.0742 Z0.9
G1 X70.8149 Y7.0993 Z0.8959
G1 X70.8218 Y7.1231 Z0.892
G1 X70.8301 Y7.1461 Z0.888
G1 X70.84 Y7.1691 Z0.884
G1 X70.8515 Y7.1916 Z0.88
G1 X70.8644 Y7.2134 Z0.8759
G1 X70.8784 Y7.2341 Z0.8719
G1 X70.8932 Y7.2531 Z0.8681
G1 X70.9098 Y7.2719 Z0.8641
G1 X70.9281 Y7.2902 Z0.8599
G1 X70.9468 Y7.3067 Z0.8559
G1 X70.9658 Y7.3215 Z0.8521
G1 X70.9868 Y7.3357 Z0.848
G1 X71.0085 Y7.3486 Z0.844
G1 X71.0308 Y7.3599 Z0.84
G1 X71.054 Y7.3699 Z0.8359
G1 X71.0768 Y7.3782 Z0.832
G1 X71.1007 Y7.3851 Z0.8281
G1 X71.1259 Y7.3907 Z0.8239
G1 X71.1502 Y7.3946 Z0.82
G1 X71.1748 Y7.3969 Z0.816
G1 X71.2 Y7.3977 Z0.812
G1 X71.2252 Y7.3969 Z0.808
G1 X71.2498 Y7.3946 Z0.804
G1 X71.2743 Y7.3907 Z0.8
G1 X71.2993 Y7.3851 Z0.7959
G1 X71.323 Y7.3783 Z0.792
G1 X71.346 Y7.3699 Z0.7881
G1 X71.3692 Y7.3599 Z0.784
G1 X71.3915 Y7.3486 Z0.78
G1 X71.4132 Y7.3357 Z0.776
G1 X71.4342 Y7.3215 Z0.7719
G1 X71.4532 Y7.3067 Z0.7681
G1 X71.4719 Y7.2902 Z0.7641
G1 X71.4902 Y7.2719 Z0.7599
G1 X71.5068 Y7.2531 Z0.7559
G1 X71.5216 Y7.2341 Z0.752
G1 X71.5356 Y7.2134 Z0.748
G1 X71.5485 Y7.1916 Z0.744
G1 X71.56 Y7.1691 Z0.7399
G1 X71.5699 Y7.1461 Z0.7359
G1 X71.5782 Y7.1231 Z0.732
G1 X71.5851 Y7.0993 Z0.728
G1 X71.5907 Y7.0742 Z0.7239
G1 X71.5946 Y7.0498 Z0.72
G1 X71.5969 Y7.0252 Z0.716
G1 X71.5977 Y7.0 Z0.712
G1 X71.5969 Y6.9748 Z0.708
G1 X71.5946 Y6.9502 Z0.704
G1 X71.5907 Y6.9258 Z0.7
G1 X71.5851 Y6.9007 Z0.6959
G1 X71.5782 Y6.8769 Z0.692
G1 X71.5699 Y6.8539 Z0.688
G1 X71.56 Y6.8309 Z0.684
G1 X71.5485 Y6.8084 Z0.68
G1 X71.5356 Y6.7866 Z0.6759
G1 X71.5215 Y6.7659 Z0.6719
G1 X71.5067 Y6.7467 Z0.668
G1 X71.4902 Y6.728 Z0.664
G1 X71.4721 Y6.71 Z0.66
G1 X71.4534 Y6.6935 Z0.656
G1 X71.4338 Y6.6783 Z0.652
G1 X71.4129 Y6.6641 Z0.648
G1 X71.3915 Y6.6514 Z0.644
G1 X71.3695 Y6.6402 Z0.64
G1 X71.3464 Y6.6302 Z0.636
G1 X71.3227 Y6.6217 Z0.632
G1 X71.2989 Y6.6148 Z0.628
G1 X71.2746 Y6.6093 Z0.624
G1 X71.2499 Y6.6054 Z0.62
G1 X71.225 Y6.6031 Z0.616
G1 X71.2 Y6.6023 Z0.612
G1 X71.175 Y6.6031 Z0.608
G1 X71.1501 Y6.6054 Z0.604
G1 X71.1255 Y6.6093 Z0.6
G1 F150.0 X71.0383 Y6.2189
G1 F400.0 X71.0016 Y6.2271
G1 X70.9534 Y6.2411
G1 X70.9063 Y6.2581
G1 X70.8601 Y6.2781
G1 X70.8157 Y6.3007
G1 X70.7726 Y6.3262
G1 X70.731 Y6.3545
G1 X70.6915 Y6.3851
G1 X70.6539 Y6.4183
G1 X70.6181 Y6.454
G1 X70.585 Y6.4916
G1 X70.5547 Y6.5307
G1 X70.5265 Y6.5722
G1 X70.5008 Y6.6156
G1 X70.4779 Y6.6605
G1 X70.458 Y6.7066
G1 X70.4412 Y6.7532
G1 X70.4272 Y6.8012
G1 X70.4162 Y6.8508
G1 X70.4084 Y6.9
G1 X70.4037 Y6.9497
G1 X70.4021 Y7.0
G1 X70.4037 Y7.0503
G1 X70.4084 Y7.1
G1 X70.4162 Y7.1492
G1 X70.4272 Y7.1988
G1 X70.4412 Y7.2468
G1 X70.458 Y7.2934
G1 X70.4779 Y7.3395
G1 X70.5008 Y7.3844
G1 X70.5265 Y7.4278
G1 X70.5547 Y7.4693
G1 X70.5849 Y7.5082
G1 X70.6181 Y7.5459
G1 X70.6541 Y7.5819
G1 X70.6917 Y7.615
G1 X70.7307 Y7.6453
G1 X70.7724 Y7.6736
G1 X70.8157 Y7.6993
G1 X70.8604 Y7.722
G1 X70.9066 Y7.742
G1 X70.9532 Y7.7588
G1 X71.0012 Y7.7727
G1 X71.0509 Y7.7838
G1 X71.1 Y7.7916
G1 X71.1497 Y7.7963
G1 X71.2 Y7.7979
G1 X71.2503 Y7.7963
G1 X71.3 Y7.7916
G1 X71.3493 Y7.7838
G1 X71.3988 Y7.7727
G1 X71.4466 Y7.7589
G1 X71.4934 Y7.742
G1 X71.5396 Y7.722
G1 X71.5843 Y7.6993
G1 X71.6276 Y7.6736
G1 X71.6693 Y7.6453
G1 X71.7083 Y7.615
G1 X71.7459 Y7.5819
G1 X71.7819 Y7.5459
G1 X71.8151 Y7.5082
G1 X71.8453 Y7.4693
G1 X71.8735 Y7.4278
G1 X71.8992 Y7.3844
G1 X71.9221 Y7.3395
G1 X71.942 Y7.2934
G1 X71.9588 Y7.2468
G1 X71.9728 Y7.1988
G1 X71.9838 Y7.1492
G1 X71.9916 Y7.1
G1 X71.9963 Y7.0503
G1 X71.9979 Y7.0
G1 X71.9963 Y6.9497
G1 X71.9916 Y6.9
G1 X71.9838 Y6.8508
G1 X71.9728 Y6.8012
G1 X71.9588 Y6.7532
G1 X71.942 Y6.7066
G1 X71.9221 Y6.6605
G1 X71.8992 Y6.6156
G1 X71.8735 Y6.5722
G1 X71.8453 Y6.5307
G1 X71.815 Y6.4916
G1 X71.7819 Y6.454
G1 X71.7461 Y6.4183
G1 X71.7085 Y6.3851
G1 X71.669 Y6.3545
G1 X71.6274 Y6.3262
G1 X71.5843 Y6.3007
G1 X71.5399 Y6.2781
G1 X71.4937 Y6.2581
G1 X71.4464 Y6.2411
G1 X71.3985 Y6.2271
G1 X71.3496 Y6.2162
G1 X71.3 Y6.2084
G1 X71.2501 Y6.2037
G1 X71.2 Y6.2021
G1 X71.1499 Y6.2037
G1 X71.1 Y6.2084
G1 X71.0505 Y6.2162
G1 X71.0383 Y6.2189
G1 F150.0 X70.8637 Y5.4382
G1 F400.0 X70.8025 Y5.4519
G1 X70.7061 Y5.4799
G1 X70.6116 Y5.5139
G1 X70.5194 Y5.5538
G1 X70.4301 Y5.5993
G1 X70.3437 Y5.6504
G1 X70.2605 Y5.707
G1 X70.1813 Y5.7684
G1 X70.106 Y5.8348
G1 X70.0347 Y5.9061
G1 X69.9683 Y5.9814
G1 X69.9071 Y6.0603
G1 X69.8506 Y6.1434
G1 X69.7994 Y6.23
G1 X69.7537 Y6.3197
G1 X69.7138 Y6.4119
G1 X69.6799 Y6.5059
G1 X69.652 Y6.6022
G1 X69.63 Y6.7007
G1 X69.6143 Y6.7997
G1 X69.6049 Y6.8995
G1 X69.6017 Y7.0
G1 X69.6049 Y7.1005
G1 X69.6143 Y7.2003
G1 X69.63 Y7.2993
G1 X69.652 Y7.3977
G1 X69.6799 Y7.4941
G1 X69.7138 Y7.5881
G1 X69.7537 Y7.6803
G1 X69.7994 Y7.77
G1 X69.8506 Y7.8566
G1 X69.9071 Y7.9397
G1 X69.9682 Y8.0185
G1 X70.0347 Y8.0938
G1 X70.1062 Y8.1653
G1 X70.1814 Y8.2317
G1 X70.2603 Y8.2929
G1 X70.3436 Y8.3494
G1 X70.4301 Y8.4006
G1 X70.5196 Y8.4462
G1 X70.6119 Y8.4862
G1 X70.7059 Y8.52
G1 X70.8022 Y8.548
G1 X70.9008 Y8.57
G1 X70.9997 Y8.5857
G1 X71.0994 Y8.5951
G1 X71.2 Y8.5983
G1 X71.3006 Y8.5951
G1 X71.4003 Y8.5857
G1 X71.4993 Y8.57
G1 X71.5978 Y8.548
G1 X71.694 Y8.5201
G1 X71.7881 Y8.4862
G1 X71.8804 Y8.4462
G1 X71.9699 Y8.4006
G1 X72.0564 Y8.3494
G1 X72.1397 Y8.2929
G1 X72.2186 Y8.2317
G1 X72.2938 Y8.1653
G1 X72.3653 Y8.0938
G1 X72.4318 Y8.0185
G1 X72.4929 Y7.9397
G1 X72.5494 Y7.8566
G1 X72.6006 Y7.77
G1 X72.6463 Y7.6803
G1 X72.6862 Y7.5881
G1 X72.7201 Y7.4941
G1 X72.748 Y7.3977
G1 X72.77 Y7.2993
G1 X72.7857 Y7.2003
G1 X72.7951 Y7.1005
G1 X72.7983 Y7.0
G1 X72.7951 Y6.8995
G1 X72.7857 Y6.7997
G1 X72.77 Y6.7007
G1 X72.748 Y6.6022
G1 X72.7201 Y6.5059
G1 X72.6862 Y6.4119
G1 X72.6463 Y6.3197
G1 X72.6006 Y6.23
G1 X72.5494 Y6.1434
G1 X72.4929 Y6.0603
G1 X72.4317 Y5.9814
G1 X72.3653 Y5.9061
G1 X72.294 Y5.8348
G1 X72.2187 Y5.7684
G1 X72.1395 Y5.707
G1 X72.0563 Y5.6504
G1 X71.9699 Y5.5993
G1 X71.8806 Y5.5538
G1 X71.7884 Y5.5139
G1 X71.6938 Y5.4799
G1 X71.5975 Y5.4519
G1 X71.4996 Y5.43
G1 X71.4004 Y5.4143
G1 X71.3004 Y5.4048
G1 X71.2 Y5.4017
G1 X71.0996 Y5.4048
G1 X70.9996 Y5.4143
G1 X70.9006 Y5.43
G1 X70.8637 Y5.4382
G1 F150.0 X70.6892 Y4.6575
G1 F400.0 X70.6035 Y4.6766
G1 X70.4587 Y4.7187
G1 X70.317 Y4.7697
G1 X70.1786 Y4.8296
G1 X70.0445 Y4.8979
G1 X69.9148 Y4.9746
G1 X69.7901 Y5.0594
G1 X69.6711 Y5.1517
G1 X69.558 Y5.2514
G1 X69.4513 Y5.3581
G1 X69.3516 Y5.4711
G1 X69.2595 Y5.5899
G1 X69.1748 Y5.7146
G1 X69.098 Y5.8444
G1 X69.0295 Y5.9788
G1 X68.9696 Y6.1172
G1 X68.9187 Y6.2586
G1 X68.8767 Y6.4033
G1 X68.8438 Y6.5507
G1 X68.8202 Y6.6994
G1 X68.806 Y6.8493
G1 X68.8013 Y7.0
G1 X68.806 Y7.1507
G1 X68.8202 Y7.3006
G1 X68.8438 Y7.4493
G1 X68.8767 Y7.5967
G1 X68.9187 Y7.7414
G1 X68.9696 Y7.8828
G1 X69.0295 Y8.0212
G1 X69.098 Y8.1556
G1 X69.1748 Y8.2854
G1 X69.2595 Y8.4101
G1 X69.3516 Y8.5288
G1 X69.4513 Y8.6418
G1 X69.5582 Y8.7487
G1 X69.6712 Y8.8484
G1 X69.7899 Y8.9404
G1 X69.9147 Y9.0252
G1 X70.0445 Y9.102
G1 X70.1788 Y9.1704
G1 X70.3172 Y9.2304
G1 X70.4586 Y9.2813
G1 X70.6033 Y9.3233
G1 X70.7508 Y9.3562
G1 X70.8994 Y9.3798
G1 X71.0492 Y9.394
G1 X71.2 Y9.3987
G1 X71.3508 Y9.394
G1 X71.5006 Y9.3798
G1 X71.6493 Y9.3562
G1 X71.7968 Y9.3233
G1 X71.9413 Y9.2813
G1 X72.0828 Y9.2304
G1 X72.2212 Y9.1704
G1 X72.3555 Y9.102
G1 X72.4853 Y9.0252
G1 X72.6101 Y8.9404
G1 X72.7288 Y8.8484
G1 X72.8418 Y8.7487
G1 X72.9487 Y8.6418
G1 X73.0484 Y8.5288
G1 X73.1405 Y8.4101
G1 X73.2252 Y8.2854
G1 X73.302 Y8.1556
G1 X73.3705 Y8.0212
G1 X73.4304 Y7.8828
G1 X73.4813 Y7.7414
G1 X73.5233 Y7.5967
G1 X73.5562 Y7.4493
G1 X73.5798 Y7.3006
G1 X73.594 Y7.1507
G1 X73.5987 Y7.0
G1 X73.594 Y6.8493
G1 X73.5798 Y6.6994
G1 X73.5562 Y6.5507
G1 X73.5233 Y6.4033
G1 X73.4813 Y6.2586
G1 X73.4304 Y6.1172
G1 X73.3705 Y5.9788
G1 X73.302 Y5.8444
G1 X73.2252 Y5.7146
G1 X73.1405 Y5.5899
G1 X73.0484 Y5.4711
G1 X72.9487 Y5.3581
G1 X72.842 Y5.2514
G1 X72.7289 Y5.1517
G1 X72.6099 Y5.0594
G1 X72.4852 Y4.9746
G1 X72.3555 Y4.8979
G1 X72.2214 Y4.8296
G1 X72.083 Y4.7697
G1 X71.9411 Y4.7187
G1 X71.7966 Y4.6766
G1 X71.6495 Y4.6438
G1 X71.5007 Y4.6202
G1 X71.3507 Y4.606
G1 X71.2 Y4.6013
G1 X71.0493 Y4.606
G1 X70.8993 Y4.6202
G1 X70.7506 Y4.6438
G1 X70.6892 Y4.6575
G1 F150.0 X70.5147 Y3.8768
G1 F400.0 X70.4045 Y3.9014
G1 X70.2114 Y3.9575
G1 X70.0223 Y4.0255
G1 X69.8378 Y4.1054
G1 X69.6588 Y4.1966
G1 X69.4859 Y4.2989
G1 X69.3196 Y4.4119
G1 X69.1609 Y4.535
G1 X69.0101 Y4.6679
G1 X68.8679 Y4.8102
G1 X68.7349 Y4.9609
G1 X68.612 Y5.1195
G1 X68.499 Y5.2857
G1 X68.3966 Y5.4588
G1 X68.3053 Y5.638
G1 X68.2255 Y5.8225
G1 X68.1575 Y6.0113
G1 X68.1014 Y6.2043
G1 X68.0576 Y6.4007
G1 X68.0261 Y6.599
G1 X68.0072 Y6.7991
G1 X68.0009 Y7.0
G1 X68.0072 Y7.2009
G1 X68.0261 Y7.401
G1 X68.0576 Y7.5993
G1 X68.1014 Y7.7957
G1 X68.1575 Y7.9887
G1 X68.2255 Y8.1775
G1 X68.3053 Y8.362
G1 X68.3966 Y8.5412
G1 X68.499 Y8.7143
G1 X68.6119 Y8.8805
G1 X68.7349 Y9.039
G1 X68.8679 Y9.1898
G1 X69.0102 Y9.3321
G1 X69.1609 Y9.4651
G1 X69.3195 Y9.588
G1 X69.4858 Y9.701
G1 X69.6588 Y9.8034
G1 X69.8379 Y9.8946
G1 X70.0225 Y9.9745
G1 X70.2113 Y10.0425
G1 X70.4043 Y10.0985
G1 X70.6007 Y10.1424
G1 X70.799 Y10.1739
G1 X70.999 Y10.1928
G1 X71.2 Y10.1991
G1 X71.401 Y10.1928
G1 X71.601 Y10.1739
G1 X71.7993 Y10.1424
G1 X71.9958 Y10.0985
G1 X72.1886 Y10.0425
G1 X72.3775 Y9.9745
G1 X72.5621 Y9.8946
G1 X72.7412 Y9.8034
G1 X72.9142 Y9.701
G1 X73.0805 Y9.588
G1 X73.2391 Y9.4651
G1 X73.3898 Y9.3321
G1 X73.5321 Y9.1898
G1 X73.6651 Y9.039
G1 X73.7881 Y8.8805
G1 X73.901 Y8.7143
G1 X74.0034 Y8.5412
G1 X74.0947 Y8.362
G1 X74.1745 Y8.1775
G1 X74.2425 Y7.9887
G1 X74.2986 Y7.7957
G1 X74.3424 Y7.5993
G1 X74.3739 Y7.401
G1 X74.3928 Y7.2009
G1 X74.3991 Y7.0
G1 X74.3928 Y6.7991
G1 X74.3739 Y6.599
G1 X74.3424 Y6.4007
G1 X74.2986 Y6.2043
G1 X74.2425 Y6.0113
G1 X74.1745 Y5.8225
G1 X74.0947 Y5.638
G1 X74.0034 Y5.4588
G1 X73.901 Y5.2857
G1 X73.788 Y5.1195
G1 X73.6651 Y4.9609
G1 X73.5321 Y4.8102
G1 X73.3899 Y4.6679
G1 X73.2391 Y4.535
G1 X73.0804 Y4.4119
G1 X72.9141 Y4.2989
G1 X72.7412 Y4.1966
G1 X72.5622 Y4.1054
G1 X72.3777 Y4.0255
G1 X72.1885 Y3.9574
G1 X71.9956 Y3.9014
G1 X71.7995 Y3.8576
G1 X71.601 Y3.8261
G1 X71.4009 Y3.8072
G1 X71.2 Y3.8009
G1 X70.9991 Y3.8072
G1 X70.799 Y3.8261
G1 X70.6006 Y3.8575
G1 X70.5147 Y3.8768
G1 F150.0 X70.3401 Y3.096
G1 F400.0 X70.2054 Y3.1261
G1 X69.9641 Y3.1962
G1 X69.7277 Y3.2814
G1 X69.4971 Y3.3811
G1 X69.2732 Y3.4952
G1 X69.057 Y3.6231
G1 X68.8492 Y3.7643
G1 X68.6507 Y3.9183
G1 X68.4622 Y4.0845
G1 X68.2845 Y4.2622
G1 X68.1183 Y4.4507
G1 X67.9644 Y4.6491
G1 X67.8232 Y4.8569
G1 X67.6952 Y5.0732
G1 X67.5811 Y5.2972
G1 X67.4813 Y5.5278
G1 X67.3962 Y5.764
G1 X67.3262 Y6.0053
G1 X67.2714 Y6.2506
G1 X67.232 Y6.4987
G1 X67.2084 Y6.7488
G1 X67.2005 Y7.0
G1 X67.2084 Y7.2512
G1 X67.232 Y7.5013
G1 X67.2714 Y7.7494
G1 X67.3262 Y7.9947
G1 X67.3962 Y8.236
G1 X67.4813 Y8.4722
G1 X67.5811 Y8.7028
G1 X67.6952 Y8.9268
G1 X67.8232 Y9.1431
G1 X67.9644 Y9.3509
G1 X68.1182 Y9.5493
G1 X68.2845 Y9.7377
G1 X68.4623 Y9.9155
G1 X68.6507 Y10.0818
G1 X68.8491 Y10.2356
G1 X69.057 Y10.3768
G1 X69.2732 Y10.5048
G1 X69.4971 Y10.6188
G1 X69.7278 Y10.7187
G1 X69.964 Y10.8038
G1 X70.2053 Y10.8738
G1 X70.4507 Y10.9286
G1 X70.6987 Y10.968
G1 X70.9488 Y10.9916
G1 X71.2 Y10.9995
G1 X71.4512 Y10.9916
G1 X71.7013 Y10.968
G1 X71.9494 Y10.9286
G1 X72.1948 Y10.8738
G1 X72.4359 Y10.8038
G1 X72.6722 Y10.7187
G1 X72.9029 Y10.6188
G1 X73.1268 Y10.5048
G1 X73.343 Y10.3768
G1 X73.5509 Y10.2356
G1 X73.7493 Y10.0818
G1 X73.9377 Y9.9155
G1 X74.1155 Y9.7377
G1 X74.2818 Y9.5493
G1 X74.4356 Y9.3509
G1 X74.5768 Y9.1431
G1 X74.7048 Y8.9268
G1 X74.8189 Y8.7028
G1 X74.9187 Y8.4722
G1 X75.0038 Y8.236
G1 X75.0738 Y7.9947
G1 X75.1286 Y7.7494
G1 X75.168 Y7.5013
G1 X75.1916 Y7.2512
G1 X75.1995 Y7.0
G1 X75.1916 Y6.7488
G1 X75.168 Y6.4987
G1 X75.1286 Y6.2506
G1 X75.0738 Y6.0053
G1 X75.0038 Y5.764
G1 X74.9187 Y5.5278
G1 X74.8189 Y5.2972
G1 X74.7048 Y5.0732
G1 X74.5768 Y4.8569
G1 X74.4356 Y4.6491
G1 X74.2817 Y4.4507
G1 X74.1155 Y4.2622
G1 X73.9378 Y4.0845
G1 X73.7493 Y3.9183
G1 X73.5508 Y3.7643
G1 X73.343 Y3.6231
G1 X73.1268 Y3.4952
G1 X72.9029 Y3.3811
G1 X72.6723 Y3.2814
G1 X72.4359 Y3.1962
G1 X72.1947 Y3.1261
G1 X71.9494 Y3.0713
G1 X71.7013 Y3.032
G1 X71.4512 Y3.0084
G1 X71.2 Y3.0005
G1 X70.9488 Y3.0084
G1 X70.6987 Y3.032
G1 X70.4506 Y3.0713
G1 X70.3401 Y3.096
G0 Z6.0
G0 X71.1255 Y6.6093
G1 F150.0 Z0.6
G1 F400.0 X71.1011 Y6.6148 Z0.596
G1 X71.0771 Y6.6217 Z0.592
G1 X71.0536 Y6.6302 Z0.588
G1 X71.0305 Y6.6402 Z0.584
G1 X71.0085 Y6.6514 Z0.58
G1 X70.9871 Y6.6641 Z0.576
G1 X70.9662 Y6.6783 Z0.572
G1 X70.9466 Y6.6935 Z0.568
G1 X70.9279 Y6.71 Z0.564
G1 X70.9098 Y6.728 Z0.5599
G1 X70.8933 Y6.7467 Z0.5559
G1 X70.8785 Y6.7659 Z0.5521
G1 X70.8644 Y6.7866 Z0.548
G1 X70.8515 Y6.8084 Z0.544
G1 X70.84 Y6.8309 Z0.5399
G1 X70.8301 Y6.8539 Z0.5359
G1 X70.8218 Y6.8769 Z0.532
G1 X70.8149 Y6.9007 Z0.5281
G1 X70.8093 Y6.9258 Z0.5239
G1 X70.8054 Y6.9502 Z0.52
G1 X70.8031 Y6.9748 Z0.516
G1 X70.8023 Y7.0 Z0.512
G1 X70.8031 Y7.0252 Z0.508
G1 X70.8054 Y7.0498 Z0.504
G1 X70.8093 Y7.0742 Z0.5
G1 X70.8149 Y7.0993 Z0.4959
G1 X70.8218 Y7.1231 Z0.492
G1 X70.8301 Y7.1461 Z0.488
G1 X70.84 Y7.1691 Z0.484
G1 X70.8515 Y7.1916 Z0.48
G1 X70.8644 Y7.2134 Z0.4759
G1 X70.8784 Y7.2341 Z0.4719
G1 X70.8932 Y7.2531 Z0.4681
G1 X70.9098 Y7.2719 Z0.4641
G1 X70.9281 Y7.2902 Z0.4599
G1 X70.9468 Y7.3067 Z0.4559
G1 X70.9658 Y7.3215 Z0.4521
G1 X70.9868 Y7.3357 Z0.448
G1 X71.0085 Y7.3486 Z0.444
G1 X71.0308 Y7.3599 Z0.44
G1 X71.054 Y7.3699 Z0.4359
G1 X71.0768 Y7.3782 Z0.432
G1 X71.1007 Y7.3851 Z0.4281
G1 X71.1259 Y7.3907 Z0.4239
G1 X71.1502 Y7.3946 Z0.42
G1 X71.1748 Y7.3969 Z0.416
G1 X71.2 Y7.3977 Z0.412
G1 X71.2252 Y7.3969 Z0.408
G1 X71.2498 Y7.3946 Z0.404
G1 X71.2743 Y7.3907 Z0.4
G1 X71.2993 Y7.3851 Z0.3959
G1 X71.323 Y7.3783 Z0.392
G1 X71.346 Y7.3699 Z0.3881
G1 X71.3692 Y7.3599 Z0.384
G1 X71.3915 Y7.3486 Z0.38
G1 X71.4132 Y7.3357 Z0.376
G1 X71.4342 Y7.3215 Z0.3719
G1 X71.4532 Y7.3067 Z0.3681
G1 X71.4719 Y7.2902 Z0.3641
G1 X71.4902 Y7.2719 Z0.3599
G1 X71.5068 Y7.2531 Z0.3559
G1 X71.5216 Y7.2341 Z0.352
G1 X71.5356 Y7.2134 Z0.348
G1 X71.5485 Y7.1916 Z0.344
G1 X71.56 Y7.1691 Z0.3399
G1 X71.5699 Y7.1461 Z0.3359
G1 X71.5782 Y7.1231 Z0.332
G1 X71.5851 Y7.0993 Z0.328
G1 X71.5907 Y7.0742 Z0.3239
G1 X71.5946 Y7.0498 Z0.32
G1 X71.5969 Y7.0252 Z0.316
G1 X71.5977 Y7.0 Z0.312
G1 X71.5969 Y6.9748 Z0.308
G1 X71.5946 Y6.9502 Z0.304
G1 X71.5907 Y6.9258 Z0.3
G1 X71.5851 Y6.9007 Z0.2959
G1 X71.5782 Y6.8769 Z0.292
G1 X71.5699 Y6.8539 Z0.288
G1 X71.56 Y6.8309 Z0.284
G1 X71.5485 Y6.8084 Z0.28
G1 X71.5356 Y6.7866 Z0.2759
G1 X71.5215 Y6.7659 Z0.2719
G1 X71.5067 Y6.7467 Z0.268
G1 X71.4902 Y6.728 Z0.264
G1 X71.4721 Y6.71 Z0.26
G1 X71.4534 Y6.6935 Z0.256
G1 X71.4338 Y6.6783 Z0.252
G1 X71.4129 Y6.6641 Z0.248
G1 X71.3915 Y6.6514 Z0.244
G1 X71.3695 Y6.6402 Z0.24
G1 X71.3464 Y6.6302 Z0.236
G1 X71.3227 Y6.6217 Z0.232
G1 X71.2989 Y6.6148 Z0.228
G1 X71.2746 Y6.6093 Z0.224
G1 X71.2499 Y6.6054 Z0.22
G1 X71.225 Y6.6031 Z0.216
G1 X71.2 Y6.6023 Z0.212
G1 X71.175 Y6.6031 Z0.208
G1 X71.1501 Y6.6054 Z0.204
G1 X71.1255 Y6.6093 Z0.2
G1 F150.0 X71.0383 Y6.2189
G1 F400.0 X71.0016 Y6.2271
G1 X70.9534 Y6.2411
G1 X70.9063 Y6.2581
G1 X70.8601 Y6.2781
G1 X70.8157 Y6.3007
G1 X70.7726 Y6.3262
G1 X70.731 Y6.3545
G1 X70.6915 Y6.3851
G1 X70.6539 Y6.4183
G1 X70.6181 Y6.454
G1 X70.585 Y6.4916
G1 X70.5547 Y6.5307
G1 X70.5265 Y6.5722
G1 X70.5008 Y6.6156
G1 X70.4779 Y6.6605
G1 X70.458 Y6.7066
G1 X70.4412 Y6.7532
G1 X70.4272 Y6.8012
G1 X70.4162 Y6.8508
G1 X70.4084 Y6.9
G1 X70.4037 Y6.9497
G1 X70.4021 Y7.0
G1 X70.4037 Y7.0503
G1 X70.4084 Y7.1
G1 X70.4162 Y7.1492
G1 X70.4272 Y7.1988
G1 X70.4412 Y7.2468
G1 X70.458 Y7.2934
G1 X70.4779 Y7.3395
G1 X70.5008 Y7.3844
G1 X70.5265 Y7.4278
G1 X70.5547 Y7.4693
G1 X70.5849 Y7.5082
G1 X70.6181 Y7.5459
G1 X70.6541 Y7.5819
G1 X70.6917 Y7.615
G1 X70.7307 Y7.6453
G1 X70.7724 Y7.6736
G1 X70.8157 Y7.6993
G1 X70.8604 Y7.722
G1 X70.9066 Y7.742
G1 X70.9532 Y7.7588
G1 X71.0012 Y7.7727
G1 X71.0509 Y7.7838
G1 X71.1 Y7.7916
G1 X71.1497 Y7.7963
G1 X71.2 Y7.7979
G1 X71.2503 Y7.7963
G1 X71.3 Y7.7916
G1 X71.3493 Y7.7838
G1 X71.3988 Y7.7727
G1 X71.4466 Y7.7589
G1 X71.4934 Y7.742
G1 X71.5396 Y7.722
G1 X71.5843 Y7.6993
G1 X71.6276 Y7.6736
G1 X71.6693 Y7.6453
G1 X71.7083 Y7.615
G1 X71.7459 Y7.5819
G1 X71.7819 Y7.5459
G1 X71.8151 Y7.5082
G1 X71.8453 Y7.4693
G1 X71.8735 Y7.4278
G1 X71.8992 Y7.3844
G1 X71.9221 Y7.3395
G1 X71.942 Y7.2934
G1 X71.9588 Y7.2468
G1 X71.9728 Y7.1988
G1 X71.9838 Y7.1492
G1 X71.9916 Y7.1
G1 X71.9963 Y7.0503
G1 X71.9979 Y7.0
G1 X71.9963 Y6.9497
G1 X71.9916 Y6.9
G1 X71.9838 Y6.8508
G1 X71.9728 Y6.8012
G1 X71.9588 Y6.7532
G1 X71.942 Y6.7066
G1 X71.9221 Y6.6605
G1 X71.8992 Y6.6156
G1 X71.8735 Y6.5722
G1 X71.8453 Y6.5307
G1 X71.815 Y6.4916
G1 X71.7819 Y6.454
G1 X71.7461 Y6.4183
G1 X71.7085 Y6.3851
G1 X71.669 Y6.3545
G1 X71.6274 Y6.3262
G1 X71.5843 Y6.3007
G1 X71.5399 Y6.2781
G1 X71.4937 Y6.2581
G1 X71.4464 Y6.2411
G1 X71.3985 Y6.2271
G1 X71.3496 Y6.2162
G1 X71.3 Y6.2084
G1 X71.2501 Y6.2037
G1 X71.2 Y6.2021
G1 X71.1499 Y6.2037
G1 X71.1 Y6.2084
G1 X71.0505 Y6.2162
G1 X71.0383 Y6.2189
G1 F150.0 X70.8637 Y5.4382
G1 F400.0 X70.8025 Y5.4519
G1 X70.7061 Y5.4799
G1 X70.6116 Y5.5139
G1 X70.5194 Y5.5538
G1 X70.4301 Y5.5993
G1 X70.3437 Y5.6504
G1 X70.2605 Y5.707
G1 X70.1813 Y5.7684
G1 X70.106 Y5.8348
G1 X70.0347 Y5.9061
G1 X69.9683 Y5.9814
G1 X69.9071 Y6.0603
G1 X69.8506 Y6.1434
G1 X69.7994 Y6.23
G1 X69.7537 Y6.3197
G1 X69.7138 Y6.4119
G1 X69.6799 Y6.5059
G1 X69.652 Y6.6022
G1 X69.63 Y6.7007
G1 X69.6143 Y6.7997
G1 X69.6049 Y6.8995
G1 X69.6017 Y7.0
G1 X69.6049 Y7.1005
G1 X69.6143 Y7.2003
G1 X69.63 Y7.2993
G1 X69.652 Y7.3977
G1 X69.6799 Y7.4941
G1 X69.7138 Y7.5881
G1 X69.7537 Y7.6803
G1 X69.7994 Y7.77
G1 X69.8506 Y7.8566
G1 X69.9071 Y7.9397
G1 X69.9682 Y8.0185
G1 X70.0347 Y8.0938
G1 X70.1062 Y8.1653
G1 X70.1814 Y8.2317
G1 X70.2603 Y8.2929
G1 X70.3436 Y8.3494
G1 X70.4301 Y8.4006
G1 X70.5196 Y8.4462
G1 X70.6119 Y8.4862
G1 X70.7059 Y8.52
G1 X70.8022 Y8.548
G1 X70.9008 Y8.57
G1 X70.9997 Y8.5857
G1 X71.0994 Y8.5951
G1 X71.2 Y8.5983
G1 X71.3006 Y8.5951
G1 X71.4003 Y8.5857
G1 X71.4993 Y8.57
G1 X71.5978 Y8.548
G1 X71.694 Y8.5201
G1 X71.7881 Y8.4862
G1 X71.8804 Y8.4462
G1 X71.9699 Y8.4006
G1 X72.0564 Y8.3494
G1 X72.1397 Y8.2929
G1 X72.2186 Y8.2317
G1 X72.2938 Y8.1653
G1 X72.3653 Y8.0938
G1 X72.4318 Y8.0185
G1 X72.4929 Y7.9397
G1 X72.5494 Y7.8566
G1 X72.6006 Y7.77
G1 X72.6463 Y7.6803
G1 X72.6862 Y7.5881
G1 X72.7201 Y7.4941
G1 X72.748 Y7.3977
G1 X72.77 Y7.2993
G1 X72.7857 Y7.2003
G1 X72.7951 Y7.1005
G1 X72.7983 Y7.0
G1 X72.7951 Y6.8995
G1 X72.7857 Y6.7997
G1 X72.77 Y6.7007
G1 X72.748 Y6.6022
G1 X72.7201 Y6.5059
G1 X72.6862 Y6.4119
G1 X72.6463 Y6.3197
G1 X72.6006 Y6.23
G1 X72.5494 Y6.1434
G1 X72.4929 Y6.0603
G1 X72.4317 Y5.9814
G1 X72.3653 Y5.9061
G1 X72.294 Y5.8348
G1 X72.2187 Y5.7684
G1 X72.1395 Y5.707
G1 X72.0563 Y5.6504
G1 X71.9699 Y5.5993
G1 X71.8806 Y5.5538
G1 X71.7884 Y5.5139
G1 X71.6938 Y5.4799
G1 X71.5975 Y5.4519
G1 X71.4996 Y5.43
G1 X71.4004 Y5.4143
G1 X71.3004 Y5.4048
G1 X71.2 Y5.4017
G1 X71.0996 Y5.4048
G1 X70.9996 Y5.4143
G1 X70.9006 Y5.43
G1 X70.8637 Y5.4382
G1 F150.0 X70.6892 Y4.6575
G1 F400.0 X70.6035 Y4.6766
G1 X70.4587 Y4.7187
G1 X70.317 Y4.7697
G1 X70.1786 Y4.8296
G1 X70.0445 Y4.8979
G1 X69.9148 Y4.9746
G1 X69.7901 Y5.0594
G1 X69.6711 Y5.1517
G1 X69.558 Y5.2514
G1 X69.4513 Y5.3581
G1 X69.3516 Y5.4711
G1 X69.2595 Y5.5899
G1 X69.1748 Y5.7146
G1 X69.098 Y5.8444
G1 X69.0295 Y5.9788
G1 X68.9696 Y6.1172
G1 X68.9187 Y6.2586
G1 X68.8767 Y6.4033
G1 X68.8438 Y6.5507
G1 X68.8202 Y6.6994
G1 X68.806 Y6.8493
G1 X68.8013 Y7.0
G1 X68.806 Y7.1507
G1 X68.8202 Y7.3006
G1 X68.8438 Y7.4493
G1 X68.8767 Y7.5967
G1 X68.9187 Y7.7414
G1 X68.9696 Y7.8828
G1 X69.0295 Y8.0212
G1 X69.098 Y8.1556
G1 X69.1748 Y8.2854
G1 X69.2595 Y8.4101
G1 X69.3516 Y8.5288
G1 X69.4513 Y8.6418
G1 X69.5582 Y8.7487
G1 X69.6712 Y8.8484
G1 X69.7899 Y8.9404
G1 X69.9147 Y9.0252
G1 X70.0445 Y9.102
G1 X70.1788 Y9.1704
G1 X70.3172 Y9.2304
G1 X70.4586 Y9.2813
G1 X70.6033 Y9.3233
G1 X70.7508 Y9.3562
G1 X70.8994 Y9.3798
G1 X71.0492 Y9.394
G1 X71.2 Y9.3987
G1 X71.3508 Y9.394
G1 X71.5006 Y9.3798
G1 X71.6493 Y9.3562
G1 X71.7968 Y9.3233
G1 X71.9413 Y9.2813
G1 X72.0828 Y9.2304
G1 X72.2212 Y9.1704
G1 X72.3555 Y9.102
G1 X72.4853 Y9.0252
G1 X72.6101 Y8.9404
G1 X72.7288 Y8.8484
G1 X72.8418 Y8.7487
G1 X72.9487 Y8.6418
G1 X73.0484 Y8.5288
G1 X73.1405 Y8.4101
G1 X73.2252 Y8.2854
G1 X73.302 Y8.1556
G1 X73.3705 Y8.0212
G1 X73.4304 Y7.8828
G1 X73.4813 Y7.7414
G1 X73.5233 Y7.5967
G1 X73.5562 Y7.4493
G1 X73.5798 Y7.3006
G1 X73.594 Y7.1507
G1 X73.5987 Y7.0
G1 X73.594 Y6.8493
G1 X73.5798 Y6.6994
G1 X73.5562 Y6.5507
G1 X73.5233 Y6.4033
G1 X73.4813 Y6.2586
G1 X73.4304 Y6.1172
G1 X73.3705 Y5.9788
G1 X73.302 Y5.8444
G1 X73.2252 Y5.7146
G1 X73.1405 Y5.5899
G1 X73.0484 Y5.4711
G1 X72.9487 Y5.3581
G1 X72.842 Y5.2514
G1 X72.7289 Y5.1517
G1 X72.6099 Y5.0594
G1 X72.4852 Y4.9746
G1 X72.3555 Y4.8979
G1 X72.2214 Y4.8296
G1 X72.083 Y4.7697
G1 X71.9411 Y4.7187
G1 X71.7966 Y4.6766
G1 X71.6495 Y4.6438
G1 X71.5007 Y4.6202
G1 X71.3507 Y4.606
G1 X71.2 Y4.6013
G1 X71.0493 Y4.606
G1 X70.8993 Y4.6202
G1 X70.7506 Y4.6438
G1 X70.6892 Y4.6575
G1 F150.0 X70.5147 Y3.8768
G1 F400.0 X70.4045 Y3.9014
G1 X70.2114 Y3.9575
G1 X70.0223 Y4.0255
G1 X69.8378 Y4.1054
G1 X69.6588 Y4.1966
G1 X69.4859 Y4.2989
G1 X69.3196 Y4.4119
G1 X69.1609 Y4.535
G1 X69.0101 Y4.6679
G1 X68.8679 Y4.8102
G1 X68.7349 Y4.9609
G1 X68.612 Y5.1195
G1 X68.499 Y5.2857
G1 X68.3966 Y5.4588
G1 X68.3053 Y5.638
G1 X68.2255 Y5.8225
G1 X68.1575 Y6.0113
G1 X68.1014 Y6.2043
G1 X68.0576 Y6.4007
G1 X68.0261 Y6.599
G1 X68.0072 Y6.7991
G1 X68.0009 Y7.0
G1 X68.0072 Y7.2009
G1 X68.0261 Y7.401
G1 X68.0576 Y7.5993
G1 X68.1014 Y7.7957
G1 X68.1575 Y7.9887
G1 X68.2255 Y8.1775
G1 X68.3053 Y8.362
G1 X68.3966 Y8.5412
G1 X68.499 Y8.7143
G1 X68.6119 Y8.8805
G1 X68.7349 Y9.039
G1 X68.8679 Y9.1898
G1 X69.0102 Y9.3321
G1 X69.1609 Y9.4651
G1 X69.3195 Y9.588
G1 X69.4858 Y9.701
G1 X69.6588 Y9.8034
G1 X69.8379 Y9.8946
G1 X70.0225 Y9.9745
G1 X70.2113 Y10.0425
G1 X70.4043 Y10.0985
G1 X70.6007 Y10.1424
G1 X70.799 Y10.1739
G1 X70.999 Y10.1928
G1 X71.2 Y10.1991
G1 X71.401 Y10.1928
G1 X71.601 Y10.1739
G1 X71.7993 Y10.1424
G1 X71.9958 Y10.0985
G1 X72.1886 Y10.0425
G1 X72.3775 Y9.9745
G1 X72.5621 Y9.8946
G1 X72.7412 Y9.8034
G1 X72.9142 Y9.701
G1 X73.0805 Y9.588
G1 X73.2391 Y9.4651
G1 X73.3898 Y9.3321
G1 X73.5321 Y9.1898
G1 X73.6651 Y9.039
G1 X73.7881 Y8.8805
G1 X73.901 Y8.7143
G1 X74.0034 Y8.5412
G1 X74.0947 Y8.362
G1 X74.1745 Y8.1775
G1 X74.2425 Y7.9887
G1 X74.2986 Y7.7957
G1 X74.3424 Y7.5993
G1 X74.3739 Y7.401
G1 X74.3928 Y7.2009
G1 X74.3991 Y7.0
G1 X74.3928 Y6.7991
G1 X74.3739 Y6.599
G1 X74.3424 Y6.4007
G1 X74.2986 Y6.2043
G1 X74.2425 Y6.0113
G1 X74.1745 Y5.8225
G1 X74.0947 Y5.638
G1 X74.0034 Y5.4588
G1 X73.901 Y5.2857
G1 X73.788 Y5.1195
G1 X73.6651 Y4.9609
G1 X73.5321 Y4.8102
G1 X73.3899 Y4.6679
G1 X73.2391 Y4.535
G1 X73.0804 Y4.4119
G1 X72.9141 Y4.2989
G1 X72.7412 Y4.1966
G1 X72.5622 Y4.1054
G1 X72.3777 Y4.0255
G1 X72.1885 Y3.9574
G1 X71.9956 Y3.9014
G1 X71.7995 Y3.8576
G1 X71.601 Y3.8261
G1 X71.4009 Y3.8072
G1 X71.2 Y3.8009
G1 X70.9991 Y3.8072
G1 X70.799 Y3.8261
G1 X70.6006 Y3.8575
G1 X70.5147 Y3.8768
G1 F150.0 X70.3401 Y3.096
G1 F400.0 X70.2054 Y3.1261
G1 X69.9641 Y3.1962
G1 X69.7277 Y3.2814
G1 X69.4971 Y3.3811
G1 X69.2732 Y3.4952
G1 X69.057 Y3.6231
G1 X68.8492 Y3.7643
G1 X68.6507 Y3.9183
G1 X68.4622 Y4.0845
G1 X68.2845 Y4.2622
G1 X68.1183 Y4.4507
G1 X67.9644 Y4.6491
G1 X67.8232 Y4.8569
G1 X67.6952 Y5.0732
G1 X67.5811 Y5.2972
G1 X67.4813 Y5.5278
G1 X67.3962 Y5.764
G1 X67.3262 Y6.0053
G1 X67.2714 Y6.2506
G1 X67.232 Y6.4987
G1 X67.2084 Y6.7488
G1 X67.2005 Y7.0
G1 X67.2084 Y7.2512
G1 X67.232 Y7.5013
G1 X67.2714 Y7.7494
G1 X67.3262 Y7.9947
G1 X67.3962 Y8.236
G1 X67.4813 Y8.4722
G1 X67.5811 Y8.7028
G1 X67.6952 Y8.9268
G1 X67.8232 Y9.1431
G1 X67.9644 Y9.3509
G1 X68.1182 Y9.5493
G1 X68.2845 Y9.7377
G1 X68.4623 Y9.9155
G1 X68.6507 Y10.0818
G1 X68.8491 Y10.2356
G1 X69.057 Y10.3768
G1 X69.2732 Y10.5048
G1 X69.4971 Y10.6188
G1 X69.7278 Y10.7187
G1 X69.964 Y10.8038
G1 X70.2053 Y10.8738
G1 X70.4507 Y10.9286
G1 X70.6987 Y10.968
G1 X70.9488 Y10.9916
G1 X71.2 Y10.9995
G1 X71.4512 Y10.9916
G1 X71.7013 Y10.968
G1 X71.9494 Y10.9286
G1 X72.1948 Y10.8738
G1 X72.4359 Y10.8038
G1 X72.6722 Y10.7187
G1 X72.9029 Y10.6188
G1 X73.1268 Y10.5048
G1 X73.343 Y10.3768
G1 X73.5509 Y10.2356
G1 X73.7493 Y10.0818
G1 X73.9377 Y9.9155
G1 X74.1155 Y9.7377
G1 X74.2818 Y9.5493
G1 X74.4356 Y9.3509
G1 X74.5768 Y9.1431
G1 X74.7048 Y8.9268
G1 X74.8189 Y8.7028
G1 X74.9187 Y8.4722
G1 X75.0038 Y8.236
G1 X75.0738 Y7.9947
G1 X75.1286 Y7.7494
G1 X75.168 Y7.5013
G1 X75.1916 Y7.2512
G1 X75.1995 Y7.0
G1 X75.1916 Y6.7488
G1 X75.168 Y6.4987
G1 X75.1286 Y6.2506
G1 X75.0738 Y6.0053
G1 X75.0038 Y5.764
G1 X74.9187 Y5.5278
G1 X74.8189 Y5.2972
G1 X74.7048 Y5.0732
G1 X74.5768 Y4.8569
G1 X74.4356 Y4.6491
G1 X74.2817 Y4.4507
G1 X74.1155 Y4.2622
G1 X73.9378 Y4.0845
G1 X73.7493 Y3.9183
G1 X73.5508 Y3.7643
G1 X73.343 Y3.6231
G1 X73.1268 Y3.4952
G1 X72.9029 Y3.3811
G1 X72.6723 Y3.2814
G1 X72.4359 Y3.1962
G1 X72.1947 Y3.1261
G1 X71.9494 Y3.0713
G1 X71.7013 Y3.032
G1 X71.4512 Y3.0084
G1 X71.2 Y3.0005
G1 X70.9488 Y3.0084
G1 X70.6987 Y3.032
G1 X70.4506 Y3.0713
G1 X70.3401 Y3.096
G0 Z6.0
G0 X71.1255 Y6.6093
G1 F150.0 Z0.2
G1 F400.0 X71.1011 Y6.6148 Z0.196
G1 X71.0771 Y6.6217 Z0.192
G1 X71.0536 Y6.6302 Z0.188
G1 X71.0305 Y6.6402 Z0.184
G1 X71.0085 Y6.6514 Z0.18
G1 X70.9871 Y6.6641 Z0.176
G1 X70.9662 Y6.6783 Z0.172
G1 X70.9466 Y6.6935 Z0.168
G1 X70.9279 Y6.71 Z0.164
G1 X70.9098 Y6.728 Z0.1599
G1 X70.8933 Y6.7467 Z0.1559
G1 X70.8785 Y6.7659 Z0.1521
G1 X70.8644 Y6.7866 Z0.148
G1 X70.8515 Y6.8084 Z0.144
G1 X70.84 Y6.8309 Z0.1399
G1 X70.8301 Y6.8539 Z0.1359
G1 X70.8218 Y6.8769 Z0.132
G1 X70.8149 Y6.9007 Z0.1281
G1 X70.8093 Y6.9258 Z0.1239
G1 X70.8054 Y6.9502 Z0.12
G1 X70.8031 Y6.9748 Z0.116
G1 X70.8023 Y7.0 Z0.112
G1 X70.8031 Y7.0252 Z0.108
G1 X70.8054 Y7.0498 Z0.104
G1 X70.8093 Y7.0742 Z0.1
G1 X70.8149 Y7.0993 Z0.0959
G1 X70.8218 Y7.1231 Z0.092
G1 X70.8301 Y7.1461 Z0.088
G1 X70.84 Y7.1691 Z0.084
G1 X70.8515 Y7.1916 Z0.08
G1 X70.8644 Y7.2134 Z0.0759
G1 X70.8784 Y7.2341 Z0.0719
G1 X70.8932 Y7.2531 Z0.0681
G1 X70.9098 Y7.2719 Z0.0641
G1 X70.9281 Y7.2902 Z0.0599
G1 X70.9468 Y7.3067 Z0.0559
G1 X70.9658 Y7.3215 Z0.0521
G1 X70.9868 Y7.3357 Z0.048
G1 X71.0085 Y7.3486 Z0.044
G1 X71.0308 Y7.3599 Z0.04
G1 X71.054 Y7.3699 Z0.0359
G1 X71.0768 Y7.3782 Z0.032
G1 X71.1007 Y7.3851 Z0.0281
G1 X71.1259 Y7.3907 Z0.0239
G1 X71.1502 Y7.3946 Z0.02
G1 X71.1748 Y7.3969 Z0.016
G1 X71.2 Y7.3977 Z0.012
G1 X71.2252 Y7.3969 Z0.008
G1 X71.2498 Y7.3946 Z0.004
G1 X71.2743 Y7.3907 Z0.0
G1 X71.2993 Y7.3851 Z-0.0041
G1 X71.323 Y7.3783 Z-0.008
G1 X71.346 Y7.3699 Z-0.0119
G1 X71.3692 Y7.3599 Z-0.016
G1 X71.3915 Y7.3486 Z-0.02
G1 X71.4132 Y7.3357 Z-0.024
G1 X71.4342 Y7.3215 Z-0.0281
G1 X71.4532 Y7.3067 Z-0.0319
G1 X71.4719 Y7.2902 Z-0.0359
G1 X71.4902 Y7.2719 Z-0.0401
G1 X71.5068 Y7.2531 Z-0.0441
G1 X71.5216 Y7.2341 Z-0.048
G1 X71.5356 Y7.2134 Z-0.052
G1 X71.5485 Y7.1916 Z-0.056
G1 X71.56 Y7.1691 Z-0.0601
G1 X71.5699 Y7.1461 Z-0.0641
G1 X71.5782 Y7.1231 Z-0.068
G1 X71.5851 Y7.0993 Z-0.072
G1 X71.5907 Y7.0742 Z-0.0761
G1 X71.5946 Y7.0498 Z-0.08
G1 X71.5969 Y7.0252 Z-0.084
G1 X71.5977 Y7.0 Z-0.088
G1 X71.5969 Y6.9748 Z-0.092
G1 X71.5946 Y6.9502 Z-0.096
G1 X71.5907 Y6.9258 Z-0.1
G1 X71.5851 Y6.9007 Z-0.1041
G1 X71.5782 Y6.8769 Z-0.108
G1 X71.5699 Y6.8539 Z-0.112
G1 X71.56 Y6.8309 Z-0.116
G1 X71.5485 Y6.8084 Z-0.12
G1 X71.5356 Y6.7866 Z-0.1241
G1 X71.5215 Y6.7659 Z-0.1281
G1 X71.5067 Y6.7467 Z-0.132
G1 X71.4902 Y6.728 Z-0.136
G1 X71.4721 Y6.71 Z-0.14
G1 X71.4534 Y6.6935 Z-0.144
G1 X71.4338 Y6.6783 Z-0.148
G1 X71.4129 Y6.6641 Z-0.152
G1 X71.3915 Y6.6514 Z-0.156
G1 X71.3695 Y6.6402 Z-0.16
G1 X71.3464 Y6.6302 Z-0.164
G1 X71.3227 Y6.6217 Z-0.168
G1 X71.2989 Y6.6148 Z-0.172
G1 X71.2746 Y6.6093 Z-0.176
G1 X71.2499 Y6.6054 Z-0.18
G1 X71.225 Y6.6031 Z-0.184
G1 X71.2 Y6.6023 Z-0.188
G1 X71.175 Y6.6031 Z-0.192
G1 X71.1501 Y6.6054 Z-0.196
G1 X71.1255 Y6.6093 Z-0.2
G1 F150.0 X71.0383 Y6.2189
G1 F400.0 X71.0016 Y6.2271
G1 X70.9534 Y6.2411
G1 X70.9063 Y6.2581
G1 X70.8601 Y6.2781
G1 X70.8157 Y6.3007
G1 X70.7726 Y6.3262
G1 X70.731 Y6.3545
G1 X70.6915 Y6.3851
G1 X70.6539 Y6.4183
G1 X70.6181 Y6.454
G1 X70.585 Y6.4916
G1 X70.5547 Y6.5307
G1 X70.5265 Y6.5722
G1 X70.5008 Y6.6156
G1 X70.4779 Y6.6605
G1 X70.458 Y6.7066
G1 X70.4412 Y6.7532
G1 X70.4272 Y6.8012
G1 X70.4162 Y6.8508
G1 X70.4084 Y6.9
G1 X70.4037 Y6.9497
G1 X70.4021 Y7.0
G1 X70.4037 Y7.0503
G1 X70.4084 Y7.1
G1 X70.4162 Y7.1492
G1 X70.4272 Y7.1988
G1 X70.4412 Y7.2468
G1 X70.458 Y7.2934
G1 X70.4779 Y7.3395
G1 X70.5008 Y7.3844
G1 X70.5265 Y7.4278
G1 X70.5547 Y7.4693
G1 X70.5849 Y7.5082
G1 X70.6181 Y7.5459
G1 X70.6541 Y7.5819
G1 X70.6917 Y7.615
G1 X70.7307 Y7.6453
G1 X70.7724 Y7.6736
G1 X70.8157 Y7.6993
G1 X70.8604 Y7.722
G1 X70.9066 Y7.742
G1 X70.9532 Y7.7588
G1 X71.0012 Y7.7727
G1 X71.0509 Y7.7838
G1 X71.1 Y7.7916
G1 X71.1497 Y7.7963
G1 X71.2 Y7.7979
G1 X71.2503 Y7.7963
G1 X71.3 Y7.7916
G1 X71.3493 Y7.7838
G1 X71.3988 Y7.7727
G1 X71.4466 Y7.7589
G1 X71.4934 Y7.742
G1 X71.5396 Y7.722
G1 X71.5843 Y7.6993
G1 X71.6276 Y7.6736
G1 X71.6693 Y7.6453
G1 X71.7083 Y7.615
G1 X71.7459 Y7.5819
G1 X71.7819 Y7.5459
G1 X71.8151 Y7.5082
G1 X71.8453 Y7.4693
G1 X71.8735 Y7.4278
G1 X71.8992 Y7.3844
G1 X71.9221 Y7.3395
G1 X71.942 Y7.2934
G1 X71.9588 Y7.2468
G1 X71.9728 Y7.1988
G1 X71.9838 Y7.1492
G1 X71.9916 Y7.1
G1 X71.9963 Y7.0503
G1 X71.9979 Y7.0
G1 X71.9963 Y6.9497
G1 X71.9916 Y6.9
G1 X71.9838 Y6.8508
G1 X71.9728 Y6.8012
G1 X71.9588 Y6.7532
G1 X71.942 Y6.7066
G1 X71.9221 Y6.6605
G1 X71.8992 Y6.6156
G1 X71.8735 Y6.5722
G1 X71.8453 Y6.5307
G1 X71.815 Y6.4916
G1 X71.7819 Y6.454
G1 X71.7461 Y6.4183
G1 X71.7085 Y6.3851
G1 X71.669 Y6.3545
G1 X71.6274 Y6.3262
G1 X71.5843 Y6.3007
G1 X71.5399 Y6.2781
G1 X71.4937 Y6.2581
G1 X71.4464 Y6.2411
G1 X71.3985 Y6.2271
G1 X71.3496 Y6.2162
G1 X71.3 Y6.2084
G1 X71.2501 Y6.2037
G1 X71.2 Y6.2021
G1 X71.1499 Y6.2037
G1 X71.1 Y6.2084
G1 X71.0505 Y6.2162
G1 X71.0383 Y6.2189
G1 F150.0 X70.8637 Y5.4382
G1 F400.0 X70.8025 Y5.4519
G1 X70.7061 Y5.4799
G1 X70.6116 Y5.5139
G1 X70.5194 Y5.5538
G1 X70.4301 Y5.5993
G1 X70.3437 Y5.6504
G1 X70.2605 Y5.707
G1 X70.1813 Y5.7684
G1 X70.106 Y5.8348
G1 X70.0347 Y5.9061
G1 X69.9683 Y5.9814
G1 X69.9071 Y6.0603
G1 X69.8506 Y6.1434
G1 X69.7994 Y6.23
G1 X69.7537 Y6.3197
G1 X69.7138 Y6.4119
G1 X69.6799 Y6.5059
G1 X69.652 Y6.6022
G1 X69.63 Y6.7007
G1 X69.6143 Y6.7997
G1 X69.6049 Y6.8995
G1 X69.6017 Y7.0
G1 X69.6049 Y7.1005
G1 X69.6143 Y7.2003
G1 X69.63 Y7.2993
