( Made using CamBam - http://www.cambam.co.uk )
( frontpanelExt 1/31/2021 9:21:46 PM )
( T2 : 2.0 )
( CUTVIEWER )
( FROM/0,0,5 )
( Select dummy tool to avoid warnings )
( TOOL/MILL,1,0,20.0,0 )
( STOCK/BLOCK,180.0,100.0,6.0,90.0,50.0,0.0 )
G21 G90 G91.1 G64 G40
G0 Z8.0
( T2 : 2.0 )
( Tool Taper coming soon )
( TOOL/MILL,2.0,0.0,0.0,0 )
T2 M6
( Profile1 )
G17
M3 S1000
G0 X-2.2348 Y27.5
G0 Z7.0
G1 F300.0 Z6.0
G1 F800.0 X-2.2082 Y27.4698
G3 X-2.1648 Y27.4236 Z5.9999 I0.7503 J0.6611
G1 X-2.076 Y27.3348 Z5.9997
G3 X-2.0305 Y27.2921 Z5.9996 I0.7069 J0.7073
G1 X-1.9362 Y27.209 Z5.9995
G3 X-1.8877 Y27.1688 Z5.9994 I0.6614 J0.75
G1 X-1.7884 Y27.0918 Z5.9993
G3 X-1.7381 Y27.0552 Z5.9992 I0.6129 J0.7902
G1 X-1.6341 Y26.9845 Z5.999
G3 X-1.5804 Y26.9504 I0.5625 J0.8268
G1 X-1.4722 Y26.8865 Z5.9988
G3 X-1.4179 Y26.8566 Z5.9987 I0.5087 J0.8609
G1 X-1.3059 Y26.7995 Z5.9986
G3 X-1.2487 Y26.7725 Z5.9985 I0.4544 J0.8908
G1 X-1.1334 Y26.7226 Z5.9984
G3 X-1.0746 Y26.6994 Z5.9983 I0.3972 J0.9178
G1 X-0.9563 Y26.6569 Z5.9981
G3 X-0.8974 Y26.6377 I0.3383 J0.941
G1 X-0.7767 Y26.6026 Z5.9979
G3 X-0.7155 Y26.5869 Z5.9978 I0.2793 J0.9602
G1 X-0.5928 Y26.5595 Z5.9977
G3 X-0.5308 Y26.5476 Z5.9976 I0.2181 J0.9759
G1 X-0.4067 Y26.528 Z5.9974
G3 X-0.3454 Y26.5203 I0.156 J0.9878
G1 X-0.2203 Y26.5084 Z5.9972
G3 X-0.1566 Y26.5044 Z5.9971 I0.0947 J0.9955
G1 X-0.031 Y26.5005 Z5.997
G3 X0.031 Z5.9969 I0.031 J0.9995
G1 X0.1566 Y26.5044 Z5.9968
G3 X0.2203 Y26.5084 Z5.9967 I-0.031 J0.9995
G1 X0.3454 Y26.5203 Z5.9965
G3 X0.4067 Y26.528 I-0.0947 J0.9955
G1 X0.5308 Y26.5476 Z5.9963
G3 X0.5928 Y26.5595 Z5.9962 I-0.156 J0.9878
G1 X0.7155 Y26.5869 Z5.9961
G3 X0.7767 Y26.6026 Z5.996 I-0.2181 J0.9759
G1 X0.8974 Y26.6377 Z5.9958
G3 X0.9563 Y26.6569 I-0.2793 J0.9602
G1 X1.0746 Y26.6994 Z5.9956
G3 X1.1334 Y26.7226 Z5.9955 I-0.3383 J0.941
G1 X1.2487 Y26.7725 Z5.9954
G3 X1.3059 Y26.7995 Z5.9953 I-0.3972 J0.9178
G1 X1.4179 Y26.8566 Z5.9952
G3 X1.4722 Y26.8865 Z5.9951 I-0.4544 J0.8908
G1 X1.5804 Y26.9504 Z5.9949
G3 X1.6341 Y26.9845 I-0.5087 J0.8609
G1 X1.7381 Y27.0552 Z5.9947
G3 X1.7884 Y27.0918 Z5.9946 I-0.5625 J0.8268
G1 X1.8877 Y27.1688 Z5.9945
G3 X1.9362 Y27.209 Z5.9944 I-0.6129 J0.7902
G1 X2.0305 Y27.2921 Z5.9943
G3 X2.076 Y27.3348 Z5.9942 I-0.6614 J0.75
G1 X2.1648 Y27.4236 Z5.994
G3 X2.2082 Y27.4698 I-0.7069 J0.7073
G1 X2.2348 Y27.5 Z5.9939
G1 X50.2652 Z5.9358
G1 X50.2918 Y27.4698
G3 X50.335 Y27.4238 Z5.9357 I0.7503 J0.6611
G1 X50.4238 Y27.335 Z5.9356
G3 X50.4698 Y27.2918 Z5.9355 I0.7071 J0.7071
G1 X50.5641 Y27.2087 Z5.9353
G3 X50.612 Y27.169 I0.6611 J0.7503
G1 X50.7112 Y27.092 Z5.9351
G3 X50.7618 Y27.0553 Z5.935 I0.6132 J0.79
G1 X50.8657 Y26.9846 Z5.9349
G3 X50.9198 Y26.9502 Z5.9348 I0.5626 J0.8267
G1 X51.028 Y26.8863 Z5.9347
G3 X51.082 Y26.8567 Z5.9346 I0.5085 J0.8611
G1 X51.1939 Y26.7996 Z5.9344
G3 X51.2512 Y26.7726 Z5.9343 I0.4545 J0.8907
G1 X51.3665 Y26.7227 Z5.9342
G3 X51.4256 Y26.6993 Z5.9341 I0.3972 J0.9177
G1 X51.5439 Y26.6568 Z5.934
G3 X51.6026 Y26.6377 Z5.9339 I0.3381 J0.9411
G1 X51.7232 Y26.6026 Z5.9337
G3 X51.7845 Y26.5869 I0.2794 J0.9602
G1 X51.9071 Y26.5595 Z5.9335
G3 X51.9692 Y26.5476 Z5.9334 I0.2181 J0.9759
G1 X52.0933 Y26.528 Z5.9333
G3 X52.1546 Y26.5203 Z5.9332 I0.156 J0.9878
G1 X52.2797 Y26.5084 Z5.9331
G3 X52.3434 Y26.5044 Z5.933 I0.0947 J0.9955
G1 X52.469 Y26.5005 Z5.9328
G3 X52.531 I0.031 J0.9995
G1 X52.6566 Y26.5044 Z5.9326
G3 X52.7203 Y26.5084 Z5.9325 I-0.031 J0.9995
G1 X52.8454 Y26.5203 Z5.9324
G3 X52.9067 Y26.528 Z5.9323 I-0.0947 J0.9955
G1 X53.0308 Y26.5476 Z5.9321
G3 X53.0929 Y26.5595 I-0.156 J0.9878
G1 X53.2155 Y26.5869 Z5.9319
G3 X53.2768 Y26.6026 Z5.9318 I-0.2181 J0.9759
G1 X53.3974 Y26.6377 Z5.9317
G3 X53.4564 Y26.6569 Z5.9316 I-0.2794 J0.9602
G1 X53.5746 Y26.6994 Z5.9315
G3 X53.6331 Y26.7225 Z5.9314 I-0.3384 J0.941
G1 X53.7485 Y26.7724 Z5.9312
G3 X53.8061 Y26.7996 I-0.3969 J0.9179
G1 X53.918 Y26.8567 Z5.931
G3 X53.972 Y26.8863 Z5.9309 I-0.4545 J0.8907
G1 X54.0802 Y26.9502 Z5.9308
G3 X54.1343 Y26.9846 Z5.9307 I-0.5085 J0.8611
G1 X54.2382 Y27.0553 Z5.9306
G3 X54.2888 Y27.092 Z5.9305 I-0.5626 J0.8267
G1 X54.388 Y27.169 Z5.9303
G3 X54.4359 Y27.2087 Z5.9302 I-0.6132 J0.79
G1 X54.5302 Y27.2918 Z5.9301
G3 X54.5762 Y27.335 Z5.93 I-0.6611 J0.7503
G1 X54.665 Y27.4238 Z5.9299
G3 X54.7082 Y27.4698 Z5.9298 I-0.7071 J0.7071
G1 X54.7348 Y27.5 Z5.9297
G1 X60.5 Z5.9228
G1 Y22.2348 Z5.9164
G1 X60.4698 Y22.2082
G3 X60.4238 Y22.165 Z5.9163 I0.6611 J-0.7503
G1 X60.335 Y22.0762 Z5.9161
G3 X60.2918 Y22.0302 I0.7071 J-0.7071
G1 X60.2087 Y21.9359 Z5.9159
G3 X60.169 Y21.888 Z5.9158 I0.7503 J-0.6611
G1 X60.092 Y21.7888 Z5.9157
G3 X60.0553 Y21.7382 Z5.9156 I0.79 J-0.6132
G1 X59.9846 Y21.6343 Z5.9154
G3 X59.9502 Y21.5802 I0.8267 J-0.5626
G1 X59.8863 Y21.472 Z5.9152
G3 X59.8567 Y21.418 Z5.9151 I0.8611 J-0.5085
G1 X59.7996 Y21.3061 Z5.915
G3 X59.7724 Y21.2485 Z5.9149 I0.8907 J-0.4545
G1 X59.7225 Y21.1331 Z5.9148
G3 X59.6994 Y21.0746 Z5.9147 I0.9179 J-0.3969
G1 X59.6569 Y20.9564 Z5.9145
G3 X59.6377 Y20.8974 I0.941 J-0.3384
G1 X59.6026 Y20.7768 Z5.9143
G3 X59.5869 Y20.7155 Z5.9142 I0.9602 J-0.2794
G1 X59.5595 Y20.5929 Z5.9141
G3 X59.5476 Y20.5308 Z5.914 I0.9759 J-0.2181
G1 X59.528 Y20.4067 Z5.9139
G3 X59.5203 Y20.3454 Z5.9138 I0.9878 J-0.156
G1 X59.5084 Y20.2203 Z5.9136
G3 X59.5044 Y20.1566 I0.9955 J-0.0947
G1 X59.5005 Y20.031 Z5.9134
G3 Y19.969 Z5.9133 I0.9995 J-0.031
G1 X59.5044 Y19.8434 Z5.9132
G3 X59.5084 Y19.7797 Z5.9131 I0.9995 J0.031
G1 X59.5203 Y19.6546 Z5.9129
G3 X59.528 Y19.5933 I0.9955 J0.0947
G1 X59.5476 Y19.4692 Z5.9127
G3 X59.5595 Y19.4071 Z5.9126 I0.9878 J0.156
G1 X59.5869 Y19.2845 Z5.9125
G3 X59.6026 Y19.2232 Z5.9124 I0.9759 J0.2181
G1 X59.6377 Y19.1026 Z5.9123
G3 X59.6569 Y19.0436 Z5.9122 I0.9602 J0.2794
G1 X59.6994 Y18.9254 Z5.912
G3 X59.7225 Y18.8669 I0.941 J0.3384
G1 X59.7724 Y18.7515 Z5.9118
G3 X59.7996 Y18.6939 Z5.9117 I0.9179 J0.3969
G1 X59.8567 Y18.582 Z5.9116
G3 X59.8863 Y18.528 Z5.9115 I0.8907 J0.4545
G1 X59.9502 Y18.4198 Z5.9113
G3 X59.9846 Y18.3657 I0.8611 J0.5085
G1 X60.0553 Y18.2618 Z5.9111
G3 X60.092 Y18.2112 Z5.911 I0.8267 J0.5626
G1 X60.169 Y18.112 Z5.9109
G3 X60.2087 Y18.0641 Z5.9108 I0.79 J0.6132
G1 X60.2918 Y17.9698 Z5.9107
G3 X60.335 Y17.9238 Z5.9106 I0.7503 J0.6611
G1 X60.4238 Y17.835 Z5.9104
G3 X60.4698 Y17.7918 I0.7071 J0.7071
G1 X60.5 Y17.7652 Z5.9103
G1 Y8.7348 Z5.8994
G1 X60.4698 Y8.7082 Z5.8993
G3 X60.4236 Y8.6648 I0.6611 J-0.7503
G1 X60.3348 Y8.576 Z5.8991
G3 X60.2921 Y8.5305 Z5.899 I0.7073 J-0.7069
G1 X60.209 Y8.4362 Z5.8989
G3 X60.1688 Y8.3877 Z5.8988 I0.75 J-0.6614
G1 X60.0918 Y8.2884 Z5.8987
G3 X60.0552 Y8.2381 Z5.8986 I0.7902 J-0.6129
G1 X59.9845 Y8.1341 Z5.8984
G3 X59.9504 Y8.0804 I0.8268 J-0.5625
G1 X59.8865 Y7.9722 Z5.8982
G3 X59.8566 Y7.9179 Z5.8981 I0.8609 J-0.5087
G1 X59.7995 Y7.8059 Z5.898
G3 X59.7725 Y7.7487 Z5.8979 I0.8908 J-0.4544
G1 X59.7226 Y7.6334 Z5.8978
G3 X59.6994 Y7.5746 Z5.8977 I0.9178 J-0.3972
G1 X59.6569 Y7.4563 Z5.8975
G3 X59.6377 Y7.3974 Z5.8974 I0.941 J-0.3383
G1 X59.6026 Y7.2767 Z5.8973
G3 X59.5869 Y7.2155 Z5.8972 I0.9602 J-0.2793
G1 X59.5595 Y7.0928 Z5.8971
G3 X59.5476 Y7.0308 Z5.897 I0.9759 J-0.2181
G1 X59.528 Y6.9067 Z5.8968
G3 X59.5203 Y6.8454 I0.9878 J-0.156
G1 X59.5084 Y6.7203 Z5.8966
G3 X59.5044 Y6.6566 Z5.8965 I0.9955 J-0.0947
G1 X59.5005 Y6.531 Z5.8964
G3 Y6.469 Z5.8963 I0.9995 J-0.031
G1 X59.5044 Y6.3434 Z5.8962
G3 X59.5084 Y6.2797 Z5.8961 I0.9995 J0.031
G1 X59.5203 Y6.1546 Z5.8959
G3 X59.528 Y6.0933 I0.9955 J0.0947
G1 X59.5476 Y5.9692 Z5.8957
G3 X59.5595 Y5.9072 Z5.8956 I0.9878 J0.156
G1 X59.5869 Y5.7845 Z5.8955
G3 X59.6026 Y5.7233 Z5.8954 I0.9759 J0.2181
G1 X59.6377 Y5.6026 Z5.8952
G3 X59.6569 Y5.5437 I0.9602 J0.2793
G1 X59.6994 Y5.4254 Z5.895
G3 X59.7226 Y5.3666 Z5.8949 I0.941 J0.3383
G1 X59.7725 Y5.2513 Z5.8948
G3 X59.7995 Y5.1941 Z5.8947 I0.9178 J0.3972
G1 X59.8566 Y5.0821 Z5.8946
G3 X59.8865 Y5.0278 Z5.8945 I0.8908 J0.4544
G1 X59.9504 Y4.9196 Z5.8943
G3 X59.9845 Y4.8659 I0.8609 J0.5087
G1 X60.0552 Y4.7619 Z5.8941
G3 X60.0918 Y4.7116 Z5.894 I0.8268 J0.5625
G1 X60.1688 Y4.6123 Z5.8939
G3 X60.209 Y4.5638 Z5.8938 I0.7902 J0.6129
G1 X60.2921 Y4.4695 Z5.8937
G3 X60.3348 Y4.424 Z5.8936 I0.75 J0.6614
G1 X60.4236 Y4.3352 Z5.8934
G3 X60.4698 Y4.2918 Z5.8933 I0.7073 J0.7069
G1 X60.5 Y4.2652
G1 Y-4.7652 Z5.8824
G1 X60.4698 Y-4.7918 Z5.8823
G3 X60.4236 Y-4.8352 I0.6611 J-0.7503
G1 X60.3348 Y-4.924 Z5.8821
G3 X60.2921 Y-4.9695 Z5.882 I0.7073 J-0.7069
G1 X60.209 Y-5.0638 Z5.8819
G3 X60.1688 Y-5.1123 Z5.8818 I0.75 J-0.6614
G1 X60.0918 Y-5.2116 Z5.8816
G3 X60.0552 Y-5.2619 I0.7902 J-0.6129
G1 X59.9845 Y-5.3659 Z5.8814
G3 X59.9504 Y-5.4196 Z5.8813 I0.8268 J-0.5625
G1 X59.8865 Y-5.5278 Z5.8812
G3 X59.8566 Y-5.5821 Z5.8811 I0.8609 J-0.5087
G1 X59.7995 Y-5.6941 Z5.881
G3 X59.7725 Y-5.7513 Z5.8809 I0.8908 J-0.4544
G1 X59.7226 Y-5.8666 Z5.8807
G3 X59.6994 Y-5.9254 I0.9178 J-0.3972
G1 X59.6569 Y-6.0437 Z5.8805
G3 X59.6377 Y-6.1026 Z5.8804 I0.941 J-0.3383
G1 X59.6026 Y-6.2233 Z5.8803
G3 X59.5869 Y-6.2845 Z5.8802 I0.9602 J-0.2793
G1 X59.5595 Y-6.4072 Z5.8801
G3 X59.5476 Y-6.4692 Z5.88 I0.9759 J-0.2181
G1 X59.528 Y-6.5933 Z5.8798
G3 X59.5203 Y-6.6546 I0.9878 J-0.156
G1 X59.5084 Y-6.7797 Z5.8796
G3 X59.5044 Y-6.8434 Z5.8795 I0.9955 J-0.0947
G1 X59.5005 Y-6.969 Z5.8794
G3 Y-7.031 Z5.8793 I0.9995 J-0.031
G1 X59.5044 Y-7.1566 Z5.8791
G3 X59.5084 Y-7.2203 I0.9995 J0.031
G1 X59.5203 Y-7.3454 Z5.8789
G3 X59.528 Y-7.4067 Z5.8788 I0.9955 J0.0947
G1 X59.5476 Y-7.5308 Z5.8787
G3 X59.5595 Y-7.5928 Z5.8786 I0.9878 J0.156
G1 X59.5869 Y-7.7155 Z5.8785
G3 X59.6026 Y-7.7767 Z5.8784 I0.9759 J0.2181
G1 X59.6377 Y-7.8974 Z5.8782
G3 X59.6569 Y-7.9563 I0.9602 J0.2793
G1 X59.6994 Y-8.0746 Z5.878
G3 X59.7226 Y-8.1334 Z5.8779 I0.941 J0.3383
G1 X59.7725 Y-8.2487 Z5.8778
G3 X59.7995 Y-8.3059 Z5.8777 I0.9178 J0.3972
G1 X59.8566 Y-8.4179 Z5.8775
G3 X59.8865 Y-8.4722 I0.8908 J0.4544
G1 X59.9504 Y-8.5804 Z5.8773
G3 X59.9845 Y-8.6341 Z5.8772 I0.8609 J0.5087
G1 X60.0552 Y-8.7381 Z5.8771
G3 X60.0918 Y-8.7884 Z5.877 I0.8268 J0.5625
G1 X60.1688 Y-8.8877 Z5.8769
G3 X60.209 Y-8.9362 Z5.8768 I0.7902 J0.6129
G1 X60.2921 Y-9.0305 Z5.8766
G3 X60.3348 Y-9.076 I0.75 J0.6614
G1 X60.4236 Y-9.1648 Z5.8764
G3 X60.4698 Y-9.2082 Z5.8763 I0.7073 J0.7069
G1 X60.5 Y-9.2348
G1 Y-13.5 Z5.8711
G1 X54.7348 Z5.8642
G1 X54.7082 Y-13.4698 Z5.8641
G3 X54.665 Y-13.4238 Z5.864 I-0.7503 J-0.6611
G1 X54.5762 Y-13.335 Z5.8639
G3 X54.5302 Y-13.2918 Z5.8638 I-0.7071 J-0.7071
G1 X54.4359 Y-13.2087 Z5.8637
G3 X54.388 Y-13.169 Z5.8636 I-0.6611 J-0.7503
G1 X54.2888 Y-13.092 Z5.8634
G3 X54.2382 Y-13.0553 I-0.6132 J-0.79
G1 X54.1343 Y-12.9846 Z5.8632
G3 X54.0802 Y-12.9502 Z5.8631 I-0.5626 J-0.8267
G1 X53.972 Y-12.8863 Z5.863
G3 X53.918 Y-12.8567 Z5.8629 I-0.5085 J-0.8611
G1 X53.8061 Y-12.7996 Z5.8627
G3 X53.7485 Y-12.7724 I-0.4545 J-0.8907
G1 X53.6331 Y-12.7225 Z5.8625
G3 X53.5746 Y-12.6994 Z5.8624 I-0.3969 J-0.9179
G1 X53.4564 Y-12.6569 Z5.8623
G3 X53.3974 Y-12.6377 Z5.8622 I-0.3384 J-0.941
G1 X53.2768 Y-12.6026 Z5.8621
G3 X53.2155 Y-12.5869 Z5.862 I-0.2794 J-0.9602
G1 X53.0929 Y-12.5595 Z5.8618
G3 X53.0308 Y-12.5476 I-0.2181 J-0.9759
G1 X52.9067 Y-12.528 Z5.8616
G3 X52.8454 Y-12.5203 Z5.8615 I-0.156 J-0.9878
G1 X52.7203 Y-12.5084 Z5.8614
G3 X52.6566 Y-12.5044 Z5.8613 I-0.0947 J-0.9955
G1 X52.531 Y-12.5005 Z5.8611
G3 X52.469 I-0.031 J-0.9995
G1 X52.3434 Y-12.5044 Z5.8609
G3 X52.2797 Y-12.5084 Z5.8608 I0.031 J-0.9995
G1 X52.1546 Y-12.5203 Z5.8607
G3 X52.0933 Y-12.528 Z5.8606 I0.0947 J-0.9955
G1 X51.9692 Y-12.5476 Z5.8605
G3 X51.9071 Y-12.5595 Z5.8604 I0.156 J-0.9878
G1 X51.7845 Y-12.5869 Z5.8602
G3 X51.7232 Y-12.6026 I0.2181 J-0.9759
G1 X51.6026 Y-12.6377 Z5.86
G3 X51.5439 Y-12.6568 Z5.8599 I0.2794 J-0.9602
G1 X51.4256 Y-12.6993 Z5.8598
G3 X51.3665 Y-12.7227 Z5.8597 I0.3381 J-0.9411
G1 X51.2512 Y-12.7726 Z5.8596
G3 X51.1939 Y-12.7996 Z5.8595 I0.3972 J-0.9177
G1 X51.082 Y-12.8567 Z5.8593
G3 X51.028 Y-12.8863 I0.4545 J-0.8907
G1 X50.9198 Y-12.9502 Z5.8591
G3 X50.8657 Y-12.9846 Z5.859 I0.5085 J-0.8611
G1 X50.7618 Y-13.0553 Z5.8589
G3 X50.7112 Y-13.092 Z5.8588 I0.5626 J-0.8267
G1 X50.612 Y-13.169 Z5.8586
G3 X50.5641 Y-13.2087 I0.6132 J-0.79
G1 X50.4698 Y-13.2918 Z5.8584
G3 X50.4238 Y-13.335 Z5.8583 I0.6611 J-0.7503
G1 X50.335 Y-13.4238 Z5.8582
G3 X50.2918 Y-13.4698 Z5.8581 I0.7071 J-0.7071
G1 X50.2652 Y-13.5
G1 X2.2348 Z5.8
G1 X2.2082 Y-13.4698
G3 X2.1648 Y-13.4236 Z5.7999 I-0.7503 J-0.6611
G1 X2.076 Y-13.3348 Z5.7997
G3 X2.0305 Y-13.2921 Z5.7996 I-0.7069 J-0.7073
G1 X1.9362 Y-13.209 Z5.7995
G3 X1.8877 Y-13.1688 Z5.7994 I-0.6614 J-0.75
G1 X1.7884 Y-13.0918 Z5.7993
G3 X1.7381 Y-13.0552 Z5.7992 I-0.6129 J-0.7902
G1 X1.6341 Y-12.9845 Z5.799
G3 X1.5804 Y-12.9504 I-0.5625 J-0.8268
G1 X1.4722 Y-12.8865 Z5.7988
G3 X1.4179 Y-12.8566 Z5.7987 I-0.5087 J-0.8609
G1 X1.3059 Y-12.7995 Z5.7986
G3 X1.2487 Y-12.7725 Z5.7985 I-0.4544 J-0.8908
G1 X1.1334 Y-12.7226 Z5.7984
G3 X1.0746 Y-12.6994 Z5.7983 I-0.3972 J-0.9178
G1 X0.9563 Y-12.6569 Z5.7981
G3 X0.8974 Y-12.6377 I-0.3383 J-0.941
G1 X0.7767 Y-12.6026 Z5.7979
G3 X0.7155 Y-12.5869 Z5.7978 I-0.2793 J-0.9602
G1 X0.5928 Y-12.5595 Z5.7977
G3 X0.5308 Y-12.5476 Z5.7976 I-0.2181 J-0.9759
G1 X0.4067 Y-12.528 Z5.7974
G3 X0.3454 Y-12.5203 I-0.156 J-0.9878
G1 X0.2203 Y-12.5084 Z5.7972
G3 X0.1566 Y-12.5044 Z5.7971 I-0.0947 J-0.9955
G1 X0.031 Y-12.5005 Z5.797
G3 X-0.031 Z5.7969 I-0.031 J-0.9995
G1 X-0.1566 Y-12.5044 Z5.7968
G3 X-0.2203 Y-12.5084 Z5.7967 I0.031 J-0.9995
G1 X-0.3454 Y-12.5203 Z5.7965
G3 X-0.4067 Y-12.528 I0.0947 J-0.9955
G1 X-0.5308 Y-12.5476 Z5.7963
G3 X-0.5928 Y-12.5595 Z5.7962 I0.156 J-0.9878
G1 X-0.7155 Y-12.5869 Z5.7961
G3 X-0.7767 Y-12.6026 Z5.796 I0.2181 J-0.9759
G1 X-0.8974 Y-12.6377 Z5.7958
G3 X-0.9563 Y-12.6569 I0.2793 J-0.9602
G1 X-1.0746 Y-12.6994 Z5.7956
G3 X-1.1334 Y-12.7226 Z5.7955 I0.3383 J-0.941
G1 X-1.2487 Y-12.7725 Z5.7954
G3 X-1.3059 Y-12.7995 Z5.7953 I0.3972 J-0.9178
G1 X-1.4179 Y-12.8566 Z5.7952
G3 X-1.4722 Y-12.8865 Z5.7951 I0.4544 J-0.8908
G1 X-1.5804 Y-12.9504 Z5.7949
G3 X-1.6341 Y-12.9845 I0.5087 J-0.8609
G1 X-1.7381 Y-13.0552 Z5.7947
G3 X-1.7884 Y-13.0918 Z5.7946 I0.5625 J-0.8268
G1 X-1.8877 Y-13.1688 Z5.7945
G3 X-1.9362 Y-13.209 Z5.7944 I0.6129 J-0.7902
G1 X-2.0305 Y-13.2921 Z5.7943
G3 X-2.076 Y-13.3348 Z5.7942 I0.6614 J-0.75
G1 X-2.1648 Y-13.4236 Z5.794
G3 X-2.2082 Y-13.4698 I0.7069 J-0.7073
G1 X-2.2348 Y-13.5 Z5.7939
G1 X-50.2652 Z5.7358
G1 X-50.2918 Y-13.4698
G3 X-50.335 Y-13.4238 Z5.7357 I-0.7503 J-0.6611
G1 X-50.4238 Y-13.335 Z5.7356
G3 X-50.4698 Y-13.2918 Z5.7355 I-0.7071 J-0.7071
G1 X-50.5641 Y-13.2087 Z5.7353
G3 X-50.612 Y-13.169 I-0.6611 J-0.7503
G1 X-50.7112 Y-13.092 Z5.7351
G3 X-50.7618 Y-13.0553 Z5.735 I-0.6132 J-0.79
G1 X-50.8657 Y-12.9846 Z5.7349
G3 X-50.9198 Y-12.9502 Z5.7348 I-0.5626 J-0.8267
G1 X-51.028 Y-12.8863 Z5.7347
G3 X-51.082 Y-12.8567 Z5.7346 I-0.5085 J-0.8611
G1 X-51.1939 Y-12.7996 Z5.7344
G3 X-51.2512 Y-12.7726 Z5.7343 I-0.4545 J-0.8907
G1 X-51.3665 Y-12.7227 Z5.7342
G3 X-51.4256 Y-12.6993 Z5.7341 I-0.3972 J-0.9177
G1 X-51.5439 Y-12.6568 Z5.734
G3 X-51.6026 Y-12.6377 Z5.7339 I-0.3381 J-0.9411
G1 X-51.7232 Y-12.6026 Z5.7337
G3 X-51.7845 Y-12.5869 I-0.2794 J-0.9602
G1 X-51.9071 Y-12.5595 Z5.7335
G3 X-51.9692 Y-12.5476 Z5.7334 I-0.2181 J-0.9759
G1 X-52.0933 Y-12.528 Z5.7333
G3 X-52.1546 Y-12.5203 Z5.7332 I-0.156 J-0.9878
G1 X-52.2797 Y-12.5084 Z5.7331
G3 X-52.3434 Y-12.5044 Z5.733 I-0.0947 J-0.9955
G1 X-52.469 Y-12.5005 Z5.7328
G3 X-52.531 I-0.031 J-0.9995
G1 X-52.6566 Y-12.5044 Z5.7326
G3 X-52.7203 Y-12.5084 Z5.7325 I0.031 J-0.9995
G1 X-52.8454 Y-12.5203 Z5.7324
G3 X-52.9067 Y-12.528 Z5.7323 I0.0947 J-0.9955
G1 X-53.0308 Y-12.5476 Z5.7321
G3 X-53.0929 Y-12.5595 I0.156 J-0.9878
G1 X-53.2155 Y-12.5869 Z5.7319
G3 X-53.2768 Y-12.6026 Z5.7318 I0.2181 J-0.9759
G1 X-53.3974 Y-12.6377 Z5.7317
G3 X-53.4564 Y-12.6569 Z5.7316 I0.2794 J-0.9602
G1 X-53.5746 Y-12.6994 Z5.7315
G3 X-53.6331 Y-12.7225 Z5.7314 I0.3384 J-0.941
G1 X-53.7485 Y-12.7724 Z5.7312
G3 X-53.8061 Y-12.7996 I0.3969 J-0.9179
G1 X-53.918 Y-12.8567 Z5.731
G3 X-53.972 Y-12.8863 Z5.7309 I0.4545 J-0.8907
G1 X-54.0802 Y-12.9502 Z5.7308
G3 X-54.1343 Y-12.9846 Z5.7307 I0.5085 J-0.8611
G1 X-54.2382 Y-13.0553 Z5.7306
G3 X-54.2888 Y-13.092 Z5.7305 I0.5626 J-0.8267
G1 X-54.388 Y-13.169 Z5.7303
G3 X-54.4359 Y-13.2087 Z5.7302 I0.6132 J-0.79
G1 X-54.5302 Y-13.2918 Z5.7301
G3 X-54.5762 Y-13.335 Z5.73 I0.6611 J-0.7503
G1 X-54.665 Y-13.4238 Z5.7299
G3 X-54.7082 Y-13.4698 Z5.7298 I0.7071 J-0.7071
G1 X-54.7348 Y-13.5 Z5.7297
G1 X-60.5 Z5.7228
G1 Y-9.2348 Z5.7176
G1 X-60.4698 Y-9.2082
G3 X-60.4236 Y-9.1648 Z5.7175 I-0.6611 J0.7503
G1 X-60.3348 Y-9.076 Z5.7173
G3 X-60.2921 Y-9.0305 I-0.7073 J0.7069
G1 X-60.209 Y-8.9362 Z5.7171
G3 X-60.1688 Y-8.8877 Z5.717 I-0.75 J0.6614
G1 X-60.0918 Y-8.7884 Z5.7169
G3 X-60.0552 Y-8.7381 Z5.7168 I-0.7902 J0.6129
G1 X-59.9845 Y-8.6341 Z5.7167
G3 X-59.9504 Y-8.5804 Z5.7166 I-0.8268 J0.5625
G1 X-59.8865 Y-8.4722 Z5.7164
G3 X-59.8566 Y-8.4179 I-0.8609 J0.5087
G1 X-59.7995 Y-8.3059 Z5.7162
G3 X-59.7725 Y-8.2487 Z5.7161 I-0.8908 J0.4544
G1 X-59.7226 Y-8.1334 Z5.716
G3 X-59.6994 Y-8.0746 Z5.7159 I-0.9178 J0.3972
G1 X-59.6569 Y-7.9563 Z5.7157
G3 X-59.6377 Y-7.8974 I-0.941 J0.3383
G1 X-59.6026 Y-7.7767 Z5.7155
G3 X-59.5869 Y-7.7155 Z5.7154 I-0.9602 J0.2793
G1 X-59.5595 Y-7.5928 Z5.7153
G3 X-59.5476 Y-7.5308 Z5.7152 I-0.9759 J0.2181
G1 X-59.528 Y-7.4067 Z5.7151
G3 X-59.5203 Y-7.3454 Z5.715 I-0.9878 J0.156
G1 X-59.5084 Y-7.2203 Z5.7148
G3 X-59.5044 Y-7.1566 I-0.9955 J0.0947
G1 X-59.5005 Y-7.031 Z5.7146
G3 Y-6.969 Z5.7145 I-0.9995 J0.031
G1 X-59.5044 Y-6.8434 Z5.7144
G3 X-59.5084 Y-6.7797 Z5.7143 I-0.9995 J-0.031
G1 X-59.5203 Y-6.6546 Z5.7142
G3 X-59.528 Y-6.5933 Z5.7141 I-0.9955 J-0.0947
G1 X-59.5476 Y-6.4692 Z5.7139
G3 X-59.5595 Y-6.4072 Z5.7138 I-0.9878 J-0.156
G1 X-59.5869 Y-6.2845 Z5.7137
G3 X-59.6026 Y-6.2233 Z5.7136 I-0.9759 J-0.2181
G1 X-59.6377 Y-6.1026 Z5.7135
G3 X-59.6569 Y-6.0437 Z5.7134 I-0.9602 J-0.2793
G1 X-59.6994 Y-5.9254 Z5.7132
G3 X-59.7226 Y-5.8666 I-0.941 J-0.3383
G1 X-59.7725 Y-5.7513 Z5.713
G3 X-59.7995 Y-5.6941 Z5.7129 I-0.9178 J-0.3972
G1 X-59.8566 Y-5.5821 Z5.7128
G3 X-59.8865 Y-5.5278 Z5.7127 I-0.8908 J-0.4544
G1 X-59.9504 Y-5.4196 Z5.7126
G3 X-59.9845 Y-5.3659 Z5.7125 I-0.8609 J-0.5087
G1 X-60.0552 Y-5.2619 Z5.7123
G3 X-60.0918 Y-5.2116 I-0.8268 J-0.5625
G1 X-60.1688 Y-5.1123 Z5.7121
G3 X-60.209 Y-5.0638 Z5.712 I-0.7902 J-0.6129
G1 X-60.2921 Y-4.9695 Z5.7119
G3 X-60.3348 Y-4.924 Z5.7118 I-0.75 J-0.6614
G1 X-60.4236 Y-4.8352 Z5.7116
G3 X-60.4698 Y-4.7918 I-0.7073 J-0.7069
G1 X-60.5 Y-4.7652 Z5.7115
G1 Y4.2652 Z5.7006
G1 X-60.4698 Y4.2918
G3 X-60.4236 Y4.3352 Z5.7005 I-0.6611 J0.7503
G1 X-60.3348 Y4.424 Z5.7003
G3 X-60.2921 Y4.4695 I-0.7073 J0.7069
G1 X-60.209 Y4.5638 Z5.7001
G3 X-60.1688 Y4.6123 Z5.7 I-0.75 J0.6614
G1 X-60.0918 Y4.7116 Z5.6999
G3 X-60.0552 Y4.7619 Z5.6998 I-0.7902 J0.6129
G1 X-59.9845 Y4.8659 Z5.6996
G3 X-59.9504 Y4.9196 I-0.8268 J0.5625
G1 X-59.8865 Y5.0278 Z5.6994
G3 X-59.8566 Y5.0821 Z5.6993 I-0.8609 J0.5087
G1 X-59.7995 Y5.1941 Z5.6992
G3 X-59.7725 Y5.2513 Z5.6991 I-0.8908 J0.4544
G1 X-59.7226 Y5.3666 Z5.699
G3 X-59.6994 Y5.4254 Z5.6989 I-0.9178 J0.3972
G1 X-59.6569 Y5.5437 Z5.6987
G3 X-59.6377 Y5.6026 I-0.941 J0.3383
G1 X-59.6026 Y5.7233 Z5.6985
G3 X-59.5869 Y5.7845 Z5.6984 I-0.9602 J0.2793
G1 X-59.5595 Y5.9072 Z5.6983
G3 X-59.5476 Y5.9692 Z5.6982 I-0.9759 J0.2181
G1 X-59.528 Y6.0933 Z5.698
G3 X-59.5203 Y6.1546 I-0.9878 J0.156
G1 X-59.5084 Y6.2797 Z5.6978
G3 X-59.5044 Y6.3434 Z5.6977 I-0.9955 J0.0947
G1 X-59.5005 Y6.469 Z5.6976
G3 Y6.531 Z5.6975 I-0.9995 J0.031
G1 X-59.5044 Y6.6566 Z5.6974
G3 X-59.5084 Y6.7203 Z5.6973 I-0.9995 J-0.031
G1 X-59.5203 Y6.8454 Z5.6971
G3 X-59.528 Y6.9067 I-0.9955 J-0.0947
G1 X-59.5476 Y7.0308 Z5.6969
G3 X-59.5595 Y7.0928 Z5.6968 I-0.9878 J-0.156
G1 X-59.5869 Y7.2155 Z5.6967
G3 X-59.6026 Y7.2767 Z5.6966 I-0.9759 J-0.2181
G1 X-59.6377 Y7.3974 Z5.6965
G3 X-59.6569 Y7.4563 Z5.6964 I-0.9602 J-0.2793
G1 X-59.6994 Y7.5746 Z5.6962
G3 X-59.7226 Y7.6334 I-0.941 J-0.3383
G1 X-59.7725 Y7.7487 Z5.696
G3 X-59.7995 Y7.8059 Z5.6959 I-0.9178 J-0.3972
G1 X-59.8566 Y7.9179 Z5.6958
G3 X-59.8865 Y7.9722 Z5.6957 I-0.8908 J-0.4544
G1 X-59.9504 Y8.0804 Z5.6955
G3 X-59.9845 Y8.1341 I-0.8609 J-0.5087
G1 X-60.0552 Y8.2381 Z5.6953
G3 X-60.0918 Y8.2884 Z5.6952 I-0.8268 J-0.5625
G1 X-60.1688 Y8.3877 Z5.6951
G3 X-60.209 Y8.4362 Z5.695 I-0.7902 J-0.6129
G1 X-60.2921 Y8.5305 Z5.6949
G3 X-60.3348 Y8.576 Z5.6948 I-0.75 J-0.6614
G1 X-60.4236 Y8.6648 Z5.6946
G3 X-60.4698 Y8.7082 I-0.7073 J-0.7069
G1 X-60.5 Y8.7348 Z5.6945
G1 Y17.7652 Z5.6836
G1 X-60.4698 Y17.7918 Z5.6835
G3 X-60.4238 Y17.835 I-0.6611 J0.7503
G1 X-60.335 Y17.9238 Z5.6833
G3 X-60.2918 Y17.9698 Z5.6832 I-0.7071 J0.7071
G1 X-60.2087 Y18.0641 Z5.6831
G3 X-60.169 Y18.112 Z5.683 I-0.7503 J0.6611
G1 X-60.092 Y18.2112 Z5.6829
G3 X-60.0553 Y18.2618 Z5.6828 I-0.79 J0.6132
G1 X-59.9846 Y18.3657 Z5.6826
G3 X-59.9502 Y18.4198 I-0.8267 J0.5626
G1 X-59.8863 Y18.528 Z5.6824
G3 X-59.8567 Y18.582 Z5.6823 I-0.8611 J0.5085
G1 X-59.7996 Y18.6939 Z5.6822
G3 X-59.7724 Y18.7515 Z5.6821 I-0.8907 J0.4545
G1 X-59.7225 Y18.8669 Z5.6819
G3 X-59.6994 Y18.9254 I-0.9179 J0.3969
G1 X-59.6569 Y19.0436 Z5.6817
G3 X-59.6377 Y19.1026 Z5.6816 I-0.941 J0.3384
G1 X-59.6026 Y19.2232 Z5.6815
G3 X-59.5869 Y19.2845 Z5.6814 I-0.9602 J0.2794
G1 X-59.5595 Y19.4071 Z5.6813
G3 X-59.5476 Y19.4692 Z5.6812 I-0.9759 J0.2181
G1 X-59.528 Y19.5933 Z5.681
G3 X-59.5203 Y19.6546 I-0.9878 J0.156
G1 X-59.5084 Y19.7797 Z5.6808
G3 X-59.5044 Y19.8434 Z5.6807 I-0.9955 J0.0947
G1 X-59.5005 Y19.969 Z5.6806
G3 Y20.031 Z5.6805 I-0.9995 J0.031
G1 X-59.5044 Y20.1566 Z5.6804
G3 X-59.5084 Y20.2203 Z5.6803 I-0.9995 J-0.031
G1 X-59.5203 Y20.3454 Z5.6801
G3 X-59.528 Y20.4067 Z5.68 I-0.9955 J-0.0947
G1 X-59.5476 Y20.5308 Z5.6799
G3 X-59.5595 Y20.5929 Z5.6798 I-0.9878 J-0.156
G1 X-59.5869 Y20.7155 Z5.6797
G3 X-59.6026 Y20.7768 Z5.6796 I-0.9759 J-0.2181
G1 X-59.6377 Y20.8974 Z5.6794
G3 X-59.6569 Y20.9564 I-0.9602 J-0.2794
G1 X-59.6994 Y21.0746 Z5.6792
G3 X-59.7225 Y21.1331 Z5.6791 I-0.941 J-0.3384
G1 X-59.7724 Y21.2485 Z5.679
G3 X-59.7996 Y21.3061 Z5.6789 I-0.9179 J-0.3969
G1 X-59.8567 Y21.418 Z5.6788
G3 X-59.8863 Y21.472 Z5.6787 I-0.8907 J-0.4545
G1 X-59.9502 Y21.5802 Z5.6785
G3 X-59.9846 Y21.6343 I-0.8611 J-0.5085
G1 X-60.0553 Y21.7382 Z5.6783
G3 X-60.092 Y21.7888 Z5.6782 I-0.8267 J-0.5626
G1 X-60.169 Y21.888 Z5.6781
G3 X-60.2087 Y21.9359 Z5.678 I-0.79 J-0.6132
G1 X-60.2918 Y22.0302 Z5.6778
G3 X-60.335 Y22.0762 I-0.7503 J-0.6611
G1 X-60.4238 Y22.165 Z5.6776
G3 X-60.4698 Y22.2082 Z5.6775 I-0.7071 J-0.7071
G1 X-60.5 Y22.2348
G1 Y27.5 Z5.6711
G1 X-54.7348 Z5.6642
G1 X-54.7082 Y27.4698 Z5.6641
G3 X-54.665 Y27.4238 Z5.664 I0.7503 J0.6611
G1 X-54.5762 Y27.335 Z5.6639
G3 X-54.5302 Y27.2918 Z5.6638 I0.7071 J0.7071
G1 X-54.4359 Y27.2087 Z5.6637
G3 X-54.388 Y27.169 Z5.6636 I0.6611 J0.7503
G1 X-54.2888 Y27.092 Z5.6634
G3 X-54.2382 Y27.0553 I0.6132 J0.79
G1 X-54.1343 Y26.9846 Z5.6632
G3 X-54.0802 Y26.9502 Z5.6631 I0.5626 J0.8267
G1 X-53.972 Y26.8863 Z5.663
G3 X-53.918 Y26.8567 Z5.6629 I0.5085 J0.8611
G1 X-53.8061 Y26.7996 Z5.6627
G3 X-53.7485 Y26.7724 I0.4545 J0.8907
G1 X-53.6331 Y26.7225 Z5.6625
G3 X-53.5746 Y26.6994 Z5.6624 I0.3969 J0.9179
G1 X-53.4564 Y26.6569 Z5.6623
G3 X-53.3974 Y26.6377 Z5.6622 I0.3384 J0.941
G1 X-53.2768 Y26.6026 Z5.6621
G3 X-53.2155 Y26.5869 Z5.662 I0.2794 J0.9602
G1 X-53.0929 Y26.5595 Z5.6618
G3 X-53.0308 Y26.5476 I0.2181 J0.9759
G1 X-52.9067 Y26.528 Z5.6616
G3 X-52.8454 Y26.5203 Z5.6615 I0.156 J0.9878
G1 X-52.7203 Y26.5084 Z5.6614
G3 X-52.6566 Y26.5044 Z5.6613 I0.0947 J0.9955
G1 X-52.531 Y26.5005 Z5.6611
G3 X-52.469 I0.031 J0.9995
G1 X-52.3434 Y26.5044 Z5.6609
G3 X-52.2797 Y26.5084 Z5.6608 I-0.031 J0.9995
G1 X-52.1546 Y26.5203 Z5.6607
G3 X-52.0933 Y26.528 Z5.6606 I-0.0947 J0.9955
G1 X-51.9692 Y26.5476 Z5.6605
G3 X-51.9071 Y26.5595 Z5.6604 I-0.156 J0.9878
G1 X-51.7845 Y26.5869 Z5.6602
G3 X-51.7232 Y26.6026 I-0.2181 J0.9759
G1 X-51.6026 Y26.6377 Z5.66
G3 X-51.5439 Y26.6568 Z5.6599 I-0.2794 J0.9602
G1 X-51.4256 Y26.6993 Z5.6598
G3 X-51.3665 Y26.7227 Z5.6597 I-0.3381 J0.9411
G1 X-51.2512 Y26.7726 Z5.6596
G3 X-51.1939 Y26.7996 Z5.6595 I-0.3972 J0.9177
G1 X-51.082 Y26.8567 Z5.6593
G3 X-51.028 Y26.8863 I-0.4545 J0.8907
G1 X-50.9198 Y26.9502 Z5.6591
G3 X-50.8657 Y26.9846 Z5.659 I-0.5085 J0.8611
G1 X-50.7618 Y27.0553 Z5.6589
G3 X-50.7112 Y27.092 Z5.6588 I-0.5626 J0.8267
G1 X-50.612 Y27.169 Z5.6586
G3 X-50.5641 Y27.2087 I-0.6132 J0.79
G1 X-50.4698 Y27.2918 Z5.6584
G3 X-50.4238 Y27.335 Z5.6583 I-0.6611 J0.7503
G1 X-50.335 Y27.4238 Z5.6582
G3 X-50.2918 Y27.4698 Z5.6581 I-0.7071 J0.7071
G1 X-50.2652 Y27.5
G1 X-2.2348 Z5.6
G1 X-2.2082 Y27.4698
G3 X-2.1648 Y27.4236 Z5.5999 I0.7503 J0.6611
G1 X-2.076 Y27.3348 Z5.5997
G3 X-2.0305 Y27.2921 Z5.5996 I0.7069 J0.7073
G1 X-1.9362 Y27.209 Z5.5995
G3 X-1.8877 Y27.1688 Z5.5994 I0.6614 J0.75
G1 X-1.7884 Y27.0918 Z5.5993
G3 X-1.7381 Y27.0552 Z5.5992 I0.6129 J0.7902
G1 X-1.6341 Y26.9845 Z5.599
G3 X-1.5804 Y26.9504 I0.5625 J0.8268
G1 X-1.4722 Y26.8865 Z5.5988
G3 X-1.4179 Y26.8566 Z5.5987 I0.5087 J0.8609
G1 X-1.3059 Y26.7995 Z5.5986
G3 X-1.2487 Y26.7725 Z5.5985 I0.4544 J0.8908
G1 X-1.1334 Y26.7226 Z5.5984
G3 X-1.0746 Y26.6994 Z5.5983 I0.3972 J0.9178
G1 X-0.9563 Y26.6569 Z5.5981
G3 X-0.8974 Y26.6377 I0.3383 J0.941
G1 X-0.7767 Y26.6026 Z5.5979
G3 X-0.7155 Y26.5869 Z5.5978 I0.2793 J0.9602
G1 X-0.5928 Y26.5595 Z5.5977
G3 X-0.5308 Y26.5476 Z5.5976 I0.2181 J0.9759
G1 X-0.4067 Y26.528 Z5.5974
G3 X-0.3454 Y26.5203 I0.156 J0.9878
G1 X-0.2203 Y26.5084 Z5.5972
G3 X-0.1566 Y26.5044 Z5.5971 I0.0947 J0.9955
G1 X-0.031 Y26.5005 Z5.597
G3 X0.031 Z5.5969 I0.031 J0.9995
G1 X0.1566 Y26.5044 Z5.5968
G3 X0.2203 Y26.5084 Z5.5967 I-0.031 J0.9995
G1 X0.3454 Y26.5203 Z5.5965
G3 X0.4067 Y26.528 I-0.0947 J0.9955
G1 X0.5308 Y26.5476 Z5.5963
G3 X0.5928 Y26.5595 Z5.5962 I-0.156 J0.9878
G1 X0.7155 Y26.5869 Z5.5961
G3 X0.7767 Y26.6026 Z5.596 I-0.2181 J0.9759
G1 X0.8974 Y26.6377 Z5.5958
G3 X0.9563 Y26.6569 I-0.2793 J0.9602
G1 X1.0746 Y26.6994 Z5.5956
G3 X1.1334 Y26.7226 Z5.5955 I-0.3383 J0.941
G1 X1.2487 Y26.7725 Z5.5954
G3 X1.3059 Y26.7995 Z5.5953 I-0.3972 J0.9178
G1 X1.4179 Y26.8566 Z5.5952
G3 X1.4722 Y26.8865 Z5.5951 I-0.4544 J0.8908
G1 X1.5804 Y26.9504 Z5.5949
G3 X1.6341 Y26.9845 I-0.5087 J0.8609
G1 X1.7381 Y27.0552 Z5.5947
G3 X1.7884 Y27.0918 Z5.5946 I-0.5625 J0.8268
G1 X1.8877 Y27.1688 Z5.5945
G3 X1.9362 Y27.209 Z5.5944 I-0.6129 J0.7902
G1 X2.0305 Y27.2921 Z5.5943
G3 X2.076 Y27.3348 Z5.5942 I-0.6614 J0.75
G1 X2.1648 Y27.4236 Z5.594
G3 X2.2082 Y27.4698 I-0.7069 J0.7073
G1 X2.2348 Y27.5 Z5.5939
G1 X50.2652 Z5.5358
G1 X50.2918 Y27.4698
G3 X50.335 Y27.4238 Z5.5357 I0.7503 J0.6611
G1 X50.4238 Y27.335 Z5.5356
G3 X50.4698 Y27.2918 Z5.5355 I0.7071 J0.7071
G1 X50.5641 Y27.2087 Z5.5353
G3 X50.612 Y27.169 I0.6611 J0.7503
G1 X50.7112 Y27.092 Z5.5351
G3 X50.7618 Y27.0553 Z5.535 I0.6132 J0.79
G1 X50.8657 Y26.9846 Z5.5349
G3 X50.9198 Y26.9502 Z5.5348 I0.5626 J0.8267
G1 X51.028 Y26.8863 Z5.5347
G3 X51.082 Y26.8567 Z5.5346 I0.5085 J0.8611
G1 X51.1939 Y26.7996 Z5.5344
G3 X51.2512 Y26.7726 Z5.5343 I0.4545 J0.8907
G1 X51.3665 Y26.7227 Z5.5342
G3 X51.4256 Y26.6993 Z5.5341 I0.3972 J0.9177
G1 X51.5439 Y26.6568 Z5.534
G3 X51.6026 Y26.6377 Z5.5339 I0.3381 J0.9411
G1 X51.7232 Y26.6026 Z5.5337
G3 X51.7845 Y26.5869 I0.2794 J0.9602
G1 X51.9071 Y26.5595 Z5.5335
G3 X51.9692 Y26.5476 Z5.5334 I0.2181 J0.9759
G1 X52.0933 Y26.528 Z5.5333
G3 X52.1546 Y26.5203 Z5.5332 I0.156 J0.9878
G1 X52.2797 Y26.5084 Z5.5331
G3 X52.3434 Y26.5044 Z5.533 I0.0947 J0.9955
G1 X52.469 Y26.5005 Z5.5328
G3 X52.531 I0.031 J0.9995
G1 X52.6566 Y26.5044 Z5.5326
G3 X52.7203 Y26.5084 Z5.5325 I-0.031 J0.9995
G1 X52.8454 Y26.5203 Z5.5324
G3 X52.9067 Y26.528 Z5.5323 I-0.0947 J0.9955
G1 X53.0308 Y26.5476 Z5.5321
G3 X53.0929 Y26.5595 I-0.156 J0.9878
G1 X53.2155 Y26.5869 Z5.5319
G3 X53.2768 Y26.6026 Z5.5318 I-0.2181 J0.9759
G1 X53.3974 Y26.6377 Z5.5317
G3 X53.4564 Y26.6569 Z5.5316 I-0.2794 J0.9602
G1 X53.5746 Y26.6994 Z5.5315
G3 X53.6331 Y26.7225 Z5.5314 I-0.3384 J0.941
G1 X53.7485 Y26.7724 Z5.5312
G3 X53.8061 Y26.7996 I-0.3969 J0.9179
G1 X53.918 Y26.8567 Z5.531
G3 X53.972 Y26.8863 Z5.5309 I-0.4545 J0.8907
G1 X54.0802 Y26.9502 Z5.5308
G3 X54.1343 Y26.9846 Z5.5307 I-0.5085 J0.8611
G1 X54.2382 Y27.0553 Z5.5306
G3 X54.2888 Y27.092 Z5.5305 I-0.5626 J0.8267
G1 X54.388 Y27.169 Z5.5303
G3 X54.4359 Y27.2087 Z5.5302 I-0.6132 J0.79
G1 X54.5302 Y27.2918 Z5.5301
G3 X54.5762 Y27.335 Z5.53 I-0.6611 J0.7503
G1 X54.665 Y27.4238 Z5.5299
G3 X54.7082 Y27.4698 Z5.5298 I-0.7071 J0.7071
G1 X54.7348 Y27.5 Z5.5297
G1 X60.5 Z5.5228
G1 Y22.2348 Z5.5164
G1 X60.4698 Y22.2082
G3 X60.4238 Y22.165 Z5.5163 I0.6611 J-0.7503
G1 X60.335 Y22.0762 Z5.5161
G3 X60.2918 Y22.0302 I0.7071 J-0.7071
G1 X60.2087 Y21.9359 Z5.5159
G3 X60.169 Y21.888 Z5.5158 I0.7503 J-0.6611
G1 X60.092 Y21.7888 Z5.5157
G3 X60.0553 Y21.7382 Z5.5156 I0.79 J-0.6132
G1 X59.9846 Y21.6343 Z5.5154
G3 X59.9502 Y21.5802 I0.8267 J-0.5626
G1 X59.8863 Y21.472 Z5.5152
G3 X59.8567 Y21.418 Z5.5151 I0.8611 J-0.5085
G1 X59.7996 Y21.3061 Z5.515
G3 X59.7724 Y21.2485 Z5.5149 I0.8907 J-0.4545
G1 X59.7225 Y21.1331 Z5.5148
G3 X59.6994 Y21.0746 Z5.5147 I0.9179 J-0.3969
G1 X59.6569 Y20.9564 Z5.5145
G3 X59.6377 Y20.8974 I0.941 J-0.3384
G1 X59.6026 Y20.7768 Z5.5143
G3 X59.5869 Y20.7155 Z5.5142 I0.9602 J-0.2794
G1 X59.5595 Y20.5929 Z5.5141
G3 X59.5476 Y20.5308 Z5.514 I0.9759 J-0.2181
G1 X59.528 Y20.4067 Z5.5139
G3 X59.5203 Y20.3454 Z5.5138 I0.9878 J-0.156
G1 X59.5084 Y20.2203 Z5.5136
G3 X59.5044 Y20.1566 I0.9955 J-0.0947
G1 X59.5005 Y20.031 Z5.5134
G3 Y19.969 Z5.5133 I0.9995 J-0.031
G1 X59.5044 Y19.8434 Z5.5132
G3 X59.5084 Y19.7797 Z5.5131 I0.9995 J0.031
G1 X59.5203 Y19.6546 Z5.5129
G3 X59.528 Y19.5933 I0.9955 J0.0947
G1 X59.5476 Y19.4692 Z5.5127
G3 X59.5595 Y19.4071 Z5.5126 I0.9878 J0.156
G1 X59.5869 Y19.2845 Z5.5125
G3 X59.6026 Y19.2232 Z5.5124 I0.9759 J0.2181
G1 X59.6377 Y19.1026 Z5.5123
G3 X59.6569 Y19.0436 Z5.5122 I0.9602 J0.2794
G1 X59.6994 Y18.9254 Z5.512
G3 X59.7225 Y18.8669 I0.941 J0.3384
G1 X59.7724 Y18.7515 Z5.5118
G3 X59.7996 Y18.6939 Z5.5117 I0.9179 J0.3969
G1 X59.8567 Y18.582 Z5.5116
G3 X59.8863 Y18.528 Z5.5115 I0.8907 J0.4545
G1 X59.9502 Y18.4198 Z5.5113
G3 X59.9846 Y18.3657 I0.8611 J0.5085
G1 X60.0553 Y18.2618 Z5.5111
G3 X60.092 Y18.2112 Z5.511 I0.8267 J0.5626
G1 X60.169 Y18.112 Z5.5109
G3 X60.2087 Y18.0641 Z5.5108 I0.79 J0.6132
G1 X60.2918 Y17.9698 Z5.5107
G3 X60.335 Y17.9238 Z5.5106 I0.7503 J0.6611
G1 X60.4238 Y17.835 Z5.5104
G3 X60.4698 Y17.7918 I0.7071 J0.7071
G1 X60.5 Y17.7652 Z5.5103
G1 Y8.7348 Z5.4994
G1 X60.4698 Y8.7082 Z5.4993
G3 X60.4236 Y8.6648 I0.6611 J-0.7503
G1 X60.3348 Y8.576 Z5.4991
G3 X60.2921 Y8.5305 Z5.499 I0.7073 J-0.7069
G1 X60.209 Y8.4362 Z5.4989
G3 X60.1688 Y8.3877 Z5.4988 I0.75 J-0.6614
G1 X60.0918 Y8.2884 Z5.4987
G3 X60.0552 Y8.2381 Z5.4986 I0.7902 J-0.6129
G1 X59.9845 Y8.1341 Z5.4984
G3 X59.9504 Y8.0804 I0.8268 J-0.5625
G1 X59.8865 Y7.9722 Z5.4982
G3 X59.8566 Y7.9179 Z5.4981 I0.8609 J-0.5087
G1 X59.7995 Y7.8059 Z5.498
G3 X59.7725 Y7.7487 Z5.4979 I0.8908 J-0.4544
G1 X59.7226 Y7.6334 Z5.4978
G3 X59.6994 Y7.5746 Z5.4977 I0.9178 J-0.3972
G1 X59.6569 Y7.4563 Z5.4975
G3 X59.6377 Y7.3974 Z5.4974 I0.941 J-0.3383
G1 X59.6026 Y7.2767 Z5.4973
G3 X59.5869 Y7.2155 Z5.4972 I0.9602 J-0.2793
G1 X59.5595 Y7.0928 Z5.4971
G3 X59.5476 Y7.0308 Z5.497 I0.9759 J-0.2181
G1 X59.528 Y6.9067 Z5.4968
G3 X59.5203 Y6.8454 I0.9878 J-0.156
G1 X59.5084 Y6.7203 Z5.4966
G3 X59.5044 Y6.6566 Z5.4965 I0.9955 J-0.0947
G1 X59.5005 Y6.531 Z5.4964
G3 Y6.469 Z5.4963 I0.9995 J-0.031
G1 X59.5044 Y6.3434 Z5.4962
G3 X59.5084 Y6.2797 Z5.4961 I0.9995 J0.031
G1 X59.5203 Y6.1546 Z5.4959
G3 X59.528 Y6.0933 I0.9955 J0.0947
G1 X59.5476 Y5.9692 Z5.4957
G3 X59.5595 Y5.9072 Z5.4956 I0.9878 J0.156
G1 X59.5869 Y5.7845 Z5.4955
G3 X59.6026 Y5.7233 Z5.4954 I0.9759 J0.2181
G1 X59.6377 Y5.6026 Z5.4952
G3 X59.6569 Y5.5437 I0.9602 J0.2793
G1 X59.6994 Y5.4254 Z5.495
G3 X59.7226 Y5.3666 Z5.4949 I0.941 J0.3383
G1 X59.7725 Y5.2513 Z5.4948
G3 X59.7995 Y5.1941 Z5.4947 I0.9178 J0.3972
G1 X59.8566 Y5.0821 Z5.4946
G3 X59.8865 Y5.0278 Z5.4945 I0.8908 J0.4544
G1 X59.9504 Y4.9196 Z5.4943
G3 X59.9845 Y4.8659 I0.8609 J0.5087
G1 X60.0552 Y4.7619 Z5.4941
G3 X60.0918 Y4.7116 Z5.494 I0.8268 J0.5625
G1 X60.1688 Y4.6123 Z5.4939
G3 X60.209 Y4.5638 Z5.4938 I0.7902 J0.6129
G1 X60.2921 Y4.4695 Z5.4937
G3 X60.3348 Y4.424 Z5.4936 I0.75 J0.6614
G1 X60.4236 Y4.3352 Z5.4934
G3 X60.4698 Y4.2918 Z5.4933 I0.7073 J0.7069
G1 X60.5 Y4.2652
G1 Y-4.7652 Z5.4824
G1 X60.4698 Y-4.7918 Z5.4823
G3 X60.4236 Y-4.8352 I0.6611 J-0.7503
G1 X60.3348 Y-4.924 Z5.4821
G3 X60.2921 Y-4.9695 Z5.482 I0.7073 J-0.7069
G1 X60.209 Y-5.0638 Z5.4819
G3 X60.1688 Y-5.1123 Z5.4818 I0.75 J-0.6614
G1 X60.0918 Y-5.2116 Z5.4816
G3 X60.0552 Y-5.2619 I0.7902 J-0.6129
G1 X59.9845 Y-5.3659 Z5.4814
G3 X59.9504 Y-5.4196 Z5.4813 I0.8268 J-0.5625
G1 X59.8865 Y-5.5278 Z5.4812
G3 X59.8566 Y-5.5821 Z5.4811 I0.8609 J-0.5087
G1 X59.7995 Y-5.6941 Z5.481
G3 X59.7725 Y-5.7513 Z5.4809 I0.8908 J-0.4544
G1 X59.7226 Y-5.8666 Z5.4807
G3 X59.6994 Y-5.9254 I0.9178 J-0.3972
G1 X59.6569 Y-6.0437 Z5.4805
G3 X59.6377 Y-6.1026 Z5.4804 I0.941 J-0.3383
G1 X59.6026 Y-6.2233 Z5.4803
G3 X59.5869 Y-6.2845 Z5.4802 I0.9602 J-0.2793
G1 X59.5595 Y-6.4072 Z5.4801
G3 X59.5476 Y-6.4692 Z5.48 I0.9759 J-0.2181
G1 X59.528 Y-6.5933 Z5.4798
G3 X59.5203 Y-6.6546 I0.9878 J-0.156
G1 X59.5084 Y-6.7797 Z5.4796
G3 X59.5044 Y-6.8434 Z5.4795 I0.9955 J-0.0947
G1 X59.5005 Y-6.969 Z5.4794
G3 Y-7.031 Z5.4793 I0.9995 J-0.031
G1 X59.5044 Y-7.1566 Z5.4791
G3 X59.5084 Y-7.2203 I0.9995 J0.031
G1 X59.5203 Y-7.3454 Z5.4789
G3 X59.528 Y-7.4067 Z5.4788 I0.9955 J0.0947
G1 X59.5476 Y-7.5308 Z5.4787
G3 X59.5595 Y-7.5928 Z5.4786 I0.9878 J0.156
G1 X59.5869 Y-7.7155 Z5.4785
G3 X59.6026 Y-7.7767 Z5.4784 I0.9759 J0.2181
G1 X59.6377 Y-7.8974 Z5.4782
G3 X59.6569 Y-7.9563 I0.9602 J0.2793
G1 X59.6994 Y-8.0746 Z5.478
G3 X59.7226 Y-8.1334 Z5.4779 I0.941 J0.3383
G1 X59.7725 Y-8.2487 Z5.4778
G3 X59.7995 Y-8.3059 Z5.4777 I0.9178 J0.3972
G1 X59.8566 Y-8.4179 Z5.4775
G3 X59.8865 Y-8.4722 I0.8908 J0.4544
G1 X59.9504 Y-8.5804 Z5.4773
G3 X59.9845 Y-8.6341 Z5.4772 I0.8609 J0.5087
G1 X60.0552 Y-8.7381 Z5.4771
G3 X60.0918 Y-8.7884 Z5.477 I0.8268 J0.5625
G1 X60.1688 Y-8.8877 Z5.4769
G3 X60.209 Y-8.9362 Z5.4768 I0.7902 J0.6129
G1 X60.2921 Y-9.0305 Z5.4766
G3 X60.3348 Y-9.076 I0.75 J0.6614
G1 X60.4236 Y-9.1648 Z5.4764
G3 X60.4698 Y-9.2082 Z5.4763 I0.7073 J0.7069
G1 X60.5 Y-9.2348
G1 Y-13.5 Z5.4711
G1 X54.7348 Z5.4642
G1 X54.7082 Y-13.4698 Z5.4641
G3 X54.665 Y-13.4238 Z5.464 I-0.7503 J-0.6611
G1 X54.5762 Y-13.335 Z5.4639
G3 X54.5302 Y-13.2918 Z5.4638 I-0.7071 J-0.7071
G1 X54.4359 Y-13.2087 Z5.4637
G3 X54.388 Y-13.169 Z5.4636 I-0.6611 J-0.7503
G1 X54.2888 Y-13.092 Z5.4634
G3 X54.2382 Y-13.0553 I-0.6132 J-0.79
G1 X54.1343 Y-12.9846 Z5.4632
G3 X54.0802 Y-12.9502 Z5.4631 I-0.5626 J-0.8267
G1 X53.972 Y-12.8863 Z5.463
G3 X53.918 Y-12.8567 Z5.4629 I-0.5085 J-0.8611
G1 X53.8061 Y-12.7996 Z5.4627
G3 X53.7485 Y-12.7724 I-0.4545 J-0.8907
G1 X53.6331 Y-12.7225 Z5.4625
G3 X53.5746 Y-12.6994 Z5.4624 I-0.3969 J-0.9179
G1 X53.4564 Y-12.6569 Z5.4623
G3 X53.3974 Y-12.6377 Z5.4622 I-0.3384 J-0.941
G1 X53.2768 Y-12.6026 Z5.4621
G3 X53.2155 Y-12.5869 Z5.462 I-0.2794 J-0.9602
G1 X53.0929 Y-12.5595 Z5.4618
G3 X53.0308 Y-12.5476 I-0.2181 J-0.9759
G1 X52.9067 Y-12.528 Z5.4616
G3 X52.8454 Y-12.5203 Z5.4615 I-0.156 J-0.9878
G1 X52.7203 Y-12.5084 Z5.4614
G3 X52.6566 Y-12.5044 Z5.4613 I-0.0947 J-0.9955
G1 X52.531 Y-12.5005 Z5.4611
G3 X52.469 I-0.031 J-0.9995
G1 X52.3434 Y-12.5044 Z5.4609
G3 X52.2797 Y-12.5084 Z5.4608 I0.031 J-0.9995
G1 X52.1546 Y-12.5203 Z5.4607
G3 X52.0933 Y-12.528 Z5.4606 I0.0947 J-0.9955
G1 X51.9692 Y-12.5476 Z5.4605
G3 X51.9071 Y-12.5595 Z5.4604 I0.156 J-0.9878
G1 X51.7845 Y-12.5869 Z5.4602
G3 X51.7232 Y-12.6026 I0.2181 J-0.9759
G1 X51.6026 Y-12.6377 Z5.46
G3 X51.5439 Y-12.6568 Z5.4599 I0.2794 J-0.9602
G1 X51.4256 Y-12.6993 Z5.4598
G3 X51.3665 Y-12.7227 Z5.4597 I0.3381 J-0.9411
G1 X51.2512 Y-12.7726 Z5.4596
G3 X51.1939 Y-12.7996 Z5.4595 I0.3972 J-0.9177
G1 X51.082 Y-12.8567 Z5.4593
G3 X51.028 Y-12.8863 I0.4545 J-0.8907
G1 X50.9198 Y-12.9502 Z5.4591
G3 X50.8657 Y-12.9846 Z5.459 I0.5085 J-0.8611
G1 X50.7618 Y-13.0553 Z5.4589
G3 X50.7112 Y-13.092 Z5.4588 I0.5626 J-0.8267
G1 X50.612 Y-13.169 Z5.4586
G3 X50.5641 Y-13.2087 I0.6132 J-0.79
G1 X50.4698 Y-13.2918 Z5.4584
G3 X50.4238 Y-13.335 Z5.4583 I0.6611 J-0.7503
G1 X50.335 Y-13.4238 Z5.4582
G3 X50.2918 Y-13.4698 Z5.4581 I0.7071 J-0.7071
G1 X50.2652 Y-13.5
G1 X2.2348 Z5.4
G1 X2.2082 Y-13.4698
G3 X2.1648 Y-13.4236 Z5.3999 I-0.7503 J-0.6611
G1 X2.076 Y-13.3348 Z5.3997
G3 X2.0305 Y-13.2921 Z5.3996 I-0.7069 J-0.7073
G1 X1.9362 Y-13.209 Z5.3995
G3 X1.8877 Y-13.1688 Z5.3994 I-0.6614 J-0.75
G1 X1.7884 Y-13.0918 Z5.3993
G3 X1.7381 Y-13.0552 Z5.3992 I-0.6129 J-0.7902
G1 X1.6341 Y-12.9845 Z5.399
G3 X1.5804 Y-12.9504 I-0.5625 J-0.8268
G1 X1.4722 Y-12.8865 Z5.3988
G3 X1.4179 Y-12.8566 Z5.3987 I-0.5087 J-0.8609
G1 X1.3059 Y-12.7995 Z5.3986
G3 X1.2487 Y-12.7725 Z5.3985 I-0.4544 J-0.8908
G1 X1.1334 Y-12.7226 Z5.3984
G3 X1.0746 Y-12.6994 Z5.3983 I-0.3972 J-0.9178
G1 X0.9563 Y-12.6569 Z5.3981
G3 X0.8974 Y-12.6377 I-0.3383 J-0.941
G1 X0.7767 Y-12.6026 Z5.3979
G3 X0.7155 Y-12.5869 Z5.3978 I-0.2793 J-0.9602
G1 X0.5928 Y-12.5595 Z5.3977
G3 X0.5308 Y-12.5476 Z5.3976 I-0.2181 J-0.9759
G1 X0.4067 Y-12.528 Z5.3974
G3 X0.3454 Y-12.5203 I-0.156 J-0.9878
G1 X0.2203 Y-12.5084 Z5.3972
G3 X0.1566 Y-12.5044 Z5.3971 I-0.0947 J-0.9955
G1 X0.031 Y-12.5005 Z5.397
G3 X-0.031 Z5.3969 I-0.031 J-0.9995
G1 X-0.1566 Y-12.5044 Z5.3968
G3 X-0.2203 Y-12.5084 Z5.3967 I0.031 J-0.9995
G1 X-0.3454 Y-12.5203 Z5.3965
G3 X-0.4067 Y-12.528 I0.0947 J-0.9955
G1 X-0.5308 Y-12.5476 Z5.3963
G3 X-0.5928 Y-12.5595 Z5.3962 I0.156 J-0.9878
G1 X-0.7155 Y-12.5869 Z5.3961
G3 X-0.7767 Y-12.6026 Z5.396 I0.2181 J-0.9759
G1 X-0.8974 Y-12.6377 Z5.3958
G3 X-0.9563 Y-12.6569 I0.2793 J-0.9602
G1 X-1.0746 Y-12.6994 Z5.3956
G3 X-1.1334 Y-12.7226 Z5.3955 I0.3383 J-0.941
G1 X-1.2487 Y-12.7725 Z5.3954
G3 X-1.3059 Y-12.7995 Z5.3953 I0.3972 J-0.9178
G1 X-1.4179 Y-12.8566 Z5.3952
G3 X-1.4722 Y-12.8865 Z5.3951 I0.4544 J-0.8908
G1 X-1.5804 Y-12.9504 Z5.3949
G3 X-1.6341 Y-12.9845 I0.5087 J-0.8609
G1 X-1.7381 Y-13.0552 Z5.3947
G3 X-1.7884 Y-13.0918 Z5.3946 I0.5625 J-0.8268
G1 X-1.8877 Y-13.1688 Z5.3945
G3 X-1.9362 Y-13.209 Z5.3944 I0.6129 J-0.7902
G1 X-2.0305 Y-13.2921 Z5.3943
G3 X-2.076 Y-13.3348 Z5.3942 I0.6614 J-0.75
G1 X-2.1648 Y-13.4236 Z5.394
G3 X-2.2082 Y-13.4698 I0.7069 J-0.7073
G1 X-2.2348 Y-13.5 Z5.3939
G1 X-50.2652 Z5.3358
G1 X-50.2918 Y-13.4698
G3 X-50.335 Y-13.4238 Z5.3357 I-0.7503 J-0.6611
G1 X-50.4238 Y-13.335 Z5.3356
G3 X-50.4698 Y-13.2918 Z5.3355 I-0.7071 J-0.7071
G1 X-50.5641 Y-13.2087 Z5.3353
G3 X-50.612 Y-13.169 I-0.6611 J-0.7503
G1 X-50.7112 Y-13.092 Z5.3351
G3 X-50.7618 Y-13.0553 Z5.335 I-0.6132 J-0.79
G1 X-50.8657 Y-12.9846 Z5.3349
G3 X-50.9198 Y-12.9502 Z5.3348 I-0.5626 J-0.8267
G1 X-51.028 Y-12.8863 Z5.3347
G3 X-51.082 Y-12.8567 Z5.3346 I-0.5085 J-0.8611
G1 X-51.1939 Y-12.7996 Z5.3344
G3 X-51.2512 Y-12.7726 Z5.3343 I-0.4545 J-0.8907
G1 X-51.3665 Y-12.7227 Z5.3342
G3 X-51.4256 Y-12.6993 Z5.3341 I-0.3972 J-0.9177
G1 X-51.5439 Y-12.6568 Z5.334
G3 X-51.6026 Y-12.6377 Z5.3339 I-0.3381 J-0.9411
G1 X-51.7232 Y-12.6026 Z5.3337
G3 X-51.7845 Y-12.5869 I-0.2794 J-0.9602
G1 X-51.9071 Y-12.5595 Z5.3335
G3 X-51.9692 Y-12.5476 Z5.3334 I-0.2181 J-0.9759
G1 X-52.0933 Y-12.528 Z5.3333
G3 X-52.1546 Y-12.5203 Z5.3332 I-0.156 J-0.9878
G1 X-52.2797 Y-12.5084 Z5.3331
G3 X-52.3434 Y-12.5044 Z5.333 I-0.0947 J-0.9955
G1 X-52.469 Y-12.5005 Z5.3328
G3 X-52.531 I-0.031 J-0.9995
G1 X-52.6566 Y-12.5044 Z5.3326
G3 X-52.7203 Y-12.5084 Z5.3325 I0.031 J-0.9995
G1 X-52.8454 Y-12.5203 Z5.3324
G3 X-52.9067 Y-12.528 Z5.3323 I0.0947 J-0.9955
G1 X-53.0308 Y-12.5476 Z5.3321
G3 X-53.0929 Y-12.5595 I0.156 J-0.9878
G1 X-53.2155 Y-12.5869 Z5.3319
G3 X-53.2768 Y-12.6026 Z5.3318 I0.2181 J-0.9759
G1 X-53.3974 Y-12.6377 Z5.3317
G3 X-53.4564 Y-12.6569 Z5.3316 I0.2794 J-0.9602
G1 X-53.5746 Y-12.6994 Z5.3315
G3 X-53.6331 Y-12.7225 Z5.3314 I0.3384 J-0.941
G1 X-53.7485 Y-12.7724 Z5.3312
G3 X-53.8061 Y-12.7996 I0.3969 J-0.9179
G1 X-53.918 Y-12.8567 Z5.331
G3 X-53.972 Y-12.8863 Z5.3309 I0.4545 J-0.8907
G1 X-54.0802 Y-12.9502 Z5.3308
G3 X-54.1343 Y-12.9846 Z5.3307 I0.5085 J-0.8611
G1 X-54.2382 Y-13.0553 Z5.3306
G3 X-54.2888 Y-13.092 Z5.3305 I0.5626 J-0.8267
G1 X-54.388 Y-13.169 Z5.3303
G3 X-54.4359 Y-13.2087 Z5.3302 I0.6132 J-0.79
G1 X-54.5302 Y-13.2918 Z5.3301
G3 X-54.5762 Y-13.335 Z5.33 I0.6611 J-0.7503
G1 X-54.665 Y-13.4238 Z5.3299
G3 X-54.7082 Y-13.4698 Z5.3298 I0.7071 J-0.7071
G1 X-54.7348 Y-13.5 Z5.3297
G1 X-60.5 Z5.3228
G1 Y-9.2348 Z5.3176
G1 X-60.4698 Y-9.2082
G3 X-60.4236 Y-9.1648 Z5.3175 I-0.6611 J0.7503
G1 X-60.3348 Y-9.076 Z5.3173
G3 X-60.2921 Y-9.0305 I-0.7073 J0.7069
G1 X-60.209 Y-8.9362 Z5.3171
G3 X-60.1688 Y-8.8877 Z5.317 I-0.75 J0.6614
G1 X-60.0918 Y-8.7884 Z5.3169
G3 X-60.0552 Y-8.7381 Z5.3168 I-0.7902 J0.6129
G1 X-59.9845 Y-8.6341 Z5.3167
G3 X-59.9504 Y-8.5804 Z5.3166 I-0.8268 J0.5625
G1 X-59.8865 Y-8.4722 Z5.3164
G3 X-59.8566 Y-8.4179 I-0.8609 J0.5087
G1 X-59.7995 Y-8.3059 Z5.3162
G3 X-59.7725 Y-8.2487 Z5.3161 I-0.8908 J0.4544
G1 X-59.7226 Y-8.1334 Z5.316
G3 X-59.6994 Y-8.0746 Z5.3159 I-0.9178 J0.3972
G1 X-59.6569 Y-7.9563 Z5.3157
G3 X-59.6377 Y-7.8974 I-0.941 J0.3383
G1 X-59.6026 Y-7.7767 Z5.3155
G3 X-59.5869 Y-7.7155 Z5.3154 I-0.9602 J0.2793
G1 X-59.5595 Y-7.5928 Z5.3153
G3 X-59.5476 Y-7.5308 Z5.3152 I-0.9759 J0.2181
G1 X-59.528 Y-7.4067 Z5.3151
G3 X-59.5203 Y-7.3454 Z5.315 I-0.9878 J0.156
G1 X-59.5084 Y-7.2203 Z5.3148
G3 X-59.5044 Y-7.1566 I-0.9955 J0.0947
G1 X-59.5005 Y-7.031 Z5.3146
G3 Y-6.969 Z5.3145 I-0.9995 J0.031
G1 X-59.5044 Y-6.8434 Z5.3144
G3 X-59.5084 Y-6.7797 Z5.3143 I-0.9995 J-0.031
G1 X-59.5203 Y-6.6546 Z5.3142
G3 X-59.528 Y-6.5933 Z5.3141 I-0.9955 J-0.0947
G1 X-59.5476 Y-6.4692 Z5.3139
G3 X-59.5595 Y-6.4072 Z5.3138 I-0.9878 J-0.156
G1 X-59.5869 Y-6.2845 Z5.3137
G3 X-59.6026 Y-6.2233 Z5.3136 I-0.9759 J-0.2181
G1 X-59.6377 Y-6.1026 Z5.3135
G3 X-59.6569 Y-6.0437 Z5.3134 I-0.9602 J-0.2793
G1 X-59.6994 Y-5.9254 Z5.3132
G3 X-59.7226 Y-5.8666 I-0.941 J-0.3383
G1 X-59.7725 Y-5.7513 Z5.313
G3 X-59.7995 Y-5.6941 Z5.3129 I-0.9178 J-0.3972
G1 X-59.8566 Y-5.5821 Z5.3128
G3 X-59.8865 Y-5.5278 Z5.3127 I-0.8908 J-0.4544
G1 X-59.9504 Y-5.4196 Z5.3126
G3 X-59.9845 Y-5.3659 Z5.3125 I-0.8609 J-0.5087
G1 X-60.0552 Y-5.2619 Z5.3123
G3 X-60.0918 Y-5.2116 I-0.8268 J-0.5625
G1 X-60.1688 Y-5.1123 Z5.3121
G3 X-60.209 Y-5.0638 Z5.312 I-0.7902 J-0.6129
G1 X-60.2921 Y-4.9695 Z5.3119
G3 X-60.3348 Y-4.924 Z5.3118 I-0.75 J-0.6614
G1 X-60.4236 Y-4.8352 Z5.3116
G3 X-60.4698 Y-4.7918 I-0.7073 J-0.7069
G1 X-60.5 Y-4.7652 Z5.3115
G1 Y4.2652 Z5.3006
G1 X-60.4698 Y4.2918
G3 X-60.4236 Y4.3352 Z5.3005 I-0.6611 J0.7503
G1 X-60.3348 Y4.424 Z5.3003
G3 X-60.2921 Y4.4695 I-0.7073 J0.7069
G1 X-60.209 Y4.5638 Z5.3001
G3 X-60.1688 Y4.6123 Z5.3 I-0.75 J0.6614
G1 X-60.0918 Y4.7116 Z5.2999
G3 X-60.0552 Y4.7619 Z5.2998 I-0.7902 J0.6129
G1 X-59.9845 Y4.8659 Z5.2996
G3 X-59.9504 Y4.9196 I-0.8268 J0.5625
G1 X-59.8865 Y5.0278 Z5.2994
G3 X-59.8566 Y5.0821 Z5.2993 I-0.8609 J0.5087
G1 X-59.7995 Y5.1941 Z5.2992
G3 X-59.7725 Y5.2513 Z5.2991 I-0.8908 J0.4544
G1 X-59.7226 Y5.3666 Z5.299
G3 X-59.6994 Y5.4254 Z5.2989 I-0.9178 J0.3972
G1 X-59.6569 Y5.5437 Z5.2987
G3 X-59.6377 Y5.6026 I-0.941 J0.3383
G1 X-59.6026 Y5.7233 Z5.2985
G3 X-59.5869 Y5.7845 Z5.2984 I-0.9602 J0.2793
G1 X-59.5595 Y5.9072 Z5.2983
G3 X-59.5476 Y5.9692 Z5.2982 I-0.9759 J0.2181
G1 X-59.528 Y6.0933 Z5.298
G3 X-59.5203 Y6.1546 I-0.9878 J0.156
G1 X-59.5084 Y6.2797 Z5.2978
G3 X-59.5044 Y6.3434 Z5.2977 I-0.9955 J0.0947
G1 X-59.5005 Y6.469 Z5.2976
G3 Y6.531 Z5.2975 I-0.9995 J0.031
G1 X-59.5044 Y6.6566 Z5.2974
G3 X-59.5084 Y6.7203 Z5.2973 I-0.9995 J-0.031
G1 X-59.5203 Y6.8454 Z5.2971
G3 X-59.528 Y6.9067 I-0.9955 J-0.0947
G1 X-59.5476 Y7.0308 Z5.2969
G3 X-59.5595 Y7.0928 Z5.2968 I-0.9878 J-0.156
G1 X-59.5869 Y7.2155 Z5.2967
G3 X-59.6026 Y7.2767 Z5.2966 I-0.9759 J-0.2181
G1 X-59.6377 Y7.3974 Z5.2965
G3 X-59.6569 Y7.4563 Z5.2964 I-0.9602 J-0.2793
G1 X-59.6994 Y7.5746 Z5.2962
G3 X-59.7226 Y7.6334 I-0.941 J-0.3383
G1 X-59.7725 Y7.7487 Z5.296
G3 X-59.7995 Y7.8059 Z5.2959 I-0.9178 J-0.3972
G1 X-59.8566 Y7.9179 Z5.2958
G3 X-59.8865 Y7.9722 Z5.2957 I-0.8908 J-0.4544
G1 X-59.9504 Y8.0804 Z5.2955
G3 X-59.9845 Y8.1341 I-0.8609 J-0.5087
G1 X-60.0552 Y8.2381 Z5.2953
G3 X-60.0918 Y8.2884 Z5.2952 I-0.8268 J-0.5625
G1 X-60.1688 Y8.3877 Z5.2951
G3 X-60.209 Y8.4362 Z5.295 I-0.7902 J-0.6129
G1 X-60.2921 Y8.5305 Z5.2949
G3 X-60.3348 Y8.576 Z5.2948 I-0.75 J-0.6614
G1 X-60.4236 Y8.6648 Z5.2946
G3 X-60.4698 Y8.7082 I-0.7073 J-0.7069
G1 X-60.5 Y8.7348 Z5.2945
G1 Y17.7652 Z5.2836
G1 X-60.4698 Y17.7918 Z5.2835
G3 X-60.4238 Y17.835 I-0.6611 J0.7503
G1 X-60.335 Y17.9238 Z5.2833
G3 X-60.2918 Y17.9698 Z5.2832 I-0.7071 J0.7071
G1 X-60.2087 Y18.0641 Z5.2831
G3 X-60.169 Y18.112 Z5.283 I-0.7503 J0.6611
G1 X-60.092 Y18.2112 Z5.2829
G3 X-60.0553 Y18.2618 Z5.2828 I-0.79 J0.6132
G1 X-59.9846 Y18.3657 Z5.2826
G3 X-59.9502 Y18.4198 I-0.8267 J0.5626
G1 X-59.8863 Y18.528 Z5.2824
G3 X-59.8567 Y18.582 Z5.2823 I-0.8611 J0.5085
G1 X-59.7996 Y18.6939 Z5.2822
G3 X-59.7724 Y18.7515 Z5.2821 I-0.8907 J0.4545
G1 X-59.7225 Y18.8669 Z5.2819
G3 X-59.6994 Y18.9254 I-0.9179 J0.3969
G1 X-59.6569 Y19.0436 Z5.2817
G3 X-59.6377 Y19.1026 Z5.2816 I-0.941 J0.3384
G1 X-59.6026 Y19.2232 Z5.2815
G3 X-59.5869 Y19.2845 Z5.2814 I-0.9602 J0.2794
G1 X-59.5595 Y19.4071 Z5.2813
G3 X-59.5476 Y19.4692 Z5.2812 I-0.9759 J0.2181
G1 X-59.528 Y19.5933 Z5.281
G3 X-59.5203 Y19.6546 I-0.9878 J0.156
G1 X-59.5084 Y19.7797 Z5.2808
G3 X-59.5044 Y19.8434 Z5.2807 I-0.9955 J0.0947
G1 X-59.5005 Y19.969 Z5.2806
G3 Y20.031 Z5.2805 I-0.9995 J0.031
G1 X-59.5044 Y20.1566 Z5.2804
G3 X-59.5084 Y20.2203 Z5.2803 I-0.9995 J-0.031
G1 X-59.5203 Y20.3454 Z5.2801
G3 X-59.528 Y20.4067 Z5.28 I-0.9955 J-0.0947
G1 X-59.5476 Y20.5308 Z5.2799
G3 X-59.5595 Y20.5929 Z5.2798 I-0.9878 J-0.156
G1 X-59.5869 Y20.7155 Z5.2797
G3 X-59.6026 Y20.7768 Z5.2796 I-0.9759 J-0.2181
G1 X-59.6377 Y20.8974 Z5.2794
G3 X-59.6569 Y20.9564 I-0.9602 J-0.2794
G1 X-59.6994 Y21.0746 Z5.2792
G3 X-59.7225 Y21.1331 Z5.2791 I-0.941 J-0.3384
G1 X-59.7724 Y21.2485 Z5.279
G3 X-59.7996 Y21.3061 Z5.2789 I-0.9179 J-0.3969
G1 X-59.8567 Y21.418 Z5.2788
G3 X-59.8863 Y21.472 Z5.2787 I-0.8907 J-0.4545
G1 X-59.9502 Y21.5802 Z5.2785
G3 X-59.9846 Y21.6343 I-0.8611 J-0.5085
G1 X-60.0553 Y21.7382 Z5.2783
G3 X-60.092 Y21.7888 Z5.2782 I-0.8267 J-0.5626
G1 X-60.169 Y21.888 Z5.2781
G3 X-60.2087 Y21.9359 Z5.278 I-0.79 J-0.6132
G1 X-60.2918 Y22.0302 Z5.2778
G3 X-60.335 Y22.0762 I-0.7503 J-0.6611
G1 X-60.4238 Y22.165 Z5.2776
G3 X-60.4698 Y22.2082 Z5.2775 I-0.7071 J-0.7071
G1 X-60.5 Y22.2348
G1 Y27.5 Z5.2711
G1 X-54.7348 Z5.2642
G1 X-54.7082 Y27.4698 Z5.2641
G3 X-54.665 Y27.4238 Z5.264 I0.7503 J0.6611
G1 X-54.5762 Y27.335 Z5.2639
G3 X-54.5302 Y27.2918 Z5.2638 I0.7071 J0.7071
G1 X-54.4359 Y27.2087 Z5.2637
G3 X-54.388 Y27.169 Z5.2636 I0.6611 J0.7503
G1 X-54.2888 Y27.092 Z5.2634
G3 X-54.2382 Y27.0553 I0.6132 J0.79
G1 X-54.1343 Y26.9846 Z5.2632
G3 X-54.0802 Y26.9502 Z5.2631 I0.5626 J0.8267
G1 X-53.972 Y26.8863 Z5.263
G3 X-53.918 Y26.8567 Z5.2629 I0.5085 J0.8611
G1 X-53.8061 Y26.7996 Z5.2627
G3 X-53.7485 Y26.7724 I0.4545 J0.8907
G1 X-53.6331 Y26.7225 Z5.2625
G3 X-53.5746 Y26.6994 Z5.2624 I0.3969 J0.9179
G1 X-53.4564 Y26.6569 Z5.2623
G3 X-53.3974 Y26.6377 Z5.2622 I0.3384 J0.941
G1 X-53.2768 Y26.6026 Z5.2621
G3 X-53.2155 Y26.5869 Z5.262 I0.2794 J0.9602
G1 X-53.0929 Y26.5595 Z5.2618
G3 X-53.0308 Y26.5476 I0.2181 J0.9759
G1 X-52.9067 Y26.528 Z5.2616
G3 X-52.8454 Y26.5203 Z5.2615 I0.156 J0.9878
G1 X-52.7203 Y26.5084 Z5.2614
G3 X-52.6566 Y26.5044 Z5.2613 I0.0947 J0.9955
G1 X-52.531 Y26.5005 Z5.2611
G3 X-52.469 I0.031 J0.9995
G1 X-52.3434 Y26.5044 Z5.2609
G3 X-52.2797 Y26.5084 Z5.2608 I-0.031 J0.9995
G1 X-52.1546 Y26.5203 Z5.2607
G3 X-52.0933 Y26.528 Z5.2606 I-0.0947 J0.9955
G1 X-51.9692 Y26.5476 Z5.2605
G3 X-51.9071 Y26.5595 Z5.2604 I-0.156 J0.9878
G1 X-51.7845 Y26.5869 Z5.2602
G3 X-51.7232 Y26.6026 I-0.2181 J0.9759
G1 X-51.6026 Y26.6377 Z5.26
G3 X-51.5439 Y26.6568 Z5.2599 I-0.2794 J0.9602
G1 X-51.4256 Y26.6993 Z5.2598
G3 X-51.3665 Y26.7227 Z5.2597 I-0.3381 J0.9411
G1 X-51.2512 Y26.7726 Z5.2596
G3 X-51.1939 Y26.7996 Z5.2595 I-0.3972 J0.9177
G1 X-51.082 Y26.8567 Z5.2593
G3 X-51.028 Y26.8863 I-0.4545 J0.8907
G1 X-50.9198 Y26.9502 Z5.2591
G3 X-50.8657 Y26.9846 Z5.259 I-0.5085 J0.8611
G1 X-50.7618 Y27.0553 Z5.2589
G3 X-50.7112 Y27.092 Z5.2588 I-0.5626 J0.8267
G1 X-50.612 Y27.169 Z5.2586
G3 X-50.5641 Y27.2087 I-0.6132 J0.79
G1 X-50.4698 Y27.2918 Z5.2584
G3 X-50.4238 Y27.335 Z5.2583 I-0.6611 J0.7503
G1 X-50.335 Y27.4238 Z5.2582
G3 X-50.2918 Y27.4698 Z5.2581 I-0.7071 J0.7071
G1 X-50.2652 Y27.5
G1 X-2.2348 Z5.2
G1 X-2.2082 Y27.4698
G3 X-2.1648 Y27.4236 Z5.1999 I0.7503 J0.6611
G1 X-2.076 Y27.3348 Z5.1997
G3 X-2.0305 Y27.2921 Z5.1996 I0.7069 J0.7073
G1 X-1.9362 Y27.209 Z5.1995
G3 X-1.8877 Y27.1688 Z5.1994 I0.6614 J0.75
G1 X-1.7884 Y27.0918 Z5.1993
G3 X-1.7381 Y27.0552 Z5.1992 I0.6129 J0.7902
G1 X-1.6341 Y26.9845 Z5.199
G3 X-1.5804 Y26.9504 I0.5625 J0.8268
G1 X-1.4722 Y26.8865 Z5.1988
G3 X-1.4179 Y26.8566 Z5.1987 I0.5087 J0.8609
G1 X-1.3059 Y26.7995 Z5.1986
G3 X-1.2487 Y26.7725 Z5.1985 I0.4544 J0.8908
G1 X-1.1334 Y26.7226 Z5.1984
G3 X-1.0746 Y26.6994 Z5.1983 I0.3972 J0.9178
G1 X-0.9563 Y26.6569 Z5.1981
G3 X-0.8974 Y26.6377 I0.3383 J0.941
G1 X-0.7767 Y26.6026 Z5.1979
G3 X-0.7155 Y26.5869 Z5.1978 I0.2793 J0.9602
G1 X-0.5928 Y26.5595 Z5.1977
G3 X-0.5308 Y26.5476 Z5.1976 I0.2181 J0.9759
G1 X-0.4067 Y26.528 Z5.1974
G3 X-0.3454 Y26.5203 I0.156 J0.9878
G1 X-0.2203 Y26.5084 Z5.1972
G3 X-0.1566 Y26.5044 Z5.1971 I0.0947 J0.9955
G1 X-0.031 Y26.5005 Z5.197
G3 X0.031 Z5.1969 I0.031 J0.9995
G1 X0.1566 Y26.5044 Z5.1968
G3 X0.2203 Y26.5084 Z5.1967 I-0.031 J0.9995
G1 X0.3454 Y26.5203 Z5.1965
G3 X0.4067 Y26.528 I-0.0947 J0.9955
G1 X0.5308 Y26.5476 Z5.1963
G3 X0.5928 Y26.5595 Z5.1962 I-0.156 J0.9878
G1 X0.7155 Y26.5869 Z5.1961
G3 X0.7767 Y26.6026 Z5.196 I-0.2181 J0.9759
G1 X0.8974 Y26.6377 Z5.1958
G3 X0.9563 Y26.6569 I-0.2793 J0.9602
G1 X1.0746 Y26.6994 Z5.1956
G3 X1.1334 Y26.7226 Z5.1955 I-0.3383 J0.941
G1 X1.2487 Y26.7725 Z5.1954
G3 X1.3059 Y26.7995 Z5.1953 I-0.3972 J0.9178
G1 X1.4179 Y26.8566 Z5.1952
G3 X1.4722 Y26.8865 Z5.1951 I-0.4544 J0.8908
G1 X1.5804 Y26.9504 Z5.1949
G3 X1.6341 Y26.9845 I-0.5087 J0.8609
G1 X1.7381 Y27.0552 Z5.1947
G3 X1.7884 Y27.0918 Z5.1946 I-0.5625 J0.8268
G1 X1.8877 Y27.1688 Z5.1945
G3 X1.9362 Y27.209 Z5.1944 I-0.6129 J0.7902
G1 X2.0305 Y27.2921 Z5.1943
G3 X2.076 Y27.3348 Z5.1942 I-0.6614 J0.75
G1 X2.1648 Y27.4236 Z5.194
G3 X2.2082 Y27.4698 I-0.7069 J0.7073
G1 X2.2348 Y27.5 Z5.1939
G1 X50.2652 Z5.1358
G1 X50.2918 Y27.4698
G3 X50.335 Y27.4238 Z5.1357 I0.7503 J0.6611
G1 X50.4238 Y27.335 Z5.1356
G3 X50.4698 Y27.2918 Z5.1355 I0.7071 J0.7071
G1 X50.5641 Y27.2087 Z5.1353
G3 X50.612 Y27.169 I0.6611 J0.7503
G1 X50.7112 Y27.092 Z5.1351
G3 X50.7618 Y27.0553 Z5.135 I0.6132 J0.79
G1 X50.8657 Y26.9846 Z5.1349
G3 X50.9198 Y26.9502 Z5.1348 I0.5626 J0.8267
G1 X51.028 Y26.8863 Z5.1347
G3 X51.082 Y26.8567 Z5.1346 I0.5085 J0.8611
G1 X51.1939 Y26.7996 Z5.1344
G3 X51.2512 Y26.7726 Z5.1343 I0.4545 J0.8907
G1 X51.3665 Y26.7227 Z5.1342
G3 X51.4256 Y26.6993 Z5.1341 I0.3972 J0.9177
G1 X51.5439 Y26.6568 Z5.134
G3 X51.6026 Y26.6377 Z5.1339 I0.3381 J0.9411
G1 X51.7232 Y26.6026 Z5.1337
G3 X51.7845 Y26.5869 I0.2794 J0.9602
G1 X51.9071 Y26.5595 Z5.1335
G3 X51.9692 Y26.5476 Z5.1334 I0.2181 J0.9759
G1 X52.0933 Y26.528 Z5.1333
G3 X52.1546 Y26.5203 Z5.1332 I0.156 J0.9878
G1 X52.2797 Y26.5084 Z5.1331
G3 X52.3434 Y26.5044 Z5.133 I0.0947 J0.9955
G1 X52.469 Y26.5005 Z5.1328
G3 X52.531 I0.031 J0.9995
G1 X52.6566 Y26.5044 Z5.1326
G3 X52.7203 Y26.5084 Z5.1325 I-0.031 J0.9995
G1 X52.8454 Y26.5203 Z5.1324
G3 X52.9067 Y26.528 Z5.1323 I-0.0947 J0.9955
G1 X53.0308 Y26.5476 Z5.1321
G3 X53.0929 Y26.5595 I-0.156 J0.9878
G1 X53.2155 Y26.5869 Z5.1319
G3 X53.2768 Y26.6026 Z5.1318 I-0.2181 J0.9759
G1 X53.3974 Y26.6377 Z5.1317
G3 X53.4564 Y26.6569 Z5.1316 I-0.2794 J0.9602
G1 X53.5746 Y26.6994 Z5.1315
G3 X53.6331 Y26.7225 Z5.1314 I-0.3384 J0.941
G1 X53.7485 Y26.7724 Z5.1312
G3 X53.8061 Y26.7996 I-0.3969 J0.9179
G1 X53.918 Y26.8567 Z5.131
G3 X53.972 Y26.8863 Z5.1309 I-0.4545 J0.8907
G1 X54.0802 Y26.9502 Z5.1308
G3 X54.1343 Y26.9846 Z5.1307 I-0.5085 J0.8611
G1 X54.2382 Y27.0553 Z5.1306
G3 X54.2888 Y27.092 Z5.1305 I-0.5626 J0.8267
G1 X54.388 Y27.169 Z5.1303
G3 X54.4359 Y27.2087 Z5.1302 I-0.6132 J0.79
G1 X54.5302 Y27.2918 Z5.1301
G3 X54.5762 Y27.335 Z5.13 I-0.6611 J0.7503
G1 X54.665 Y27.4238 Z5.1299
G3 X54.7082 Y27.4698 Z5.1298 I-0.7071 J0.7071
G1 X54.7348 Y27.5 Z5.1297
G1 X60.5 Z5.1228
G1 Y22.2348 Z5.1164
G1 X60.4698 Y22.2082
G3 X60.4238 Y22.165 Z5.1163 I0.6611 J-0.7503
G1 X60.335 Y22.0762 Z5.1161
G3 X60.2918 Y22.0302 I0.7071 J-0.7071
G1 X60.2087 Y21.9359 Z5.1159
G3 X60.169 Y21.888 Z5.1158 I0.7503 J-0.6611
G1 X60.092 Y21.7888 Z5.1157
G3 X60.0553 Y21.7382 Z5.1156 I0.79 J-0.6132
G1 X59.9846 Y21.6343 Z5.1154
G3 X59.9502 Y21.5802 I0.8267 J-0.5626
G1 X59.8863 Y21.472 Z5.1152
G3 X59.8567 Y21.418 Z5.1151 I0.8611 J-0.5085
G1 X59.7996 Y21.3061 Z5.115
G3 X59.7724 Y21.2485 Z5.1149 I0.8907 J-0.4545
G1 X59.7225 Y21.1331 Z5.1148
G3 X59.6994 Y21.0746 Z5.1147 I0.9179 J-0.3969
G1 X59.6569 Y20.9564 Z5.1145
G3 X59.6377 Y20.8974 I0.941 J-0.3384
G1 X59.6026 Y20.7768 Z5.1143
G3 X59.5869 Y20.7155 Z5.1142 I0.9602 J-0.2794
G1 X59.5595 Y20.5929 Z5.1141
G3 X59.5476 Y20.5308 Z5.114 I0.9759 J-0.2181
G1 X59.528 Y20.4067 Z5.1139
G3 X59.5203 Y20.3454 Z5.1138 I0.9878 J-0.156
G1 X59.5084 Y20.2203 Z5.1136
G3 X59.5044 Y20.1566 I0.9955 J-0.0947
G1 X59.5005 Y20.031 Z5.1134
G3 Y19.969 Z5.1133 I0.9995 J-0.031
G1 X59.5044 Y19.8434 Z5.1132
G3 X59.5084 Y19.7797 Z5.1131 I0.9995 J0.031
G1 X59.5203 Y19.6546 Z5.1129
G3 X59.528 Y19.5933 I0.9955 J0.0947
G1 X59.5476 Y19.4692 Z5.1127
G3 X59.5595 Y19.4071 Z5.1126 I0.9878 J0.156
G1 X59.5869 Y19.2845 Z5.1125
G3 X59.6026 Y19.2232 Z5.1124 I0.9759 J0.2181
G1 X59.6377 Y19.1026 Z5.1123
G3 X59.6569 Y19.0436 Z5.1122 I0.9602 J0.2794
G1 X59.6994 Y18.9254 Z5.112
G3 X59.7225 Y18.8669 I0.941 J0.3384
G1 X59.7724 Y18.7515 Z5.1118
G3 X59.7996 Y18.6939 Z5.1117 I0.9179 J0.3969
G1 X59.8567 Y18.582 Z5.1116
G3 X59.8863 Y18.528 Z5.1115 I0.8907 J0.4545
G1 X59.9502 Y18.4198 Z5.1113
G3 X59.9846 Y18.3657 I0.8611 J0.5085
G1 X60.0553 Y18.2618 Z5.1111
G3 X60.092 Y18.2112 Z5.111 I0.8267 J0.5626
G1 X60.169 Y18.112 Z5.1109
G3 X60.2087 Y18.0641 Z5.1108 I0.79 J0.6132
G1 X60.2918 Y17.9698 Z5.1107
G3 X60.335 Y17.9238 Z5.1106 I0.7503 J0.6611
G1 X60.4238 Y17.835 Z5.1104
G3 X60.4698 Y17.7918 I0.7071 J0.7071
G1 X60.5 Y17.7652 Z5.1103
G1 Y8.7348 Z5.0994
G1 X60.4698 Y8.7082 Z5.0993
G3 X60.4236 Y8.6648 I0.6611 J-0.7503
G1 X60.3348 Y8.576 Z5.0991
G3 X60.2921 Y8.5305 Z5.099 I0.7073 J-0.7069
G1 X60.209 Y8.4362 Z5.0989
G3 X60.1688 Y8.3877 Z5.0988 I0.75 J-0.6614
G1 X60.0918 Y8.2884 Z5.0987
G3 X60.0552 Y8.2381 Z5.0986 I0.7902 J-0.6129
G1 X59.9845 Y8.1341 Z5.0984
G3 X59.9504 Y8.0804 I0.8268 J-0.5625
G1 X59.8865 Y7.9722 Z5.0982
G3 X59.8566 Y7.9179 Z5.0981 I0.8609 J-0.5087
G1 X59.7995 Y7.8059 Z5.098
G3 X59.7725 Y7.7487 Z5.0979 I0.8908 J-0.4544
G1 X59.7226 Y7.6334 Z5.0978
G3 X59.6994 Y7.5746 Z5.0977 I0.9178 J-0.3972
G1 X59.6569 Y7.4563 Z5.0975
G3 X59.6377 Y7.3974 Z5.0974 I0.941 J-0.3383
G1 X59.6026 Y7.2767 Z5.0973
G3 X59.5869 Y7.2155 Z5.0972 I0.9602 J-0.2793
G1 X59.5595 Y7.0928 Z5.0971
G3 X59.5476 Y7.0308 Z5.097 I0.9759 J-0.2181
G1 X59.528 Y6.9067 Z5.0968
G3 X59.5203 Y6.8454 I0.9878 J-0.156
G1 X59.5084 Y6.7203 Z5.0966
G3 X59.5044 Y6.6566 Z5.0965 I0.9955 J-0.0947
G1 X59.5005 Y6.531 Z5.0964
G3 Y6.469 Z5.0963 I0.9995 J-0.031
G1 X59.5044 Y6.3434 Z5.0962
G3 X59.5084 Y6.2797 Z5.0961 I0.9995 J0.031
G1 X59.5203 Y6.1546 Z5.0959
G3 X59.528 Y6.0933 I0.9955 J0.0947
G1 X59.5476 Y5.9692 Z5.0957
G3 X59.5595 Y5.9072 Z5.0956 I0.9878 J0.156
G1 X59.5869 Y5.7845 Z5.0955
G3 X59.6026 Y5.7233 Z5.0954 I0.9759 J0.2181
G1 X59.6377 Y5.6026 Z5.0952
G3 X59.6569 Y5.5437 I0.9602 J0.2793
G1 X59.6994 Y5.4254 Z5.095
G3 X59.7226 Y5.3666 Z5.0949 I0.941 J0.3383
G1 X59.7725 Y5.2513 Z5.0948
G3 X59.7995 Y5.1941 Z5.0947 I0.9178 J0.3972
G1 X59.8566 Y5.0821 Z5.0946
G3 X59.8865 Y5.0278 Z5.0945 I0.8908 J0.4544
G1 X59.9504 Y4.9196 Z5.0943
G3 X59.9845 Y4.8659 I0.8609 J0.5087
G1 X60.0552 Y4.7619 Z5.0941
G3 X60.0918 Y4.7116 Z5.094 I0.8268 J0.5625
G1 X60.1688 Y4.6123 Z5.0939
G3 X60.209 Y4.5638 Z5.0938 I0.7902 J0.6129
G1 X60.2921 Y4.4695 Z5.0937
G3 X60.3348 Y4.424 Z5.0936 I0.75 J0.6614
G1 X60.4236 Y4.3352 Z5.0934
G3 X60.4698 Y4.2918 Z5.0933 I0.7073 J0.7069
G1 X60.5 Y4.2652
G1 Y-4.7652 Z5.0824
G1 X60.4698 Y-4.7918 Z5.0823
G3 X60.4236 Y-4.8352 I0.6611 J-0.7503
G1 X60.3348 Y-4.924 Z5.0821
G3 X60.2921 Y-4.9695 Z5.082 I0.7073 J-0.7069
G1 X60.209 Y-5.0638 Z5.0819
G3 X60.1688 Y-5.1123 Z5.0818 I0.75 J-0.6614
G1 X60.0918 Y-5.2116 Z5.0816
G3 X60.0552 Y-5.2619 I0.7902 J-0.6129
G1 X59.9845 Y-5.3659 Z5.0814
G3 X59.9504 Y-5.4196 Z5.0813 I0.8268 J-0.5625
G1 X59.8865 Y-5.5278 Z5.0812
G3 X59.8566 Y-5.5821 Z5.0811 I0.8609 J-0.5087
G1 X59.7995 Y-5.6941 Z5.081
G3 X59.7725 Y-5.7513 Z5.0809 I0.8908 J-0.4544
G1 X59.7226 Y-5.8666 Z5.0807
G3 X59.6994 Y-5.9254 I0.9178 J-0.3972
G1 X59.6569 Y-6.0437 Z5.0805
G3 X59.6377 Y-6.1026 Z5.0804 I0.941 J-0.3383
G1 X59.6026 Y-6.2233 Z5.0803
G3 X59.5869 Y-6.2845 Z5.0802 I0.9602 J-0.2793
G1 X59.5595 Y-6.4072 Z5.0801
G3 X59.5476 Y-6.4692 Z5.08 I0.9759 J-0.2181
G1 X59.528 Y-6.5933 Z5.0798
G3 X59.5203 Y-6.6546 I0.9878 J-0.156
G1 X59.5084 Y-6.7797 Z5.0796
G3 X59.5044 Y-6.8434 Z5.0795 I0.9955 J-0.0947
G1 X59.5005 Y-6.969 Z5.0794
G3 Y-7.031 Z5.0793 I0.9995 J-0.031
G1 X59.5044 Y-7.1566 Z5.0791
G3 X59.5084 Y-7.2203 I0.9995 J0.031
G1 X59.5203 Y-7.3454 Z5.0789
G3 X59.528 Y-7.4067 Z5.0788 I0.9955 J0.0947
G1 X59.5476 Y-7.5308 Z5.0787
G3 X59.5595 Y-7.5928 Z5.0786 I0.9878 J0.156
G1 X59.5869 Y-7.7155 Z5.0785
G3 X59.6026 Y-7.7767 Z5.0784 I0.9759 J0.2181
G1 X59.6377 Y-7.8974 Z5.0782
G3 X59.6569 Y-7.9563 I0.9602 J0.2793
G1 X59.6994 Y-8.0746 Z5.078
G3 X59.7226 Y-8.1334 Z5.0779 I0.941 J0.3383
G1 X59.7725 Y-8.2487 Z5.0778
G3 X59.7995 Y-8.3059 Z5.0777 I0.9178 J0.3972
G1 X59.8566 Y-8.4179 Z5.0775
G3 X59.8865 Y-8.4722 I0.8908 J0.4544
G1 X59.9504 Y-8.5804 Z5.0773
G3 X59.9845 Y-8.6341 Z5.0772 I0.8609 J0.5087
G1 X60.0552 Y-8.7381 Z5.0771
G3 X60.0918 Y-8.7884 Z5.077 I0.8268 J0.5625
G1 X60.1688 Y-8.8877 Z5.0769
G3 X60.209 Y-8.9362 Z5.0768 I0.7902 J0.6129
G1 X60.2921 Y-9.0305 Z5.0766
G3 X60.3348 Y-9.076 I0.75 J0.6614
G1 X60.4236 Y-9.1648 Z5.0764
G3 X60.4698 Y-9.2082 Z5.0763 I0.7073 J0.7069
G1 X60.5 Y-9.2348
G1 Y-13.5 Z5.0711
G1 X54.7348 Z5.0642
G1 X54.7082 Y-13.4698 Z5.0641
G3 X54.665 Y-13.4238 Z5.064 I-0.7503 J-0.6611
G1 X54.5762 Y-13.335 Z5.0639
G3 X54.5302 Y-13.2918 Z5.0638 I-0.7071 J-0.7071
G1 X54.4359 Y-13.2087 Z5.0637
G3 X54.388 Y-13.169 Z5.0636 I-0.6611 J-0.7503
G1 X54.2888 Y-13.092 Z5.0634
G3 X54.2382 Y-13.0553 I-0.6132 J-0.79
G1 X54.1343 Y-12.9846 Z5.0632
G3 X54.0802 Y-12.9502 Z5.0631 I-0.5626 J-0.8267
G1 X53.972 Y-12.8863 Z5.063
G3 X53.918 Y-12.8567 Z5.0629 I-0.5085 J-0.8611
G1 X53.8061 Y-12.7996 Z5.0627
G3 X53.7485 Y-12.7724 I-0.4545 J-0.8907
G1 X53.6331 Y-12.7225 Z5.0625
G3 X53.5746 Y-12.6994 Z5.0624 I-0.3969 J-0.9179
G1 X53.4564 Y-12.6569 Z5.0623
G3 X53.3974 Y-12.6377 Z5.0622 I-0.3384 J-0.941
G1 X53.2768 Y-12.6026 Z5.0621
G3 X53.2155 Y-12.5869 Z5.062 I-0.2794 J-0.9602
G1 X53.0929 Y-12.5595 Z5.0618
G3 X53.0308 Y-12.5476 I-0.2181 J-0.9759
G1 X52.9067 Y-12.528 Z5.0616
G3 X52.8454 Y-12.5203 Z5.0615 I-0.156 J-0.9878
G1 X52.7203 Y-12.5084 Z5.0614
G3 X52.6566 Y-12.5044 Z5.0613 I-0.0947 J-0.9955
G1 X52.531 Y-12.5005 Z5.0611
G3 X52.469 I-0.031 J-0.9995
G1 X52.3434 Y-12.5044 Z5.0609
G3 X52.2797 Y-12.5084 Z5.0608 I0.031 J-0.9995
G1 X52.1546 Y-12.5203 Z5.0607
G3 X52.0933 Y-12.528 Z5.0606 I0.0947 J-0.9955
G1 X51.9692 Y-12.5476 Z5.0605
G3 X51.9071 Y-12.5595 Z5.0604 I0.156 J-0.9878
G1 X51.7845 Y-12.5869 Z5.0602
G3 X51.7232 Y-12.6026 I0.2181 J-0.9759
G1 X51.6026 Y-12.6377 Z5.06
G3 X51.5439 Y-12.6568 Z5.0599 I0.2794 J-0.9602
G1 X51.4256 Y-12.6993 Z5.0598
G3 X51.3665 Y-12.7227 Z5.0597 I0.3381 J-0.9411
G1 X51.2512 Y-12.7726 Z5.0596
G3 X51.1939 Y-12.7996 Z5.0595 I0.3972 J-0.9177
G1 X51.082 Y-12.8567 Z5.0593
G3 X51.028 Y-12.8863 I0.4545 J-0.8907
G1 X50.9198 Y-12.9502 Z5.0591
G3 X50.8657 Y-12.9846 Z5.059 I0.5085 J-0.8611
G1 X50.7618 Y-13.0553 Z5.0589
G3 X50.7112 Y-13.092 Z5.0588 I0.5626 J-0.8267
G1 X50.612 Y-13.169 Z5.0586
G3 X50.5641 Y-13.2087 I0.6132 J-0.79
G1 X50.4698 Y-13.2918 Z5.0584
G3 X50.4238 Y-13.335 Z5.0583 I0.6611 J-0.7503
G1 X50.335 Y-13.4238 Z5.0582
G3 X50.2918 Y-13.4698 Z5.0581 I0.7071 J-0.7071
G1 X50.2652 Y-13.5
G1 X2.2348 Z5.0
G1 X2.2082 Y-13.4698
G3 X2.1648 Y-13.4236 Z4.9999 I-0.7503 J-0.6611
G1 X2.076 Y-13.3348 Z4.9997
G3 X2.0305 Y-13.2921 Z4.9996 I-0.7069 J-0.7073
G1 X1.9362 Y-13.209 Z4.9995
G3 X1.8877 Y-13.1688 Z4.9994 I-0.6614 J-0.75
G1 X1.7884 Y-13.0918 Z4.9993
G3 X1.7381 Y-13.0552 Z4.9992 I-0.6129 J-0.7902
G1 X1.6341 Y-12.9845 Z4.999
G3 X1.5804 Y-12.9504 I-0.5625 J-0.8268
G1 X1.4722 Y-12.8865 Z4.9988
G3 X1.4179 Y-12.8566 Z4.9987 I-0.5087 J-0.8609
G1 X1.3059 Y-12.7995 Z4.9986
G3 X1.2487 Y-12.7725 Z4.9985 I-0.4544 J-0.8908
G1 X1.1334 Y-12.7226 Z4.9984
G3 X1.0746 Y-12.6994 Z4.9983 I-0.3972 J-0.9178
G1 X0.9563 Y-12.6569 Z4.9981
G3 X0.8974 Y-12.6377 I-0.3383 J-0.941
G1 X0.7767 Y-12.6026 Z4.9979
G3 X0.7155 Y-12.5869 Z4.9978 I-0.2793 J-0.9602
G1 X0.5928 Y-12.5595 Z4.9977
G3 X0.5308 Y-12.5476 Z4.9976 I-0.2181 J-0.9759
G1 X0.4067 Y-12.528 Z4.9974
G3 X0.3454 Y-12.5203 I-0.156 J-0.9878
G1 X0.2203 Y-12.5084 Z4.9972
G3 X0.1566 Y-12.5044 Z4.9971 I-0.0947 J-0.9955
G1 X0.031 Y-12.5005 Z4.997
G3 X-0.031 Z4.9969 I-0.031 J-0.9995
G1 X-0.1566 Y-12.5044 Z4.9968
G3 X-0.2203 Y-12.5084 Z4.9967 I0.031 J-0.9995
G1 X-0.3454 Y-12.5203 Z4.9965
G3 X-0.4067 Y-12.528 I0.0947 J-0.9955
G1 X-0.5308 Y-12.5476 Z4.9963
G3 X-0.5928 Y-12.5595 Z4.9962 I0.156 J-0.9878
G1 X-0.7155 Y-12.5869 Z4.9961
G3 X-0.7767 Y-12.6026 Z4.996 I0.2181 J-0.9759
G1 X-0.8974 Y-12.6377 Z4.9958
G3 X-0.9563 Y-12.6569 I0.2793 J-0.9602
G1 X-1.0746 Y-12.6994 Z4.9956
G3 X-1.1334 Y-12.7226 Z4.9955 I0.3383 J-0.941
G1 X-1.2487 Y-12.7725 Z4.9954
G3 X-1.3059 Y-12.7995 Z4.9953 I0.3972 J-0.9178
G1 X-1.4179 Y-12.8566 Z4.9952
G3 X-1.4722 Y-12.8865 Z4.9951 I0.4544 J-0.8908
G1 X-1.5804 Y-12.9504 Z4.9949
G3 X-1.6341 Y-12.9845 I0.5087 J-0.8609
G1 X-1.7381 Y-13.0552 Z4.9947
G3 X-1.7884 Y-13.0918 Z4.9946 I0.5625 J-0.8268
G1 X-1.8877 Y-13.1688 Z4.9945
G3 X-1.9362 Y-13.209 Z4.9944 I0.6129 J-0.7902
G1 X-2.0305 Y-13.2921 Z4.9943
G3 X-2.076 Y-13.3348 Z4.9942 I0.6614 J-0.75
G1 X-2.1648 Y-13.4236 Z4.994
G3 X-2.2082 Y-13.4698 I0.7069 J-0.7073
G1 X-2.2348 Y-13.5 Z4.9939
G1 X-50.2652 Z4.9358
G1 X-50.2918 Y-13.4698
G3 X-50.335 Y-13.4238 Z4.9357 I-0.7503 J-0.6611
G1 X-50.4238 Y-13.335 Z4.9356
G3 X-50.4698 Y-13.2918 Z4.9355 I-0.7071 J-0.7071
G1 X-50.5641 Y-13.2087 Z4.9353
G3 X-50.612 Y-13.169 I-0.6611 J-0.7503
G1 X-50.7112 Y-13.092 Z4.9351
G3 X-50.7618 Y-13.0553 Z4.935 I-0.6132 J-0.79
G1 X-50.8657 Y-12.9846 Z4.9349
G3 X-50.9198 Y-12.9502 Z4.9348 I-0.5626 J-0.8267
G1 X-51.028 Y-12.8863 Z4.9347
G3 X-51.082 Y-12.8567 Z4.9346 I-0.5085 J-0.8611
G1 X-51.1939 Y-12.7996 Z4.9344
G3 X-51.2512 Y-12.7726 Z4.9343 I-0.4545 J-0.8907
G1 X-51.3665 Y-12.7227 Z4.9342
G3 X-51.4256 Y-12.6993 Z4.9341 I-0.3972 J-0.9177
G1 X-51.5439 Y-12.6568 Z4.934
G3 X-51.6026 Y-12.6377 Z4.9339 I-0.3381 J-0.9411
G1 X-51.7232 Y-12.6026 Z4.9337
G3 X-51.7845 Y-12.5869 I-0.2794 J-0.9602
G1 X-51.9071 Y-12.5595 Z4.9335
G3 X-51.9692 Y-12.5476 Z4.9334 I-0.2181 J-0.9759
G1 X-52.0933 Y-12.528 Z4.9333
G3 X-52.1546 Y-12.5203 Z4.9332 I-0.156 J-0.9878
G1 X-52.2797 Y-12.5084 Z4.9331
G3 X-52.3434 Y-12.5044 Z4.933 I-0.0947 J-0.9955
G1 X-52.469 Y-12.5005 Z4.9328
G3 X-52.531 I-0.031 J-0.9995
G1 X-52.6566 Y-12.5044 Z4.9326
G3 X-52.7203 Y-12.5084 Z4.9325 I0.031 J-0.9995
G1 X-52.8454 Y-12.5203 Z4.9324
G3 X-52.9067 Y-12.528 Z4.9323 I0.0947 J-0.9955
G1 X-53.0308 Y-12.5476 Z4.9321
G3 X-53.0929 Y-12.5595 I0.156 J-0.9878
G1 X-53.2155 Y-12.5869 Z4.9319
G3 X-53.2768 Y-12.6026 Z4.9318 I0.2181 J-0.9759
G1 X-53.3974 Y-12.6377 Z4.9317
G3 X-53.4564 Y-12.6569 Z4.9316 I0.2794 J-0.9602
G1 X-53.5746 Y-12.6994 Z4.9315
G3 X-53.6331 Y-12.7225 Z4.9314 I0.3384 J-0.941
G1 X-53.7485 Y-12.7724 Z4.9312
G3 X-53.8061 Y-12.7996 I0.3969 J-0.9179
G1 X-53.918 Y-12.8567 Z4.931
G3 X-53.972 Y-12.8863 Z4.9309 I0.4545 J-0.8907
G1 X-54.0802 Y-12.9502 Z4.9308
G3 X-54.1343 Y-12.9846 Z4.9307 I0.5085 J-0.8611
G1 X-54.2382 Y-13.0553 Z4.9306
G3 X-54.2888 Y-13.092 Z4.9305 I0.5626 J-0.8267
G1 X-54.388 Y-13.169 Z4.9303
G3 X-54.4359 Y-13.2087 Z4.9302 I0.6132 J-0.79
G1 X-54.5302 Y-13.2918 Z4.9301
G3 X-54.5762 Y-13.335 Z4.93 I0.6611 J-0.7503
G1 X-54.665 Y-13.4238 Z4.9299
G3 X-54.7082 Y-13.4698 Z4.9298 I0.7071 J-0.7071
G1 X-54.7348 Y-13.5 Z4.9297
G1 X-60.5 Z4.9228
G1 Y-9.2348 Z4.9176
G1 X-60.4698 Y-9.2082
G3 X-60.4236 Y-9.1648 Z4.9175 I-0.6611 J0.7503
G1 X-60.3348 Y-9.076 Z4.9173
G3 X-60.2921 Y-9.0305 I-0.7073 J0.7069
G1 X-60.209 Y-8.9362 Z4.9171
G3 X-60.1688 Y-8.8877 Z4.917 I-0.75 J0.6614
G1 X-60.0918 Y-8.7884 Z4.9169
G3 X-60.0552 Y-8.7381 Z4.9168 I-0.7902 J0.6129
G1 X-59.9845 Y-8.6341 Z4.9167
G3 X-59.9504 Y-8.5804 Z4.9166 I-0.8268 J0.5625
G1 X-59.8865 Y-8.4722 Z4.9164
G3 X-59.8566 Y-8.4179 I-0.8609 J0.5087
G1 X-59.7995 Y-8.3059 Z4.9162
G3 X-59.7725 Y-8.2487 Z4.9161 I-0.8908 J0.4544
G1 X-59.7226 Y-8.1334 Z4.916
G3 X-59.6994 Y-8.0746 Z4.9159 I-0.9178 J0.3972
G1 X-59.6569 Y-7.9563 Z4.9157
G3 X-59.6377 Y-7.8974 I-0.941 J0.3383
G1 X-59.6026 Y-7.7767 Z4.9155
G3 X-59.5869 Y-7.7155 Z4.9154 I-0.9602 J0.2793
G1 X-59.5595 Y-7.5928 Z4.9153
G3 X-59.5476 Y-7.5308 Z4.9152 I-0.9759 J0.2181
G1 X-59.528 Y-7.4067 Z4.9151
G3 X-59.5203 Y-7.3454 Z4.915 I-0.9878 J0.156
G1 X-59.5084 Y-7.2203 Z4.9148
G3 X-59.5044 Y-7.1566 I-0.9955 J0.0947
G1 X-59.5005 Y-7.031 Z4.9146
G3 Y-6.969 Z4.9145 I-0.9995 J0.031
G1 X-59.5044 Y-6.8434 Z4.9144
G3 X-59.5084 Y-6.7797 Z4.9143 I-0.9995 J-0.031
G1 X-59.5203 Y-6.6546 Z4.9142
G3 X-59.528 Y-6.5933 Z4.9141 I-0.9955 J-0.0947
G1 X-59.5476 Y-6.4692 Z4.9139
G3 X-59.5595 Y-6.4072 Z4.9138 I-0.9878 J-0.156
G1 X-59.5869 Y-6.2845 Z4.9137
G3 X-59.6026 Y-6.2233 Z4.9136 I-0.9759 J-0.2181
G1 X-59.6377 Y-6.1026 Z4.9135
G3 X-59.6569 Y-6.0437 Z4.9134 I-0.9602 J-0.2793
G1 X-59.6994 Y-5.9254 Z4.9132
G3 X-59.7226 Y-5.8666 I-0.941 J-0.3383
G1 X-59.7725 Y-5.7513 Z4.913
G3 X-59.7995 Y-5.6941 Z4.9129 I-0.9178 J-0.3972
G1 X-59.8566 Y-5.5821 Z4.9128
G3 X-59.8865 Y-5.5278 Z4.9127 I-0.8908 J-0.4544
G1 X-59.9504 Y-5.4196 Z4.9126
G3 X-59.9845 Y-5.3659 Z4.9125 I-0.8609 J-0.5087
G1 X-60.0552 Y-5.2619 Z4.9123
G3 X-60.0918 Y-5.2116 I-0.8268 J-0.5625
G1 X-60.1688 Y-5.1123 Z4.9121
G3 X-60.209 Y-5.0638 Z4.912 I-0.7902 J-0.6129
G1 X-60.2921 Y-4.9695 Z4.9119
G3 X-60.3348 Y-4.924 Z4.9118 I-0.75 J-0.6614
G1 X-60.4236 Y-4.8352 Z4.9116
G3 X-60.4698 Y-4.7918 I-0.7073 J-0.7069
G1 X-60.5 Y-4.7652 Z4.9115
G1 Y4.2652 Z4.9006
G1 X-60.4698 Y4.2918
G3 X-60.4236 Y4.3352 Z4.9005 I-0.6611 J0.7503
G1 X-60.3348 Y4.424 Z4.9003
G3 X-60.2921 Y4.4695 I-0.7073 J0.7069
G1 X-60.209 Y4.5638 Z4.9001
G3 X-60.1688 Y4.6123 Z4.9 I-0.75 J0.6614
G1 X-60.0918 Y4.7116 Z4.8999
G3 X-60.0552 Y4.7619 Z4.8998 I-0.7902 J0.6129
G1 X-59.9845 Y4.8659 Z4.8996
G3 X-59.9504 Y4.9196 I-0.8268 J0.5625
G1 X-59.8865 Y5.0278 Z4.8994
G3 X-59.8566 Y5.0821 Z4.8993 I-0.8609 J0.5087
G1 X-59.7995 Y5.1941 Z4.8992
G3 X-59.7725 Y5.2513 Z4.8991 I-0.8908 J0.4544
G1 X-59.7226 Y5.3666 Z4.899
G3 X-59.6994 Y5.4254 Z4.8989 I-0.9178 J0.3972
G1 X-59.6569 Y5.5437 Z4.8987
G3 X-59.6377 Y5.6026 I-0.941 J0.3383
G1 X-59.6026 Y5.7233 Z4.8985
G3 X-59.5869 Y5.7845 Z4.8984 I-0.9602 J0.2793
G1 X-59.5595 Y5.9072 Z4.8983
G3 X-59.5476 Y5.9692 Z4.8982 I-0.9759 J0.2181
G1 X-59.528 Y6.0933 Z4.898
G3 X-59.5203 Y6.1546 I-0.9878 J0.156
G1 X-59.5084 Y6.2797 Z4.8978
G3 X-59.5044 Y6.3434 Z4.8977 I-0.9955 J0.0947
G1 X-59.5005 Y6.469 Z4.8976
G3 Y6.531 Z4.8975 I-0.9995 J0.031
G1 X-59.5044 Y6.6566 Z4.8974
G3 X-59.5084 Y6.7203 Z4.8973 I-0.9995 J-0.031
G1 X-59.5203 Y6.8454 Z4.8971
G3 X-59.528 Y6.9067 I-0.9955 J-0.0947
G1 X-59.5476 Y7.0308 Z4.8969
G3 X-59.5595 Y7.0928 Z4.8968 I-0.9878 J-0.156
G1 X-59.5869 Y7.2155 Z4.8967
G3 X-59.6026 Y7.2767 Z4.8966 I-0.9759 J-0.2181
G1 X-59.6377 Y7.3974 Z4.8965
G3 X-59.6569 Y7.4563 Z4.8964 I-0.9602 J-0.2793
G1 X-59.6994 Y7.5746 Z4.8962
G3 X-59.7226 Y7.6334 I-0.941 J-0.3383
G1 X-59.7725 Y7.7487 Z4.896
G3 X-59.7995 Y7.8059 Z4.8959 I-0.9178 J-0.3972
G1 X-59.8566 Y7.9179 Z4.8958
G3 X-59.8865 Y7.9722 Z4.8957 I-0.8908 J-0.4544
G1 X-59.9504 Y8.0804 Z4.8955
G3 X-59.9845 Y8.1341 I-0.8609 J-0.5087
G1 X-60.0552 Y8.2381 Z4.8953
G3 X-60.0918 Y8.2884 Z4.8952 I-0.8268 J-0.5625
G1 X-60.1688 Y8.3877 Z4.8951
G3 X-60.209 Y8.4362 Z4.895 I-0.7902 J-0.6129
G1 X-60.2921 Y8.5305 Z4.8949
G3 X-60.3348 Y8.576 Z4.8948 I-0.75 J-0.6614
G1 X-60.4236 Y8.6648 Z4.8946
G3 X-60.4698 Y8.7082 I-0.7073 J-0.7069
G1 X-60.5 Y8.7348 Z4.8945
G1 Y17.7652 Z4.8836
G1 X-60.4698 Y17.7918 Z4.8835
G3 X-60.4238 Y17.835 I-0.6611 J0.7503
G1 X-60.335 Y17.9238 Z4.8833
G3 X-60.2918 Y17.9698 Z4.8832 I-0.7071 J0.7071
G1 X-60.2087 Y18.0641 Z4.8831
G3 X-60.169 Y18.112 Z4.883 I-0.7503 J0.6611
G1 X-60.092 Y18.2112 Z4.8829
G3 X-60.0553 Y18.2618 Z4.8828 I-0.79 J0.6132
G1 X-59.9846 Y18.3657 Z4.8826
G3 X-59.9502 Y18.4198 I-0.8267 J0.5626
G1 X-59.8863 Y18.528 Z4.8824
G3 X-59.8567 Y18.582 Z4.8823 I-0.8611 J0.5085
G1 X-59.7996 Y18.6939 Z4.8822
G3 X-59.7724 Y18.7515 Z4.8821 I-0.8907 J0.4545
G1 X-59.7225 Y18.8669 Z4.8819
G3 X-59.6994 Y18.9254 I-0.9179 J0.3969
G1 X-59.6569 Y19.0436 Z4.8817
G3 X-59.6377 Y19.1026 Z4.8816 I-0.941 J0.3384
G1 X-59.6026 Y19.2232 Z4.8815
G3 X-59.5869 Y19.2845 Z4.8814 I-0.9602 J0.2794
G1 X-59.5595 Y19.4071 Z4.8813
G3 X-59.5476 Y19.4692 Z4.8812 I-0.9759 J0.2181
G1 X-59.528 Y19.5933 Z4.881
G3 X-59.5203 Y19.6546 I-0.9878 J0.156
G1 X-59.5084 Y19.7797 Z4.8808
G3 X-59.5044 Y19.8434 Z4.8807 I-0.9955 J0.0947
G1 X-59.5005 Y19.969 Z4.8806
G3 Y20.031 Z4.8805 I-0.9995 J0.031
G1 X-59.5044 Y20.1566 Z4.8804
G3 X-59.5084 Y20.2203 Z4.8803 I-0.9995 J-0.031
G1 X-59.5203 Y20.3454 Z4.8801
G3 X-59.528 Y20.4067 Z4.88 I-0.9955 J-0.0947
G1 X-59.5476 Y20.5308 Z4.8799
G3 X-59.5595 Y20.5929 Z4.8798 I-0.9878 J-0.156
G1 X-59.5869 Y20.7155 Z4.8797
G3 X-59.6026 Y20.7768 Z4.8796 I-0.9759 J-0.2181
G1 X-59.6377 Y20.8974 Z4.8794
G3 X-59.6569 Y20.9564 I-0.9602 J-0.2794
G1 X-59.6994 Y21.0746 Z4.8792
G3 X-59.7225 Y21.1331 Z4.8791 I-0.941 J-0.3384
G1 X-59.7724 Y21.2485 Z4.879
G3 X-59.7996 Y21.3061 Z4.8789 I-0.9179 J-0.3969
G1 X-59.8567 Y21.418 Z4.8788
G3 X-59.8863 Y21.472 Z4.8787 I-0.8907 J-0.4545
G1 X-59.9502 Y21.5802 Z4.8785
G3 X-59.9846 Y21.6343 I-0.8611 J-0.5085
G1 X-60.0553 Y21.7382 Z4.8783
G3 X-60.092 Y21.7888 Z4.8782 I-0.8267 J-0.5626
G1 X-60.169 Y21.888 Z4.8781
G3 X-60.2087 Y21.9359 Z4.878 I-0.79 J-0.6132
G1 X-60.2918 Y22.0302 Z4.8778
G3 X-60.335 Y22.0762 I-0.7503 J-0.6611
G1 X-60.4238 Y22.165 Z4.8776
G3 X-60.4698 Y22.2082 Z4.8775 I-0.7071 J-0.7071
G1 X-60.5 Y22.2348
G1 Y27.5 Z4.8711
G1 X-54.7348 Z4.8642
G1 X-54.7082 Y27.4698 Z4.8641
G3 X-54.665 Y27.4238 Z4.864 I0.7503 J0.6611
G1 X-54.5762 Y27.335 Z4.8639
G3 X-54.5302 Y27.2918 Z4.8638 I0.7071 J0.7071
G1 X-54.4359 Y27.2087 Z4.8637
G3 X-54.388 Y27.169 Z4.8636 I0.6611 J0.7503
G1 X-54.2888 Y27.092 Z4.8634
G3 X-54.2382 Y27.0553 I0.6132 J0.79
G1 X-54.1343 Y26.9846 Z4.8632
G3 X-54.0802 Y26.9502 Z4.8631 I0.5626 J0.8267
G1 X-53.972 Y26.8863 Z4.863
G3 X-53.918 Y26.8567 Z4.8629 I0.5085 J0.8611
G1 X-53.8061 Y26.7996 Z4.8627
G3 X-53.7485 Y26.7724 I0.4545 J0.8907
G1 X-53.6331 Y26.7225 Z4.8625
G3 X-53.5746 Y26.6994 Z4.8624 I0.3969 J0.9179
G1 X-53.4564 Y26.6569 Z4.8623
G3 X-53.3974 Y26.6377 Z4.8622 I0.3384 J0.941
G1 X-53.2768 Y26.6026 Z4.8621
G3 X-53.2155 Y26.5869 Z4.862 I0.2794 J0.9602
G1 X-53.0929 Y26.5595 Z4.8618
G3 X-53.0308 Y26.5476 I0.2181 J0.9759
G1 X-52.9067 Y26.528 Z4.8616
G3 X-52.8454 Y26.5203 Z4.8615 I0.156 J0.9878
G1 X-52.7203 Y26.5084 Z4.8614
G3 X-52.6566 Y26.5044 Z4.8613 I0.0947 J0.9955
G1 X-52.531 Y26.5005 Z4.8611
G3 X-52.469 I0.031 J0.9995
G1 X-52.3434 Y26.5044 Z4.8609
G3 X-52.2797 Y26.5084 Z4.8608 I-0.031 J0.9995
G1 X-52.1546 Y26.5203 Z4.8607
G3 X-52.0933 Y26.528 Z4.8606 I-0.0947 J0.9955
G1 X-51.9692 Y26.5476 Z4.8605
G3 X-51.9071 Y26.5595 Z4.8604 I-0.156 J0.9878
G1 X-51.7845 Y26.5869 Z4.8602
G3 X-51.7232 Y26.6026 I-0.2181 J0.9759
G1 X-51.6026 Y26.6377 Z4.86
G3 X-51.5439 Y26.6568 Z4.8599 I-0.2794 J0.9602
G1 X-51.4256 Y26.6993 Z4.8598
G3 X-51.3665 Y26.7227 Z4.8597 I-0.3381 J0.9411
G1 X-51.2512 Y26.7726 Z4.8596
G3 X-51.1939 Y26.7996 Z4.8595 I-0.3972 J0.9177
G1 X-51.082 Y26.8567 Z4.8593
G3 X-51.028 Y26.8863 I-0.4545 J0.8907
G1 X-50.9198 Y26.9502 Z4.8591
G3 X-50.8657 Y26.9846 Z4.859 I-0.5085 J0.8611
G1 X-50.7618 Y27.0553 Z4.8589
G3 X-50.7112 Y27.092 Z4.8588 I-0.5626 J0.8267
G1 X-50.612 Y27.169 Z4.8586
G3 X-50.5641 Y27.2087 I-0.6132 J0.79
G1 X-50.4698 Y27.2918 Z4.8584
G3 X-50.4238 Y27.335 Z4.8583 I-0.6611 J0.7503
G1 X-50.335 Y27.4238 Z4.8582
G3 X-50.2918 Y27.4698 Z4.8581 I-0.7071 J0.7071
G1 X-50.2652 Y27.5
G1 X-2.2348 Z4.8
G1 X-2.2082 Y27.4698
G3 X-2.1648 Y27.4236 Z4.7999 I0.7503 J0.6611
G1 X-2.076 Y27.3348 Z4.7997
G3 X-2.0305 Y27.2921 Z4.7996 I0.7069 J0.7073
G1 X-1.9362 Y27.209 Z4.7995
G3 X-1.8877 Y27.1688 Z4.7994 I0.6614 J0.75
G1 X-1.7884 Y27.0918 Z4.7993
G3 X-1.7381 Y27.0552 Z4.7992 I0.6129 J0.7902
G1 X-1.6341 Y26.9845 Z4.799
G3 X-1.5804 Y26.9504 I0.5625 J0.8268
G1 X-1.4722 Y26.8865 Z4.7988
G3 X-1.4179 Y26.8566 Z4.7987 I0.5087 J0.8609
G1 X-1.3059 Y26.7995 Z4.7986
G3 X-1.2487 Y26.7725 Z4.7985 I0.4544 J0.8908
G1 X-1.1334 Y26.7226 Z4.7984
G3 X-1.0746 Y26.6994 Z4.7983 I0.3972 J0.9178
G1 X-0.9563 Y26.6569 Z4.7981
G3 X-0.8974 Y26.6377 I0.3383 J0.941
G1 X-0.7767 Y26.6026 Z4.7979
G3 X-0.7155 Y26.5869 Z4.7978 I0.2793 J0.9602
G1 X-0.5928 Y26.5595 Z4.7977
G3 X-0.5308 Y26.5476 Z4.7976 I0.2181 J0.9759
G1 X-0.4067 Y26.528 Z4.7974
G3 X-0.3454 Y26.5203 I0.156 J0.9878
G1 X-0.2203 Y26.5084 Z4.7972
G3 X-0.1566 Y26.5044 Z4.7971 I0.0947 J0.9955
G1 X-0.031 Y26.5005 Z4.797
G3 X0.031 Z4.7969 I0.031 J0.9995
G1 X0.1566 Y26.5044 Z4.7968
G3 X0.2203 Y26.5084 Z4.7967 I-0.031 J0.9995
G1 X0.3454 Y26.5203 Z4.7965
G3 X0.4067 Y26.528 I-0.0947 J0.9955
G1 X0.5308 Y26.5476 Z4.7963
G3 X0.5928 Y26.5595 Z4.7962 I-0.156 J0.9878
G1 X0.7155 Y26.5869 Z4.7961
G3 X0.7767 Y26.6026 Z4.796 I-0.2181 J0.9759
G1 X0.8974 Y26.6377 Z4.7958
G3 X0.9563 Y26.6569 I-0.2793 J0.9602
G1 X1.0746 Y26.6994 Z4.7956
G3 X1.1334 Y26.7226 Z4.7955 I-0.3383 J0.941
G1 X1.2487 Y26.7725 Z4.7954
G3 X1.3059 Y26.7995 Z4.7953 I-0.3972 J0.9178
G1 X1.4179 Y26.8566 Z4.7952
G3 X1.4722 Y26.8865 Z4.7951 I-0.4544 J0.8908
G1 X1.5804 Y26.9504 Z4.7949
G3 X1.6341 Y26.9845 I-0.5087 J0.8609
G1 X1.7381 Y27.0552 Z4.7947
G3 X1.7884 Y27.0918 Z4.7946 I-0.5625 J0.8268
G1 X1.8877 Y27.1688 Z4.7945
G3 X1.9362 Y27.209 Z4.7944 I-0.6129 J0.7902
G1 X2.0305 Y27.2921 Z4.7943
G3 X2.076 Y27.3348 Z4.7942 I-0.6614 J0.75
G1 X2.1648 Y27.4236 Z4.794
G3 X2.2082 Y27.4698 I-0.7069 J0.7073
G1 X2.2348 Y27.5 Z4.7939
G1 X50.2652 Z4.7358
G1 X50.2918 Y27.4698
G3 X50.335 Y27.4238 Z4.7357 I0.7503 J0.6611
G1 X50.4238 Y27.335 Z4.7356
G3 X50.4698 Y27.2918 Z4.7355 I0.7071 J0.7071
G1 X50.5641 Y27.2087 Z4.7353
G3 X50.612 Y27.169 I0.6611 J0.7503
G1 X50.7112 Y27.092 Z4.7351
G3 X50.7618 Y27.0553 Z4.735 I0.6132 J0.79
G1 X50.8657 Y26.9846 Z4.7349
G3 X50.9198 Y26.9502 Z4.7348 I0.5626 J0.8267
G1 X51.028 Y26.8863 Z4.7347
G3 X51.082 Y26.8567 Z4.7346 I0.5085 J0.8611
G1 X51.1939 Y26.7996 Z4.7344
G3 X51.2512 Y26.7726 Z4.7343 I0.4545 J0.8907
G1 X51.3665 Y26.7227 Z4.7342
G3 X51.4256 Y26.6993 Z4.7341 I0.3972 J0.9177
G1 X51.5439 Y26.6568 Z4.734
G3 X51.6026 Y26.6377 Z4.7339 I0.3381 J0.9411
G1 X51.7232 Y26.6026 Z4.7337
G3 X51.7845 Y26.5869 I0.2794 J0.9602
G1 X51.9071 Y26.5595 Z4.7335
G3 X51.9692 Y26.5476 Z4.7334 I0.2181 J0.9759
G1 X52.0933 Y26.528 Z4.7333
G3 X52.1546 Y26.5203 Z4.7332 I0.156 J0.9878
G1 X52.2797 Y26.5084 Z4.7331
G3 X52.3434 Y26.5044 Z4.733 I0.0947 J0.9955
G1 X52.469 Y26.5005 Z4.7328
G3 X52.531 I0.031 J0.9995
G1 X52.6566 Y26.5044 Z4.7326
G3 X52.7203 Y26.5084 Z4.7325 I-0.031 J0.9995
G1 X52.8454 Y26.5203 Z4.7324
G3 X52.9067 Y26.528 Z4.7323 I-0.0947 J0.9955
G1 X53.0308 Y26.5476 Z4.7321
G3 X53.0929 Y26.5595 I-0.156 J0.9878
G1 X53.2155 Y26.5869 Z4.7319
G3 X53.2768 Y26.6026 Z4.7318 I-0.2181 J0.9759
G1 X53.3974 Y26.6377 Z4.7317
G3 X53.4564 Y26.6569 Z4.7316 I-0.2794 J0.9602
G1 X53.5746 Y26.6994 Z4.7315
G3 X53.6331 Y26.7225 Z4.7314 I-0.3384 J0.941
G1 X53.7485 Y26.7724 Z4.7312
G3 X53.8061 Y26.7996 I-0.3969 J0.9179
G1 X53.918 Y26.8567 Z4.731
G3 X53.972 Y26.8863 Z4.7309 I-0.4545 J0.8907
G1 X54.0802 Y26.9502 Z4.7308
G3 X54.1343 Y26.9846 Z4.7307 I-0.5085 J0.8611
G1 X54.2382 Y27.0553 Z4.7306
G3 X54.2888 Y27.092 Z4.7305 I-0.5626 J0.8267
G1 X54.388 Y27.169 Z4.7303
G3 X54.4359 Y27.2087 Z4.7302 I-0.6132 J0.79
G1 X54.5302 Y27.2918 Z4.7301
G3 X54.5762 Y27.335 Z4.73 I-0.6611 J0.7503
G1 X54.665 Y27.4238 Z4.7299
G3 X54.7082 Y27.4698 Z4.7298 I-0.7071 J0.7071
G1 X54.7348 Y27.5 Z4.7297
G1 X60.5 Z4.7228
G1 Y22.2348 Z4.7164
G1 X60.4698 Y22.2082
G3 X60.4238 Y22.165 Z4.7163 I0.6611 J-0.7503
G1 X60.335 Y22.0762 Z4.7161
G3 X60.2918 Y22.0302 I0.7071 J-0.7071
G1 X60.2087 Y21.9359 Z4.7159
G3 X60.169 Y21.888 Z4.7158 I0.7503 J-0.6611
G1 X60.092 Y21.7888 Z4.7157
G3 X60.0553 Y21.7382 Z4.7156 I0.79 J-0.6132
G1 X59.9846 Y21.6343 Z4.7154
G3 X59.9502 Y21.5802 I0.8267 J-0.5626
G1 X59.8863 Y21.472 Z4.7152
G3 X59.8567 Y21.418 Z4.7151 I0.8611 J-0.5085
G1 X59.7996 Y21.3061 Z4.715
G3 X59.7724 Y21.2485 Z4.7149 I0.8907 J-0.4545
G1 X59.7225 Y21.1331 Z4.7148
G3 X59.6994 Y21.0746 Z4.7147 I0.9179 J-0.3969
G1 X59.6569 Y20.9564 Z4.7145
G3 X59.6377 Y20.8974 I0.941 J-0.3384
G1 X59.6026 Y20.7768 Z4.7143
G3 X59.5869 Y20.7155 Z4.7142 I0.9602 J-0.2794
G1 X59.5595 Y20.5929 Z4.7141
G3 X59.5476 Y20.5308 Z4.714 I0.9759 J-0.2181
G1 X59.528 Y20.4067 Z4.7139
G3 X59.5203 Y20.3454 Z4.7138 I0.9878 J-0.156
G1 X59.5084 Y20.2203 Z4.7136
G3 X59.5044 Y20.1566 I0.9955 J-0.0947
G1 X59.5005 Y20.031 Z4.7134
G3 Y19.969 Z4.7133 I0.9995 J-0.031
G1 X59.5044 Y19.8434 Z4.7132
G3 X59.5084 Y19.7797 Z4.7131 I0.9995 J0.031
G1 X59.5203 Y19.6546 Z4.7129
G3 X59.528 Y19.5933 I0.9955 J0.0947
G1 X59.5476 Y19.4692 Z4.7127
G3 X59.5595 Y19.4071 Z4.7126 I0.9878 J0.156
G1 X59.5869 Y19.2845 Z4.7125
G3 X59.6026 Y19.2232 Z4.7124 I0.9759 J0.2181
G1 X59.6377 Y19.1026 Z4.7123
G3 X59.6569 Y19.0436 Z4.7122 I0.9602 J0.2794
G1 X59.6994 Y18.9254 Z4.712
G3 X59.7225 Y18.8669 I0.941 J0.3384
G1 X59.7724 Y18.7515 Z4.7118
G3 X59.7996 Y18.6939 Z4.7117 I0.9179 J0.3969
G1 X59.8567 Y18.582 Z4.7116
G3 X59.8863 Y18.528 Z4.7115 I0.8907 J0.4545
G1 X59.9502 Y18.4198 Z4.7113
G3 X59.9846 Y18.3657 I0.8611 J0.5085
G1 X60.0553 Y18.2618 Z4.7111
G3 X60.092 Y18.2112 Z4.711 I0.8267 J0.5626
G1 X60.169 Y18.112 Z4.7109
G3 X60.2087 Y18.0641 Z4.7108 I0.79 J0.6132
G1 X60.2918 Y17.9698 Z4.7107
G3 X60.335 Y17.9238 Z4.7106 I0.7503 J0.6611
G1 X60.4238 Y17.835 Z4.7104
G3 X60.4698 Y17.7918 I0.7071 J0.7071
G1 X60.5 Y17.7652 Z4.7103
G1 Y8.7348 Z4.6994
G1 X60.4698 Y8.7082 Z4.6993
G3 X60.4236 Y8.6648 I0.6611 J-0.7503
G1 X60.3348 Y8.576 Z4.6991
G3 X60.2921 Y8.5305 Z4.699 I0.7073 J-0.7069
G1 X60.209 Y8.4362 Z4.6989
G3 X60.1688 Y8.3877 Z4.6988 I0.75 J-0.6614
G1 X60.0918 Y8.2884 Z4.6987
G3 X60.0552 Y8.2381 Z4.6986 I0.7902 J-0.6129
G1 X59.9845 Y8.1341 Z4.6984
G3 X59.9504 Y8.0804 I0.8268 J-0.5625
G1 X59.8865 Y7.9722 Z4.6982
G3 X59.8566 Y7.9179 Z4.6981 I0.8609 J-0.5087
G1 X59.7995 Y7.8059 Z4.698
G3 X59.7725 Y7.7487 Z4.6979 I0.8908 J-0.4544
G1 X59.7226 Y7.6334 Z4.6978
G3 X59.6994 Y7.5746 Z4.6977 I0.9178 J-0.3972
G1 X59.6569 Y7.4563 Z4.6975
G3 X59.6377 Y7.3974 Z4.6974 I0.941 J-0.3383
G1 X59.6026 Y7.2767 Z4.6973
G3 X59.5869 Y7.2155 Z4.6972 I0.9602 J-0.2793
G1 X59.5595 Y7.0928 Z4.6971
G3 X59.5476 Y7.0308 Z4.697 I0.9759 J-0.2181
G1 X59.528 Y6.9067 Z4.6968
G3 X59.5203 Y6.8454 I0.9878 J-0.156
G1 X59.5084 Y6.7203 Z4.6966
G3 X59.5044 Y6.6566 Z4.6965 I0.9955 J-0.0947
G1 X59.5005 Y6.531 Z4.6964
G3 Y6.469 Z4.6963 I0.9995 J-0.031
G1 X59.5044 Y6.3434 Z4.6962
G3 X59.5084 Y6.2797 Z4.6961 I0.9995 J0.031
G1 X59.5203 Y6.1546 Z4.6959
G3 X59.528 Y6.0933 I0.9955 J0.0947
G1 X59.5476 Y5.9692 Z4.6957
G3 X59.5595 Y5.9072 Z4.6956 I0.9878 J0.156
G1 X59.5869 Y5.7845 Z4.6955
G3 X59.6026 Y5.7233 Z4.6954 I0.9759 J0.2181
G1 X59.6377 Y5.6026 Z4.6952
G3 X59.6569 Y5.5437 I0.9602 J0.2793
G1 X59.6994 Y5.4254 Z4.695
G3 X59.7226 Y5.3666 Z4.6949 I0.941 J0.3383
G1 X59.7725 Y5.2513 Z4.6948
G3 X59.7995 Y5.1941 Z4.6947 I0.9178 J0.3972
G1 X59.8566 Y5.0821 Z4.6946
G3 X59.8865 Y5.0278 Z4.6945 I0.8908 J0.4544
G1 X59.9504 Y4.9196 Z4.6943
G3 X59.9845 Y4.8659 I0.8609 J0.5087
G1 X60.0552 Y4.7619 Z4.6941
G3 X60.0918 Y4.7116 Z4.694 I0.8268 J0.5625
G1 X60.1688 Y4.6123 Z4.6939
G3 X60.209 Y4.5638 Z4.6938 I0.7902 J0.6129
G1 X60.2921 Y4.4695 Z4.6937
G3 X60.3348 Y4.424 Z4.6936 I0.75 J0.6614
G1 X60.4236 Y4.3352 Z4.6934
G3 X60.4698 Y4.2918 Z4.6933 I0.7073 J0.7069
G1 X60.5 Y4.2652
G1 Y-4.7652 Z4.6824
G1 X60.4698 Y-4.7918 Z4.6823
G3 X60.4236 Y-4.8352 I0.6611 J-0.7503
G1 X60.3348 Y-4.924 Z4.6821
G3 X60.2921 Y-4.9695 Z4.682 I0.7073 J-0.7069
G1 X60.209 Y-5.0638 Z4.6819
G3 X60.1688 Y-5.1123 Z4.6818 I0.75 J-0.6614
G1 X60.0918 Y-5.2116 Z4.6816
G3 X60.0552 Y-5.2619 I0.7902 J-0.6129
G1 X59.9845 Y-5.3659 Z4.6814
G3 X59.9504 Y-5.4196 Z4.6813 I0.8268 J-0.5625
G1 X59.8865 Y-5.5278 Z4.6812
G3 X59.8566 Y-5.5821 Z4.6811 I0.8609 J-0.5087
G1 X59.7995 Y-5.6941 Z4.681
G3 X59.7725 Y-5.7513 Z4.6809 I0.8908 J-0.4544
G1 X59.7226 Y-5.8666 Z4.6807
G3 X59.6994 Y-5.9254 I0.9178 J-0.3972
G1 X59.6569 Y-6.0437 Z4.6805
G3 X59.6377 Y-6.1026 Z4.6804 I0.941 J-0.3383
G1 X59.6026 Y-6.2233 Z4.6803
G3 X59.5869 Y-6.2845 Z4.6802 I0.9602 J-0.2793
G1 X59.5595 Y-6.4072 Z4.6801
G3 X59.5476 Y-6.4692 Z4.68 I0.9759 J-0.2181
G1 X59.528 Y-6.5933 Z4.6798
G3 X59.5203 Y-6.6546 I0.9878 J-0.156
G1 X59.5084 Y-6.7797 Z4.6796
G3 X59.5044 Y-6.8434 Z4.6795 I0.9955 J-0.0947
G1 X59.5005 Y-6.969 Z4.6794
G3 Y-7.031 Z4.6793 I0.9995 J-0.031
G1 X59.5044 Y-7.1566 Z4.6791
G3 X59.5084 Y-7.2203 I0.9995 J0.031
G1 X59.5203 Y-7.3454 Z4.6789
G3 X59.528 Y-7.4067 Z4.6788 I0.9955 J0.0947
G1 X59.5476 Y-7.5308 Z4.6787
G3 X59.5595 Y-7.5928 Z4.6786 I0.9878 J0.156
G1 X59.5869 Y-7.7155 Z4.6785
G3 X59.6026 Y-7.7767 Z4.6784 I0.9759 J0.2181
G1 X59.6377 Y-7.8974 Z4.6782
G3 X59.6569 Y-7.9563 I0.9602 J0.2793
G1 X59.6994 Y-8.0746 Z4.678
G3 X59.7226 Y-8.1334 Z4.6779 I0.941 J0.3383
G1 X59.7725 Y-8.2487 Z4.6778
G3 X59.7995 Y-8.3059 Z4.6777 I0.9178 J0.3972
G1 X59.8566 Y-8.4179 Z4.6775
G3 X59.8865 Y-8.4722 I0.8908 J0.4544
G1 X59.9504 Y-8.5804 Z4.6773
G3 X59.9845 Y-8.6341 Z4.6772 I0.8609 J0.5087
G1 X60.0552 Y-8.7381 Z4.6771
G3 X60.0918 Y-8.7884 Z4.677 I0.8268 J0.5625
G1 X60.1688 Y-8.8877 Z4.6769
G3 X60.209 Y-8.9362 Z4.6768 I0.7902 J0.6129
G1 X60.2921 Y-9.0305 Z4.6766
G3 X60.3348 Y-9.076 I0.75 J0.6614
G1 X60.4236 Y-9.1648 Z4.6764
G3 X60.4698 Y-9.2082 Z4.6763 I0.7073 J0.7069
G1 X60.5 Y-9.2348
G1 Y-13.5 Z4.6711
G1 X54.7348 Z4.6642
G1 X54.7082 Y-13.4698 Z4.6641
G3 X54.665 Y-13.4238 Z4.664 I-0.7503 J-0.6611
G1 X54.5762 Y-13.335 Z4.6639
G3 X54.5302 Y-13.2918 Z4.6638 I-0.7071 J-0.7071
G1 X54.4359 Y-13.2087 Z4.6637
G3 X54.388 Y-13.169 Z4.6636 I-0.6611 J-0.7503
G1 X54.2888 Y-13.092 Z4.6634
G3 X54.2382 Y-13.0553 I-0.6132 J-0.79
G1 X54.1343 Y-12.9846 Z4.6632
G3 X54.0802 Y-12.9502 Z4.6631 I-0.5626 J-0.8267
G1 X53.972 Y-12.8863 Z4.663
G3 X53.918 Y-12.8567 Z4.6629 I-0.5085 J-0.8611
G1 X53.8061 Y-12.7996 Z4.6627
G3 X53.7485 Y-12.7724 I-0.4545 J-0.8907
G1 X53.6331 Y-12.7225 Z4.6625
G3 X53.5746 Y-12.6994 Z4.6624 I-0.3969 J-0.9179
G1 X53.4564 Y-12.6569 Z4.6623
G3 X53.3974 Y-12.6377 Z4.6622 I-0.3384 J-0.941
G1 X53.2768 Y-12.6026 Z4.6621
G3 X53.2155 Y-12.5869 Z4.662 I-0.2794 J-0.9602
G1 X53.0929 Y-12.5595 Z4.6618
G3 X53.0308 Y-12.5476 I-0.2181 J-0.9759
G1 X52.9067 Y-12.528 Z4.6616
G3 X52.8454 Y-12.5203 Z4.6615 I-0.156 J-0.9878
G1 X52.7203 Y-12.5084 Z4.6614
G3 X52.6566 Y-12.5044 Z4.6613 I-0.0947 J-0.9955
G1 X52.531 Y-12.5005 Z4.6611
G3 X52.469 I-0.031 J-0.9995
G1 X52.3434 Y-12.5044 Z4.6609
G3 X52.2797 Y-12.5084 Z4.6608 I0.031 J-0.9995
G1 X52.1546 Y-12.5203 Z4.6607
G3 X52.0933 Y-12.528 Z4.6606 I0.0947 J-0.9955
G1 X51.9692 Y-12.5476 Z4.6605
G3 X51.9071 Y-12.5595 Z4.6604 I0.156 J-0.9878
G1 X51.7845 Y-12.5869 Z4.6602
G3 X51.7232 Y-12.6026 I0.2181 J-0.9759
G1 X51.6026 Y-12.6377 Z4.66
G3 X51.5439 Y-12.6568 Z4.6599 I0.2794 J-0.9602
G1 X51.4256 Y-12.6993 Z4.6598
G3 X51.3665 Y-12.7227 Z4.6597 I0.3381 J-0.9411
G1 X51.2512 Y-12.7726 Z4.6596
G3 X51.1939 Y-12.7996 Z4.6595 I0.3972 J-0.9177
G1 X51.082 Y-12.8567 Z4.6593
G3 X51.028 Y-12.8863 I0.4545 J-0.8907
G1 X50.9198 Y-12.9502 Z4.6591
G3 X50.8657 Y-12.9846 Z4.659 I0.5085 J-0.8611
G1 X50.7618 Y-13.0553 Z4.6589
G3 X50.7112 Y-13.092 Z4.6588 I0.5626 J-0.8267
G1 X50.612 Y-13.169 Z4.6586
G3 X50.5641 Y-13.2087 I0.6132 J-0.79
G1 X50.4698 Y-13.2918 Z4.6584
G3 X50.4238 Y-13.335 Z4.6583 I0.6611 J-0.7503
G1 X50.335 Y-13.4238 Z4.6582
G3 X50.2918 Y-13.4698 Z4.6581 I0.7071 J-0.7071
G1 X50.2652 Y-13.5
G1 X2.2348 Z4.6
G1 X2.2082 Y-13.4698
G3 X2.1648 Y-13.4236 Z4.5999 I-0.7503 J-0.6611
G1 X2.076 Y-13.3348 Z4.5997
G3 X2.0305 Y-13.2921 Z4.5996 I-0.7069 J-0.7073
G1 X1.9362 Y-13.209 Z4.5995
G3 X1.8877 Y-13.1688 Z4.5994 I-0.6614 J-0.75
G1 X1.7884 Y-13.0918 Z4.5993
G3 X1.7381 Y-13.0552 Z4.5992 I-0.6129 J-0.7902
G1 X1.6341 Y-12.9845 Z4.599
G3 X1.5804 Y-12.9504 I-0.5625 J-0.8268
G1 X1.4722 Y-12.8865 Z4.5988
G3 X1.4179 Y-12.8566 Z4.5987 I-0.5087 J-0.8609
G1 X1.3059 Y-12.7995 Z4.5986
G3 X1.2487 Y-12.7725 Z4.5985 I-0.4544 J-0.8908
G1 X1.1334 Y-12.7226 Z4.5984
G3 X1.0746 Y-12.6994 Z4.5983 I-0.3972 J-0.9178
G1 X0.9563 Y-12.6569 Z4.5981
G3 X0.8974 Y-12.6377 I-0.3383 J-0.941
G1 X0.7767 Y-12.6026 Z4.5979
G3 X0.7155 Y-12.5869 Z4.5978 I-0.2793 J-0.9602
G1 X0.5928 Y-12.5595 Z4.5977
G3 X0.5308 Y-12.5476 Z4.5976 I-0.2181 J-0.9759
G1 X0.4067 Y-12.528 Z4.5974
G3 X0.3454 Y-12.5203 I-0.156 J-0.9878
G1 X0.2203 Y-12.5084 Z4.5972
G3 X0.1566 Y-12.5044 Z4.5971 I-0.0947 J-0.9955
G1 X0.031 Y-12.5005 Z4.597
G3 X-0.031 Z4.5969 I-0.031 J-0.9995
G1 X-0.1566 Y-12.5044 Z4.5968
G3 X-0.2203 Y-12.5084 Z4.5967 I0.031 J-0.9995
G1 X-0.3454 Y-12.5203 Z4.5965
G3 X-0.4067 Y-12.528 I0.0947 J-0.9955
G1 X-0.5308 Y-12.5476 Z4.5963
G3 X-0.5928 Y-12.5595 Z4.5962 I0.156 J-0.9878
G1 X-0.7155 Y-12.5869 Z4.5961
G3 X-0.7767 Y-12.6026 Z4.596 I0.2181 J-0.9759
G1 X-0.8974 Y-12.6377 Z4.5958
G3 X-0.9563 Y-12.6569 I0.2793 J-0.9602
G1 X-1.0746 Y-12.6994 Z4.5956
G3 X-1.1334 Y-12.7226 Z4.5955 I0.3383 J-0.941
G1 X-1.2487 Y-12.7725 Z4.5954
G3 X-1.3059 Y-12.7995 Z4.5953 I0.3972 J-0.9178
G1 X-1.4179 Y-12.8566 Z4.5952
G3 X-1.4722 Y-12.8865 Z4.5951 I0.4544 J-0.8908
G1 X-1.5804 Y-12.9504 Z4.5949
G3 X-1.6341 Y-12.9845 I0.5087 J-0.8609
G1 X-1.7381 Y-13.0552 Z4.5947
G3 X-1.7884 Y-13.0918 Z4.5946 I0.5625 J-0.8268
G1 X-1.8877 Y-13.1688 Z4.5945
G3 X-1.9362 Y-13.209 Z4.5944 I0.6129 J-0.7902
G1 X-2.0305 Y-13.2921 Z4.5943
G3 X-2.076 Y-13.3348 Z4.5942 I0.6614 J-0.75
G1 X-2.1648 Y-13.4236 Z4.594
G3 X-2.2082 Y-13.4698 I0.7069 J-0.7073
G1 X-2.2348 Y-13.5 Z4.5939
G1 X-50.2652 Z4.5358
G1 X-50.2918 Y-13.4698
G3 X-50.335 Y-13.4238 Z4.5357 I-0.7503 J-0.6611
G1 X-50.4238 Y-13.335 Z4.5356
G3 X-50.4698 Y-13.2918 Z4.5355 I-0.7071 J-0.7071
G1 X-50.5641 Y-13.2087 Z4.5353
G3 X-50.612 Y-13.169 I-0.6611 J-0.7503
G1 X-50.7112 Y-13.092 Z4.5351
G3 X-50.7618 Y-13.0553 Z4.535 I-0.6132 J-0.79
G1 X-50.8657 Y-12.9846 Z4.5349
G3 X-50.9198 Y-12.9502 Z4.5348 I-0.5626 J-0.8267
G1 X-51.028 Y-12.8863 Z4.5347
G3 X-51.082 Y-12.8567 Z4.5346 I-0.5085 J-0.8611
G1 X-51.1939 Y-12.7996 Z4.5344
G3 X-51.2512 Y-12.7726 Z4.5343 I-0.4545 J-0.8907
G1 X-51.3665 Y-12.7227 Z4.5342
G3 X-51.4256 Y-12.6993 Z4.5341 I-0.3972 J-0.9177
G1 X-51.5439 Y-12.6568 Z4.534
G3 X-51.6026 Y-12.6377 Z4.5339 I-0.3381 J-0.9411
G1 X-51.7232 Y-12.6026 Z4.5337
G3 X-51.7845 Y-12.5869 I-0.2794 J-0.9602
G1 X-51.9071 Y-12.5595 Z4.5335
G3 X-51.9692 Y-12.5476 Z4.5334 I-0.2181 J-0.9759
G1 X-52.0933 Y-12.528 Z4.5333
G3 X-52.1546 Y-12.5203 Z4.5332 I-0.156 J-0.9878
G1 X-52.2797 Y-12.5084 Z4.5331
G3 X-52.3434 Y-12.5044 Z4.533 I-0.0947 J-0.9955
G1 X-52.469 Y-12.5005 Z4.5328
G3 X-52.531 I-0.031 J-0.9995
G1 X-52.6566 Y-12.5044 Z4.5326
G3 X-52.7203 Y-12.5084 Z4.5325 I0.031 J-0.9995
G1 X-52.8454 Y-12.5203 Z4.5324
G3 X-52.9067 Y-12.528 Z4.5323 I0.0947 J-0.9955
G1 X-53.0308 Y-12.5476 Z4.5321
G3 X-53.0929 Y-12.5595 I0.156 J-0.9878
G1 X-53.2155 Y-12.5869 Z4.5319
G3 X-53.2768 Y-12.6026 Z4.5318 I0.2181 J-0.9759
G1 X-53.3974 Y-12.6377 Z4.5317
G3 X-53.4564 Y-12.6569 Z4.5316 I0.2794 J-0.9602
G1 X-53.5746 Y-12.6994 Z4.5315
G3 X-53.6331 Y-12.7225 Z4.5314 I0.3384 J-0.941
G1 X-53.7485 Y-12.7724 Z4.5312
G3 X-53.8061 Y-12.7996 I0.3969 J-0.9179
G1 X-53.918 Y-12.8567 Z4.531
G3 X-53.972 Y-12.8863 Z4.5309 I0.4545 J-0.8907
G1 X-54.0802 Y-12.9502 Z4.5308
G3 X-54.1343 Y-12.9846 Z4.5307 I0.5085 J-0.8611
G1 X-54.2382 Y-13.0553 Z4.5306
G3 X-54.2888 Y-13.092 Z4.5305 I0.5626 J-0.8267
G1 X-54.388 Y-13.169 Z4.5303
G3 X-54.4359 Y-13.2087 Z4.5302 I0.6132 J-0.79
G1 X-54.5302 Y-13.2918 Z4.5301
G3 X-54.5762 Y-13.335 Z4.53 I0.6611 J-0.7503
G1 X-54.665 Y-13.4238 Z4.5299
G3 X-54.7082 Y-13.4698 Z4.5298 I0.7071 J-0.7071
G1 X-54.7348 Y-13.5 Z4.5297
G1 X-60.5 Z4.5228
G1 Y-9.2348 Z4.5176
G1 X-60.4698 Y-9.2082
G3 X-60.4236 Y-9.1648 Z4.5175 I-0.6611 J0.7503
G1 X-60.3348 Y-9.076 Z4.5173
G3 X-60.2921 Y-9.0305 I-0.7073 J0.7069
G1 X-60.209 Y-8.9362 Z4.5171
G3 X-60.1688 Y-8.8877 Z4.517 I-0.75 J0.6614
G1 X-60.0918 Y-8.7884 Z4.5169
G3 X-60.0552 Y-8.7381 Z4.5168 I-0.7902 J0.6129
G1 X-59.9845 Y-8.6341 Z4.5167
G3 X-59.9504 Y-8.5804 Z4.5166 I-0.8268 J0.5625
G1 X-59.8865 Y-8.4722 Z4.5164
G3 X-59.8566 Y-8.4179 I-0.8609 J0.5087
G1 X-59.7995 Y-8.3059 Z4.5162
G3 X-59.7725 Y-8.2487 Z4.5161 I-0.8908 J0.4544
G1 X-59.7226 Y-8.1334 Z4.516
G3 X-59.6994 Y-8.0746 Z4.5159 I-0.9178 J0.3972
G1 X-59.6569 Y-7.9563 Z4.5157
G3 X-59.6377 Y-7.8974 I-0.941 J0.3383
G1 X-59.6026 Y-7.7767 Z4.5155
G3 X-59.5869 Y-7.7155 Z4.5154 I-0.9602 J0.2793
G1 X-59.5595 Y-7.5928 Z4.5153
G3 X-59.5476 Y-7.5308 Z4.5152 I-0.9759 J0.2181
G1 X-59.528 Y-7.4067 Z4.5151
G3 X-59.5203 Y-7.3454 Z4.515 I-0.9878 J0.156
G1 X-59.5084 Y-7.2203 Z4.5148
G3 X-59.5044 Y-7.1566 I-0.9955 J0.0947
G1 X-59.5005 Y-7.031 Z4.5146
G3 Y-6.969 Z4.5145 I-0.9995 J0.031
G1 X-59.5044 Y-6.8434 Z4.5144
G3 X-59.5084 Y-6.7797 Z4.5143 I-0.9995 J-0.031
G1 X-59.5203 Y-6.6546 Z4.5142
G3 X-59.528 Y-6.5933 Z4.5141 I-0.9955 J-0.0947
G1 X-59.5476 Y-6.4692 Z4.5139
G3 X-59.5595 Y-6.4072 Z4.5138 I-0.9878 J-0.156
G1 X-59.5869 Y-6.2845 Z4.5137
G3 X-59.6026 Y-6.2233 Z4.5136 I-0.9759 J-0.2181
G1 X-59.6377 Y-6.1026 Z4.5135
G3 X-59.6569 Y-6.0437 Z4.5134 I-0.9602 J-0.2793
G1 X-59.6994 Y-5.9254 Z4.5132
G3 X-59.7226 Y-5.8666 I-0.941 J-0.3383
G1 X-59.7725 Y-5.7513 Z4.513
G3 X-59.7995 Y-5.6941 Z4.5129 I-0.9178 J-0.3972
G1 X-59.8566 Y-5.5821 Z4.5128
G3 X-59.8865 Y-5.5278 Z4.5127 I-0.8908 J-0.4544
G1 X-59.9504 Y-5.4196 Z4.5126
G3 X-59.9845 Y-5.3659 Z4.5125 I-0.8609 J-0.5087
G1 X-60.0552 Y-5.2619 Z4.5123
G3 X-60.0918 Y-5.2116 I-0.8268 J-0.5625
G1 X-60.1688 Y-5.1123 Z4.5121
G3 X-60.209 Y-5.0638 Z4.512 I-0.7902 J-0.6129
G1 X-60.2921 Y-4.9695 Z4.5119
G3 X-60.3348 Y-4.924 Z4.5118 I-0.75 J-0.6614
G1 X-60.4236 Y-4.8352 Z4.5116
G3 X-60.4698 Y-4.7918 I-0.7073 J-0.7069
G1 X-60.5 Y-4.7652 Z4.5115
G1 Y4.2652 Z4.5006
G1 X-60.4698 Y4.2918
G3 X-60.4236 Y4.3352 Z4.5005 I-0.6611 J0.7503
G1 X-60.3348 Y4.424 Z4.5003
G3 X-60.2921 Y4.4695 I-0.7073 J0.7069
G1 X-60.209 Y4.5638 Z4.5001
G3 X-60.1688 Y4.6123 Z4.5 I-0.75 J0.6614
G1 X-60.0918 Y4.7116 Z4.4999
G3 X-60.0552 Y4.7619 Z4.4998 I-0.7902 J0.6129
G1 X-59.9845 Y4.8659 Z4.4996
G3 X-59.9504 Y4.9196 I-0.8268 J0.5625
G1 X-59.8865 Y5.0278 Z4.4994
G3 X-59.8566 Y5.0821 Z4.4993 I-0.8609 J0.5087
G1 X-59.7995 Y5.1941 Z4.4992
G3 X-59.7725 Y5.2513 Z4.4991 I-0.8908 J0.4544
G1 X-59.7226 Y5.3666 Z4.499
G3 X-59.6994 Y5.4254 Z4.4989 I-0.9178 J0.3972
G1 X-59.6569 Y5.5437 Z4.4987
G3 X-59.6377 Y5.6026 I-0.941 J0.3383
G1 X-59.6026 Y5.7233 Z4.4985
G3 X-59.5869 Y5.7845 Z4.4984 I-0.9602 J0.2793
G1 X-59.5595 Y5.9072 Z4.4983
G3 X-59.5476 Y5.9692 Z4.4982 I-0.9759 J0.2181
G1 X-59.528 Y6.0933 Z4.498
G3 X-59.5203 Y6.1546 I-0.9878 J0.156
G1 X-59.5084 Y6.2797 Z4.4978
G3 X-59.5044 Y6.3434 Z4.4977 I-0.9955 J0.0947
G1 X-59.5005 Y6.469 Z4.4976
G3 Y6.531 Z4.4975 I-0.9995 J0.031
G1 X-59.5044 Y6.6566 Z4.4974
G3 X-59.5084 Y6.7203 Z4.4973 I-0.9995 J-0.031
G1 X-59.5203 Y6.8454 Z4.4971
G3 X-59.528 Y6.9067 I-0.9955 J-0.0947
G1 X-59.5476 Y7.0308 Z4.4969
G3 X-59.5595 Y7.0928 Z4.4968 I-0.9878 J-0.156
G1 X-59.5869 Y7.2155 Z4.4967
G3 X-59.6026 Y7.2767 Z4.4966 I-0.9759 J-0.2181
G1 X-59.6377 Y7.3974 Z4.4965
G3 X-59.6569 Y7.4563 Z4.4964 I-0.9602 J-0.2793
G1 X-59.6994 Y7.5746 Z4.4962
G3 X-59.7226 Y7.6334 I-0.941 J-0.3383
G1 X-59.7725 Y7.7487 Z4.496
G3 X-59.7995 Y7.8059 Z4.4959 I-0.9178 J-0.3972
G1 X-59.8566 Y7.9179 Z4.4958
G3 X-59.8865 Y7.9722 Z4.4957 I-0.8908 J-0.4544
G1 X-59.9504 Y8.0804 Z4.4955
G3 X-59.9845 Y8.1341 I-0.8609 J-0.5087
G1 X-60.0552 Y8.2381 Z4.4953
G3 X-60.0918 Y8.2884 Z4.4952 I-0.8268 J-0.5625
G1 X-60.1688 Y8.3877 Z4.4951
G3 X-60.209 Y8.4362 Z4.495 I-0.7902 J-0.6129
G1 X-60.2921 Y8.5305 Z4.4949
G3 X-60.3348 Y8.576 Z4.4948 I-0.75 J-0.6614
G1 X-60.4236 Y8.6648 Z4.4946
G3 X-60.4698 Y8.7082 I-0.7073 J-0.7069
G1 X-60.5 Y8.7348 Z4.4945
G1 Y17.7652 Z4.4836
G1 X-60.4698 Y17.7918 Z4.4835
G3 X-60.4238 Y17.835 I-0.6611 J0.7503
G1 X-60.335 Y17.9238 Z4.4833
G3 X-60.2918 Y17.9698 Z4.4832 I-0.7071 J0.7071
G1 X-60.2087 Y18.0641 Z4.4831
G3 X-60.169 Y18.112 Z4.483 I-0.7503 J0.6611
G1 X-60.092 Y18.2112 Z4.4829
G3 X-60.0553 Y18.2618 Z4.4828 I-0.79 J0.6132
G1 X-59.9846 Y18.3657 Z4.4826
G3 X-59.9502 Y18.4198 I-0.8267 J0.5626
G1 X-59.8863 Y18.528 Z4.4824
G3 X-59.8567 Y18.582 Z4.4823 I-0.8611 J0.5085
G1 X-59.7996 Y18.6939 Z4.4822
G3 X-59.7724 Y18.7515 Z4.4821 I-0.8907 J0.4545
G1 X-59.7225 Y18.8669 Z4.4819
G3 X-59.6994 Y18.9254 I-0.9179 J0.3969
G1 X-59.6569 Y19.0436 Z4.4817
G3 X-59.6377 Y19.1026 Z4.4816 I-0.941 J0.3384
G1 X-59.6026 Y19.2232 Z4.4815
G3 X-59.5869 Y19.2845 Z4.4814 I-0.9602 J0.2794
G1 X-59.5595 Y19.4071 Z4.4813
G3 X-59.5476 Y19.4692 Z4.4812 I-0.9759 J0.2181
G1 X-59.528 Y19.5933 Z4.481
G3 X-59.5203 Y19.6546 I-0.9878 J0.156
G1 X-59.5084 Y19.7797 Z4.4808
G3 X-59.5044 Y19.8434 Z4.4807 I-0.9955 J0.0947
G1 X-59.5005 Y19.969 Z4.4806
G3 Y20.031 Z4.4805 I-0.9995 J0.031
G1 X-59.5044 Y20.1566 Z4.4804
G3 X-59.5084 Y20.2203 Z4.4803 I-0.9995 J-0.031
G1 X-59.5203 Y20.3454 Z4.4801
G3 X-59.528 Y20.4067 Z4.48 I-0.9955 J-0.0947
G1 X-59.5476 Y20.5308 Z4.4799
G3 X-59.5595 Y20.5929 Z4.4798 I-0.9878 J-0.156
G1 X-59.5869 Y20.7155 Z4.4797
G3 X-59.6026 Y20.7768 Z4.4796 I-0.9759 J-0.2181
G1 X-59.6377 Y20.8974 Z4.4794
G3 X-59.6569 Y20.9564 I-0.9602 J-0.2794
G1 X-59.6994 Y21.0746 Z4.4792
G3 X-59.7225 Y21.1331 Z4.4791 I-0.941 J-0.3384
G1 X-59.7724 Y21.2485 Z4.479
G3 X-59.7996 Y21.3061 Z4.4789 I-0.9179 J-0.3969
G1 X-59.8567 Y21.418 Z4.4788
G3 X-59.8863 Y21.472 Z4.4787 I-0.8907 J-0.4545
G1 X-59.9502 Y21.5802 Z4.4785
G3 X-59.9846 Y21.6343 I-0.8611 J-0.5085
G1 X-60.0553 Y21.7382 Z4.4783
G3 X-60.092 Y21.7888 Z4.4782 I-0.8267 J-0.5626
G1 X-60.169 Y21.888 Z4.4781
G3 X-60.2087 Y21.9359 Z4.478 I-0.79 J-0.6132
G1 X-60.2918 Y22.0302 Z4.4778
G3 X-60.335 Y22.0762 I-0.7503 J-0.6611
G1 X-60.4238 Y22.165 Z4.4776
G3 X-60.4698 Y22.2082 Z4.4775 I-0.7071 J-0.7071
G1 X-60.5 Y22.2348
G1 Y27.5 Z4.4711
G1 X-54.7348 Z4.4642
G1 X-54.7082 Y27.4698 Z4.4641
G3 X-54.665 Y27.4238 Z4.464 I0.7503 J0.6611
G1 X-54.5762 Y27.335 Z4.4639
G3 X-54.5302 Y27.2918 Z4.4638 I0.7071 J0.7071
G1 X-54.4359 Y27.2087 Z4.4637
G3 X-54.388 Y27.169 Z4.4636 I0.6611 J0.7503
G1 X-54.2888 Y27.092 Z4.4634
G3 X-54.2382 Y27.0553 I0.6132 J0.79
G1 X-54.1343 Y26.9846 Z4.4632
G3 X-54.0802 Y26.9502 Z4.4631 I0.5626 J0.8267
G1 X-53.972 Y26.8863 Z4.463
G3 X-53.918 Y26.8567 Z4.4629 I0.5085 J0.8611
G1 X-53.8061 Y26.7996 Z4.4627
G3 X-53.7485 Y26.7724 I0.4545 J0.8907
G1 X-53.6331 Y26.7225 Z4.4625
G3 X-53.5746 Y26.6994 Z4.4624 I0.3969 J0.9179
G1 X-53.4564 Y26.6569 Z4.4623
G3 X-53.3974 Y26.6377 Z4.4622 I0.3384 J0.941
G1 X-53.2768 Y26.6026 Z4.4621
G3 X-53.2155 Y26.5869 Z4.462 I0.2794 J0.9602
G1 X-53.0929 Y26.5595 Z4.4618
G3 X-53.0308 Y26.5476 I0.2181 J0.9759
G1 X-52.9067 Y26.528 Z4.4616
G3 X-52.8454 Y26.5203 Z4.4615 I0.156 J0.9878
G1 X-52.7203 Y26.5084 Z4.4614
G3 X-52.6566 Y26.5044 Z4.4613 I0.0947 J0.9955
G1 X-52.531 Y26.5005 Z4.4611
G3 X-52.469 I0.031 J0.9995
G1 X-52.3434 Y26.5044 Z4.4609
G3 X-52.2797 Y26.5084 Z4.4608 I-0.031 J0.9995
G1 X-52.1546 Y26.5203 Z4.4607
G3 X-52.0933 Y26.528 Z4.4606 I-0.0947 J0.9955
G1 X-51.9692 Y26.5476 Z4.4605
G3 X-51.9071 Y26.5595 Z4.4604 I-0.156 J0.9878
G1 X-51.7845 Y26.5869 Z4.4602
G3 X-51.7232 Y26.6026 I-0.2181 J0.9759
G1 X-51.6026 Y26.6377 Z4.46
G3 X-51.5439 Y26.6568 Z4.4599 I-0.2794 J0.9602
G1 X-51.4256 Y26.6993 Z4.4598
G3 X-51.3665 Y26.7227 Z4.4597 I-0.3381 J0.9411
G1 X-51.2512 Y26.7726 Z4.4596
G3 X-51.1939 Y26.7996 Z4.4595 I-0.3972 J0.9177
G1 X-51.082 Y26.8567 Z4.4593
G3 X-51.028 Y26.8863 I-0.4545 J0.8907
G1 X-50.9198 Y26.9502 Z4.4591
G3 X-50.8657 Y26.9846 Z4.459 I-0.5085 J0.8611
G1 X-50.7618 Y27.0553 Z4.4589
G3 X-50.7112 Y27.092 Z4.4588 I-0.5626 J0.8267
G1 X-50.612 Y27.169 Z4.4586
G3 X-50.5641 Y27.2087 I-0.6132 J0.79
G1 X-50.4698 Y27.2918 Z4.4584
G3 X-50.4238 Y27.335 Z4.4583 I-0.6611 J0.7503
G1 X-50.335 Y27.4238 Z4.4582
G3 X-50.2918 Y27.4698 Z4.4581 I-0.7071 J0.7071
G1 X-50.2652 Y27.5
G1 X-2.2348 Z4.4
G1 X-2.2082 Y27.4698
G3 X-2.1648 Y27.4236 Z4.3999 I0.7503 J0.6611
G1 X-2.076 Y27.3348 Z4.3997
G3 X-2.0305 Y27.2921 Z4.3996 I0.7069 J0.7073
G1 X-1.9362 Y27.209 Z4.3995
G3 X-1.8877 Y27.1688 Z4.3994 I0.6614 J0.75
G1 X-1.7884 Y27.0918 Z4.3993
G3 X-1.7381 Y27.0552 Z4.3992 I0.6129 J0.7902
G1 X-1.6341 Y26.9845 Z4.399
G3 X-1.5804 Y26.9504 I0.5625 J0.8268
G1 X-1.4722 Y26.8865 Z4.3988
G3 X-1.4179 Y26.8566 Z4.3987 I0.5087 J0.8609
G1 X-1.3059 Y26.7995 Z4.3986
G3 X-1.2487 Y26.7725 Z4.3985 I0.4544 J0.8908
G1 X-1.1334 Y26.7226 Z4.3984
G3 X-1.0746 Y26.6994 Z4.3983 I0.3972 J0.9178
G1 X-0.9563 Y26.6569 Z4.3981
G3 X-0.8974 Y26.6377 I0.3383 J0.941
G1 X-0.7767 Y26.6026 Z4.3979
G3 X-0.7155 Y26.5869 Z4.3978 I0.2793 J0.9602
G1 X-0.5928 Y26.5595 Z4.3977
G3 X-0.5308 Y26.5476 Z4.3976 I0.2181 J0.9759
G1 X-0.4067 Y26.528 Z4.3974
G3 X-0.3454 Y26.5203 I0.156 J0.9878
G1 X-0.2203 Y26.5084 Z4.3972
G3 X-0.1566 Y26.5044 Z4.3971 I0.0947 J0.9955
G1 X-0.031 Y26.5005 Z4.397
G3 X0.031 Z4.3969 I0.031 J0.9995
G1 X0.1566 Y26.5044 Z4.3968
G3 X0.2203 Y26.5084 Z4.3967 I-0.031 J0.9995
G1 X0.3454 Y26.5203 Z4.3965
G3 X0.4067 Y26.528 I-0.0947 J0.9955
G1 X0.5308 Y26.5476 Z4.3963
G3 X0.5928 Y26.5595 Z4.3962 I-0.156 J0.9878
G1 X0.7155 Y26.5869 Z4.3961
G3 X0.7767 Y26.6026 Z4.396 I-0.2181 J0.9759
G1 X0.8974 Y26.6377 Z4.3958
G3 X0.9563 Y26.6569 I-0.2793 J0.9602
G1 X1.0746 Y26.6994 Z4.3956
G3 X1.1334 Y26.7226 Z4.3955 I-0.3383 J0.941
G1 X1.2487 Y26.7725 Z4.3954
G3 X1.3059 Y26.7995 Z4.3953 I-0.3972 J0.9178
G1 X1.4179 Y26.8566 Z4.3952
G3 X1.4722 Y26.8865 Z4.3951 I-0.4544 J0.8908
G1 X1.5804 Y26.9504 Z4.3949
G3 X1.6341 Y26.9845 I-0.5087 J0.8609
G1 X1.7381 Y27.0552 Z4.3947
G3 X1.7884 Y27.0918 Z4.3946 I-0.5625 J0.8268
G1 X1.8877 Y27.1688 Z4.3945
G3 X1.9362 Y27.209 Z4.3944 I-0.6129 J0.7902
G1 X2.0305 Y27.2921 Z4.3943
G3 X2.076 Y27.3348 Z4.3942 I-0.6614 J0.75
G1 X2.1648 Y27.4236 Z4.394
G3 X2.2082 Y27.4698 I-0.7069 J0.7073
G1 X2.2348 Y27.5 Z4.3939
G1 X50.2652 Z4.3358
G1 X50.2918 Y27.4698
G3 X50.335 Y27.4238 Z4.3357 I0.7503 J0.6611
G1 X50.4238 Y27.335 Z4.3356
G3 X50.4698 Y27.2918 Z4.3355 I0.7071 J0.7071
G1 X50.5641 Y27.2087 Z4.3353
G3 X50.612 Y27.169 I0.6611 J0.7503
G1 X50.7112 Y27.092 Z4.3351
G3 X50.7618 Y27.0553 Z4.335 I0.6132 J0.79
G1 X50.8657 Y26.9846 Z4.3349
G3 X50.9198 Y26.9502 Z4.3348 I0.5626 J0.8267
G1 X51.028 Y26.8863 Z4.3347
G3 X51.082 Y26.8567 Z4.3346 I0.5085 J0.8611
G1 X51.1939 Y26.7996 Z4.3344
G3 X51.2512 Y26.7726 Z4.3343 I0.4545 J0.8907
G1 X51.3665 Y26.7227 Z4.3342
G3 X51.4256 Y26.6993 Z4.3341 I0.3972 J0.9177
G1 X51.5439 Y26.6568 Z4.334
G3 X51.6026 Y26.6377 Z4.3339 I0.3381 J0.9411
G1 X51.7232 Y26.6026 Z4.3337
G3 X51.7845 Y26.5869 I0.2794 J0.9602
G1 X51.9071 Y26.5595 Z4.3335
G3 X51.9692 Y26.5476 Z4.3334 I0.2181 J0.9759
G1 X52.0933 Y26.528 Z4.3333
G3 X52.1546 Y26.5203 Z4.3332 I0.156 J0.9878
G1 X52.2797 Y26.5084 Z4.3331
G3 X52.3434 Y26.5044 Z4.333 I0.0947 J0.9955
G1 X52.469 Y26.5005 Z4.3328
G3 X52.531 I0.031 J0.9995
G1 X52.6566 Y26.5044 Z4.3326
G3 X52.7203 Y26.5084 Z4.3325 I-0.031 J0.9995
G1 X52.8454 Y26.5203 Z4.3324
G3 X52.9067 Y26.528 Z4.3323 I-0.0947 J0.9955
G1 X53.0308 Y26.5476 Z4.3321
G3 X53.0929 Y26.5595 I-0.156 J0.9878
G1 X53.2155 Y26.5869 Z4.3319
G3 X53.2768 Y26.6026 Z4.3318 I-0.2181 J0.9759
G1 X53.3974 Y26.6377 Z4.3317
G3 X53.4564 Y26.6569 Z4.3316 I-0.2794 J0.9602
G1 X53.5746 Y26.6994 Z4.3315
G3 X53.6331 Y26.7225 Z4.3314 I-0.3384 J0.941
G1 X53.7485 Y26.7724 Z4.3312
G3 X53.8061 Y26.7996 I-0.3969 J0.9179
G1 X53.918 Y26.8567 Z4.331
G3 X53.972 Y26.8863 Z4.3309 I-0.4545 J0.8907
G1 X54.0802 Y26.9502 Z4.3308
G3 X54.1343 Y26.9846 Z4.3307 I-0.5085 J0.8611
G1 X54.2382 Y27.0553 Z4.3306
