( Made using CamBam - http://www.cambam.co.uk )
( frontpanelExt_1 2/1/2021 10:07:27 PM )
( T2 : 2.0 )
( CUTVIEWER )
( FROM/0,0,5 )
( Select dummy tool to avoid warnings )
( TOOL/MILL,1,0,20.0,0 )
( STOCK/BLOCK,180.0,100.0,6.0,90.0,50.0,6.0 )
G21 G90 G91.1 G64 G40
G0 Z3.0
( T2 : 2.0 )
( Tool Taper coming soon )
( TOOL/MILL,2.0,0.0,0.0,0 )
T2 M6
( neostickAttachHoles )
G17
M3 S1000
G0 X-33.7995 Y-26.0
G0 Z1.0
G1 F150.0 Z0.0
G1 F400.0 X-33.7989 Y-25.9815 Z-0.0029
G1 X-33.7971 Y-25.9621 Z-0.0061
G1 X-33.7941 Y-25.9433 Z-0.0091
G1 X-33.7901 Y-25.9256 Z-0.012
G1 X-33.7849 Y-25.9077 Z-0.015
G1 X-33.7785 Y-25.8897 Z-0.018
G1 X-33.771 Y-25.8725 Z-0.021
G1 X-33.7625 Y-25.8558 Z-0.024
G1 X-33.753 Y-25.8397 Z-0.027
G1 X-33.7421 Y-25.8236 Z-0.0301
G1 X-33.7306 Y-25.8088 Z-0.0331
G1 X-33.7185 Y-25.7951 Z-0.036
G1 X-33.7049 Y-25.7815 Z-0.039
G1 X-33.6912 Y-25.7694 Z-0.0419
G1 X-33.6764 Y-25.7579 Z-0.0449
G1 X-33.6603 Y-25.747 Z-0.048
G1 X-33.6442 Y-25.7375 Z-0.051
G1 X-33.6275 Y-25.729 Z-0.054
G1 X-33.6103 Y-25.7215 Z-0.057
G1 X-33.5923 Y-25.7151 Z-0.06
G1 X-33.5744 Y-25.7099 Z-0.063
G1 X-33.5567 Y-25.7059 Z-0.0659
G1 X-33.5379 Y-25.7029 Z-0.0689
G1 X-33.5185 Y-25.7011 Z-0.0721
G1 X-33.5 Y-25.7005 Z-0.075
G1 X-33.4815 Y-25.7011 Z-0.0779
G1 X-33.4621 Y-25.7029 Z-0.0811
G1 X-33.4433 Y-25.7059 Z-0.0841
G1 X-33.4256 Y-25.7099 Z-0.087
G1 X-33.4077 Y-25.7151 Z-0.09
G1 X-33.3897 Y-25.7215 Z-0.093
G1 X-33.3725 Y-25.729 Z-0.096
G1 X-33.3558 Y-25.7375 Z-0.099
G1 X-33.3397 Y-25.747 Z-0.102
G1 X-33.3236 Y-25.7579 Z-0.1051
G1 X-33.3088 Y-25.7694 Z-0.1081
G1 X-33.2951 Y-25.7815 Z-0.111
G1 X-33.2815 Y-25.7951 Z-0.114
G1 X-33.2694 Y-25.8088 Z-0.1169
G1 X-33.2579 Y-25.8236 Z-0.1199
G1 X-33.247 Y-25.8397 Z-0.123
G1 X-33.2375 Y-25.8558 Z-0.126
G1 X-33.229 Y-25.8725 Z-0.129
G1 X-33.2215 Y-25.8897 Z-0.132
G1 X-33.2151 Y-25.9077 Z-0.135
G1 X-33.2099 Y-25.9256 Z-0.138
G1 X-33.2059 Y-25.9433 Z-0.1409
G1 X-33.2029 Y-25.9621 Z-0.1439
G1 X-33.2011 Y-25.9815 Z-0.1471
G1 X-33.2005 Y-26.0 Z-0.15
G1 X-33.2011 Y-26.0185 Z-0.1529
G1 X-33.2029 Y-26.0379 Z-0.1561
G1 X-33.2059 Y-26.0567 Z-0.1591
G1 X-33.2099 Y-26.0744 Z-0.162
G1 X-33.2151 Y-26.0923 Z-0.165
G1 X-33.2215 Y-26.1103 Z-0.168
G1 X-33.229 Y-26.1275 Z-0.171
G1 X-33.2375 Y-26.1442 Z-0.174
G1 X-33.247 Y-26.1603 Z-0.177
G1 X-33.2579 Y-26.1764 Z-0.1801
G1 X-33.2694 Y-26.1912 Z-0.1831
G1 X-33.2815 Y-26.2049 Z-0.186
G1 X-33.2951 Y-26.2185 Z-0.189
G1 X-33.3088 Y-26.2306 Z-0.1919
G1 X-33.3236 Y-26.2421 Z-0.1949
G1 X-33.3397 Y-26.253 Z-0.198
G1 X-33.3558 Y-26.2625 Z-0.201
G1 X-33.3725 Y-26.271 Z-0.204
G1 X-33.3897 Y-26.2785 Z-0.207
G1 X-33.4077 Y-26.2849 Z-0.21
G1 X-33.4256 Y-26.2901 Z-0.213
G1 X-33.4433 Y-26.2941 Z-0.2159
G1 X-33.4621 Y-26.2971 Z-0.2189
G1 X-33.4815 Y-26.2989 Z-0.2221
G1 X-33.5 Y-26.2995 Z-0.225
G1 X-33.5185 Y-26.2989 Z-0.2279
G1 X-33.5379 Y-26.2971 Z-0.2311
G1 X-33.5567 Y-26.2941 Z-0.2341
G1 X-33.5744 Y-26.2901 Z-0.237
G1 X-33.5923 Y-26.2849 Z-0.24
G1 X-33.6103 Y-26.2785 Z-0.243
G1 X-33.6275 Y-26.271 Z-0.246
G1 X-33.6442 Y-26.2625 Z-0.249
G1 X-33.6603 Y-26.253 Z-0.252
G1 X-33.6764 Y-26.2421 Z-0.2551
G1 X-33.6912 Y-26.2306 Z-0.2581
G1 X-33.7049 Y-26.2185 Z-0.261
G1 X-33.7185 Y-26.2049 Z-0.264
G1 X-33.7306 Y-26.1912 Z-0.2669
G1 X-33.7421 Y-26.1764 Z-0.2699
G1 X-33.753 Y-26.1603 Z-0.273
G1 X-33.7625 Y-26.1442 Z-0.276
G1 X-33.771 Y-26.1275 Z-0.279
G1 X-33.7785 Y-26.1103 Z-0.282
G1 X-33.7849 Y-26.0923 Z-0.285
G1 X-33.7901 Y-26.0744 Z-0.288
G1 X-33.7941 Y-26.0567 Z-0.2909
G1 X-33.7971 Y-26.0379 Z-0.2939
G1 X-33.7989 Y-26.0185 Z-0.2971
G1 X-33.7995 Y-26.0 Z-0.3
G1 X-33.7989 Y-25.9815 Z-0.3029
G1 X-33.7971 Y-25.9621 Z-0.3061
G1 X-33.7941 Y-25.9433 Z-0.3091
G1 X-33.7901 Y-25.9256 Z-0.312
G1 X-33.7849 Y-25.9077 Z-0.315
G1 X-33.7785 Y-25.8897 Z-0.318
G1 X-33.771 Y-25.8725 Z-0.321
G1 X-33.7625 Y-25.8558 Z-0.324
G1 X-33.753 Y-25.8397 Z-0.327
G1 X-33.7421 Y-25.8236 Z-0.3301
G1 X-33.7306 Y-25.8088 Z-0.3331
G1 X-33.7185 Y-25.7951 Z-0.336
G1 X-33.7049 Y-25.7815 Z-0.339
G1 X-33.6912 Y-25.7694 Z-0.3419
G1 X-33.6764 Y-25.7579 Z-0.3449
G1 X-33.6603 Y-25.747 Z-0.348
G1 X-33.6442 Y-25.7375 Z-0.351
G1 X-33.6275 Y-25.729 Z-0.354
G1 X-33.6103 Y-25.7215 Z-0.357
G1 X-33.5923 Y-25.7151 Z-0.36
G1 X-33.5744 Y-25.7099 Z-0.363
G1 X-33.5567 Y-25.7059 Z-0.3659
G1 X-33.5379 Y-25.7029 Z-0.3689
G1 X-33.5185 Y-25.7011 Z-0.3721
G1 X-33.5 Y-25.7005 Z-0.375
G1 X-33.4815 Y-25.7011 Z-0.3779
G1 X-33.4621 Y-25.7029 Z-0.3811
G1 X-33.4433 Y-25.7059 Z-0.3841
G1 X-33.4256 Y-25.7099 Z-0.387
G1 X-33.4077 Y-25.7151 Z-0.39
G1 X-33.3897 Y-25.7215 Z-0.393
G1 X-33.3725 Y-25.729 Z-0.396
G1 X-33.3558 Y-25.7375 Z-0.399
G1 X-33.3397 Y-25.747 Z-0.402
G1 X-33.3236 Y-25.7579 Z-0.4051
G1 X-33.3088 Y-25.7694 Z-0.4081
G1 X-33.2951 Y-25.7815 Z-0.411
G1 X-33.2815 Y-25.7951 Z-0.414
G1 X-33.2694 Y-25.8088 Z-0.4169
G1 X-33.2579 Y-25.8236 Z-0.4199
G1 X-33.247 Y-25.8397 Z-0.423
G1 X-33.2375 Y-25.8558 Z-0.426
G1 X-33.229 Y-25.8725 Z-0.429
G1 X-33.2215 Y-25.8897 Z-0.432
G1 X-33.2151 Y-25.9077 Z-0.435
G1 X-33.2099 Y-25.9256 Z-0.438
G1 X-33.2059 Y-25.9433 Z-0.4409
G1 X-33.2029 Y-25.9621 Z-0.4439
G1 X-33.2011 Y-25.9815 Z-0.4471
G1 X-33.2005 Y-26.0 Z-0.45
G1 X-33.2011 Y-26.0185 Z-0.4529
G1 X-33.2029 Y-26.0379 Z-0.4561
G1 X-33.2059 Y-26.0567 Z-0.4591
G1 X-33.2099 Y-26.0744 Z-0.462
G1 X-33.2151 Y-26.0923 Z-0.465
G1 X-33.2215 Y-26.1103 Z-0.468
G1 X-33.229 Y-26.1275 Z-0.471
G1 X-33.2375 Y-26.1442 Z-0.474
G1 X-33.247 Y-26.1603 Z-0.477
G1 X-33.2579 Y-26.1764 Z-0.4801
G1 X-33.2694 Y-26.1912 Z-0.4831
G1 X-33.2815 Y-26.2049 Z-0.486
G1 X-33.2951 Y-26.2185 Z-0.489
G1 X-33.3088 Y-26.2306 Z-0.4919
G1 X-33.3236 Y-26.2421 Z-0.4949
G1 X-33.3397 Y-26.253 Z-0.498
G1 X-33.3558 Y-26.2625 Z-0.501
G1 X-33.3725 Y-26.271 Z-0.504
G1 X-33.3897 Y-26.2785 Z-0.507
G1 X-33.4077 Y-26.2849 Z-0.51
G1 X-33.4256 Y-26.2901 Z-0.513
G1 X-33.4433 Y-26.2941 Z-0.5159
G1 X-33.4621 Y-26.2971 Z-0.5189
G1 X-33.4815 Y-26.2989 Z-0.5221
G1 X-33.5 Y-26.2995 Z-0.525
G1 X-33.5185 Y-26.2989 Z-0.5279
G1 X-33.5379 Y-26.2971 Z-0.5311
G1 X-33.5567 Y-26.2941 Z-0.5341
G1 X-33.5744 Y-26.2901 Z-0.537
G1 X-33.5923 Y-26.2849 Z-0.54
G1 X-33.6103 Y-26.2785 Z-0.543
G1 X-33.6275 Y-26.271 Z-0.546
G1 X-33.6442 Y-26.2625 Z-0.549
G1 X-33.6603 Y-26.253 Z-0.552
G1 X-33.6764 Y-26.2421 Z-0.5551
G1 X-33.6912 Y-26.2306 Z-0.5581
G1 X-33.7049 Y-26.2185 Z-0.561
G1 X-33.7185 Y-26.2049 Z-0.564
G1 X-33.7306 Y-26.1912 Z-0.5669
G1 X-33.7421 Y-26.1764 Z-0.5699
G1 X-33.753 Y-26.1603 Z-0.573
G1 X-33.7625 Y-26.1442 Z-0.576
G1 X-33.771 Y-26.1275 Z-0.579
G1 X-33.7785 Y-26.1103 Z-0.582
G1 X-33.7849 Y-26.0923 Z-0.585
G1 X-33.7901 Y-26.0744 Z-0.588
G1 X-33.7941 Y-26.0567 Z-0.5909
G1 X-33.7971 Y-26.0379 Z-0.5939
G1 X-33.7989 Y-26.0185 Z-0.5971
G1 X-33.7995 Y-26.0 Z-0.6
G1 X-33.7989 Y-25.9815 Z-0.6029
G1 X-33.7971 Y-25.9621 Z-0.6061
G1 X-33.7941 Y-25.9433 Z-0.6091
G1 X-33.7901 Y-25.9256 Z-0.612
G1 X-33.7849 Y-25.9077 Z-0.615
G1 X-33.7785 Y-25.8897 Z-0.618
G1 X-33.771 Y-25.8725 Z-0.621
G1 X-33.7625 Y-25.8558 Z-0.624
G1 X-33.753 Y-25.8397 Z-0.627
G1 X-33.7421 Y-25.8236 Z-0.6301
G1 X-33.7306 Y-25.8088 Z-0.6331
G1 X-33.7185 Y-25.7951 Z-0.636
G1 X-33.7049 Y-25.7815 Z-0.639
G1 X-33.6912 Y-25.7694 Z-0.6419
G1 X-33.6764 Y-25.7579 Z-0.6449
G1 X-33.6603 Y-25.747 Z-0.648
G1 X-33.6442 Y-25.7375 Z-0.651
G1 X-33.6275 Y-25.729 Z-0.654
G1 X-33.6103 Y-25.7215 Z-0.657
G1 X-33.5923 Y-25.7151 Z-0.66
G1 X-33.5744 Y-25.7099 Z-0.663
G1 X-33.5567 Y-25.7059 Z-0.6659
G1 X-33.5379 Y-25.7029 Z-0.6689
G1 X-33.5185 Y-25.7011 Z-0.6721
G1 X-33.5 Y-25.7005 Z-0.675
G1 X-33.4815 Y-25.7011 Z-0.6779
G1 X-33.4621 Y-25.7029 Z-0.6811
G1 X-33.4433 Y-25.7059 Z-0.6841
G1 X-33.4256 Y-25.7099 Z-0.687
G1 X-33.4077 Y-25.7151 Z-0.69
G1 X-33.3897 Y-25.7215 Z-0.693
G1 X-33.3725 Y-25.729 Z-0.696
G1 X-33.3558 Y-25.7375 Z-0.699
G1 X-33.3397 Y-25.747 Z-0.702
G1 X-33.3236 Y-25.7579 Z-0.7051
G1 X-33.3088 Y-25.7694 Z-0.7081
G1 X-33.2951 Y-25.7815 Z-0.711
G1 X-33.2815 Y-25.7951 Z-0.714
G1 X-33.2694 Y-25.8088 Z-0.7169
G1 X-33.2579 Y-25.8236 Z-0.7199
G1 X-33.247 Y-25.8397 Z-0.723
G1 X-33.2375 Y-25.8558 Z-0.726
G1 X-33.229 Y-25.8725 Z-0.729
G1 X-33.2215 Y-25.8897 Z-0.732
G1 X-33.2151 Y-25.9077 Z-0.735
G1 X-33.2099 Y-25.9256 Z-0.738
G1 X-33.2059 Y-25.9433 Z-0.7409
G1 X-33.2029 Y-25.9621 Z-0.7439
G1 X-33.2011 Y-25.9815 Z-0.7471
G1 X-33.2005 Y-26.0 Z-0.75
G1 X-33.2011 Y-26.0185 Z-0.7529
G1 X-33.2029 Y-26.0379 Z-0.7561
G1 X-33.2059 Y-26.0567 Z-0.7591
G1 X-33.2099 Y-26.0744 Z-0.762
G1 X-33.2151 Y-26.0923 Z-0.765
G1 X-33.2215 Y-26.1103 Z-0.768
G1 X-33.229 Y-26.1275 Z-0.771
G1 X-33.2375 Y-26.1442 Z-0.774
G1 X-33.247 Y-26.1603 Z-0.777
G1 X-33.2579 Y-26.1764 Z-0.7801
G1 X-33.2694 Y-26.1912 Z-0.7831
G1 X-33.2815 Y-26.2049 Z-0.786
G1 X-33.2951 Y-26.2185 Z-0.789
G1 X-33.3088 Y-26.2306 Z-0.7919
G1 X-33.3236 Y-26.2421 Z-0.7949
G1 X-33.3397 Y-26.253 Z-0.798
G1 X-33.3558 Y-26.2625 Z-0.801
G1 X-33.3725 Y-26.271 Z-0.804
G1 X-33.3897 Y-26.2785 Z-0.807
G1 X-33.4077 Y-26.2849 Z-0.81
G1 X-33.4256 Y-26.2901 Z-0.813
G1 X-33.4433 Y-26.2941 Z-0.8159
G1 X-33.4621 Y-26.2971 Z-0.8189
G1 X-33.4815 Y-26.2989 Z-0.8221
G1 X-33.5 Y-26.2995 Z-0.825
G1 X-33.5185 Y-26.2989 Z-0.8279
G1 X-33.5379 Y-26.2971 Z-0.8311
G1 X-33.5567 Y-26.2941 Z-0.8341
G1 X-33.5744 Y-26.2901 Z-0.837
G1 X-33.5923 Y-26.2849 Z-0.84
G1 X-33.6103 Y-26.2785 Z-0.843
G1 X-33.6275 Y-26.271 Z-0.846
G1 X-33.6442 Y-26.2625 Z-0.849
G1 X-33.6603 Y-26.253 Z-0.852
G1 X-33.6764 Y-26.2421 Z-0.8551
G1 X-33.6912 Y-26.2306 Z-0.8581
G1 X-33.7049 Y-26.2185 Z-0.861
G1 X-33.7185 Y-26.2049 Z-0.864
G1 X-33.7306 Y-26.1912 Z-0.8669
G1 X-33.7421 Y-26.1764 Z-0.8699
G1 X-33.753 Y-26.1603 Z-0.873
G1 X-33.7625 Y-26.1442 Z-0.876
G1 X-33.771 Y-26.1275 Z-0.879
G1 X-33.7785 Y-26.1103 Z-0.882
G1 X-33.7849 Y-26.0923 Z-0.885
G1 X-33.7901 Y-26.0744 Z-0.888
G1 X-33.7941 Y-26.0567 Z-0.8909
G1 X-33.7971 Y-26.0379 Z-0.8939
G1 X-33.7989 Y-26.0185 Z-0.8971
G1 X-33.7995 Y-26.0 Z-0.9
G1 X-33.7989 Y-25.9815 Z-0.9029
G1 X-33.7971 Y-25.9621 Z-0.9061
G1 X-33.7941 Y-25.9433 Z-0.9091
G1 X-33.7901 Y-25.9256 Z-0.912
G1 X-33.7849 Y-25.9077 Z-0.915
G1 X-33.7785 Y-25.8897 Z-0.918
G1 X-33.771 Y-25.8725 Z-0.921
G1 X-33.7625 Y-25.8558 Z-0.924
G1 X-33.753 Y-25.8397 Z-0.927
G1 X-33.7421 Y-25.8236 Z-0.9301
G1 X-33.7306 Y-25.8088 Z-0.9331
G1 X-33.7185 Y-25.7951 Z-0.936
G1 X-33.7049 Y-25.7815 Z-0.939
G1 X-33.6912 Y-25.7694 Z-0.9419
G1 X-33.6764 Y-25.7579 Z-0.9449
G1 X-33.6603 Y-25.747 Z-0.948
G1 X-33.6442 Y-25.7375 Z-0.951
G1 X-33.6275 Y-25.729 Z-0.954
G1 X-33.6103 Y-25.7215 Z-0.957
G1 X-33.5923 Y-25.7151 Z-0.96
G1 X-33.5744 Y-25.7099 Z-0.963
G1 X-33.5567 Y-25.7059 Z-0.9659
G1 X-33.5379 Y-25.7029 Z-0.9689
G1 X-33.5185 Y-25.7011 Z-0.9721
G1 X-33.5 Y-25.7005 Z-0.975
G1 X-33.4815 Y-25.7011 Z-0.9779
G1 X-33.4621 Y-25.7029 Z-0.9811
G1 X-33.4433 Y-25.7059 Z-0.9841
G1 X-33.4256 Y-25.7099 Z-0.987
G1 X-33.4077 Y-25.7151 Z-0.99
G1 X-33.3897 Y-25.7215 Z-0.993
G1 X-33.3725 Y-25.729 Z-0.996
G1 X-33.3558 Y-25.7375 Z-0.999
G1 X-33.3397 Y-25.747 Z-1.002
G1 X-33.3236 Y-25.7579 Z-1.0051
G1 X-33.3088 Y-25.7694 Z-1.0081
G1 X-33.2951 Y-25.7815 Z-1.011
G1 X-33.2815 Y-25.7951 Z-1.014
G1 X-33.2694 Y-25.8088 Z-1.0169
G1 X-33.2579 Y-25.8236 Z-1.0199
G1 X-33.247 Y-25.8397 Z-1.023
G1 X-33.2375 Y-25.8558 Z-1.026
G1 X-33.229 Y-25.8725 Z-1.029
G1 X-33.2215 Y-25.8897 Z-1.032
G1 X-33.2151 Y-25.9077 Z-1.035
G1 X-33.2099 Y-25.9256 Z-1.038
G1 X-33.2059 Y-25.9433 Z-1.0409
G1 X-33.2029 Y-25.9621 Z-1.0439
G1 X-33.2011 Y-25.9815 Z-1.0471
G1 X-33.2005 Y-26.0 Z-1.05
G1 X-33.2011 Y-26.0185 Z-1.0529
G1 X-33.2029 Y-26.0379 Z-1.0561
G1 X-33.2059 Y-26.0567 Z-1.0591
G1 X-33.2099 Y-26.0744 Z-1.062
G1 X-33.2151 Y-26.0923 Z-1.065
G1 X-33.2215 Y-26.1103 Z-1.068
G1 X-33.229 Y-26.1275 Z-1.071
G1 X-33.2375 Y-26.1442 Z-1.074
G1 X-33.247 Y-26.1603 Z-1.077
G1 X-33.2579 Y-26.1764 Z-1.0801
G1 X-33.2694 Y-26.1912 Z-1.0831
G1 X-33.2815 Y-26.2049 Z-1.086
G1 X-33.2951 Y-26.2185 Z-1.089
G1 X-33.3088 Y-26.2306 Z-1.0919
G1 X-33.3236 Y-26.2421 Z-1.0949
G1 X-33.3397 Y-26.253 Z-1.098
G1 X-33.3558 Y-26.2625 Z-1.101
G1 X-33.3725 Y-26.271 Z-1.104
G1 X-33.3897 Y-26.2785 Z-1.107
G1 X-33.4077 Y-26.2849 Z-1.11
G1 X-33.4256 Y-26.2901 Z-1.113
G1 X-33.4433 Y-26.2941 Z-1.1159
G1 X-33.4621 Y-26.2971 Z-1.1189
G1 X-33.4815 Y-26.2989 Z-1.1221
G1 X-33.5 Y-26.2995 Z-1.125
G1 X-33.5185 Y-26.2989 Z-1.1279
G1 X-33.5379 Y-26.2971 Z-1.1311
G1 X-33.5567 Y-26.2941 Z-1.1341
G1 X-33.5744 Y-26.2901 Z-1.137
G1 X-33.5923 Y-26.2849 Z-1.14
G1 X-33.6103 Y-26.2785 Z-1.143
G1 X-33.6275 Y-26.271 Z-1.146
G1 X-33.6442 Y-26.2625 Z-1.149
G1 X-33.6603 Y-26.253 Z-1.152
G1 X-33.6764 Y-26.2421 Z-1.1551
G1 X-33.6912 Y-26.2306 Z-1.1581
G1 X-33.7049 Y-26.2185 Z-1.161
G1 X-33.7185 Y-26.2049 Z-1.164
G1 X-33.7306 Y-26.1912 Z-1.1669
G1 X-33.7421 Y-26.1764 Z-1.1699
G1 X-33.753 Y-26.1603 Z-1.173
G1 X-33.7625 Y-26.1442 Z-1.176
G1 X-33.771 Y-26.1275 Z-1.179
G1 X-33.7785 Y-26.1103 Z-1.182
G1 X-33.7849 Y-26.0923 Z-1.185
G1 X-33.7901 Y-26.0744 Z-1.188
G1 X-33.7941 Y-26.0567 Z-1.1909
G1 X-33.7971 Y-26.0379 Z-1.1939
G1 X-33.7989 Y-26.0185 Z-1.1971
G1 X-33.7995 Y-26.0 Z-1.2
G1 X-33.7989 Y-25.9815 Z-1.2029
G1 X-33.7971 Y-25.9621 Z-1.2061
G1 X-33.7941 Y-25.9433 Z-1.2091
G1 X-33.7901 Y-25.9256 Z-1.212
G1 X-33.7849 Y-25.9077 Z-1.215
G1 X-33.7785 Y-25.8897 Z-1.218
G1 X-33.771 Y-25.8725 Z-1.221
G1 X-33.7625 Y-25.8558 Z-1.224
G1 X-33.753 Y-25.8397 Z-1.227
G1 X-33.7421 Y-25.8236 Z-1.2301
G1 X-33.7306 Y-25.8088 Z-1.2331
G1 X-33.7185 Y-25.7951 Z-1.236
G1 X-33.7049 Y-25.7815 Z-1.239
G1 X-33.6912 Y-25.7694 Z-1.2419
G1 X-33.6764 Y-25.7579 Z-1.2449
G1 X-33.6603 Y-25.747 Z-1.248
G1 X-33.6442 Y-25.7375 Z-1.251
G1 X-33.6275 Y-25.729 Z-1.254
G1 X-33.6103 Y-25.7215 Z-1.257
G1 X-33.5923 Y-25.7151 Z-1.26
G1 X-33.5744 Y-25.7099 Z-1.263
G1 X-33.5567 Y-25.7059 Z-1.2659
G1 X-33.5379 Y-25.7029 Z-1.2689
G1 X-33.5185 Y-25.7011 Z-1.2721
G1 X-33.5 Y-25.7005 Z-1.275
G1 X-33.4815 Y-25.7011 Z-1.2779
G1 X-33.4621 Y-25.7029 Z-1.2811
G1 X-33.4433 Y-25.7059 Z-1.2841
G1 X-33.4256 Y-25.7099 Z-1.287
G1 X-33.4077 Y-25.7151 Z-1.29
G1 X-33.3897 Y-25.7215 Z-1.293
G1 X-33.3725 Y-25.729 Z-1.296
G1 X-33.3558 Y-25.7375 Z-1.299
G1 X-33.3397 Y-25.747 Z-1.302
G1 X-33.3236 Y-25.7579 Z-1.3051
G1 X-33.3088 Y-25.7694 Z-1.3081
G1 X-33.2951 Y-25.7815 Z-1.311
G1 X-33.2815 Y-25.7951 Z-1.314
G1 X-33.2694 Y-25.8088 Z-1.3169
G1 X-33.2579 Y-25.8236 Z-1.3199
G1 X-33.247 Y-25.8397 Z-1.323
G1 X-33.2375 Y-25.8558 Z-1.326
G1 X-33.229 Y-25.8725 Z-1.329
G1 X-33.2215 Y-25.8897 Z-1.332
G1 X-33.2151 Y-25.9077 Z-1.335
G1 X-33.2099 Y-25.9256 Z-1.338
G1 X-33.2059 Y-25.9433 Z-1.3409
G1 X-33.2029 Y-25.9621 Z-1.3439
G1 X-33.2011 Y-25.9815 Z-1.3471
G1 X-33.2005 Y-26.0 Z-1.35
G1 X-33.2011 Y-26.0185 Z-1.3529
G1 X-33.2029 Y-26.0379 Z-1.3561
G1 X-33.2059 Y-26.0567 Z-1.3591
G1 X-33.2099 Y-26.0744 Z-1.362
G1 X-33.2151 Y-26.0923 Z-1.365
G1 X-33.2215 Y-26.1103 Z-1.368
G1 X-33.229 Y-26.1275 Z-1.371
G1 X-33.2375 Y-26.1442 Z-1.374
G1 X-33.247 Y-26.1603 Z-1.377
G1 X-33.2579 Y-26.1764 Z-1.3801
G1 X-33.2694 Y-26.1912 Z-1.3831
G1 X-33.2815 Y-26.2049 Z-1.386
G1 X-33.2951 Y-26.2185 Z-1.389
G1 X-33.3088 Y-26.2306 Z-1.3919
G1 X-33.3236 Y-26.2421 Z-1.3949
G1 X-33.3397 Y-26.253 Z-1.398
G1 X-33.3558 Y-26.2625 Z-1.401
G1 X-33.3725 Y-26.271 Z-1.404
G1 X-33.3897 Y-26.2785 Z-1.407
G1 X-33.4077 Y-26.2849 Z-1.41
G1 X-33.4256 Y-26.2901 Z-1.413
G1 X-33.4433 Y-26.2941 Z-1.4159
G1 X-33.4621 Y-26.2971 Z-1.4189
G1 X-33.4815 Y-26.2989 Z-1.4221
G1 X-33.5 Y-26.2995 Z-1.425
G1 X-33.5185 Y-26.2989 Z-1.4279
G1 X-33.5379 Y-26.2971 Z-1.4311
G1 X-33.5567 Y-26.2941 Z-1.4341
G1 X-33.5744 Y-26.2901 Z-1.437
G1 X-33.5923 Y-26.2849 Z-1.44
G1 X-33.6103 Y-26.2785 Z-1.443
G1 X-33.6275 Y-26.271 Z-1.446
G1 X-33.6442 Y-26.2625 Z-1.449
G1 X-33.6603 Y-26.253 Z-1.452
G1 X-33.6764 Y-26.2421 Z-1.4551
G1 X-33.6912 Y-26.2306 Z-1.4581
G1 X-33.7049 Y-26.2185 Z-1.461
G1 X-33.7185 Y-26.2049 Z-1.464
G1 X-33.7306 Y-26.1912 Z-1.4669
G1 X-33.7421 Y-26.1764 Z-1.4699
G1 X-33.753 Y-26.1603 Z-1.473
G1 X-33.7625 Y-26.1442 Z-1.476
G1 X-33.771 Y-26.1275 Z-1.479
G1 X-33.7785 Y-26.1103 Z-1.482
G1 X-33.7849 Y-26.0923 Z-1.485
G1 X-33.7901 Y-26.0744 Z-1.488
G1 X-33.7941 Y-26.0567 Z-1.4909
G1 X-33.7971 Y-26.0379 Z-1.4939
G1 X-33.7989 Y-26.0185 Z-1.4971
G1 X-33.7995 Y-26.0 Z-1.5
G1 X-33.7989 Y-25.9815 Z-1.5029
G1 X-33.7971 Y-25.9621 Z-1.5061
G1 X-33.7941 Y-25.9433 Z-1.5091
G1 X-33.7901 Y-25.9256 Z-1.512
G1 X-33.7849 Y-25.9077 Z-1.515
G1 X-33.7785 Y-25.8897 Z-1.518
G1 X-33.771 Y-25.8725 Z-1.521
G1 X-33.7625 Y-25.8558 Z-1.524
G1 X-33.753 Y-25.8397 Z-1.527
G1 X-33.7421 Y-25.8236 Z-1.5301
G1 X-33.7306 Y-25.8088 Z-1.5331
G1 X-33.7185 Y-25.7951 Z-1.536
G1 X-33.7049 Y-25.7815 Z-1.539
G1 X-33.6912 Y-25.7694 Z-1.5419
G1 X-33.6764 Y-25.7579 Z-1.5449
G1 X-33.6603 Y-25.747 Z-1.548
G1 X-33.6442 Y-25.7375 Z-1.551
G1 X-33.6275 Y-25.729 Z-1.554
G1 X-33.6103 Y-25.7215 Z-1.557
G1 X-33.5923 Y-25.7151 Z-1.56
G1 X-33.5744 Y-25.7099 Z-1.563
G1 X-33.5567 Y-25.7059 Z-1.5659
G1 X-33.5379 Y-25.7029 Z-1.5689
G1 X-33.5185 Y-25.7011 Z-1.5721
G1 X-33.5 Y-25.7005 Z-1.575
G1 X-33.4815 Y-25.7011 Z-1.5779
G1 X-33.4621 Y-25.7029 Z-1.5811
G1 X-33.4433 Y-25.7059 Z-1.5841
G1 X-33.4256 Y-25.7099 Z-1.587
G1 X-33.4077 Y-25.7151 Z-1.59
G1 X-33.3897 Y-25.7215 Z-1.593
G1 X-33.3725 Y-25.729 Z-1.596
G1 X-33.3558 Y-25.7375 Z-1.599
G1 X-33.3397 Y-25.747 Z-1.602
G1 X-33.3236 Y-25.7579 Z-1.6051
G1 X-33.3088 Y-25.7694 Z-1.6081
G1 X-33.2951 Y-25.7815 Z-1.611
G1 X-33.2815 Y-25.7951 Z-1.614
G1 X-33.2694 Y-25.8088 Z-1.6169
G1 X-33.2579 Y-25.8236 Z-1.6199
G1 X-33.247 Y-25.8397 Z-1.623
G1 X-33.2375 Y-25.8558 Z-1.626
G1 X-33.229 Y-25.8725 Z-1.629
G1 X-33.2215 Y-25.8897 Z-1.632
G1 X-33.2151 Y-25.9077 Z-1.635
G1 X-33.2099 Y-25.9256 Z-1.638
G1 X-33.2059 Y-25.9433 Z-1.6409
G1 X-33.2029 Y-25.9621 Z-1.6439
G1 X-33.2011 Y-25.9815 Z-1.6471
G1 X-33.2005 Y-26.0 Z-1.65
G1 X-33.2011 Y-26.0185 Z-1.6529
G1 X-33.2029 Y-26.0379 Z-1.6561
G1 X-33.2059 Y-26.0567 Z-1.6591
G1 X-33.2099 Y-26.0744 Z-1.662
G1 X-33.2151 Y-26.0923 Z-1.665
G1 X-33.2215 Y-26.1103 Z-1.668
G1 X-33.229 Y-26.1275 Z-1.671
G1 X-33.2375 Y-26.1442 Z-1.674
G1 X-33.247 Y-26.1603 Z-1.677
G1 X-33.2579 Y-26.1764 Z-1.6801
G1 X-33.2694 Y-26.1912 Z-1.6831
G1 X-33.2815 Y-26.2049 Z-1.686
G1 X-33.2951 Y-26.2185 Z-1.689
G1 X-33.3088 Y-26.2306 Z-1.6919
G1 X-33.3236 Y-26.2421 Z-1.6949
G1 X-33.3397 Y-26.253 Z-1.698
G1 X-33.3558 Y-26.2625 Z-1.701
G1 X-33.3725 Y-26.271 Z-1.704
G1 X-33.3897 Y-26.2785 Z-1.707
G1 X-33.4077 Y-26.2849 Z-1.71
G1 X-33.4256 Y-26.2901 Z-1.713
G1 X-33.4433 Y-26.2941 Z-1.7159
G1 X-33.4621 Y-26.2971 Z-1.7189
G1 X-33.4815 Y-26.2989 Z-1.7221
G1 X-33.5 Y-26.2995 Z-1.725
G1 X-33.5185 Y-26.2989 Z-1.7279
G1 X-33.5379 Y-26.2971 Z-1.7311
G1 X-33.5567 Y-26.2941 Z-1.7341
G1 X-33.5744 Y-26.2901 Z-1.737
G1 X-33.5923 Y-26.2849 Z-1.74
G1 X-33.6103 Y-26.2785 Z-1.743
G1 X-33.6275 Y-26.271 Z-1.746
G1 X-33.6442 Y-26.2625 Z-1.749
G1 X-33.6603 Y-26.253 Z-1.752
G1 X-33.6764 Y-26.2421 Z-1.7551
G1 X-33.6912 Y-26.2306 Z-1.7581
G1 X-33.7049 Y-26.2185 Z-1.761
G1 X-33.7185 Y-26.2049 Z-1.764
G1 X-33.7306 Y-26.1912 Z-1.7669
G1 X-33.7421 Y-26.1764 Z-1.7699
G1 X-33.753 Y-26.1603 Z-1.773
G1 X-33.7625 Y-26.1442 Z-1.776
G1 X-33.771 Y-26.1275 Z-1.779
G1 X-33.7785 Y-26.1103 Z-1.782
G1 X-33.7849 Y-26.0923 Z-1.785
G1 X-33.7901 Y-26.0744 Z-1.788
G1 X-33.7941 Y-26.0567 Z-1.7909
G1 X-33.7971 Y-26.0379 Z-1.7939
G1 X-33.7989 Y-26.0185 Z-1.7971
G1 X-33.7995 Y-26.0 Z-1.8
G1 X-33.7989 Y-25.9815 Z-1.8029
G1 X-33.7971 Y-25.9621 Z-1.8061
G1 X-33.7941 Y-25.9433 Z-1.8091
G1 X-33.7901 Y-25.9256 Z-1.812
G1 X-33.7849 Y-25.9077 Z-1.815
G1 X-33.7785 Y-25.8897 Z-1.818
G1 X-33.771 Y-25.8725 Z-1.821
G1 X-33.7625 Y-25.8558 Z-1.824
G1 X-33.753 Y-25.8397 Z-1.827
G1 X-33.7421 Y-25.8236 Z-1.8301
G1 X-33.7306 Y-25.8088 Z-1.8331
G1 X-33.7185 Y-25.7951 Z-1.836
G1 X-33.7049 Y-25.7815 Z-1.839
G1 X-33.6912 Y-25.7694 Z-1.8419
G1 X-33.6764 Y-25.7579 Z-1.8449
G1 X-33.6603 Y-25.747 Z-1.848
G1 X-33.6442 Y-25.7375 Z-1.851
G1 X-33.6275 Y-25.729 Z-1.854
G1 X-33.6103 Y-25.7215 Z-1.857
G1 X-33.5923 Y-25.7151 Z-1.86
G1 X-33.5744 Y-25.7099 Z-1.863
G1 X-33.5567 Y-25.7059 Z-1.8659
G1 X-33.5379 Y-25.7029 Z-1.8689
G1 X-33.5185 Y-25.7011 Z-1.8721
G1 X-33.5 Y-25.7005 Z-1.875
G1 X-33.4815 Y-25.7011 Z-1.8779
G1 X-33.4621 Y-25.7029 Z-1.8811
G1 X-33.4433 Y-25.7059 Z-1.8841
G1 X-33.4256 Y-25.7099 Z-1.887
G1 X-33.4077 Y-25.7151 Z-1.89
G1 X-33.3897 Y-25.7215 Z-1.893
G1 X-33.3725 Y-25.729 Z-1.896
G1 X-33.3558 Y-25.7375 Z-1.899
G1 X-33.3397 Y-25.747 Z-1.902
G1 X-33.3236 Y-25.7579 Z-1.9051
G1 X-33.3088 Y-25.7694 Z-1.9081
G1 X-33.2951 Y-25.7815 Z-1.911
G1 X-33.2815 Y-25.7951 Z-1.914
G1 X-33.2694 Y-25.8088 Z-1.9169
G1 X-33.2579 Y-25.8236 Z-1.9199
G1 X-33.247 Y-25.8397 Z-1.923
G1 X-33.2375 Y-25.8558 Z-1.926
G1 X-33.229 Y-25.8725 Z-1.929
G1 X-33.2215 Y-25.8897 Z-1.932
G1 X-33.2151 Y-25.9077 Z-1.935
G1 X-33.2099 Y-25.9256 Z-1.938
G1 X-33.2059 Y-25.9433 Z-1.9409
G1 X-33.2029 Y-25.9621 Z-1.9439
G1 X-33.2011 Y-25.9815 Z-1.9471
G1 X-33.2005 Y-26.0 Z-1.95
G1 X-33.2011 Y-26.0185 Z-1.9529
G1 X-33.2029 Y-26.0379 Z-1.9561
G1 X-33.2059 Y-26.0567 Z-1.9591
G1 X-33.2099 Y-26.0744 Z-1.962
G1 X-33.2151 Y-26.0923 Z-1.965
G1 X-33.2215 Y-26.1103 Z-1.968
G1 X-33.229 Y-26.1275 Z-1.971
G1 X-33.2375 Y-26.1442 Z-1.974
G1 X-33.247 Y-26.1603 Z-1.977
G1 X-33.2579 Y-26.1764 Z-1.9801
G1 X-33.2694 Y-26.1912 Z-1.9831
G1 X-33.2815 Y-26.2049 Z-1.986
G1 X-33.2951 Y-26.2185 Z-1.989
G1 X-33.3088 Y-26.2306 Z-1.9919
G1 X-33.3236 Y-26.2421 Z-1.9949
G1 X-33.3397 Y-26.253 Z-1.998
G1 X-33.3558 Y-26.2625 Z-2.001
G1 X-33.3725 Y-26.271 Z-2.004
G1 X-33.3897 Y-26.2785 Z-2.007
G1 X-33.4077 Y-26.2849 Z-2.01
G1 X-33.4256 Y-26.2901 Z-2.013
G1 X-33.4433 Y-26.2941 Z-2.0159
G1 X-33.4621 Y-26.2971 Z-2.0189
G1 X-33.4815 Y-26.2989 Z-2.0221
G1 X-33.5 Y-26.2995 Z-2.025
G1 X-33.5185 Y-26.2989 Z-2.0279
G1 X-33.5379 Y-26.2971 Z-2.0311
G1 X-33.5567 Y-26.2941 Z-2.0341
G1 X-33.5744 Y-26.2901 Z-2.037
G1 X-33.5923 Y-26.2849 Z-2.04
G1 X-33.6103 Y-26.2785 Z-2.043
G1 X-33.6275 Y-26.271 Z-2.046
G1 X-33.6442 Y-26.2625 Z-2.049
G1 X-33.6603 Y-26.253 Z-2.052
G1 X-33.6764 Y-26.2421 Z-2.0551
G1 X-33.6912 Y-26.2306 Z-2.0581
G1 X-33.7049 Y-26.2185 Z-2.061
G1 X-33.7185 Y-26.2049 Z-2.064
G1 X-33.7306 Y-26.1912 Z-2.0669
G1 X-33.7421 Y-26.1764 Z-2.0699
G1 X-33.753 Y-26.1603 Z-2.073
G1 X-33.7625 Y-26.1442 Z-2.076
G1 X-33.771 Y-26.1275 Z-2.079
G1 X-33.7785 Y-26.1103 Z-2.082
G1 X-33.7849 Y-26.0923 Z-2.085
G1 X-33.7901 Y-26.0744 Z-2.088
G1 X-33.7941 Y-26.0567 Z-2.0909
G1 X-33.7971 Y-26.0379 Z-2.0939
G1 X-33.7989 Y-26.0185 Z-2.0971
G1 X-33.7995 Y-26.0 Z-2.1
G1 X-33.7989 Y-25.9815 Z-2.1029
G1 X-33.7971 Y-25.9621 Z-2.1061
G1 X-33.7941 Y-25.9433 Z-2.1091
G1 X-33.7901 Y-25.9256 Z-2.112
G1 X-33.7849 Y-25.9077 Z-2.115
G1 X-33.7785 Y-25.8897 Z-2.118
G1 X-33.771 Y-25.8725 Z-2.121
G1 X-33.7625 Y-25.8558 Z-2.124
G1 X-33.753 Y-25.8397 Z-2.127
G1 X-33.7421 Y-25.8236 Z-2.1301
G1 X-33.7306 Y-25.8088 Z-2.1331
G1 X-33.7185 Y-25.7951 Z-2.136
G1 X-33.7049 Y-25.7815 Z-2.139
G1 X-33.6912 Y-25.7694 Z-2.1419
G1 X-33.6764 Y-25.7579 Z-2.1449
G1 X-33.6603 Y-25.747 Z-2.148
G1 X-33.6442 Y-25.7375 Z-2.151
G1 X-33.6275 Y-25.729 Z-2.154
G1 X-33.6103 Y-25.7215 Z-2.157
G1 X-33.5923 Y-25.7151 Z-2.16
G1 X-33.5744 Y-25.7099 Z-2.163
G1 X-33.5567 Y-25.7059 Z-2.1659
G1 X-33.5379 Y-25.7029 Z-2.1689
G1 X-33.5185 Y-25.7011 Z-2.1721
G1 X-33.5 Y-25.7005 Z-2.175
G1 X-33.4815 Y-25.7011 Z-2.1779
G1 X-33.4621 Y-25.7029 Z-2.1811
G1 X-33.4433 Y-25.7059 Z-2.1841
G1 X-33.4256 Y-25.7099 Z-2.187
G1 X-33.4077 Y-25.7151 Z-2.19
G1 X-33.3897 Y-25.7215 Z-2.193
G1 X-33.3725 Y-25.729 Z-2.196
G1 X-33.3558 Y-25.7375 Z-2.199
G1 X-33.3397 Y-25.747 Z-2.202
G1 X-33.3236 Y-25.7579 Z-2.2051
G1 X-33.3088 Y-25.7694 Z-2.2081
G1 X-33.2951 Y-25.7815 Z-2.211
G1 X-33.2815 Y-25.7951 Z-2.214
G1 X-33.2694 Y-25.8088 Z-2.2169
G1 X-33.2579 Y-25.8236 Z-2.2199
G1 X-33.247 Y-25.8397 Z-2.223
G1 X-33.2375 Y-25.8558 Z-2.226
G1 X-33.229 Y-25.8725 Z-2.229
G1 X-33.2215 Y-25.8897 Z-2.232
G1 X-33.2151 Y-25.9077 Z-2.235
G1 X-33.2099 Y-25.9256 Z-2.238
G1 X-33.2059 Y-25.9433 Z-2.2409
G1 X-33.2029 Y-25.9621 Z-2.2439
G1 X-33.2011 Y-25.9815 Z-2.2471
G1 X-33.2005 Y-26.0 Z-2.25
G1 X-33.2011 Y-26.0185 Z-2.2529
G1 X-33.2029 Y-26.0379 Z-2.2561
G1 X-33.2059 Y-26.0567 Z-2.2591
G1 X-33.2099 Y-26.0744 Z-2.262
G1 X-33.2151 Y-26.0923 Z-2.265
G1 X-33.2215 Y-26.1103 Z-2.268
G1 X-33.229 Y-26.1275 Z-2.271
G1 X-33.2375 Y-26.1442 Z-2.274
G1 X-33.247 Y-26.1603 Z-2.277
G1 X-33.2579 Y-26.1764 Z-2.2801
G1 X-33.2694 Y-26.1912 Z-2.2831
G1 X-33.2815 Y-26.2049 Z-2.286
G1 X-33.2951 Y-26.2185 Z-2.289
G1 X-33.3088 Y-26.2306 Z-2.2919
G1 X-33.3236 Y-26.2421 Z-2.2949
G1 X-33.3397 Y-26.253 Z-2.298
G1 X-33.3558 Y-26.2625 Z-2.301
G1 X-33.3725 Y-26.271 Z-2.304
G1 X-33.3897 Y-26.2785 Z-2.307
G1 X-33.4077 Y-26.2849 Z-2.31
G1 X-33.4256 Y-26.2901 Z-2.313
G1 X-33.4433 Y-26.2941 Z-2.3159
G1 X-33.4621 Y-26.2971 Z-2.3189
G1 X-33.4815 Y-26.2989 Z-2.3221
G1 X-33.5 Y-26.2995 Z-2.325
G1 X-33.5185 Y-26.2989 Z-2.3279
G1 X-33.5379 Y-26.2971 Z-2.3311
G1 X-33.5567 Y-26.2941 Z-2.3341
G1 X-33.5744 Y-26.2901 Z-2.337
G1 X-33.5923 Y-26.2849 Z-2.34
G1 X-33.6103 Y-26.2785 Z-2.343
G1 X-33.6275 Y-26.271 Z-2.346
G1 X-33.6442 Y-26.2625 Z-2.349
G1 X-33.6603 Y-26.253 Z-2.352
G1 X-33.6764 Y-26.2421 Z-2.3551
G1 X-33.6912 Y-26.2306 Z-2.3581
G1 X-33.7049 Y-26.2185 Z-2.361
G1 X-33.7185 Y-26.2049 Z-2.364
G1 X-33.7306 Y-26.1912 Z-2.3669
G1 X-33.7421 Y-26.1764 Z-2.3699
G1 X-33.753 Y-26.1603 Z-2.373
G1 X-33.7625 Y-26.1442 Z-2.376
G1 X-33.771 Y-26.1275 Z-2.379
G1 X-33.7785 Y-26.1103 Z-2.382
G1 X-33.7849 Y-26.0923 Z-2.385
G1 X-33.7901 Y-26.0744 Z-2.388
G1 X-33.7941 Y-26.0567 Z-2.3909
G1 X-33.7971 Y-26.0379 Z-2.3939
G1 X-33.7989 Y-26.0185 Z-2.3971
G1 X-33.7995 Y-26.0 Z-2.4
G1 X-33.7989 Y-25.9815 Z-2.4029
G1 X-33.7971 Y-25.9621 Z-2.4061
G1 X-33.7941 Y-25.9433 Z-2.4091
G1 X-33.7901 Y-25.9256 Z-2.412
G1 X-33.7849 Y-25.9077 Z-2.415
G1 X-33.7785 Y-25.8897 Z-2.418
G1 X-33.771 Y-25.8725 Z-2.421
G1 X-33.7625 Y-25.8558 Z-2.424
G1 X-33.753 Y-25.8397 Z-2.427
G1 X-33.7421 Y-25.8236 Z-2.4301
G1 X-33.7306 Y-25.8088 Z-2.4331
G1 X-33.7185 Y-25.7951 Z-2.436
G1 X-33.7049 Y-25.7815 Z-2.439
G1 X-33.6912 Y-25.7694 Z-2.4419
G1 X-33.6764 Y-25.7579 Z-2.4449
G1 X-33.6603 Y-25.747 Z-2.448
G1 X-33.6442 Y-25.7375 Z-2.451
G1 X-33.6275 Y-25.729 Z-2.454
G1 X-33.6103 Y-25.7215 Z-2.457
G1 X-33.5923 Y-25.7151 Z-2.46
G1 X-33.5744 Y-25.7099 Z-2.463
G1 X-33.5567 Y-25.7059 Z-2.4659
G1 X-33.5379 Y-25.7029 Z-2.4689
G1 X-33.5185 Y-25.7011 Z-2.4721
G1 X-33.5 Y-25.7005 Z-2.475
G1 X-33.4815 Y-25.7011 Z-2.4779
G1 X-33.4621 Y-25.7029 Z-2.4811
G1 X-33.4433 Y-25.7059 Z-2.4841
G1 X-33.4256 Y-25.7099 Z-2.487
G1 X-33.4077 Y-25.7151 Z-2.49
G1 X-33.3897 Y-25.7215 Z-2.493
G1 X-33.3725 Y-25.729 Z-2.496
G1 X-33.3558 Y-25.7375 Z-2.499
G1 X-33.3397 Y-25.747 Z-2.502
G1 X-33.3236 Y-25.7579 Z-2.5051
G1 X-33.3088 Y-25.7694 Z-2.5081
G1 X-33.2951 Y-25.7815 Z-2.511
G1 X-33.2815 Y-25.7951 Z-2.514
G1 X-33.2694 Y-25.8088 Z-2.5169
G1 X-33.2579 Y-25.8236 Z-2.5199
G1 X-33.247 Y-25.8397 Z-2.523
G1 X-33.2375 Y-25.8558 Z-2.526
G1 X-33.229 Y-25.8725 Z-2.529
G1 X-33.2215 Y-25.8897 Z-2.532
G1 X-33.2151 Y-25.9077 Z-2.535
G1 X-33.2099 Y-25.9256 Z-2.538
G1 X-33.2059 Y-25.9433 Z-2.5409
G1 X-33.2029 Y-25.9621 Z-2.5439
G1 X-33.2011 Y-25.9815 Z-2.5471
G1 X-33.2005 Y-26.0 Z-2.55
G1 X-33.2011 Y-26.0185 Z-2.5529
G1 X-33.2029 Y-26.0379 Z-2.5561
G1 X-33.2059 Y-26.0567 Z-2.5591
G1 X-33.2099 Y-26.0744 Z-2.562
G1 X-33.2151 Y-26.0923 Z-2.565
G1 X-33.2215 Y-26.1103 Z-2.568
G1 X-33.229 Y-26.1275 Z-2.571
G1 X-33.2375 Y-26.1442 Z-2.574
G1 X-33.247 Y-26.1603 Z-2.577
G1 X-33.2579 Y-26.1764 Z-2.5801
G1 X-33.2694 Y-26.1912 Z-2.5831
G1 X-33.2815 Y-26.2049 Z-2.586
G1 X-33.2951 Y-26.2185 Z-2.589
G1 X-33.3088 Y-26.2306 Z-2.5919
G1 X-33.3236 Y-26.2421 Z-2.5949
G1 X-33.3397 Y-26.253 Z-2.598
G1 X-33.3558 Y-26.2625 Z-2.601
G1 X-33.3725 Y-26.271 Z-2.604
G1 X-33.3897 Y-26.2785 Z-2.607
G1 X-33.4077 Y-26.2849 Z-2.61
G1 X-33.4256 Y-26.2901 Z-2.613
G1 X-33.4433 Y-26.2941 Z-2.6159
G1 X-33.4621 Y-26.2971 Z-2.6189
G1 X-33.4815 Y-26.2989 Z-2.6221
G1 X-33.5 Y-26.2995 Z-2.625
G1 X-33.5185 Y-26.2989 Z-2.6279
G1 X-33.5379 Y-26.2971 Z-2.6311
G1 X-33.5567 Y-26.2941 Z-2.6341
G1 X-33.5744 Y-26.2901 Z-2.637
G1 X-33.5923 Y-26.2849 Z-2.64
G1 X-33.6103 Y-26.2785 Z-2.643
G1 X-33.6275 Y-26.271 Z-2.646
G1 X-33.6442 Y-26.2625 Z-2.649
G1 X-33.6603 Y-26.253 Z-2.652
G1 X-33.6764 Y-26.2421 Z-2.6551
G1 X-33.6912 Y-26.2306 Z-2.6581
G1 X-33.7049 Y-26.2185 Z-2.661
G1 X-33.7185 Y-26.2049 Z-2.664
G1 X-33.7306 Y-26.1912 Z-2.6669
G1 X-33.7421 Y-26.1764 Z-2.6699
G1 X-33.753 Y-26.1603 Z-2.673
G1 X-33.7625 Y-26.1442 Z-2.676
G1 X-33.771 Y-26.1275 Z-2.679
G1 X-33.7785 Y-26.1103 Z-2.682
G1 X-33.7849 Y-26.0923 Z-2.685
G1 X-33.7901 Y-26.0744 Z-2.688
G1 X-33.7941 Y-26.0567 Z-2.6909
G1 X-33.7971 Y-26.0379 Z-2.6939
G1 X-33.7989 Y-26.0185 Z-2.6971
G1 X-33.7995 Y-26.0 Z-2.7
G1 X-33.7989 Y-25.9815 Z-2.7029
G1 X-33.7971 Y-25.9621 Z-2.7061
G1 X-33.7941 Y-25.9433 Z-2.7091
G1 X-33.7901 Y-25.9256 Z-2.712
G1 X-33.7849 Y-25.9077 Z-2.715
G1 X-33.7785 Y-25.8897 Z-2.718
G1 X-33.771 Y-25.8725 Z-2.721
G1 X-33.7625 Y-25.8558 Z-2.724
G1 X-33.753 Y-25.8397 Z-2.727
G1 X-33.7421 Y-25.8236 Z-2.7301
G1 X-33.7306 Y-25.8088 Z-2.7331
G1 X-33.7185 Y-25.7951 Z-2.736
G1 X-33.7049 Y-25.7815 Z-2.739
G1 X-33.6912 Y-25.7694 Z-2.7419
G1 X-33.6764 Y-25.7579 Z-2.7449
G1 X-33.6603 Y-25.747 Z-2.748
G1 X-33.6442 Y-25.7375 Z-2.751
G1 X-33.6275 Y-25.729 Z-2.754
G1 X-33.6103 Y-25.7215 Z-2.757
G1 X-33.5923 Y-25.7151 Z-2.76
G1 X-33.5744 Y-25.7099 Z-2.763
G1 X-33.5567 Y-25.7059 Z-2.7659
G1 X-33.5379 Y-25.7029 Z-2.7689
G1 X-33.5185 Y-25.7011 Z-2.7721
G1 X-33.5 Y-25.7005 Z-2.775
G1 X-33.4815 Y-25.7011 Z-2.7779
G1 X-33.4621 Y-25.7029 Z-2.7811
G1 X-33.4433 Y-25.7059 Z-2.7841
G1 X-33.4256 Y-25.7099 Z-2.787
G1 X-33.4077 Y-25.7151 Z-2.79
G1 X-33.3897 Y-25.7215 Z-2.793
G1 X-33.3725 Y-25.729 Z-2.796
G1 X-33.3558 Y-25.7375 Z-2.799
G1 X-33.3397 Y-25.747 Z-2.802
G1 X-33.3236 Y-25.7579 Z-2.8051
G1 X-33.3088 Y-25.7694 Z-2.8081
G1 X-33.2951 Y-25.7815 Z-2.811
G1 X-33.2815 Y-25.7951 Z-2.814
G1 X-33.2694 Y-25.8088 Z-2.8169
G1 X-33.2579 Y-25.8236 Z-2.8199
G1 X-33.247 Y-25.8397 Z-2.823
G1 X-33.2375 Y-25.8558 Z-2.826
G1 X-33.229 Y-25.8725 Z-2.829
G1 X-33.2215 Y-25.8897 Z-2.832
G1 X-33.2151 Y-25.9077 Z-2.835
G1 X-33.2099 Y-25.9256 Z-2.838
G1 X-33.2059 Y-25.9433 Z-2.8409
G1 X-33.2029 Y-25.9621 Z-2.8439
G1 X-33.2011 Y-25.9815 Z-2.8471
G1 X-33.2005 Y-26.0 Z-2.85
G1 X-33.2011 Y-26.0185 Z-2.8529
G1 X-33.2029 Y-26.0379 Z-2.8561
G1 X-33.2059 Y-26.0567 Z-2.8591
G1 X-33.2099 Y-26.0744 Z-2.862
G1 X-33.2151 Y-26.0923 Z-2.865
G1 X-33.2215 Y-26.1103 Z-2.868
G1 X-33.229 Y-26.1275 Z-2.871
G1 X-33.2375 Y-26.1442 Z-2.874
G1 X-33.247 Y-26.1603 Z-2.877
G1 X-33.2579 Y-26.1764 Z-2.8801
G1 X-33.2694 Y-26.1912 Z-2.8831
G1 X-33.2815 Y-26.2049 Z-2.886
G1 X-33.2951 Y-26.2185 Z-2.889
G1 X-33.3088 Y-26.2306 Z-2.8919
G1 X-33.3236 Y-26.2421 Z-2.8949
G1 X-33.3397 Y-26.253 Z-2.898
G1 X-33.3558 Y-26.2625 Z-2.901
G1 X-33.3725 Y-26.271 Z-2.904
G1 X-33.3897 Y-26.2785 Z-2.907
G1 X-33.4077 Y-26.2849 Z-2.91
G1 X-33.4256 Y-26.2901 Z-2.913
G1 X-33.4433 Y-26.2941 Z-2.9159
G1 X-33.4621 Y-26.2971 Z-2.9189
G1 X-33.4815 Y-26.2989 Z-2.9221
G1 X-33.5 Y-26.2995 Z-2.925
G1 X-33.5185 Y-26.2989 Z-2.9279
G1 X-33.5379 Y-26.2971 Z-2.9311
G1 X-33.5567 Y-26.2941 Z-2.9341
G1 X-33.5744 Y-26.2901 Z-2.937
G1 X-33.5923 Y-26.2849 Z-2.94
G1 X-33.6103 Y-26.2785 Z-2.943
G1 X-33.6275 Y-26.271 Z-2.946
G1 X-33.6442 Y-26.2625 Z-2.949
G1 X-33.6603 Y-26.253 Z-2.952
G1 X-33.6764 Y-26.2421 Z-2.9551
G1 X-33.6912 Y-26.2306 Z-2.9581
G1 X-33.7049 Y-26.2185 Z-2.961
G1 X-33.7185 Y-26.2049 Z-2.964
G1 X-33.7306 Y-26.1912 Z-2.9669
G1 X-33.7421 Y-26.1764 Z-2.9699
G1 X-33.753 Y-26.1603 Z-2.973
G1 X-33.7625 Y-26.1442 Z-2.976
G1 X-33.771 Y-26.1275 Z-2.979
G1 X-33.7785 Y-26.1103 Z-2.982
G1 X-33.7849 Y-26.0923 Z-2.985
G1 X-33.7901 Y-26.0744 Z-2.988
G1 X-33.7941 Y-26.0567 Z-2.9909
G1 X-33.7971 Y-26.0379 Z-2.9939
G1 X-33.7989 Y-26.0185 Z-2.9971
G1 X-33.7995 Y-26.0 Z-3.0
G1 X-33.7989 Y-25.9815 Z-3.0029
G1 X-33.7971 Y-25.9621 Z-3.0061
G1 X-33.7941 Y-25.9433 Z-3.0091
G1 X-33.7901 Y-25.9256 Z-3.012
G1 X-33.7849 Y-25.9077 Z-3.015
G1 X-33.7785 Y-25.8897 Z-3.018
G1 X-33.771 Y-25.8725 Z-3.021
G1 X-33.7625 Y-25.8558 Z-3.024
G1 X-33.753 Y-25.8397 Z-3.027
G1 X-33.7421 Y-25.8236 Z-3.0301
G1 X-33.7306 Y-25.8088 Z-3.0331
G1 X-33.7185 Y-25.7951 Z-3.036
G1 X-33.7049 Y-25.7815 Z-3.039
G1 X-33.6912 Y-25.7694 Z-3.0419
G1 X-33.6764 Y-25.7579 Z-3.0449
G1 X-33.6603 Y-25.747 Z-3.048
G1 X-33.6442 Y-25.7375 Z-3.051
G1 X-33.6275 Y-25.729 Z-3.054
G1 X-33.6103 Y-25.7215 Z-3.057
G1 X-33.5923 Y-25.7151 Z-3.06
G1 X-33.5744 Y-25.7099 Z-3.063
G1 X-33.5567 Y-25.7059 Z-3.0659
G1 X-33.5379 Y-25.7029 Z-3.0689
G1 X-33.5185 Y-25.7011 Z-3.0721
G1 X-33.5 Y-25.7005 Z-3.075
G1 X-33.4815 Y-25.7011 Z-3.0779
G1 X-33.4621 Y-25.7029 Z-3.0811
G1 X-33.4433 Y-25.7059 Z-3.0841
G1 X-33.4256 Y-25.7099 Z-3.087
G1 X-33.4077 Y-25.7151 Z-3.09
G1 X-33.3897 Y-25.7215 Z-3.093
G1 X-33.3725 Y-25.729 Z-3.096
G1 X-33.3558 Y-25.7375 Z-3.099
G1 X-33.3397 Y-25.747 Z-3.102
G1 X-33.3236 Y-25.7579 Z-3.1051
G1 X-33.3088 Y-25.7694 Z-3.1081
G1 X-33.2951 Y-25.7815 Z-3.111
G1 X-33.2815 Y-25.7951 Z-3.114
G1 X-33.2694 Y-25.8088 Z-3.1169
G1 X-33.2579 Y-25.8236 Z-3.1199
G1 X-33.247 Y-25.8397 Z-3.123
G1 X-33.2375 Y-25.8558 Z-3.126
G1 X-33.229 Y-25.8725 Z-3.129
G1 X-33.2215 Y-25.8897 Z-3.132
G1 X-33.2151 Y-25.9077 Z-3.135
G1 X-33.2099 Y-25.9256 Z-3.138
G1 X-33.2059 Y-25.9433 Z-3.1409
G1 X-33.2029 Y-25.9621 Z-3.1439
G1 X-33.2011 Y-25.9815 Z-3.1471
G1 X-33.2005 Y-26.0 Z-3.15
G1 X-33.2011 Y-26.0185 Z-3.1529
G1 X-33.2029 Y-26.0379 Z-3.1561
G1 X-33.2059 Y-26.0567 Z-3.1591
G1 X-33.2099 Y-26.0744 Z-3.162
G1 X-33.2151 Y-26.0923 Z-3.165
G1 X-33.2215 Y-26.1103 Z-3.168
G1 X-33.229 Y-26.1275 Z-3.171
G1 X-33.2375 Y-26.1442 Z-3.174
G1 X-33.247 Y-26.1603 Z-3.177
G1 X-33.2579 Y-26.1764 Z-3.1801
G1 X-33.2694 Y-26.1912 Z-3.1831
G1 X-33.2815 Y-26.2049 Z-3.186
G1 X-33.2951 Y-26.2185 Z-3.189
G1 X-33.3088 Y-26.2306 Z-3.1919
G1 X-33.3236 Y-26.2421 Z-3.1949
G1 X-33.3397 Y-26.253 Z-3.198
G1 X-33.3558 Y-26.2625 Z-3.201
G1 X-33.3725 Y-26.271 Z-3.204
G1 X-33.3897 Y-26.2785 Z-3.207
G1 X-33.4077 Y-26.2849 Z-3.21
G1 X-33.4256 Y-26.2901 Z-3.213
G1 X-33.4433 Y-26.2941 Z-3.2159
G1 X-33.4621 Y-26.2971 Z-3.2189
G1 X-33.4815 Y-26.2989 Z-3.2221
G1 X-33.5 Y-26.2995 Z-3.225
G1 X-33.5185 Y-26.2989 Z-3.2279
G1 X-33.5379 Y-26.2971 Z-3.2311
G1 X-33.5567 Y-26.2941 Z-3.2341
G1 X-33.5744 Y-26.2901 Z-3.237
G1 X-33.5923 Y-26.2849 Z-3.24
G1 X-33.6103 Y-26.2785 Z-3.243
G1 X-33.6275 Y-26.271 Z-3.246
G1 X-33.6442 Y-26.2625 Z-3.249
G1 X-33.6603 Y-26.253 Z-3.252
G1 X-33.6764 Y-26.2421 Z-3.2551
G1 X-33.6912 Y-26.2306 Z-3.2581
G1 X-33.7049 Y-26.2185 Z-3.261
G1 X-33.7185 Y-26.2049 Z-3.264
G1 X-33.7306 Y-26.1912 Z-3.2669
G1 X-33.7421 Y-26.1764 Z-3.2699
G1 X-33.753 Y-26.1603 Z-3.273
G1 X-33.7625 Y-26.1442 Z-3.276
G1 X-33.771 Y-26.1275 Z-3.279
G1 X-33.7785 Y-26.1103 Z-3.282
G1 X-33.7849 Y-26.0923 Z-3.285
G1 X-33.7901 Y-26.0744 Z-3.288
G1 X-33.7941 Y-26.0567 Z-3.2909
G1 X-33.7971 Y-26.0379 Z-3.2939
G1 X-33.7989 Y-26.0185 Z-3.2971
G1 X-33.7995 Y-26.0 Z-3.3
G1 X-33.7989 Y-25.9815 Z-3.3029
G1 X-33.7971 Y-25.9621 Z-3.3061
G1 X-33.7941 Y-25.9433 Z-3.3091
G1 X-33.7901 Y-25.9256 Z-3.312
G1 X-33.7849 Y-25.9077 Z-3.315
G1 X-33.7785 Y-25.8897 Z-3.318
G1 X-33.771 Y-25.8725 Z-3.321
G1 X-33.7625 Y-25.8558 Z-3.324
G1 X-33.753 Y-25.8397 Z-3.327
G1 X-33.7421 Y-25.8236 Z-3.3301
G1 X-33.7306 Y-25.8088 Z-3.3331
G1 X-33.7185 Y-25.7951 Z-3.336
G1 X-33.7049 Y-25.7815 Z-3.339
G1 X-33.6912 Y-25.7694 Z-3.3419
G1 X-33.6764 Y-25.7579 Z-3.3449
G1 X-33.6603 Y-25.747 Z-3.348
G1 X-33.6442 Y-25.7375 Z-3.351
G1 X-33.6275 Y-25.729 Z-3.354
G1 X-33.6103 Y-25.7215 Z-3.357
G1 X-33.5923 Y-25.7151 Z-3.36
G1 X-33.5744 Y-25.7099 Z-3.363
G1 X-33.5567 Y-25.7059 Z-3.3659
G1 X-33.5379 Y-25.7029 Z-3.3689
G1 X-33.5185 Y-25.7011 Z-3.3721
G1 X-33.5 Y-25.7005 Z-3.375
G1 X-33.4815 Y-25.7011 Z-3.3779
G1 X-33.4621 Y-25.7029 Z-3.3811
G1 X-33.4433 Y-25.7059 Z-3.3841
G1 X-33.4256 Y-25.7099 Z-3.387
G1 X-33.4077 Y-25.7151 Z-3.39
G1 X-33.3897 Y-25.7215 Z-3.393
G1 X-33.3725 Y-25.729 Z-3.396
G1 X-33.3558 Y-25.7375 Z-3.399
G1 X-33.3397 Y-25.747 Z-3.402
G1 X-33.3236 Y-25.7579 Z-3.4051
G1 X-33.3088 Y-25.7694 Z-3.4081
G1 X-33.2951 Y-25.7815 Z-3.411
G1 X-33.2815 Y-25.7951 Z-3.414
G1 X-33.2694 Y-25.8088 Z-3.4169
G1 X-33.2579 Y-25.8236 Z-3.4199
G1 X-33.247 Y-25.8397 Z-3.423
G1 X-33.2375 Y-25.8558 Z-3.426
G1 X-33.229 Y-25.8725 Z-3.429
G1 X-33.2215 Y-25.8897 Z-3.432
G1 X-33.2151 Y-25.9077 Z-3.435
G1 X-33.2099 Y-25.9256 Z-3.438
G1 X-33.2059 Y-25.9433 Z-3.4409
G1 X-33.2029 Y-25.9621 Z-3.4439
G1 X-33.2011 Y-25.9815 Z-3.4471
G1 X-33.2005 Y-26.0 Z-3.45
G1 X-33.2011 Y-26.0185 Z-3.4529
G1 X-33.2029 Y-26.0379 Z-3.4561
G1 X-33.2059 Y-26.0567 Z-3.4591
G1 X-33.2099 Y-26.0744 Z-3.462
G1 X-33.2151 Y-26.0923 Z-3.465
G1 X-33.2215 Y-26.1103 Z-3.468
G1 X-33.229 Y-26.1275 Z-3.471
G1 X-33.2375 Y-26.1442 Z-3.474
G1 X-33.247 Y-26.1603 Z-3.477
G1 X-33.2579 Y-26.1764 Z-3.4801
G1 X-33.2694 Y-26.1912 Z-3.4831
G1 X-33.2815 Y-26.2049 Z-3.486
G1 X-33.2951 Y-26.2185 Z-3.489
G1 X-33.3088 Y-26.2306 Z-3.4919
G1 X-33.3236 Y-26.2421 Z-3.4949
G1 X-33.3397 Y-26.253 Z-3.498
G1 X-33.3558 Y-26.2625 Z-3.501
G1 X-33.3725 Y-26.271 Z-3.504
G1 X-33.3897 Y-26.2785 Z-3.507
G1 X-33.4077 Y-26.2849 Z-3.51
G1 X-33.4256 Y-26.2901 Z-3.513
G1 X-33.4433 Y-26.2941 Z-3.5159
G1 X-33.4621 Y-26.2971 Z-3.5189
G1 X-33.4815 Y-26.2989 Z-3.5221
G1 X-33.5 Y-26.2995 Z-3.525
G1 X-33.5185 Y-26.2989 Z-3.5279
G1 X-33.5379 Y-26.2971 Z-3.5311
G1 X-33.5567 Y-26.2941 Z-3.5341
G1 X-33.5744 Y-26.2901 Z-3.537
G1 X-33.5923 Y-26.2849 Z-3.54
G1 X-33.6103 Y-26.2785 Z-3.543
G1 X-33.6275 Y-26.271 Z-3.546
G1 X-33.6442 Y-26.2625 Z-3.549
G1 X-33.6603 Y-26.253 Z-3.552
G1 X-33.6764 Y-26.2421 Z-3.5551
G1 X-33.6912 Y-26.2306 Z-3.5581
G1 X-33.7049 Y-26.2185 Z-3.561
G1 X-33.7185 Y-26.2049 Z-3.564
G1 X-33.7306 Y-26.1912 Z-3.5669
G1 X-33.7421 Y-26.1764 Z-3.5699
G1 X-33.753 Y-26.1603 Z-3.573
G1 X-33.7625 Y-26.1442 Z-3.576
G1 X-33.771 Y-26.1275 Z-3.579
G1 X-33.7785 Y-26.1103 Z-3.582
G1 X-33.7849 Y-26.0923 Z-3.585
G1 X-33.7901 Y-26.0744 Z-3.588
G1 X-33.7941 Y-26.0567 Z-3.5909
G1 X-33.7971 Y-26.0379 Z-3.5939
G1 X-33.7989 Y-26.0185 Z-3.5971
G1 X-33.7995 Y-26.0 Z-3.6
G1 X-33.7989 Y-25.9815 Z-3.6029
G1 X-33.7971 Y-25.9621 Z-3.6061
G1 X-33.7941 Y-25.9433 Z-3.6091
G1 X-33.7901 Y-25.9256 Z-3.612
G1 X-33.7849 Y-25.9077 Z-3.615
G1 X-33.7785 Y-25.8897 Z-3.618
G1 X-33.771 Y-25.8725 Z-3.621
G1 X-33.7625 Y-25.8558 Z-3.624
G1 X-33.753 Y-25.8397 Z-3.627
G1 X-33.7421 Y-25.8236 Z-3.6301
G1 X-33.7306 Y-25.8088 Z-3.6331
G1 X-33.7185 Y-25.7951 Z-3.636
G1 X-33.7049 Y-25.7815 Z-3.639
G1 X-33.6912 Y-25.7694 Z-3.6419
G1 X-33.6764 Y-25.7579 Z-3.6449
G1 X-33.6603 Y-25.747 Z-3.648
G1 X-33.6442 Y-25.7375 Z-3.651
G1 X-33.6275 Y-25.729 Z-3.654
G1 X-33.6103 Y-25.7215 Z-3.657
G1 X-33.5923 Y-25.7151 Z-3.66
G1 X-33.5744 Y-25.7099 Z-3.663
G1 X-33.5567 Y-25.7059 Z-3.6659
G1 X-33.5379 Y-25.7029 Z-3.6689
G1 X-33.5185 Y-25.7011 Z-3.6721
G1 X-33.5 Y-25.7005 Z-3.675
G1 X-33.4815 Y-25.7011 Z-3.6779
G1 X-33.4621 Y-25.7029 Z-3.6811
G1 X-33.4433 Y-25.7059 Z-3.6841
G1 X-33.4256 Y-25.7099 Z-3.687
G1 X-33.4077 Y-25.7151 Z-3.69
G1 X-33.3897 Y-25.7215 Z-3.693
G1 X-33.3725 Y-25.729 Z-3.696
G1 X-33.3558 Y-25.7375 Z-3.699
G1 X-33.3397 Y-25.747 Z-3.702
G1 X-33.3236 Y-25.7579 Z-3.7051
G1 X-33.3088 Y-25.7694 Z-3.7081
G1 X-33.2951 Y-25.7815 Z-3.711
G1 X-33.2815 Y-25.7951 Z-3.714
G1 X-33.2694 Y-25.8088 Z-3.7169
G1 X-33.2579 Y-25.8236 Z-3.7199
G1 X-33.247 Y-25.8397 Z-3.723
G1 X-33.2375 Y-25.8558 Z-3.726
G1 X-33.229 Y-25.8725 Z-3.729
G1 X-33.2215 Y-25.8897 Z-3.732
G1 X-33.2151 Y-25.9077 Z-3.735
G1 X-33.2099 Y-25.9256 Z-3.738
G1 X-33.2059 Y-25.9433 Z-3.7409
G1 X-33.2029 Y-25.9621 Z-3.7439
G1 X-33.2011 Y-25.9815 Z-3.7471
G1 X-33.2005 Y-26.0 Z-3.75
G1 X-33.2011 Y-26.0185 Z-3.7529
G1 X-33.2029 Y-26.0379 Z-3.7561
G1 X-33.2059 Y-26.0567 Z-3.7591
G1 X-33.2099 Y-26.0744 Z-3.762
G1 X-33.2151 Y-26.0923 Z-3.765
G1 X-33.2215 Y-26.1103 Z-3.768
G1 X-33.229 Y-26.1275 Z-3.771
G1 X-33.2375 Y-26.1442 Z-3.774
G1 X-33.247 Y-26.1603 Z-3.777
G1 X-33.2579 Y-26.1764 Z-3.7801
G1 X-33.2694 Y-26.1912 Z-3.7831
G1 X-33.2815 Y-26.2049 Z-3.786
G1 X-33.2951 Y-26.2185 Z-3.789
G1 X-33.3088 Y-26.2306 Z-3.7919
G1 X-33.3236 Y-26.2421 Z-3.7949
G1 X-33.3397 Y-26.253 Z-3.798
G1 X-33.3558 Y-26.2625 Z-3.801
G1 X-33.3725 Y-26.271 Z-3.804
G1 X-33.3897 Y-26.2785 Z-3.807
G1 X-33.4077 Y-26.2849 Z-3.81
G1 X-33.4256 Y-26.2901 Z-3.813
G1 X-33.4433 Y-26.2941 Z-3.8159
G1 X-33.4621 Y-26.2971 Z-3.8189
G1 X-33.4815 Y-26.2989 Z-3.8221
G1 X-33.5 Y-26.2995 Z-3.825
G1 X-33.5185 Y-26.2989 Z-3.8279
G1 X-33.5379 Y-26.2971 Z-3.8311
G1 X-33.5567 Y-26.2941 Z-3.8341
G1 X-33.5744 Y-26.2901 Z-3.837
G1 X-33.5923 Y-26.2849 Z-3.84
G1 X-33.6103 Y-26.2785 Z-3.843
G1 X-33.6275 Y-26.271 Z-3.846
G1 X-33.6442 Y-26.2625 Z-3.849
G1 X-33.6603 Y-26.253 Z-3.852
G1 X-33.6764 Y-26.2421 Z-3.8551
G1 X-33.6912 Y-26.2306 Z-3.8581
G1 X-33.7049 Y-26.2185 Z-3.861
G1 X-33.7185 Y-26.2049 Z-3.864
G1 X-33.7306 Y-26.1912 Z-3.8669
G1 X-33.7421 Y-26.1764 Z-3.8699
G1 X-33.753 Y-26.1603 Z-3.873
G1 X-33.7625 Y-26.1442 Z-3.876
G1 X-33.771 Y-26.1275 Z-3.879
G1 X-33.7785 Y-26.1103 Z-3.882
G1 X-33.7849 Y-26.0923 Z-3.885
G1 X-33.7901 Y-26.0744 Z-3.888
G1 X-33.7941 Y-26.0567 Z-3.8909
G1 X-33.7971 Y-26.0379 Z-3.8939
G1 X-33.7989 Y-26.0185 Z-3.8971
G1 X-33.7995 Y-26.0 Z-3.9
G1 X-33.7989 Y-25.9815 Z-3.901
G1 X-33.7971 Y-25.9621 Z-3.902
G1 X-33.7941 Y-25.9433 Z-3.903
G1 X-33.7901 Y-25.9256 Z-3.904
G1 X-33.7849 Y-25.9077 Z-3.905
G1 X-33.7785 Y-25.8897 Z-3.906
G1 X-33.771 Y-25.8725 Z-3.907
G1 X-33.7625 Y-25.8558 Z-3.908
G1 X-33.753 Y-25.8397 Z-3.909
G1 X-33.7421 Y-25.8236 Z-3.91
G1 X-33.7306 Y-25.8088 Z-3.911
G1 X-33.7185 Y-25.7951 Z-3.912
G1 X-33.7049 Y-25.7815 Z-3.913
G1 X-33.6912 Y-25.7694 Z-3.914
G1 X-33.6764 Y-25.7579 Z-3.915
G1 X-33.6603 Y-25.747 Z-3.916
G1 X-33.6442 Y-25.7375 Z-3.917
G1 X-33.6275 Y-25.729 Z-3.918
G1 X-33.6103 Y-25.7215 Z-3.919
G1 X-33.5923 Y-25.7151 Z-3.92
G1 X-33.5744 Y-25.7099 Z-3.921
G1 X-33.5567 Y-25.7059 Z-3.922
G1 X-33.5379 Y-25.7029 Z-3.923
G1 X-33.5185 Y-25.7011 Z-3.924
G1 X-33.5 Y-25.7005 Z-3.925
G1 X-33.4815 Y-25.7011 Z-3.926
G1 X-33.4621 Y-25.7029 Z-3.927
G1 X-33.4433 Y-25.7059 Z-3.928
G1 X-33.4256 Y-25.7099 Z-3.929
G1 X-33.4077 Y-25.7151 Z-3.93
G1 X-33.3897 Y-25.7215 Z-3.931
G1 X-33.3725 Y-25.729 Z-3.932
G1 X-33.3558 Y-25.7375 Z-3.933
G1 X-33.3397 Y-25.747 Z-3.934
G1 X-33.3236 Y-25.7579 Z-3.935
G1 X-33.3088 Y-25.7694 Z-3.936
G1 X-33.2951 Y-25.7815 Z-3.937
G1 X-33.2815 Y-25.7951 Z-3.938
G1 X-33.2694 Y-25.8088 Z-3.939
G1 X-33.2579 Y-25.8236 Z-3.94
G1 X-33.247 Y-25.8397 Z-3.941
G1 X-33.2375 Y-25.8558 Z-3.942
G1 X-33.229 Y-25.8725 Z-3.943
G1 X-33.2215 Y-25.8897 Z-3.944
G1 X-33.2151 Y-25.9077 Z-3.945
G1 X-33.2099 Y-25.9256 Z-3.946
G1 X-33.2059 Y-25.9433 Z-3.947
G1 X-33.2029 Y-25.9621 Z-3.948
G1 X-33.2011 Y-25.9815 Z-3.949
G1 X-33.2005 Y-26.0 Z-3.95
G1 X-33.2011 Y-26.0185 Z-3.951
G1 X-33.2029 Y-26.0379 Z-3.952
G1 X-33.2059 Y-26.0567 Z-3.953
G1 X-33.2099 Y-26.0744 Z-3.954
G1 X-33.2151 Y-26.0923 Z-3.955
G1 X-33.2215 Y-26.1103 Z-3.956
G1 X-33.229 Y-26.1275 Z-3.957
G1 X-33.2375 Y-26.1442 Z-3.958
G1 X-33.247 Y-26.1603 Z-3.959
G1 X-33.2579 Y-26.1764 Z-3.96
G1 X-33.2694 Y-26.1912 Z-3.961
G1 X-33.2815 Y-26.2049 Z-3.962
G1 X-33.2951 Y-26.2185 Z-3.963
G1 X-33.3088 Y-26.2306 Z-3.964
G1 X-33.3236 Y-26.2421 Z-3.965
G1 X-33.3397 Y-26.253 Z-3.966
G1 X-33.3558 Y-26.2625 Z-3.967
G1 X-33.3725 Y-26.271 Z-3.968
G1 X-33.3897 Y-26.2785 Z-3.969
G1 X-33.4077 Y-26.2849 Z-3.97
G1 X-33.4256 Y-26.2901 Z-3.971
G1 X-33.4433 Y-26.2941 Z-3.972
G1 X-33.4621 Y-26.2971 Z-3.973
G1 X-33.4815 Y-26.2989 Z-3.974
G1 X-33.5 Y-26.2995 Z-3.975
G1 X-33.5185 Y-26.2989 Z-3.976
G1 X-33.5379 Y-26.2971 Z-3.977
G1 X-33.5567 Y-26.2941 Z-3.978
G1 X-33.5744 Y-26.2901 Z-3.979
G1 X-33.5923 Y-26.2849 Z-3.98
G1 X-33.6103 Y-26.2785 Z-3.981
G1 X-33.6275 Y-26.271 Z-3.982
G1 X-33.6442 Y-26.2625 Z-3.983
G1 X-33.6603 Y-26.253 Z-3.984
G1 X-33.6764 Y-26.2421 Z-3.985
G1 X-33.6912 Y-26.2306 Z-3.986
G1 X-33.7049 Y-26.2185 Z-3.987
G1 X-33.7185 Y-26.2049 Z-3.988
G1 X-33.7306 Y-26.1912 Z-3.989
G1 X-33.7421 Y-26.1764 Z-3.99
G1 X-33.753 Y-26.1603 Z-3.991
G1 X-33.7625 Y-26.1442 Z-3.992
G1 X-33.771 Y-26.1275 Z-3.993
G1 X-33.7785 Y-26.1103 Z-3.994
G1 X-33.7849 Y-26.0923 Z-3.995
G1 X-33.7901 Y-26.0744 Z-3.996
G1 X-33.7941 Y-26.0567 Z-3.997
G1 X-33.7971 Y-26.0379 Z-3.998
G1 X-33.7989 Y-26.0185 Z-3.999
G1 X-33.7995 Y-26.0 Z-4.0
G1 X-33.7989 Y-25.9815
G1 X-33.7971 Y-25.9621
G1 X-33.7941 Y-25.9433
G1 X-33.7901 Y-25.9256
G1 X-33.7849 Y-25.9077
G1 X-33.7785 Y-25.8897
G1 X-33.771 Y-25.8725
G1 X-33.7625 Y-25.8558
G1 X-33.753 Y-25.8397
G1 X-33.7421 Y-25.8236
G1 X-33.7306 Y-25.8088
G1 X-33.7185 Y-25.7951
G1 X-33.7049 Y-25.7815
G1 X-33.6912 Y-25.7694
G1 X-33.6764 Y-25.7579
G1 X-33.6603 Y-25.747
G1 X-33.6442 Y-25.7375
G1 X-33.6275 Y-25.729
G1 X-33.6103 Y-25.7215
G1 X-33.5923 Y-25.7151
G1 X-33.5744 Y-25.7099
G1 X-33.5567 Y-25.7059
G1 X-33.5379 Y-25.7029
G1 X-33.5185 Y-25.7011
G1 X-33.5 Y-25.7005
G1 X-33.4815 Y-25.7011
G1 X-33.4621 Y-25.7029
G1 X-33.4433 Y-25.7059
G1 X-33.4256 Y-25.7099
G1 X-33.4077 Y-25.7151
G1 X-33.3897 Y-25.7215
G1 X-33.3725 Y-25.729
G1 X-33.3558 Y-25.7375
G1 X-33.3397 Y-25.747
G1 X-33.3236 Y-25.7579
G1 X-33.3088 Y-25.7694
G1 X-33.2951 Y-25.7815
G1 X-33.2815 Y-25.7951
G1 X-33.2694 Y-25.8088
G1 X-33.2579 Y-25.8236
G1 X-33.247 Y-25.8397
G1 X-33.2375 Y-25.8558
G1 X-33.229 Y-25.8725
G1 X-33.2215 Y-25.8897
G1 X-33.2151 Y-25.9077
G1 X-33.2099 Y-25.9256
G1 X-33.2059 Y-25.9433
G1 X-33.2029 Y-25.9621
G1 X-33.2011 Y-25.9815
G1 X-33.2005 Y-26.0
G1 X-33.2011 Y-26.0185
G1 X-33.2029 Y-26.0379
G1 X-33.2059 Y-26.0567
G1 X-33.2099 Y-26.0744
G1 X-33.2151 Y-26.0923
G1 X-33.2215 Y-26.1103
G1 X-33.229 Y-26.1275
G1 X-33.2375 Y-26.1442
G1 X-33.247 Y-26.1603
G1 X-33.2579 Y-26.1764
G1 X-33.2694 Y-26.1912
G1 X-33.2815 Y-26.2049
G1 X-33.2951 Y-26.2185
G1 X-33.3088 Y-26.2306
G1 X-33.3236 Y-26.2421
G1 X-33.3397 Y-26.253
G1 X-33.3558 Y-26.2625
G1 X-33.3725 Y-26.271
G1 X-33.3897 Y-26.2785
G1 X-33.4077 Y-26.2849
G1 X-33.4256 Y-26.2901
G1 X-33.4433 Y-26.2941
G1 X-33.4621 Y-26.2971
G1 X-33.4815 Y-26.2989
G1 X-33.5 Y-26.2995
G1 X-33.5185 Y-26.2989
G1 X-33.5379 Y-26.2971
G1 X-33.5567 Y-26.2941
G1 X-33.5744 Y-26.2901
G1 X-33.5923 Y-26.2849
G1 X-33.6103 Y-26.2785
G1 X-33.6275 Y-26.271
G1 X-33.6442 Y-26.2625
G1 X-33.6603 Y-26.253
G1 X-33.6764 Y-26.2421
G1 X-33.6912 Y-26.2306
G1 X-33.7049 Y-26.2185
G1 X-33.7185 Y-26.2049
G1 X-33.7306 Y-26.1912
G1 X-33.7421 Y-26.1764
G1 X-33.753 Y-26.1603
G1 X-33.7625 Y-26.1442
G1 X-33.771 Y-26.1275
G1 X-33.7785 Y-26.1103
G1 X-33.7849 Y-26.0923
G1 X-33.7901 Y-26.0744
G1 X-33.7941 Y-26.0567
G1 X-33.7971 Y-26.0379
G1 X-33.7989 Y-26.0185
G1 X-33.7995 Y-26.0
G0 Z3.0
G0 X-6.7995
G0 Z1.0
G1 F150.0 Z0.0
G1 F400.0 X-6.7989 Y-25.9812 Z-0.003
G1 X-6.7971 Y-25.9625 Z-0.006
G1 X-6.7942 Y-25.9438 Z-0.009
G1 X-6.7901 Y-25.9256 Z-0.012
G1 X-6.7848 Y-25.9074 Z-0.015
G1 X-6.7784 Y-25.8897 Z-0.018
G1 X-6.771 Y-25.8725 Z-0.021
G1 X-6.7624 Y-25.8556 Z-0.024
G1 X-6.753 Y-25.8396 Z-0.027
G1 X-6.7423 Y-25.8239 Z-0.03
G1 X-6.7307 Y-25.809 Z-0.033
G1 X-6.7184 Y-25.795 Z-0.036
G1 X-6.7049 Y-25.7815 Z-0.039
G1 X-6.6911 Y-25.7694 Z-0.042
G1 X-6.6763 Y-25.7579 Z-0.045
G1 X-6.6604 Y-25.7471 Z-0.048
G1 X-6.6441 Y-25.7374 Z-0.051
G1 X-6.6276 Y-25.729 Z-0.054
G1 X-6.6102 Y-25.7215 Z-0.057
G1 X-6.5923 Y-25.715 Z-0.0601
G1 X-6.5745 Y-25.7099 Z-0.063
G1 X-6.5567 Y-25.7059 Z-0.0659
G1 X-6.5379 Y-25.7029 Z-0.0689
G1 X-6.5185 Y-25.7011 Z-0.072
G1 X-6.5 Y-25.7005 Z-0.075
G1 X-6.4815 Y-25.7011 Z-0.078
G1 X-6.4621 Y-25.7029 Z-0.0811
G1 X-6.4433 Y-25.7059 Z-0.0841
G1 X-6.4255 Y-25.7099 Z-0.087
G1 X-6.4077 Y-25.715 Z-0.0899
G1 X-6.3898 Y-25.7215 Z-0.093
G1 X-6.3724 Y-25.729 Z-0.096
G1 X-6.356 Y-25.7374 Z-0.099
G1 X-6.3396 Y-25.7471 Z-0.102
G1 X-6.3237 Y-25.7579 Z-0.105
G1 X-6.3089 Y-25.7694 Z-0.108
G1 X-6.2951 Y-25.7815 Z-0.111
G1 X-6.2816 Y-25.795 Z-0.114
G1 X-6.2693 Y-25.809 Z-0.117
G1 X-6.2577 Y-25.8239 Z-0.12
G1 X-6.247 Y-25.8396 Z-0.123
G1 X-6.2376 Y-25.8556 Z-0.126
G1 X-6.229 Y-25.8725 Z-0.129
G1 X-6.2215 Y-25.8897 Z-0.132
G1 X-6.2152 Y-25.9074 Z-0.135
G1 X-6.2099 Y-25.9256 Z-0.138
G1 X-6.2058 Y-25.9438 Z-0.141
G1 X-6.2029 Y-25.9625 Z-0.144
G1 X-6.2011 Y-25.9812 Z-0.147
G1 X-6.2005 Y-26.0 Z-0.15
G1 X-6.2011 Y-26.0188 Z-0.153
G1 X-6.2029 Y-26.0375 Z-0.156
G1 X-6.2058 Y-26.0562 Z-0.159
G1 X-6.2099 Y-26.0744 Z-0.162
G1 X-6.2152 Y-26.0926 Z-0.165
G1 X-6.2215 Y-26.1103 Z-0.168
G1 X-6.229 Y-26.1275 Z-0.171
G1 X-6.2376 Y-26.1444 Z-0.174
G1 X-6.247 Y-26.1604 Z-0.177
G1 X-6.2577 Y-26.1761 Z-0.18
G1 X-6.2693 Y-26.191 Z-0.183
G1 X-6.2816 Y-26.205 Z-0.186
G1 X-6.2951 Y-26.2185 Z-0.189
G1 X-6.3089 Y-26.2306 Z-0.192
G1 X-6.3237 Y-26.2421 Z-0.195
G1 X-6.3396 Y-26.2529 Z-0.198
G1 X-6.356 Y-26.2626 Z-0.201
G1 X-6.3724 Y-26.271 Z-0.204
G1 X-6.3898 Y-26.2785 Z-0.207
G1 X-6.4077 Y-26.285 Z-0.2101
G1 X-6.4255 Y-26.2901 Z-0.213
G1 X-6.4433 Y-26.2941 Z-0.2159
G1 X-6.4621 Y-26.2971 Z-0.2189
G1 X-6.4815 Y-26.2989 Z-0.222
G1 X-6.5 Y-26.2995 Z-0.225
G1 X-6.5185 Y-26.2989 Z-0.228
G1 X-6.5379 Y-26.2971 Z-0.2311
G1 X-6.5567 Y-26.2941 Z-0.2341
G1 X-6.5745 Y-26.2901 Z-0.237
G1 X-6.5923 Y-26.285 Z-0.2399
G1 X-6.6102 Y-26.2785 Z-0.243
G1 X-6.6276 Y-26.271 Z-0.246
G1 X-6.6441 Y-26.2626 Z-0.249
G1 X-6.6604 Y-26.2529 Z-0.252
G1 X-6.6763 Y-26.2421 Z-0.255
G1 X-6.6911 Y-26.2306 Z-0.258
G1 X-6.7049 Y-26.2185 Z-0.261
G1 X-6.7184 Y-26.205 Z-0.264
G1 X-6.7307 Y-26.191 Z-0.267
G1 X-6.7423 Y-26.1761 Z-0.27
G1 X-6.753 Y-26.1604 Z-0.273
G1 X-6.7624 Y-26.1444 Z-0.276
G1 X-6.771 Y-26.1275 Z-0.279
G1 X-6.7784 Y-26.1103 Z-0.282
G1 X-6.7848 Y-26.0926 Z-0.285
G1 X-6.7901 Y-26.0744 Z-0.288
G1 X-6.7942 Y-26.0562 Z-0.291
G1 X-6.7971 Y-26.0375 Z-0.294
G1 X-6.7989 Y-26.0188 Z-0.297
G1 X-6.7995 Y-26.0 Z-0.3
G1 X-6.7989 Y-25.9812 Z-0.303
G1 X-6.7971 Y-25.9625 Z-0.306
G1 X-6.7942 Y-25.9438 Z-0.309
G1 X-6.7901 Y-25.9256 Z-0.312
G1 X-6.7848 Y-25.9074 Z-0.315
G1 X-6.7784 Y-25.8897 Z-0.318
G1 X-6.771 Y-25.8725 Z-0.321
G1 X-6.7624 Y-25.8556 Z-0.324
G1 X-6.753 Y-25.8396 Z-0.327
G1 X-6.7423 Y-25.8239 Z-0.33
G1 X-6.7307 Y-25.809 Z-0.333
G1 X-6.7184 Y-25.795 Z-0.336
G1 X-6.7049 Y-25.7815 Z-0.339
G1 X-6.6911 Y-25.7694 Z-0.342
G1 X-6.6763 Y-25.7579 Z-0.345
G1 X-6.6604 Y-25.7471 Z-0.348
G1 X-6.6441 Y-25.7374 Z-0.351
G1 X-6.6276 Y-25.729 Z-0.354
G1 X-6.6102 Y-25.7215 Z-0.357
G1 X-6.5923 Y-25.715 Z-0.3601
G1 X-6.5745 Y-25.7099 Z-0.363
G1 X-6.5567 Y-25.7059 Z-0.3659
G1 X-6.5379 Y-25.7029 Z-0.3689
G1 X-6.5185 Y-25.7011 Z-0.372
G1 X-6.5 Y-25.7005 Z-0.375
G1 X-6.4815 Y-25.7011 Z-0.378
G1 X-6.4621 Y-25.7029 Z-0.3811
G1 X-6.4433 Y-25.7059 Z-0.3841
G1 X-6.4255 Y-25.7099 Z-0.387
G1 X-6.4077 Y-25.715 Z-0.3899
G1 X-6.3898 Y-25.7215 Z-0.393
G1 X-6.3724 Y-25.729 Z-0.396
G1 X-6.356 Y-25.7374 Z-0.399
G1 X-6.3396 Y-25.7471 Z-0.402
G1 X-6.3237 Y-25.7579 Z-0.405
G1 X-6.3089 Y-25.7694 Z-0.408
G1 X-6.2951 Y-25.7815 Z-0.411
G1 X-6.2816 Y-25.795 Z-0.414
G1 X-6.2693 Y-25.809 Z-0.417
G1 X-6.2577 Y-25.8239 Z-0.42
G1 X-6.247 Y-25.8396 Z-0.423
G1 X-6.2376 Y-25.8556 Z-0.426
G1 X-6.229 Y-25.8725 Z-0.429
G1 X-6.2215 Y-25.8897 Z-0.432
G1 X-6.2152 Y-25.9074 Z-0.435
G1 X-6.2099 Y-25.9256 Z-0.438
G1 X-6.2058 Y-25.9438 Z-0.441
G1 X-6.2029 Y-25.9625 Z-0.444
G1 X-6.2011 Y-25.9812 Z-0.447
G1 X-6.2005 Y-26.0 Z-0.45
G1 X-6.2011 Y-26.0188 Z-0.453
G1 X-6.2029 Y-26.0375 Z-0.456
G1 X-6.2058 Y-26.0562 Z-0.459
G1 X-6.2099 Y-26.0744 Z-0.462
G1 X-6.2152 Y-26.0926 Z-0.465
G1 X-6.2215 Y-26.1103 Z-0.468
G1 X-6.229 Y-26.1275 Z-0.471
G1 X-6.2376 Y-26.1444 Z-0.474
G1 X-6.247 Y-26.1604 Z-0.477
G1 X-6.2577 Y-26.1761 Z-0.48
G1 X-6.2693 Y-26.191 Z-0.483
G1 X-6.2816 Y-26.205 Z-0.486
G1 X-6.2951 Y-26.2185 Z-0.489
G1 X-6.3089 Y-26.2306 Z-0.492
G1 X-6.3237 Y-26.2421 Z-0.495
G1 X-6.3396 Y-26.2529 Z-0.498
G1 X-6.356 Y-26.2626 Z-0.501
G1 X-6.3724 Y-26.271 Z-0.504
G1 X-6.3898 Y-26.2785 Z-0.507
G1 X-6.4077 Y-26.285 Z-0.5101
G1 X-6.4255 Y-26.2901 Z-0.513
G1 X-6.4433 Y-26.2941 Z-0.5159
G1 X-6.4621 Y-26.2971 Z-0.5189
G1 X-6.4815 Y-26.2989 Z-0.522
G1 X-6.5 Y-26.2995 Z-0.525
G1 X-6.5185 Y-26.2989 Z-0.528
G1 X-6.5379 Y-26.2971 Z-0.5311
G1 X-6.5567 Y-26.2941 Z-0.5341
G1 X-6.5745 Y-26.2901 Z-0.537
G1 X-6.5923 Y-26.285 Z-0.5399
G1 X-6.6102 Y-26.2785 Z-0.543
G1 X-6.6276 Y-26.271 Z-0.546
G1 X-6.6441 Y-26.2626 Z-0.549
G1 X-6.6604 Y-26.2529 Z-0.552
G1 X-6.6763 Y-26.2421 Z-0.555
G1 X-6.6911 Y-26.2306 Z-0.558
G1 X-6.7049 Y-26.2185 Z-0.561
G1 X-6.7184 Y-26.205 Z-0.564
G1 X-6.7307 Y-26.191 Z-0.567
G1 X-6.7423 Y-26.1761 Z-0.57
G1 X-6.753 Y-26.1604 Z-0.573
G1 X-6.7624 Y-26.1444 Z-0.576
G1 X-6.771 Y-26.1275 Z-0.579
G1 X-6.7784 Y-26.1103 Z-0.582
G1 X-6.7848 Y-26.0926 Z-0.585
G1 X-6.7901 Y-26.0744 Z-0.588
G1 X-6.7942 Y-26.0562 Z-0.591
G1 X-6.7971 Y-26.0375 Z-0.594
G1 X-6.7989 Y-26.0188 Z-0.597
G1 X-6.7995 Y-26.0 Z-0.6
G1 X-6.7989 Y-25.9812 Z-0.603
G1 X-6.7971 Y-25.9625 Z-0.606
G1 X-6.7942 Y-25.9438 Z-0.609
G1 X-6.7901 Y-25.9256 Z-0.612
G1 X-6.7848 Y-25.9074 Z-0.615
G1 X-6.7784 Y-25.8897 Z-0.618
G1 X-6.771 Y-25.8725 Z-0.621
G1 X-6.7624 Y-25.8556 Z-0.624
G1 X-6.753 Y-25.8396 Z-0.627
G1 X-6.7423 Y-25.8239 Z-0.63
G1 X-6.7307 Y-25.809 Z-0.633
G1 X-6.7184 Y-25.795 Z-0.636
G1 X-6.7049 Y-25.7815 Z-0.639
G1 X-6.6911 Y-25.7694 Z-0.642
G1 X-6.6763 Y-25.7579 Z-0.645
G1 X-6.6604 Y-25.7471 Z-0.648
G1 X-6.6441 Y-25.7374 Z-0.651
G1 X-6.6276 Y-25.729 Z-0.654
G1 X-6.6102 Y-25.7215 Z-0.657
G1 X-6.5923 Y-25.715 Z-0.6601
G1 X-6.5745 Y-25.7099 Z-0.663
G1 X-6.5567 Y-25.7059 Z-0.6659
G1 X-6.5379 Y-25.7029 Z-0.6689
G1 X-6.5185 Y-25.7011 Z-0.672
G1 X-6.5 Y-25.7005 Z-0.675
G1 X-6.4815 Y-25.7011 Z-0.678
G1 X-6.4621 Y-25.7029 Z-0.6811
G1 X-6.4433 Y-25.7059 Z-0.6841
G1 X-6.4255 Y-25.7099 Z-0.687
G1 X-6.4077 Y-25.715 Z-0.6899
G1 X-6.3898 Y-25.7215 Z-0.693
G1 X-6.3724 Y-25.729 Z-0.696
G1 X-6.356 Y-25.7374 Z-0.699
G1 X-6.3396 Y-25.7471 Z-0.702
G1 X-6.3237 Y-25.7579 Z-0.705
G1 X-6.3089 Y-25.7694 Z-0.708
G1 X-6.2951 Y-25.7815 Z-0.711
G1 X-6.2816 Y-25.795 Z-0.714
G1 X-6.2693 Y-25.809 Z-0.717
G1 X-6.2577 Y-25.8239 Z-0.72
G1 X-6.247 Y-25.8396 Z-0.723
G1 X-6.2376 Y-25.8556 Z-0.726
G1 X-6.229 Y-25.8725 Z-0.729
G1 X-6.2215 Y-25.8897 Z-0.732
G1 X-6.2152 Y-25.9074 Z-0.735
G1 X-6.2099 Y-25.9256 Z-0.738
G1 X-6.2058 Y-25.9438 Z-0.741
G1 X-6.2029 Y-25.9625 Z-0.744
G1 X-6.2011 Y-25.9812 Z-0.747
G1 X-6.2005 Y-26.0 Z-0.75
G1 X-6.2011 Y-26.0188 Z-0.753
G1 X-6.2029 Y-26.0375 Z-0.756
G1 X-6.2058 Y-26.0562 Z-0.759
G1 X-6.2099 Y-26.0744 Z-0.762
G1 X-6.2152 Y-26.0926 Z-0.765
G1 X-6.2215 Y-26.1103 Z-0.768
G1 X-6.229 Y-26.1275 Z-0.771
G1 X-6.2376 Y-26.1444 Z-0.774
G1 X-6.247 Y-26.1604 Z-0.777
G1 X-6.2577 Y-26.1761 Z-0.78
G1 X-6.2693 Y-26.191 Z-0.783
G1 X-6.2816 Y-26.205 Z-0.786
G1 X-6.2951 Y-26.2185 Z-0.789
G1 X-6.3089 Y-26.2306 Z-0.792
G1 X-6.3237 Y-26.2421 Z-0.795
G1 X-6.3396 Y-26.2529 Z-0.798
G1 X-6.356 Y-26.2626 Z-0.801
G1 X-6.3724 Y-26.271 Z-0.804
G1 X-6.3898 Y-26.2785 Z-0.807
G1 X-6.4077 Y-26.285 Z-0.8101
G1 X-6.4255 Y-26.2901 Z-0.813
G1 X-6.4433 Y-26.2941 Z-0.8159
G1 X-6.4621 Y-26.2971 Z-0.8189
G1 X-6.4815 Y-26.2989 Z-0.822
G1 X-6.5 Y-26.2995 Z-0.825
G1 X-6.5185 Y-26.2989 Z-0.828
G1 X-6.5379 Y-26.2971 Z-0.8311
G1 X-6.5567 Y-26.2941 Z-0.8341
G1 X-6.5745 Y-26.2901 Z-0.837
G1 X-6.5923 Y-26.285 Z-0.8399
G1 X-6.6102 Y-26.2785 Z-0.843
G1 X-6.6276 Y-26.271 Z-0.846
G1 X-6.6441 Y-26.2626 Z-0.849
G1 X-6.6604 Y-26.2529 Z-0.852
G1 X-6.6763 Y-26.2421 Z-0.855
G1 X-6.6911 Y-26.2306 Z-0.858
G1 X-6.7049 Y-26.2185 Z-0.861
G1 X-6.7184 Y-26.205 Z-0.864
G1 X-6.7307 Y-26.191 Z-0.867
G1 X-6.7423 Y-26.1761 Z-0.87
G1 X-6.753 Y-26.1604 Z-0.873
G1 X-6.7624 Y-26.1444 Z-0.876
G1 X-6.771 Y-26.1275 Z-0.879
G1 X-6.7784 Y-26.1103 Z-0.882
G1 X-6.7848 Y-26.0926 Z-0.885
G1 X-6.7901 Y-26.0744 Z-0.888
G1 X-6.7942 Y-26.0562 Z-0.891
G1 X-6.7971 Y-26.0375 Z-0.894
G1 X-6.7989 Y-26.0188 Z-0.897
G1 X-6.7995 Y-26.0 Z-0.9
G1 X-6.7989 Y-25.9812 Z-0.903
G1 X-6.7971 Y-25.9625 Z-0.906
G1 X-6.7942 Y-25.9438 Z-0.909
G1 X-6.7901 Y-25.9256 Z-0.912
G1 X-6.7848 Y-25.9074 Z-0.915
G1 X-6.7784 Y-25.8897 Z-0.918
G1 X-6.771 Y-25.8725 Z-0.921
G1 X-6.7624 Y-25.8556 Z-0.924
G1 X-6.753 Y-25.8396 Z-0.927
G1 X-6.7423 Y-25.8239 Z-0.93
G1 X-6.7307 Y-25.809 Z-0.933
G1 X-6.7184 Y-25.795 Z-0.936
G1 X-6.7049 Y-25.7815 Z-0.939
G1 X-6.6911 Y-25.7694 Z-0.942
G1 X-6.6763 Y-25.7579 Z-0.945
G1 X-6.6604 Y-25.7471 Z-0.948
G1 X-6.6441 Y-25.7374 Z-0.951
G1 X-6.6276 Y-25.729 Z-0.954
G1 X-6.6102 Y-25.7215 Z-0.957
G1 X-6.5923 Y-25.715 Z-0.9601
G1 X-6.5745 Y-25.7099 Z-0.963
G1 X-6.5567 Y-25.7059 Z-0.9659
G1 X-6.5379 Y-25.7029 Z-0.9689
G1 X-6.5185 Y-25.7011 Z-0.972
G1 X-6.5 Y-25.7005 Z-0.975
G1 X-6.4815 Y-25.7011 Z-0.978
G1 X-6.4621 Y-25.7029 Z-0.9811
G1 X-6.4433 Y-25.7059 Z-0.9841
G1 X-6.4255 Y-25.7099 Z-0.987
G1 X-6.4077 Y-25.715 Z-0.9899
G1 X-6.3898 Y-25.7215 Z-0.993
G1 X-6.3724 Y-25.729 Z-0.996
G1 X-6.356 Y-25.7374 Z-0.999
G1 X-6.3396 Y-25.7471 Z-1.002
G1 X-6.3237 Y-25.7579 Z-1.005
G1 X-6.3089 Y-25.7694 Z-1.008
G1 X-6.2951 Y-25.7815 Z-1.011
G1 X-6.2816 Y-25.795 Z-1.014
G1 X-6.2693 Y-25.809 Z-1.017
G1 X-6.2577 Y-25.8239 Z-1.02
G1 X-6.247 Y-25.8396 Z-1.023
G1 X-6.2376 Y-25.8556 Z-1.026
G1 X-6.229 Y-25.8725 Z-1.029
G1 X-6.2215 Y-25.8897 Z-1.032
G1 X-6.2152 Y-25.9074 Z-1.035
G1 X-6.2099 Y-25.9256 Z-1.038
G1 X-6.2058 Y-25.9438 Z-1.041
G1 X-6.2029 Y-25.9625 Z-1.044
G1 X-6.2011 Y-25.9812 Z-1.047
G1 X-6.2005 Y-26.0 Z-1.05
G1 X-6.2011 Y-26.0188 Z-1.053
G1 X-6.2029 Y-26.0375 Z-1.056
G1 X-6.2058 Y-26.0562 Z-1.059
G1 X-6.2099 Y-26.0744 Z-1.062
G1 X-6.2152 Y-26.0926 Z-1.065
G1 X-6.2215 Y-26.1103 Z-1.068
G1 X-6.229 Y-26.1275 Z-1.071
G1 X-6.2376 Y-26.1444 Z-1.074
G1 X-6.247 Y-26.1604 Z-1.077
G1 X-6.2577 Y-26.1761 Z-1.08
G1 X-6.2693 Y-26.191 Z-1.083
G1 X-6.2816 Y-26.205 Z-1.086
G1 X-6.2951 Y-26.2185 Z-1.089
G1 X-6.3089 Y-26.2306 Z-1.092
G1 X-6.3237 Y-26.2421 Z-1.095
G1 X-6.3396 Y-26.2529 Z-1.098
G1 X-6.356 Y-26.2626 Z-1.101
G1 X-6.3724 Y-26.271 Z-1.104
G1 X-6.3898 Y-26.2785 Z-1.107
G1 X-6.4077 Y-26.285 Z-1.1101
G1 X-6.4255 Y-26.2901 Z-1.113
G1 X-6.4433 Y-26.2941 Z-1.1159
G1 X-6.4621 Y-26.2971 Z-1.1189
G1 X-6.4815 Y-26.2989 Z-1.122
G1 X-6.5 Y-26.2995 Z-1.125
G1 X-6.5185 Y-26.2989 Z-1.128
G1 X-6.5379 Y-26.2971 Z-1.1311
G1 X-6.5567 Y-26.2941 Z-1.1341
G1 X-6.5745 Y-26.2901 Z-1.137
G1 X-6.5923 Y-26.285 Z-1.1399
G1 X-6.6102 Y-26.2785 Z-1.143
G1 X-6.6276 Y-26.271 Z-1.146
G1 X-6.6441 Y-26.2626 Z-1.149
G1 X-6.6604 Y-26.2529 Z-1.152
G1 X-6.6763 Y-26.2421 Z-1.155
G1 X-6.6911 Y-26.2306 Z-1.158
G1 X-6.7049 Y-26.2185 Z-1.161
G1 X-6.7184 Y-26.205 Z-1.164
G1 X-6.7307 Y-26.191 Z-1.167
G1 X-6.7423 Y-26.1761 Z-1.17
G1 X-6.753 Y-26.1604 Z-1.173
G1 X-6.7624 Y-26.1444 Z-1.176
G1 X-6.771 Y-26.1275 Z-1.179
G1 X-6.7784 Y-26.1103 Z-1.182
G1 X-6.7848 Y-26.0926 Z-1.185
G1 X-6.7901 Y-26.0744 Z-1.188
G1 X-6.7942 Y-26.0562 Z-1.191
G1 X-6.7971 Y-26.0375 Z-1.194
G1 X-6.7989 Y-26.0188 Z-1.197
G1 X-6.7995 Y-26.0 Z-1.2
G1 X-6.7989 Y-25.9812 Z-1.203
G1 X-6.7971 Y-25.9625 Z-1.206
G1 X-6.7942 Y-25.9438 Z-1.209
G1 X-6.7901 Y-25.9256 Z-1.212
G1 X-6.7848 Y-25.9074 Z-1.215
G1 X-6.7784 Y-25.8897 Z-1.218
G1 X-6.771 Y-25.8725 Z-1.221
G1 X-6.7624 Y-25.8556 Z-1.224
G1 X-6.753 Y-25.8396 Z-1.227
G1 X-6.7423 Y-25.8239 Z-1.23
G1 X-6.7307 Y-25.809 Z-1.233
G1 X-6.7184 Y-25.795 Z-1.236
G1 X-6.7049 Y-25.7815 Z-1.239
G1 X-6.6911 Y-25.7694 Z-1.242
G1 X-6.6763 Y-25.7579 Z-1.245
G1 X-6.6604 Y-25.7471 Z-1.248
G1 X-6.6441 Y-25.7374 Z-1.251
G1 X-6.6276 Y-25.729 Z-1.254
G1 X-6.6102 Y-25.7215 Z-1.257
G1 X-6.5923 Y-25.715 Z-1.2601
G1 X-6.5745 Y-25.7099 Z-1.263
G1 X-6.5567 Y-25.7059 Z-1.2659
G1 X-6.5379 Y-25.7029 Z-1.2689
G1 X-6.5185 Y-25.7011 Z-1.272
G1 X-6.5 Y-25.7005 Z-1.275
G1 X-6.4815 Y-25.7011 Z-1.278
G1 X-6.4621 Y-25.7029 Z-1.2811
G1 X-6.4433 Y-25.7059 Z-1.2841
G1 X-6.4255 Y-25.7099 Z-1.287
G1 X-6.4077 Y-25.715 Z-1.2899
G1 X-6.3898 Y-25.7215 Z-1.293
G1 X-6.3724 Y-25.729 Z-1.296
G1 X-6.356 Y-25.7374 Z-1.299
G1 X-6.3396 Y-25.7471 Z-1.302
G1 X-6.3237 Y-25.7579 Z-1.305
G1 X-6.3089 Y-25.7694 Z-1.308
G1 X-6.2951 Y-25.7815 Z-1.311
G1 X-6.2816 Y-25.795 Z-1.314
G1 X-6.2693 Y-25.809 Z-1.317
G1 X-6.2577 Y-25.8239 Z-1.32
G1 X-6.247 Y-25.8396 Z-1.323
G1 X-6.2376 Y-25.8556 Z-1.326
G1 X-6.229 Y-25.8725 Z-1.329
G1 X-6.2215 Y-25.8897 Z-1.332
G1 X-6.2152 Y-25.9074 Z-1.335
G1 X-6.2099 Y-25.9256 Z-1.338
G1 X-6.2058 Y-25.9438 Z-1.341
G1 X-6.2029 Y-25.9625 Z-1.344
G1 X-6.2011 Y-25.9812 Z-1.347
G1 X-6.2005 Y-26.0 Z-1.35
G1 X-6.2011 Y-26.0188 Z-1.353
G1 X-6.2029 Y-26.0375 Z-1.356
G1 X-6.2058 Y-26.0562 Z-1.359
G1 X-6.2099 Y-26.0744 Z-1.362
G1 X-6.2152 Y-26.0926 Z-1.365
G1 X-6.2215 Y-26.1103 Z-1.368
G1 X-6.229 Y-26.1275 Z-1.371
G1 X-6.2376 Y-26.1444 Z-1.374
G1 X-6.247 Y-26.1604 Z-1.377
G1 X-6.2577 Y-26.1761 Z-1.38
G1 X-6.2693 Y-26.191 Z-1.383
G1 X-6.2816 Y-26.205 Z-1.386
G1 X-6.2951 Y-26.2185 Z-1.389
G1 X-6.3089 Y-26.2306 Z-1.392
G1 X-6.3237 Y-26.2421 Z-1.395
G1 X-6.3396 Y-26.2529 Z-1.398
G1 X-6.356 Y-26.2626 Z-1.401
G1 X-6.3724 Y-26.271 Z-1.404
G1 X-6.3898 Y-26.2785 Z-1.407
G1 X-6.4077 Y-26.285 Z-1.4101
G1 X-6.4255 Y-26.2901 Z-1.413
G1 X-6.4433 Y-26.2941 Z-1.4159
G1 X-6.4621 Y-26.2971 Z-1.4189
G1 X-6.4815 Y-26.2989 Z-1.422
G1 X-6.5 Y-26.2995 Z-1.425
G1 X-6.5185 Y-26.2989 Z-1.428
G1 X-6.5379 Y-26.2971 Z-1.4311
G1 X-6.5567 Y-26.2941 Z-1.4341
G1 X-6.5745 Y-26.2901 Z-1.437
G1 X-6.5923 Y-26.285 Z-1.4399
G1 X-6.6102 Y-26.2785 Z-1.443
G1 X-6.6276 Y-26.271 Z-1.446
G1 X-6.6441 Y-26.2626 Z-1.449
G1 X-6.6604 Y-26.2529 Z-1.452
G1 X-6.6763 Y-26.2421 Z-1.455
G1 X-6.6911 Y-26.2306 Z-1.458
G1 X-6.7049 Y-26.2185 Z-1.461
G1 X-6.7184 Y-26.205 Z-1.464
G1 X-6.7307 Y-26.191 Z-1.467
G1 X-6.7423 Y-26.1761 Z-1.47
G1 X-6.753 Y-26.1604 Z-1.473
G1 X-6.7624 Y-26.1444 Z-1.476
G1 X-6.771 Y-26.1275 Z-1.479
G1 X-6.7784 Y-26.1103 Z-1.482
G1 X-6.7848 Y-26.0926 Z-1.485
G1 X-6.7901 Y-26.0744 Z-1.488
G1 X-6.7942 Y-26.0562 Z-1.491
G1 X-6.7971 Y-26.0375 Z-1.494
G1 X-6.7989 Y-26.0188 Z-1.497
G1 X-6.7995 Y-26.0 Z-1.5
G1 X-6.7989 Y-25.9812 Z-1.503
G1 X-6.7971 Y-25.9625 Z-1.506
G1 X-6.7942 Y-25.9438 Z-1.509
G1 X-6.7901 Y-25.9256 Z-1.512
G1 X-6.7848 Y-25.9074 Z-1.515
G1 X-6.7784 Y-25.8897 Z-1.518
G1 X-6.771 Y-25.8725 Z-1.521
G1 X-6.7624 Y-25.8556 Z-1.524
G1 X-6.753 Y-25.8396 Z-1.527
G1 X-6.7423 Y-25.8239 Z-1.53
G1 X-6.7307 Y-25.809 Z-1.533
G1 X-6.7184 Y-25.795 Z-1.536
G1 X-6.7049 Y-25.7815 Z-1.539
G1 X-6.6911 Y-25.7694 Z-1.542
G1 X-6.6763 Y-25.7579 Z-1.545
G1 X-6.6604 Y-25.7471 Z-1.548
G1 X-6.6441 Y-25.7374 Z-1.551
G1 X-6.6276 Y-25.729 Z-1.554
G1 X-6.6102 Y-25.7215 Z-1.557
G1 X-6.5923 Y-25.715 Z-1.5601
G1 X-6.5745 Y-25.7099 Z-1.563
G1 X-6.5567 Y-25.7059 Z-1.5659
G1 X-6.5379 Y-25.7029 Z-1.5689
G1 X-6.5185 Y-25.7011 Z-1.572
G1 X-6.5 Y-25.7005 Z-1.575
G1 X-6.4815 Y-25.7011 Z-1.578
G1 X-6.4621 Y-25.7029 Z-1.5811
G1 X-6.4433 Y-25.7059 Z-1.5841
G1 X-6.4255 Y-25.7099 Z-1.587
G1 X-6.4077 Y-25.715 Z-1.5899
G1 X-6.3898 Y-25.7215 Z-1.593
G1 X-6.3724 Y-25.729 Z-1.596
G1 X-6.356 Y-25.7374 Z-1.599
G1 X-6.3396 Y-25.7471 Z-1.602
G1 X-6.3237 Y-25.7579 Z-1.605
G1 X-6.3089 Y-25.7694 Z-1.608
G1 X-6.2951 Y-25.7815 Z-1.611
G1 X-6.2816 Y-25.795 Z-1.614
G1 X-6.2693 Y-25.809 Z-1.617
G1 X-6.2577 Y-25.8239 Z-1.62
G1 X-6.247 Y-25.8396 Z-1.623
G1 X-6.2376 Y-25.8556 Z-1.626
G1 X-6.229 Y-25.8725 Z-1.629
G1 X-6.2215 Y-25.8897 Z-1.632
G1 X-6.2152 Y-25.9074 Z-1.635
G1 X-6.2099 Y-25.9256 Z-1.638
G1 X-6.2058 Y-25.9438 Z-1.641
G1 X-6.2029 Y-25.9625 Z-1.644
G1 X-6.2011 Y-25.9812 Z-1.647
G1 X-6.2005 Y-26.0 Z-1.65
G1 X-6.2011 Y-26.0188 Z-1.653
G1 X-6.2029 Y-26.0375 Z-1.656
G1 X-6.2058 Y-26.0562 Z-1.659
G1 X-6.2099 Y-26.0744 Z-1.662
G1 X-6.2152 Y-26.0926 Z-1.665
G1 X-6.2215 Y-26.1103 Z-1.668
G1 X-6.229 Y-26.1275 Z-1.671
G1 X-6.2376 Y-26.1444 Z-1.674
G1 X-6.247 Y-26.1604 Z-1.677
G1 X-6.2577 Y-26.1761 Z-1.68
G1 X-6.2693 Y-26.191 Z-1.683
G1 X-6.2816 Y-26.205 Z-1.686
G1 X-6.2951 Y-26.2185 Z-1.689
G1 X-6.3089 Y-26.2306 Z-1.692
G1 X-6.3237 Y-26.2421 Z-1.695
G1 X-6.3396 Y-26.2529 Z-1.698
G1 X-6.356 Y-26.2626 Z-1.701
G1 X-6.3724 Y-26.271 Z-1.704
G1 X-6.3898 Y-26.2785 Z-1.707
G1 X-6.4077 Y-26.285 Z-1.7101
G1 X-6.4255 Y-26.2901 Z-1.713
G1 X-6.4433 Y-26.2941 Z-1.7159
G1 X-6.4621 Y-26.2971 Z-1.7189
G1 X-6.4815 Y-26.2989 Z-1.722
G1 X-6.5 Y-26.2995 Z-1.725
G1 X-6.5185 Y-26.2989 Z-1.728
G1 X-6.5379 Y-26.2971 Z-1.7311
G1 X-6.5567 Y-26.2941 Z-1.7341
G1 X-6.5745 Y-26.2901 Z-1.737
G1 X-6.5923 Y-26.285 Z-1.7399
G1 X-6.6102 Y-26.2785 Z-1.743
G1 X-6.6276 Y-26.271 Z-1.746
G1 X-6.6441 Y-26.2626 Z-1.749
G1 X-6.6604 Y-26.2529 Z-1.752
G1 X-6.6763 Y-26.2421 Z-1.755
G1 X-6.6911 Y-26.2306 Z-1.758
G1 X-6.7049 Y-26.2185 Z-1.761
G1 X-6.7184 Y-26.205 Z-1.764
G1 X-6.7307 Y-26.191 Z-1.767
G1 X-6.7423 Y-26.1761 Z-1.77
G1 X-6.753 Y-26.1604 Z-1.773
G1 X-6.7624 Y-26.1444 Z-1.776
G1 X-6.771 Y-26.1275 Z-1.779
G1 X-6.7784 Y-26.1103 Z-1.782
G1 X-6.7848 Y-26.0926 Z-1.785
G1 X-6.7901 Y-26.0744 Z-1.788
G1 X-6.7942 Y-26.0562 Z-1.791
G1 X-6.7971 Y-26.0375 Z-1.794
G1 X-6.7989 Y-26.0188 Z-1.797
G1 X-6.7995 Y-26.0 Z-1.8
G1 X-6.7989 Y-25.9812 Z-1.803
G1 X-6.7971 Y-25.9625 Z-1.806
G1 X-6.7942 Y-25.9438 Z-1.809
G1 X-6.7901 Y-25.9256 Z-1.812
G1 X-6.7848 Y-25.9074 Z-1.815
G1 X-6.7784 Y-25.8897 Z-1.818
G1 X-6.771 Y-25.8725 Z-1.821
G1 X-6.7624 Y-25.8556 Z-1.824
G1 X-6.753 Y-25.8396 Z-1.827
G1 X-6.7423 Y-25.8239 Z-1.83
G1 X-6.7307 Y-25.809 Z-1.833
G1 X-6.7184 Y-25.795 Z-1.836
G1 X-6.7049 Y-25.7815 Z-1.839
G1 X-6.6911 Y-25.7694 Z-1.842
G1 X-6.6763 Y-25.7579 Z-1.845
G1 X-6.6604 Y-25.7471 Z-1.848
G1 X-6.6441 Y-25.7374 Z-1.851
G1 X-6.6276 Y-25.729 Z-1.854
G1 X-6.6102 Y-25.7215 Z-1.857
G1 X-6.5923 Y-25.715 Z-1.8601
G1 X-6.5745 Y-25.7099 Z-1.863
G1 X-6.5567 Y-25.7059 Z-1.8659
G1 X-6.5379 Y-25.7029 Z-1.8689
G1 X-6.5185 Y-25.7011 Z-1.872
G1 X-6.5 Y-25.7005 Z-1.875
G1 X-6.4815 Y-25.7011 Z-1.878
G1 X-6.4621 Y-25.7029 Z-1.8811
G1 X-6.4433 Y-25.7059 Z-1.8841
G1 X-6.4255 Y-25.7099 Z-1.887
G1 X-6.4077 Y-25.715 Z-1.8899
G1 X-6.3898 Y-25.7215 Z-1.893
G1 X-6.3724 Y-25.729 Z-1.896
G1 X-6.356 Y-25.7374 Z-1.899
G1 X-6.3396 Y-25.7471 Z-1.902
G1 X-6.3237 Y-25.7579 Z-1.905
G1 X-6.3089 Y-25.7694 Z-1.908
G1 X-6.2951 Y-25.7815 Z-1.911
G1 X-6.2816 Y-25.795 Z-1.914
G1 X-6.2693 Y-25.809 Z-1.917
G1 X-6.2577 Y-25.8239 Z-1.92
G1 X-6.247 Y-25.8396 Z-1.923
G1 X-6.2376 Y-25.8556 Z-1.926
G1 X-6.229 Y-25.8725 Z-1.929
G1 X-6.2215 Y-25.8897 Z-1.932
G1 X-6.2152 Y-25.9074 Z-1.935
G1 X-6.2099 Y-25.9256 Z-1.938
G1 X-6.2058 Y-25.9438 Z-1.941
G1 X-6.2029 Y-25.9625 Z-1.944
G1 X-6.2011 Y-25.9812 Z-1.947
G1 X-6.2005 Y-26.0 Z-1.95
G1 X-6.2011 Y-26.0188 Z-1.953
G1 X-6.2029 Y-26.0375 Z-1.956
G1 X-6.2058 Y-26.0562 Z-1.959
G1 X-6.2099 Y-26.0744 Z-1.962
G1 X-6.2152 Y-26.0926 Z-1.965
G1 X-6.2215 Y-26.1103 Z-1.968
G1 X-6.229 Y-26.1275 Z-1.971
G1 X-6.2376 Y-26.1444 Z-1.974
G1 X-6.247 Y-26.1604 Z-1.977
G1 X-6.2577 Y-26.1761 Z-1.98
G1 X-6.2693 Y-26.191 Z-1.983
G1 X-6.2816 Y-26.205 Z-1.986
G1 X-6.2951 Y-26.2185 Z-1.989
G1 X-6.3089 Y-26.2306 Z-1.992
G1 X-6.3237 Y-26.2421 Z-1.995
G1 X-6.3396 Y-26.2529 Z-1.998
G1 X-6.356 Y-26.2626 Z-2.001
G1 X-6.3724 Y-26.271 Z-2.004
G1 X-6.3898 Y-26.2785 Z-2.007
G1 X-6.4077 Y-26.285 Z-2.0101
G1 X-6.4255 Y-26.2901 Z-2.013
G1 X-6.4433 Y-26.2941 Z-2.0159
G1 X-6.4621 Y-26.2971 Z-2.0189
G1 X-6.4815 Y-26.2989 Z-2.022
G1 X-6.5 Y-26.2995 Z-2.025
G1 X-6.5185 Y-26.2989 Z-2.028
G1 X-6.5379 Y-26.2971 Z-2.0311
G1 X-6.5567 Y-26.2941 Z-2.0341
G1 X-6.5745 Y-26.2901 Z-2.037
G1 X-6.5923 Y-26.285 Z-2.0399
G1 X-6.6102 Y-26.2785 Z-2.043
G1 X-6.6276 Y-26.271 Z-2.046
G1 X-6.6441 Y-26.2626 Z-2.049
G1 X-6.6604 Y-26.2529 Z-2.052
G1 X-6.6763 Y-26.2421 Z-2.055
G1 X-6.6911 Y-26.2306 Z-2.058
G1 X-6.7049 Y-26.2185 Z-2.061
G1 X-6.7184 Y-26.205 Z-2.064
G1 X-6.7307 Y-26.191 Z-2.067
G1 X-6.7423 Y-26.1761 Z-2.07
G1 X-6.753 Y-26.1604 Z-2.073
G1 X-6.7624 Y-26.1444 Z-2.076
G1 X-6.771 Y-26.1275 Z-2.079
G1 X-6.7784 Y-26.1103 Z-2.082
G1 X-6.7848 Y-26.0926 Z-2.085
G1 X-6.7901 Y-26.0744 Z-2.088
G1 X-6.7942 Y-26.0562 Z-2.091
G1 X-6.7971 Y-26.0375 Z-2.094
G1 X-6.7989 Y-26.0188 Z-2.097
G1 X-6.7995 Y-26.0 Z-2.1
G1 X-6.7989 Y-25.9812 Z-2.103
G1 X-6.7971 Y-25.9625 Z-2.106
G1 X-6.7942 Y-25.9438 Z-2.109
G1 X-6.7901 Y-25.9256 Z-2.112
G1 X-6.7848 Y-25.9074 Z-2.115
G1 X-6.7784 Y-25.8897 Z-2.118
G1 X-6.771 Y-25.8725 Z-2.121
G1 X-6.7624 Y-25.8556 Z-2.124
G1 X-6.753 Y-25.8396 Z-2.127
G1 X-6.7423 Y-25.8239 Z-2.13
G1 X-6.7307 Y-25.809 Z-2.133
G1 X-6.7184 Y-25.795 Z-2.136
G1 X-6.7049 Y-25.7815 Z-2.139
G1 X-6.6911 Y-25.7694 Z-2.142
G1 X-6.6763 Y-25.7579 Z-2.145
G1 X-6.6604 Y-25.7471 Z-2.148
G1 X-6.6441 Y-25.7374 Z-2.151
G1 X-6.6276 Y-25.729 Z-2.154
G1 X-6.6102 Y-25.7215 Z-2.157
G1 X-6.5923 Y-25.715 Z-2.1601
G1 X-6.5745 Y-25.7099 Z-2.163
G1 X-6.5567 Y-25.7059 Z-2.1659
G1 X-6.5379 Y-25.7029 Z-2.1689
G1 X-6.5185 Y-25.7011 Z-2.172
G1 X-6.5 Y-25.7005 Z-2.175
G1 X-6.4815 Y-25.7011 Z-2.178
G1 X-6.4621 Y-25.7029 Z-2.1811
G1 X-6.4433 Y-25.7059 Z-2.1841
G1 X-6.4255 Y-25.7099 Z-2.187
G1 X-6.4077 Y-25.715 Z-2.1899
G1 X-6.3898 Y-25.7215 Z-2.193
G1 X-6.3724 Y-25.729 Z-2.196
G1 X-6.356 Y-25.7374 Z-2.199
G1 X-6.3396 Y-25.7471 Z-2.202
G1 X-6.3237 Y-25.7579 Z-2.205
G1 X-6.3089 Y-25.7694 Z-2.208
G1 X-6.2951 Y-25.7815 Z-2.211
G1 X-6.2816 Y-25.795 Z-2.214
G1 X-6.2693 Y-25.809 Z-2.217
G1 X-6.2577 Y-25.8239 Z-2.22
G1 X-6.247 Y-25.8396 Z-2.223
G1 X-6.2376 Y-25.8556 Z-2.226
G1 X-6.229 Y-25.8725 Z-2.229
G1 X-6.2215 Y-25.8897 Z-2.232
G1 X-6.2152 Y-25.9074 Z-2.235
G1 X-6.2099 Y-25.9256 Z-2.238
G1 X-6.2058 Y-25.9438 Z-2.241
G1 X-6.2029 Y-25.9625 Z-2.244
G1 X-6.2011 Y-25.9812 Z-2.247
G1 X-6.2005 Y-26.0 Z-2.25
G1 X-6.2011 Y-26.0188 Z-2.253
G1 X-6.2029 Y-26.0375 Z-2.256
G1 X-6.2058 Y-26.0562 Z-2.259
G1 X-6.2099 Y-26.0744 Z-2.262
G1 X-6.2152 Y-26.0926 Z-2.265
G1 X-6.2215 Y-26.1103 Z-2.268
G1 X-6.229 Y-26.1275 Z-2.271
G1 X-6.2376 Y-26.1444 Z-2.274
G1 X-6.247 Y-26.1604 Z-2.277
G1 X-6.2577 Y-26.1761 Z-2.28
G1 X-6.2693 Y-26.191 Z-2.283
G1 X-6.2816 Y-26.205 Z-2.286
G1 X-6.2951 Y-26.2185 Z-2.289
G1 X-6.3089 Y-26.2306 Z-2.292
G1 X-6.3237 Y-26.2421 Z-2.295
G1 X-6.3396 Y-26.2529 Z-2.298
G1 X-6.356 Y-26.2626 Z-2.301
G1 X-6.3724 Y-26.271 Z-2.304
G1 X-6.3898 Y-26.2785 Z-2.307
G1 X-6.4077 Y-26.285 Z-2.3101
G1 X-6.4255 Y-26.2901 Z-2.313
G1 X-6.4433 Y-26.2941 Z-2.3159
G1 X-6.4621 Y-26.2971 Z-2.3189
G1 X-6.4815 Y-26.2989 Z-2.322
G1 X-6.5 Y-26.2995 Z-2.325
G1 X-6.5185 Y-26.2989 Z-2.328
G1 X-6.5379 Y-26.2971 Z-2.3311
G1 X-6.5567 Y-26.2941 Z-2.3341
G1 X-6.5745 Y-26.2901 Z-2.337
G1 X-6.5923 Y-26.285 Z-2.3399
G1 X-6.6102 Y-26.2785 Z-2.343
G1 X-6.6276 Y-26.271 Z-2.346
G1 X-6.6441 Y-26.2626 Z-2.349
G1 X-6.6604 Y-26.2529 Z-2.352
G1 X-6.6763 Y-26.2421 Z-2.355
G1 X-6.6911 Y-26.2306 Z-2.358
G1 X-6.7049 Y-26.2185 Z-2.361
G1 X-6.7184 Y-26.205 Z-2.364
G1 X-6.7307 Y-26.191 Z-2.367
G1 X-6.7423 Y-26.1761 Z-2.37
G1 X-6.753 Y-26.1604 Z-2.373
G1 X-6.7624 Y-26.1444 Z-2.376
G1 X-6.771 Y-26.1275 Z-2.379
G1 X-6.7784 Y-26.1103 Z-2.382
G1 X-6.7848 Y-26.0926 Z-2.385
G1 X-6.7901 Y-26.0744 Z-2.388
G1 X-6.7942 Y-26.0562 Z-2.391
G1 X-6.7971 Y-26.0375 Z-2.394
G1 X-6.7989 Y-26.0188 Z-2.397
G1 X-6.7995 Y-26.0 Z-2.4
G1 X-6.7989 Y-25.9812 Z-2.403
G1 X-6.7971 Y-25.9625 Z-2.406
G1 X-6.7942 Y-25.9438 Z-2.409
G1 X-6.7901 Y-25.9256 Z-2.412
G1 X-6.7848 Y-25.9074 Z-2.415
G1 X-6.7784 Y-25.8897 Z-2.418
G1 X-6.771 Y-25.8725 Z-2.421
G1 X-6.7624 Y-25.8556 Z-2.424
G1 X-6.753 Y-25.8396 Z-2.427
G1 X-6.7423 Y-25.8239 Z-2.43
G1 X-6.7307 Y-25.809 Z-2.433
G1 X-6.7184 Y-25.795 Z-2.436
G1 X-6.7049 Y-25.7815 Z-2.439
G1 X-6.6911 Y-25.7694 Z-2.442
G1 X-6.6763 Y-25.7579 Z-2.445
G1 X-6.6604 Y-25.7471 Z-2.448
G1 X-6.6441 Y-25.7374 Z-2.451
G1 X-6.6276 Y-25.729 Z-2.454
G1 X-6.6102 Y-25.7215 Z-2.457
G1 X-6.5923 Y-25.715 Z-2.4601
G1 X-6.5745 Y-25.7099 Z-2.463
G1 X-6.5567 Y-25.7059 Z-2.4659
G1 X-6.5379 Y-25.7029 Z-2.4689
G1 X-6.5185 Y-25.7011 Z-2.472
G1 X-6.5 Y-25.7005 Z-2.475
G1 X-6.4815 Y-25.7011 Z-2.478
G1 X-6.4621 Y-25.7029 Z-2.4811
G1 X-6.4433 Y-25.7059 Z-2.4841
G1 X-6.4255 Y-25.7099 Z-2.487
G1 X-6.4077 Y-25.715 Z-2.4899
G1 X-6.3898 Y-25.7215 Z-2.493
G1 X-6.3724 Y-25.729 Z-2.496
G1 X-6.356 Y-25.7374 Z-2.499
G1 X-6.3396 Y-25.7471 Z-2.502
G1 X-6.3237 Y-25.7579 Z-2.505
G1 X-6.3089 Y-25.7694 Z-2.508
G1 X-6.2951 Y-25.7815 Z-2.511
G1 X-6.2816 Y-25.795 Z-2.514
G1 X-6.2693 Y-25.809 Z-2.517
G1 X-6.2577 Y-25.8239 Z-2.52
G1 X-6.247 Y-25.8396 Z-2.523
G1 X-6.2376 Y-25.8556 Z-2.526
G1 X-6.229 Y-25.8725 Z-2.529
G1 X-6.2215 Y-25.8897 Z-2.532
G1 X-6.2152 Y-25.9074 Z-2.535
G1 X-6.2099 Y-25.9256 Z-2.538
G1 X-6.2058 Y-25.9438 Z-2.541
G1 X-6.2029 Y-25.9625 Z-2.544
G1 X-6.2011 Y-25.9812 Z-2.547
G1 X-6.2005 Y-26.0 Z-2.55
G1 X-6.2011 Y-26.0188 Z-2.553
G1 X-6.2029 Y-26.0375 Z-2.556
G1 X-6.2058 Y-26.0562 Z-2.559
G1 X-6.2099 Y-26.0744 Z-2.562
G1 X-6.2152 Y-26.0926 Z-2.565
G1 X-6.2215 Y-26.1103 Z-2.568
G1 X-6.229 Y-26.1275 Z-2.571
G1 X-6.2376 Y-26.1444 Z-2.574
G1 X-6.247 Y-26.1604 Z-2.577
G1 X-6.2577 Y-26.1761 Z-2.58
G1 X-6.2693 Y-26.191 Z-2.583
G1 X-6.2816 Y-26.205 Z-2.586
G1 X-6.2951 Y-26.2185 Z-2.589
G1 X-6.3089 Y-26.2306 Z-2.592
G1 X-6.3237 Y-26.2421 Z-2.595
G1 X-6.3396 Y-26.2529 Z-2.598
G1 X-6.356 Y-26.2626 Z-2.601
G1 X-6.3724 Y-26.271 Z-2.604
G1 X-6.3898 Y-26.2785 Z-2.607
G1 X-6.4077 Y-26.285 Z-2.6101
G1 X-6.4255 Y-26.2901 Z-2.613
G1 X-6.4433 Y-26.2941 Z-2.6159
G1 X-6.4621 Y-26.2971 Z-2.6189
G1 X-6.4815 Y-26.2989 Z-2.622
G1 X-6.5 Y-26.2995 Z-2.625
G1 X-6.5185 Y-26.2989 Z-2.628
G1 X-6.5379 Y-26.2971 Z-2.6311
G1 X-6.5567 Y-26.2941 Z-2.6341
G1 X-6.5745 Y-26.2901 Z-2.637
G1 X-6.5923 Y-26.285 Z-2.6399
G1 X-6.6102 Y-26.2785 Z-2.643
G1 X-6.6276 Y-26.271 Z-2.646
G1 X-6.6441 Y-26.2626 Z-2.649
G1 X-6.6604 Y-26.2529 Z-2.652
G1 X-6.6763 Y-26.2421 Z-2.655
G1 X-6.6911 Y-26.2306 Z-2.658
G1 X-6.7049 Y-26.2185 Z-2.661
G1 X-6.7184 Y-26.205 Z-2.664
G1 X-6.7307 Y-26.191 Z-2.667
G1 X-6.7423 Y-26.1761 Z-2.67
G1 X-6.753 Y-26.1604 Z-2.673
G1 X-6.7624 Y-26.1444 Z-2.676
G1 X-6.771 Y-26.1275 Z-2.679
G1 X-6.7784 Y-26.1103 Z-2.682
G1 X-6.7848 Y-26.0926 Z-2.685
G1 X-6.7901 Y-26.0744 Z-2.688
G1 X-6.7942 Y-26.0562 Z-2.691
G1 X-6.7971 Y-26.0375 Z-2.694
G1 X-6.7989 Y-26.0188 Z-2.697
G1 X-6.7995 Y-26.0 Z-2.7
G1 X-6.7989 Y-25.9812 Z-2.703
G1 X-6.7971 Y-25.9625 Z-2.706
G1 X-6.7942 Y-25.9438 Z-2.709
G1 X-6.7901 Y-25.9256 Z-2.712
G1 X-6.7848 Y-25.9074 Z-2.715
G1 X-6.7784 Y-25.8897 Z-2.718
G1 X-6.771 Y-25.8725 Z-2.721
G1 X-6.7624 Y-25.8556 Z-2.724
G1 X-6.753 Y-25.8396 Z-2.727
G1 X-6.7423 Y-25.8239 Z-2.73
G1 X-6.7307 Y-25.809 Z-2.733
G1 X-6.7184 Y-25.795 Z-2.736
G1 X-6.7049 Y-25.7815 Z-2.739
G1 X-6.6911 Y-25.7694 Z-2.742
G1 X-6.6763 Y-25.7579 Z-2.745
G1 X-6.6604 Y-25.7471 Z-2.748
G1 X-6.6441 Y-25.7374 Z-2.751
G1 X-6.6276 Y-25.729 Z-2.754
G1 X-6.6102 Y-25.7215 Z-2.757
G1 X-6.5923 Y-25.715 Z-2.7601
G1 X-6.5745 Y-25.7099 Z-2.763
G1 X-6.5567 Y-25.7059 Z-2.7659
G1 X-6.5379 Y-25.7029 Z-2.7689
G1 X-6.5185 Y-25.7011 Z-2.772
G1 X-6.5 Y-25.7005 Z-2.775
G1 X-6.4815 Y-25.7011 Z-2.778
G1 X-6.4621 Y-25.7029 Z-2.7811
G1 X-6.4433 Y-25.7059 Z-2.7841
G1 X-6.4255 Y-25.7099 Z-2.787
G1 X-6.4077 Y-25.715 Z-2.7899
G1 X-6.3898 Y-25.7215 Z-2.793
G1 X-6.3724 Y-25.729 Z-2.796
G1 X-6.356 Y-25.7374 Z-2.799
G1 X-6.3396 Y-25.7471 Z-2.802
G1 X-6.3237 Y-25.7579 Z-2.805
G1 X-6.3089 Y-25.7694 Z-2.808
G1 X-6.2951 Y-25.7815 Z-2.811
G1 X-6.2816 Y-25.795 Z-2.814
G1 X-6.2693 Y-25.809 Z-2.817
G1 X-6.2577 Y-25.8239 Z-2.82
G1 X-6.247 Y-25.8396 Z-2.823
G1 X-6.2376 Y-25.8556 Z-2.826
G1 X-6.229 Y-25.8725 Z-2.829
G1 X-6.2215 Y-25.8897 Z-2.832
G1 X-6.2152 Y-25.9074 Z-2.835
G1 X-6.2099 Y-25.9256 Z-2.838
G1 X-6.2058 Y-25.9438 Z-2.841
G1 X-6.2029 Y-25.9625 Z-2.844
G1 X-6.2011 Y-25.9812 Z-2.847
G1 X-6.2005 Y-26.0 Z-2.85
G1 X-6.2011 Y-26.0188 Z-2.853
G1 X-6.2029 Y-26.0375 Z-2.856
G1 X-6.2058 Y-26.0562 Z-2.859
G1 X-6.2099 Y-26.0744 Z-2.862
G1 X-6.2152 Y-26.0926 Z-2.865
G1 X-6.2215 Y-26.1103 Z-2.868
G1 X-6.229 Y-26.1275 Z-2.871
G1 X-6.2376 Y-26.1444 Z-2.874
G1 X-6.247 Y-26.1604 Z-2.877
G1 X-6.2577 Y-26.1761 Z-2.88
G1 X-6.2693 Y-26.191 Z-2.883
G1 X-6.2816 Y-26.205 Z-2.886
G1 X-6.2951 Y-26.2185 Z-2.889
G1 X-6.3089 Y-26.2306 Z-2.892
G1 X-6.3237 Y-26.2421 Z-2.895
G1 X-6.3396 Y-26.2529 Z-2.898
G1 X-6.356 Y-26.2626 Z-2.901
G1 X-6.3724 Y-26.271 Z-2.904
G1 X-6.3898 Y-26.2785 Z-2.907
G1 X-6.4077 Y-26.285 Z-2.9101
G1 X-6.4255 Y-26.2901 Z-2.913
G1 X-6.4433 Y-26.2941 Z-2.9159
G1 X-6.4621 Y-26.2971 Z-2.9189
G1 X-6.4815 Y-26.2989 Z-2.922
G1 X-6.5 Y-26.2995 Z-2.925
G1 X-6.5185 Y-26.2989 Z-2.928
G1 X-6.5379 Y-26.2971 Z-2.9311
G1 X-6.5567 Y-26.2941 Z-2.9341
G1 X-6.5745 Y-26.2901 Z-2.937
G1 X-6.5923 Y-26.285 Z-2.9399
G1 X-6.6102 Y-26.2785 Z-2.943
G1 X-6.6276 Y-26.271 Z-2.946
G1 X-6.6441 Y-26.2626 Z-2.949
G1 X-6.6604 Y-26.2529 Z-2.952
G1 X-6.6763 Y-26.2421 Z-2.955
G1 X-6.6911 Y-26.2306 Z-2.958
G1 X-6.7049 Y-26.2185 Z-2.961
G1 X-6.7184 Y-26.205 Z-2.964
G1 X-6.7307 Y-26.191 Z-2.967
G1 X-6.7423 Y-26.1761 Z-2.97
G1 X-6.753 Y-26.1604 Z-2.973
G1 X-6.7624 Y-26.1444 Z-2.976
G1 X-6.771 Y-26.1275 Z-2.979
G1 X-6.7784 Y-26.1103 Z-2.982
G1 X-6.7848 Y-26.0926 Z-2.985
G1 X-6.7901 Y-26.0744 Z-2.988
G1 X-6.7942 Y-26.0562 Z-2.991
G1 X-6.7971 Y-26.0375 Z-2.994
G1 X-6.7989 Y-26.0188 Z-2.997
G1 X-6.7995 Y-26.0 Z-3.0
G1 X-6.7989 Y-25.9812 Z-3.003
G1 X-6.7971 Y-25.9625 Z-3.006
G1 X-6.7942 Y-25.9438 Z-3.009
G1 X-6.7901 Y-25.9256 Z-3.012
G1 X-6.7848 Y-25.9074 Z-3.015
G1 X-6.7784 Y-25.8897 Z-3.018
G1 X-6.771 Y-25.8725 Z-3.021
G1 X-6.7624 Y-25.8556 Z-3.024
G1 X-6.753 Y-25.8396 Z-3.027
G1 X-6.7423 Y-25.8239 Z-3.03
G1 X-6.7307 Y-25.809 Z-3.033
G1 X-6.7184 Y-25.795 Z-3.036
G1 X-6.7049 Y-25.7815 Z-3.039
G1 X-6.6911 Y-25.7694 Z-3.042
G1 X-6.6763 Y-25.7579 Z-3.045
G1 X-6.6604 Y-25.7471 Z-3.048
G1 X-6.6441 Y-25.7374 Z-3.051
G1 X-6.6276 Y-25.729 Z-3.054
G1 X-6.6102 Y-25.7215 Z-3.057
G1 X-6.5923 Y-25.715 Z-3.0601
G1 X-6.5745 Y-25.7099 Z-3.063
G1 X-6.5567 Y-25.7059 Z-3.0659
G1 X-6.5379 Y-25.7029 Z-3.0689
G1 X-6.5185 Y-25.7011 Z-3.072
G1 X-6.5 Y-25.7005 Z-3.075
G1 X-6.4815 Y-25.7011 Z-3.078
G1 X-6.4621 Y-25.7029 Z-3.0811
G1 X-6.4433 Y-25.7059 Z-3.0841
G1 X-6.4255 Y-25.7099 Z-3.087
G1 X-6.4077 Y-25.715 Z-3.0899
G1 X-6.3898 Y-25.7215 Z-3.093
G1 X-6.3724 Y-25.729 Z-3.096
G1 X-6.356 Y-25.7374 Z-3.099
G1 X-6.3396 Y-25.7471 Z-3.102
G1 X-6.3237 Y-25.7579 Z-3.105
G1 X-6.3089 Y-25.7694 Z-3.108
G1 X-6.2951 Y-25.7815 Z-3.111
G1 X-6.2816 Y-25.795 Z-3.114
G1 X-6.2693 Y-25.809 Z-3.117
G1 X-6.2577 Y-25.8239 Z-3.12
G1 X-6.247 Y-25.8396 Z-3.123
G1 X-6.2376 Y-25.8556 Z-3.126
G1 X-6.229 Y-25.8725 Z-3.129
G1 X-6.2215 Y-25.8897 Z-3.132
G1 X-6.2152 Y-25.9074 Z-3.135
G1 X-6.2099 Y-25.9256 Z-3.138
G1 X-6.2058 Y-25.9438 Z-3.141
G1 X-6.2029 Y-25.9625 Z-3.144
G1 X-6.2011 Y-25.9812 Z-3.147
G1 X-6.2005 Y-26.0 Z-3.15
G1 X-6.2011 Y-26.0188 Z-3.153
G1 X-6.2029 Y-26.0375 Z-3.156
G1 X-6.2058 Y-26.0562 Z-3.159
G1 X-6.2099 Y-26.0744 Z-3.162
G1 X-6.2152 Y-26.0926 Z-3.165
G1 X-6.2215 Y-26.1103 Z-3.168
G1 X-6.229 Y-26.1275 Z-3.171
G1 X-6.2376 Y-26.1444 Z-3.174
G1 X-6.247 Y-26.1604 Z-3.177
G1 X-6.2577 Y-26.1761 Z-3.18
G1 X-6.2693 Y-26.191 Z-3.183
G1 X-6.2816 Y-26.205 Z-3.186
G1 X-6.2951 Y-26.2185 Z-3.189
G1 X-6.3089 Y-26.2306 Z-3.192
G1 X-6.3237 Y-26.2421 Z-3.195
G1 X-6.3396 Y-26.2529 Z-3.198
G1 X-6.356 Y-26.2626 Z-3.201
G1 X-6.3724 Y-26.271 Z-3.204
G1 X-6.3898 Y-26.2785 Z-3.207
G1 X-6.4077 Y-26.285 Z-3.2101
G1 X-6.4255 Y-26.2901 Z-3.213
G1 X-6.4433 Y-26.2941 Z-3.2159
G1 X-6.4621 Y-26.2971 Z-3.2189
G1 X-6.4815 Y-26.2989 Z-3.222
G1 X-6.5 Y-26.2995 Z-3.225
G1 X-6.5185 Y-26.2989 Z-3.228
G1 X-6.5379 Y-26.2971 Z-3.2311
G1 X-6.5567 Y-26.2941 Z-3.2341
G1 X-6.5745 Y-26.2901 Z-3.237
G1 X-6.5923 Y-26.285 Z-3.2399
G1 X-6.6102 Y-26.2785 Z-3.243
G1 X-6.6276 Y-26.271 Z-3.246
G1 X-6.6441 Y-26.2626 Z-3.249
G1 X-6.6604 Y-26.2529 Z-3.252
G1 X-6.6763 Y-26.2421 Z-3.255
G1 X-6.6911 Y-26.2306 Z-3.258
G1 X-6.7049 Y-26.2185 Z-3.261
G1 X-6.7184 Y-26.205 Z-3.264
G1 X-6.7307 Y-26.191 Z-3.267
G1 X-6.7423 Y-26.1761 Z-3.27
G1 X-6.753 Y-26.1604 Z-3.273
G1 X-6.7624 Y-26.1444 Z-3.276
G1 X-6.771 Y-26.1275 Z-3.279
G1 X-6.7784 Y-26.1103 Z-3.282
G1 X-6.7848 Y-26.0926 Z-3.285
G1 X-6.7901 Y-26.0744 Z-3.288
G1 X-6.7942 Y-26.0562 Z-3.291
G1 X-6.7971 Y-26.0375 Z-3.294
G1 X-6.7989 Y-26.0188 Z-3.297
G1 X-6.7995 Y-26.0 Z-3.3
G1 X-6.7989 Y-25.9812 Z-3.303
G1 X-6.7971 Y-25.9625 Z-3.306
G1 X-6.7942 Y-25.9438 Z-3.309
G1 X-6.7901 Y-25.9256 Z-3.312
G1 X-6.7848 Y-25.9074 Z-3.315
G1 X-6.7784 Y-25.8897 Z-3.318
G1 X-6.771 Y-25.8725 Z-3.321
G1 X-6.7624 Y-25.8556 Z-3.324
G1 X-6.753 Y-25.8396 Z-3.327
G1 X-6.7423 Y-25.8239 Z-3.33
G1 X-6.7307 Y-25.809 Z-3.333
G1 X-6.7184 Y-25.795 Z-3.336
G1 X-6.7049 Y-25.7815 Z-3.339
G1 X-6.6911 Y-25.7694 Z-3.342
G1 X-6.6763 Y-25.7579 Z-3.345
G1 X-6.6604 Y-25.7471 Z-3.348
G1 X-6.6441 Y-25.7374 Z-3.351
G1 X-6.6276 Y-25.729 Z-3.354
G1 X-6.6102 Y-25.7215 Z-3.357
G1 X-6.5923 Y-25.715 Z-3.3601
G1 X-6.5745 Y-25.7099 Z-3.363
G1 X-6.5567 Y-25.7059 Z-3.3659
G1 X-6.5379 Y-25.7029 Z-3.3689
G1 X-6.5185 Y-25.7011 Z-3.372
G1 X-6.5 Y-25.7005 Z-3.375
G1 X-6.4815 Y-25.7011 Z-3.378
G1 X-6.4621 Y-25.7029 Z-3.3811
G1 X-6.4433 Y-25.7059 Z-3.3841
G1 X-6.4255 Y-25.7099 Z-3.387
G1 X-6.4077 Y-25.715 Z-3.3899
G1 X-6.3898 Y-25.7215 Z-3.393
G1 X-6.3724 Y-25.729 Z-3.396
G1 X-6.356 Y-25.7374 Z-3.399
G1 X-6.3396 Y-25.7471 Z-3.402
G1 X-6.3237 Y-25.7579 Z-3.405
G1 X-6.3089 Y-25.7694 Z-3.408
G1 X-6.2951 Y-25.7815 Z-3.411
G1 X-6.2816 Y-25.795 Z-3.414
G1 X-6.2693 Y-25.809 Z-3.417
G1 X-6.2577 Y-25.8239 Z-3.42
G1 X-6.247 Y-25.8396 Z-3.423
G1 X-6.2376 Y-25.8556 Z-3.426
G1 X-6.229 Y-25.8725 Z-3.429
G1 X-6.2215 Y-25.8897 Z-3.432
G1 X-6.2152 Y-25.9074 Z-3.435
G1 X-6.2099 Y-25.9256 Z-3.438
G1 X-6.2058 Y-25.9438 Z-3.441
G1 X-6.2029 Y-25.9625 Z-3.444
G1 X-6.2011 Y-25.9812 Z-3.447
G1 X-6.2005 Y-26.0 Z-3.45
G1 X-6.2011 Y-26.0188 Z-3.453
G1 X-6.2029 Y-26.0375 Z-3.456
G1 X-6.2058 Y-26.0562 Z-3.459
G1 X-6.2099 Y-26.0744 Z-3.462
G1 X-6.2152 Y-26.0926 Z-3.465
G1 X-6.2215 Y-26.1103 Z-3.468
G1 X-6.229 Y-26.1275 Z-3.471
G1 X-6.2376 Y-26.1444 Z-3.474
G1 X-6.247 Y-26.1604 Z-3.477
G1 X-6.2577 Y-26.1761 Z-3.48
G1 X-6.2693 Y-26.191 Z-3.483
G1 X-6.2816 Y-26.205 Z-3.486
G1 X-6.2951 Y-26.2185 Z-3.489
G1 X-6.3089 Y-26.2306 Z-3.492
G1 X-6.3237 Y-26.2421 Z-3.495
G1 X-6.3396 Y-26.2529 Z-3.498
G1 X-6.356 Y-26.2626 Z-3.501
G1 X-6.3724 Y-26.271 Z-3.504
G1 X-6.3898 Y-26.2785 Z-3.507
G1 X-6.4077 Y-26.285 Z-3.5101
G1 X-6.4255 Y-26.2901 Z-3.513
G1 X-6.4433 Y-26.2941 Z-3.5159
G1 X-6.4621 Y-26.2971 Z-3.5189
G1 X-6.4815 Y-26.2989 Z-3.522
G1 X-6.5 Y-26.2995 Z-3.525
G1 X-6.5185 Y-26.2989 Z-3.528
G1 X-6.5379 Y-26.2971 Z-3.5311
G1 X-6.5567 Y-26.2941 Z-3.5341
G1 X-6.5745 Y-26.2901 Z-3.537
G1 X-6.5923 Y-26.285 Z-3.5399
G1 X-6.6102 Y-26.2785 Z-3.543
G1 X-6.6276 Y-26.271 Z-3.546
G1 X-6.6441 Y-26.2626 Z-3.549
G1 X-6.6604 Y-26.2529 Z-3.552
G1 X-6.6763 Y-26.2421 Z-3.555
G1 X-6.6911 Y-26.2306 Z-3.558
G1 X-6.7049 Y-26.2185 Z-3.561
G1 X-6.7184 Y-26.205 Z-3.564
G1 X-6.7307 Y-26.191 Z-3.567
G1 X-6.7423 Y-26.1761 Z-3.57
G1 X-6.753 Y-26.1604 Z-3.573
G1 X-6.7624 Y-26.1444 Z-3.576
G1 X-6.771 Y-26.1275 Z-3.579
G1 X-6.7784 Y-26.1103 Z-3.582
G1 X-6.7848 Y-26.0926 Z-3.585
G1 X-6.7901 Y-26.0744 Z-3.588
G1 X-6.7942 Y-26.0562 Z-3.591
G1 X-6.7971 Y-26.0375 Z-3.594
G1 X-6.7989 Y-26.0188 Z-3.597
G1 X-6.7995 Y-26.0 Z-3.6
G1 X-6.7989 Y-25.9812 Z-3.603
G1 X-6.7971 Y-25.9625 Z-3.606
G1 X-6.7942 Y-25.9438 Z-3.609
G1 X-6.7901 Y-25.9256 Z-3.612
G1 X-6.7848 Y-25.9074 Z-3.615
G1 X-6.7784 Y-25.8897 Z-3.618
G1 X-6.771 Y-25.8725 Z-3.621
G1 X-6.7624 Y-25.8556 Z-3.624
G1 X-6.753 Y-25.8396 Z-3.627
G1 X-6.7423 Y-25.8239 Z-3.63
G1 X-6.7307 Y-25.809 Z-3.633
G1 X-6.7184 Y-25.795 Z-3.636
G1 X-6.7049 Y-25.7815 Z-3.639
G1 X-6.6911 Y-25.7694 Z-3.642
G1 X-6.6763 Y-25.7579 Z-3.645
G1 X-6.6604 Y-25.7471 Z-3.648
G1 X-6.6441 Y-25.7374 Z-3.651
G1 X-6.6276 Y-25.729 Z-3.654
G1 X-6.6102 Y-25.7215 Z-3.657
G1 X-6.5923 Y-25.715 Z-3.6601
G1 X-6.5745 Y-25.7099 Z-3.663
G1 X-6.5567 Y-25.7059 Z-3.6659
G1 X-6.5379 Y-25.7029 Z-3.6689
G1 X-6.5185 Y-25.7011 Z-3.672
G1 X-6.5 Y-25.7005 Z-3.675
G1 X-6.4815 Y-25.7011 Z-3.678
G1 X-6.4621 Y-25.7029 Z-3.6811
G1 X-6.4433 Y-25.7059 Z-3.6841
G1 X-6.4255 Y-25.7099 Z-3.687
G1 X-6.4077 Y-25.715 Z-3.6899
G1 X-6.3898 Y-25.7215 Z-3.693
G1 X-6.3724 Y-25.729 Z-3.696
G1 X-6.356 Y-25.7374 Z-3.699
G1 X-6.3396 Y-25.7471 Z-3.702
G1 X-6.3237 Y-25.7579 Z-3.705
G1 X-6.3089 Y-25.7694 Z-3.708
G1 X-6.2951 Y-25.7815 Z-3.711
G1 X-6.2816 Y-25.795 Z-3.714
G1 X-6.2693 Y-25.809 Z-3.717
G1 X-6.2577 Y-25.8239 Z-3.72
G1 X-6.247 Y-25.8396 Z-3.723
G1 X-6.2376 Y-25.8556 Z-3.726
G1 X-6.229 Y-25.8725 Z-3.729
G1 X-6.2215 Y-25.8897 Z-3.732
G1 X-6.2152 Y-25.9074 Z-3.735
G1 X-6.2099 Y-25.9256 Z-3.738
G1 X-6.2058 Y-25.9438 Z-3.741
G1 X-6.2029 Y-25.9625 Z-3.744
G1 X-6.2011 Y-25.9812 Z-3.747
G1 X-6.2005 Y-26.0 Z-3.75
G1 X-6.2011 Y-26.0188 Z-3.753
G1 X-6.2029 Y-26.0375 Z-3.756
G1 X-6.2058 Y-26.0562 Z-3.759
G1 X-6.2099 Y-26.0744 Z-3.762
G1 X-6.2152 Y-26.0926 Z-3.765
G1 X-6.2215 Y-26.1103 Z-3.768
G1 X-6.229 Y-26.1275 Z-3.771
G1 X-6.2376 Y-26.1444 Z-3.774
G1 X-6.247 Y-26.1604 Z-3.777
G1 X-6.2577 Y-26.1761 Z-3.78
G1 X-6.2693 Y-26.191 Z-3.783
G1 X-6.2816 Y-26.205 Z-3.786
G1 X-6.2951 Y-26.2185 Z-3.789
G1 X-6.3089 Y-26.2306 Z-3.792
G1 X-6.3237 Y-26.2421 Z-3.795
G1 X-6.3396 Y-26.2529 Z-3.798
G1 X-6.356 Y-26.2626 Z-3.801
G1 X-6.3724 Y-26.271 Z-3.804
G1 X-6.3898 Y-26.2785 Z-3.807
G1 X-6.4077 Y-26.285 Z-3.8101
G1 X-6.4255 Y-26.2901 Z-3.813
G1 X-6.4433 Y-26.2941 Z-3.8159
G1 X-6.4621 Y-26.2971 Z-3.8189
G1 X-6.4815 Y-26.2989 Z-3.822
G1 X-6.5 Y-26.2995 Z-3.825
G1 X-6.5185 Y-26.2989 Z-3.828
G1 X-6.5379 Y-26.2971 Z-3.8311
G1 X-6.5567 Y-26.2941 Z-3.8341
G1 X-6.5745 Y-26.2901 Z-3.837
G1 X-6.5923 Y-26.285 Z-3.8399
G1 X-6.6102 Y-26.2785 Z-3.843
G1 X-6.6276 Y-26.271 Z-3.846
G1 X-6.6441 Y-26.2626 Z-3.849
G1 X-6.6604 Y-26.2529 Z-3.852
G1 X-6.6763 Y-26.2421 Z-3.855
G1 X-6.6911 Y-26.2306 Z-3.858
G1 X-6.7049 Y-26.2185 Z-3.861
G1 X-6.7184 Y-26.205 Z-3.864
G1 X-6.7307 Y-26.191 Z-3.867
G1 X-6.7423 Y-26.1761 Z-3.87
G1 X-6.753 Y-26.1604 Z-3.873
G1 X-6.7624 Y-26.1444 Z-3.876
G1 X-6.771 Y-26.1275 Z-3.879
G1 X-6.7784 Y-26.1103 Z-3.882
G1 X-6.7848 Y-26.0926 Z-3.885
G1 X-6.7901 Y-26.0744 Z-3.888
G1 X-6.7942 Y-26.0562 Z-3.891
G1 X-6.7971 Y-26.0375 Z-3.894
G1 X-6.7989 Y-26.0188 Z-3.897
G1 X-6.7995 Y-26.0 Z-3.9
G1 X-6.7989 Y-25.9812 Z-3.901
G1 X-6.7971 Y-25.9625 Z-3.902
G1 X-6.7942 Y-25.9438 Z-3.903
G1 X-6.7901 Y-25.9256 Z-3.904
G1 X-6.7848 Y-25.9074 Z-3.905
G1 X-6.7784 Y-25.8897 Z-3.906
G1 X-6.771 Y-25.8725 Z-3.907
G1 X-6.7624 Y-25.8556 Z-3.908
G1 X-6.753 Y-25.8396 Z-3.909
G1 X-6.7423 Y-25.8239 Z-3.91
G1 X-6.7307 Y-25.809 Z-3.911
G1 X-6.7184 Y-25.795 Z-3.912
G1 X-6.7049 Y-25.7815 Z-3.913
G1 X-6.6911 Y-25.7694 Z-3.914
G1 X-6.6763 Y-25.7579 Z-3.915
G1 X-6.6604 Y-25.7471 Z-3.916
G1 X-6.6441 Y-25.7374 Z-3.917
G1 X-6.6276 Y-25.729 Z-3.918
G1 X-6.6102 Y-25.7215 Z-3.919
G1 X-6.5923 Y-25.715 Z-3.92
G1 X-6.5745 Y-25.7099 Z-3.921
G1 X-6.5567 Y-25.7059 Z-3.922
G1 X-6.5379 Y-25.7029 Z-3.923
G1 X-6.5185 Y-25.7011 Z-3.924
G1 X-6.5 Y-25.7005 Z-3.925
G1 X-6.4815 Y-25.7011 Z-3.926
G1 X-6.4621 Y-25.7029 Z-3.927
G1 X-6.4433 Y-25.7059 Z-3.928
G1 X-6.4255 Y-25.7099 Z-3.929
G1 X-6.4077 Y-25.715 Z-3.93
G1 X-6.3898 Y-25.7215 Z-3.931
G1 X-6.3724 Y-25.729 Z-3.932
G1 X-6.356 Y-25.7374 Z-3.933
G1 X-6.3396 Y-25.7471 Z-3.934
G1 X-6.3237 Y-25.7579 Z-3.935
G1 X-6.3089 Y-25.7694 Z-3.936
G1 X-6.2951 Y-25.7815 Z-3.937
G1 X-6.2816 Y-25.795 Z-3.938
G1 X-6.2693 Y-25.809 Z-3.939
G1 X-6.2577 Y-25.8239 Z-3.94
G1 X-6.247 Y-25.8396 Z-3.941
G1 X-6.2376 Y-25.8556 Z-3.942
G1 X-6.229 Y-25.8725 Z-3.943
G1 X-6.2215 Y-25.8897 Z-3.944
G1 X-6.2152 Y-25.9074 Z-3.945
G1 X-6.2099 Y-25.9256 Z-3.946
G1 X-6.2058 Y-25.9438 Z-3.947
G1 X-6.2029 Y-25.9625 Z-3.948
G1 X-6.2011 Y-25.9812 Z-3.949
G1 X-6.2005 Y-26.0 Z-3.95
G1 X-6.2011 Y-26.0188 Z-3.951
G1 X-6.2029 Y-26.0375 Z-3.952
G1 X-6.2058 Y-26.0562 Z-3.953
G1 X-6.2099 Y-26.0744 Z-3.954
G1 X-6.2152 Y-26.0926 Z-3.955
G1 X-6.2215 Y-26.1103 Z-3.956
G1 X-6.229 Y-26.1275 Z-3.957
G1 X-6.2376 Y-26.1444 Z-3.958
G1 X-6.247 Y-26.1604 Z-3.959
G1 X-6.2577 Y-26.1761 Z-3.96
G1 X-6.2693 Y-26.191 Z-3.961
G1 X-6.2816 Y-26.205 Z-3.962
G1 X-6.2951 Y-26.2185 Z-3.963
G1 X-6.3089 Y-26.2306 Z-3.964
G1 X-6.3237 Y-26.2421 Z-3.965
G1 X-6.3396 Y-26.2529 Z-3.966
G1 X-6.356 Y-26.2626 Z-3.967
G1 X-6.3724 Y-26.271 Z-3.968
G1 X-6.3898 Y-26.2785 Z-3.969
G1 X-6.4077 Y-26.285 Z-3.97
G1 X-6.4255 Y-26.2901 Z-3.971
G1 X-6.4433 Y-26.2941 Z-3.972
G1 X-6.4621 Y-26.2971 Z-3.973
G1 X-6.4815 Y-26.2989 Z-3.974
G1 X-6.5 Y-26.2995 Z-3.975
G1 X-6.5185 Y-26.2989 Z-3.976
G1 X-6.5379 Y-26.2971 Z-3.977
G1 X-6.5567 Y-26.2941 Z-3.978
G1 X-6.5745 Y-26.2901 Z-3.979
G1 X-6.5923 Y-26.285 Z-3.98
G1 X-6.6102 Y-26.2785 Z-3.981
G1 X-6.6276 Y-26.271 Z-3.982
G1 X-6.6441 Y-26.2626 Z-3.983
G1 X-6.6604 Y-26.2529 Z-3.984
G1 X-6.6763 Y-26.2421 Z-3.985
G1 X-6.6911 Y-26.2306 Z-3.986
G1 X-6.7049 Y-26.2185 Z-3.987
G1 X-6.7184 Y-26.205 Z-3.988
G1 X-6.7307 Y-26.191 Z-3.989
G1 X-6.7423 Y-26.1761 Z-3.99
G1 X-6.753 Y-26.1604 Z-3.991
G1 X-6.7624 Y-26.1444 Z-3.992
G1 X-6.771 Y-26.1275 Z-3.993
G1 X-6.7784 Y-26.1103 Z-3.994
G1 X-6.7848 Y-26.0926 Z-3.995
G1 X-6.7901 Y-26.0744 Z-3.996
G1 X-6.7942 Y-26.0562 Z-3.997
G1 X-6.7971 Y-26.0375 Z-3.998
G1 X-6.7989 Y-26.0188 Z-3.999
G1 X-6.7995 Y-26.0 Z-4.0
G1 X-6.7989 Y-25.9812
G1 X-6.7971 Y-25.9625
G1 X-6.7942 Y-25.9438
G1 X-6.7901 Y-25.9256
G1 X-6.7848 Y-25.9074
G1 X-6.7784 Y-25.8897
G1 X-6.771 Y-25.8725
G1 X-6.7624 Y-25.8556
G1 X-6.753 Y-25.8396
G1 X-6.7423 Y-25.8239
G1 X-6.7307 Y-25.809
G1 X-6.7184 Y-25.795
G1 X-6.7049 Y-25.7815
G1 X-6.6911 Y-25.7694
G1 X-6.6763 Y-25.7579
G1 X-6.6604 Y-25.7471
G1 X-6.6441 Y-25.7374
G1 X-6.6276 Y-25.729
G1 X-6.6102 Y-25.7215
G1 X-6.5923 Y-25.715
G1 X-6.5745 Y-25.7099
G1 X-6.5567 Y-25.7059
G1 X-6.5379 Y-25.7029
G1 X-6.5185 Y-25.7011
G1 X-6.5 Y-25.7005
G1 X-6.4815 Y-25.7011
G1 X-6.4621 Y-25.7029
G1 X-6.4433 Y-25.7059
G1 X-6.4255 Y-25.7099
G1 X-6.4077 Y-25.715
G1 X-6.3898 Y-25.7215
G1 X-6.3724 Y-25.729
G1 X-6.356 Y-25.7374
G1 X-6.3396 Y-25.7471
G1 X-6.3237 Y-25.7579
G1 X-6.3089 Y-25.7694
G1 X-6.2951 Y-25.7815
G1 X-6.2816 Y-25.795
G1 X-6.2693 Y-25.809
G1 X-6.2577 Y-25.8239
G1 X-6.247 Y-25.8396
G1 X-6.2376 Y-25.8556
G1 X-6.229 Y-25.8725
G1 X-6.2215 Y-25.8897
G1 X-6.2152 Y-25.9074
G1 X-6.2099 Y-25.9256
G1 X-6.2058 Y-25.9438
G1 X-6.2029 Y-25.9625
G1 X-6.2011 Y-25.9812
G1 X-6.2005 Y-26.0
G1 X-6.2011 Y-26.0188
G1 X-6.2029 Y-26.0375
G1 X-6.2058 Y-26.0562
G1 X-6.2099 Y-26.0744
G1 X-6.2152 Y-26.0926
G1 X-6.2215 Y-26.1103
G1 X-6.229 Y-26.1275
G1 X-6.2376 Y-26.1444
G1 X-6.247 Y-26.1604
G1 X-6.2577 Y-26.1761
G1 X-6.2693 Y-26.191
G1 X-6.2816 Y-26.205
G1 X-6.2951 Y-26.2185
G1 X-6.3089 Y-26.2306
G1 X-6.3237 Y-26.2421
G1 X-6.3396 Y-26.2529
G1 X-6.356 Y-26.2626
G1 X-6.3724 Y-26.271
G1 X-6.3898 Y-26.2785
G1 X-6.4077 Y-26.285
G1 X-6.4255 Y-26.2901
G1 X-6.4433 Y-26.2941
G1 X-6.4621 Y-26.2971
G1 X-6.4815 Y-26.2989
G1 X-6.5 Y-26.2995
G1 X-6.5185 Y-26.2989
G1 X-6.5379 Y-26.2971
G1 X-6.5567 Y-26.2941
G1 X-6.5745 Y-26.2901
G1 X-6.5923 Y-26.285
G1 X-6.6102 Y-26.2785
G1 X-6.6276 Y-26.271
G1 X-6.6441 Y-26.2626
G1 X-6.6604 Y-26.2529
G1 X-6.6763 Y-26.2421
G1 X-6.6911 Y-26.2306
G1 X-6.7049 Y-26.2185
G1 X-6.7184 Y-26.205
G1 X-6.7307 Y-26.191
G1 X-6.7423 Y-26.1761
G1 X-6.753 Y-26.1604
G1 X-6.7624 Y-26.1444
G1 X-6.771 Y-26.1275
G1 X-6.7784 Y-26.1103
G1 X-6.7848 Y-26.0926
G1 X-6.7901 Y-26.0744
G1 X-6.7942 Y-26.0562
G1 X-6.7971 Y-26.0375
G1 X-6.7989 Y-26.0188
G1 X-6.7995 Y-26.0
G0 Z3.0
G0 X6.2005
G0 Z1.0
G1 F150.0 Z0.0
G1 F400.0 X6.2011 Y-25.9812 Z-0.003
G1 X6.2029 Y-25.9625 Z-0.006
G1 X6.2058 Y-25.9438 Z-0.009
G1 X6.2099 Y-25.9256 Z-0.012
G1 X6.2152 Y-25.9074 Z-0.015
G1 X6.2215 Y-25.8897 Z-0.018
G1 X6.229 Y-25.8725 Z-0.021
G1 X6.2376 Y-25.8556 Z-0.024
G1 X6.247 Y-25.8396 Z-0.027
G1 X6.2577 Y-25.8239 Z-0.03
G1 X6.2693 Y-25.809 Z-0.033
G1 X6.2816 Y-25.795 Z-0.036
G1 X6.2951 Y-25.7815 Z-0.039
G1 X6.3089 Y-25.7694 Z-0.042
G1 X6.3237 Y-25.7579 Z-0.045
G1 X6.3396 Y-25.7471 Z-0.048
G1 X6.356 Y-25.7374 Z-0.051
G1 X6.3724 Y-25.729 Z-0.054
G1 X6.3898 Y-25.7215 Z-0.057
G1 X6.4077 Y-25.715 Z-0.0601
G1 X6.4255 Y-25.7099 Z-0.063
G1 X6.4433 Y-25.7059 Z-0.0659
G1 X6.4621 Y-25.7029 Z-0.0689
G1 X6.4815 Y-25.7011 Z-0.072
G1 X6.5 Y-25.7005 Z-0.075
G1 X6.5185 Y-25.7011 Z-0.078
G1 X6.5379 Y-25.7029 Z-0.0811
G1 X6.5567 Y-25.7059 Z-0.0841
G1 X6.5745 Y-25.7099 Z-0.087
G1 X6.5923 Y-25.715 Z-0.0899
G1 X6.6102 Y-25.7215 Z-0.093
G1 X6.6276 Y-25.729 Z-0.096
G1 X6.6441 Y-25.7374 Z-0.099
G1 X6.6604 Y-25.7471 Z-0.102
G1 X6.6763 Y-25.7579 Z-0.105
G1 X6.6911 Y-25.7694 Z-0.108
G1 X6.7049 Y-25.7815 Z-0.111
G1 X6.7184 Y-25.795 Z-0.114
G1 X6.7307 Y-25.809 Z-0.117
G1 X6.7423 Y-25.8239 Z-0.12
G1 X6.753 Y-25.8396 Z-0.123
G1 X6.7624 Y-25.8556 Z-0.126
G1 X6.771 Y-25.8725 Z-0.129
G1 X6.7784 Y-25.8897 Z-0.132
G1 X6.7848 Y-25.9074 Z-0.135
G1 X6.7901 Y-25.9256 Z-0.138
G1 X6.7942 Y-25.9438 Z-0.141
G1 X6.7971 Y-25.9625 Z-0.144
G1 X6.7989 Y-25.9812 Z-0.147
G1 X6.7995 Y-26.0 Z-0.15
G1 X6.7989 Y-26.0188 Z-0.153
G1 X6.7971 Y-26.0375 Z-0.156
G1 X6.7942 Y-26.0562 Z-0.159
G1 X6.7901 Y-26.0744 Z-0.162
G1 X6.7848 Y-26.0926 Z-0.165
G1 X6.7784 Y-26.1103 Z-0.168
G1 X6.771 Y-26.1275 Z-0.171
G1 X6.7624 Y-26.1444 Z-0.174
G1 X6.753 Y-26.1604 Z-0.177
G1 X6.7423 Y-26.1761 Z-0.18
G1 X6.7307 Y-26.191 Z-0.183
G1 X6.7184 Y-26.205 Z-0.186
G1 X6.7049 Y-26.2185 Z-0.189
G1 X6.6911 Y-26.2306 Z-0.192
G1 X6.6763 Y-26.2421 Z-0.195
G1 X6.6604 Y-26.2529 Z-0.198
G1 X6.6441 Y-26.2626 Z-0.201
G1 X6.6276 Y-26.271 Z-0.204
G1 X6.6102 Y-26.2785 Z-0.207
G1 X6.5923 Y-26.285 Z-0.2101
G1 X6.5745 Y-26.2901 Z-0.213
G1 X6.5567 Y-26.2941 Z-0.2159
G1 X6.5379 Y-26.2971 Z-0.2189
G1 X6.5185 Y-26.2989 Z-0.222
G1 X6.5 Y-26.2995 Z-0.225
G1 X6.4815 Y-26.2989 Z-0.228
G1 X6.4621 Y-26.2971 Z-0.2311
G1 X6.4433 Y-26.2941 Z-0.2341
G1 X6.4255 Y-26.2901 Z-0.237
G1 X6.4077 Y-26.285 Z-0.2399
G1 X6.3898 Y-26.2785 Z-0.243
G1 X6.3724 Y-26.271 Z-0.246
G1 X6.356 Y-26.2626 Z-0.249
G1 X6.3396 Y-26.2529 Z-0.252
G1 X6.3237 Y-26.2421 Z-0.255
G1 X6.3089 Y-26.2306 Z-0.258
G1 X6.2951 Y-26.2185 Z-0.261
G1 X6.2816 Y-26.205 Z-0.264
G1 X6.2693 Y-26.191 Z-0.267
G1 X6.2577 Y-26.1761 Z-0.27
G1 X6.247 Y-26.1604 Z-0.273
G1 X6.2376 Y-26.1444 Z-0.276
G1 X6.229 Y-26.1275 Z-0.279
G1 X6.2215 Y-26.1103 Z-0.282
G1 X6.2152 Y-26.0926 Z-0.285
G1 X6.2099 Y-26.0744 Z-0.288
G1 X6.2058 Y-26.0562 Z-0.291
G1 X6.2029 Y-26.0375 Z-0.294
G1 X6.2011 Y-26.0188 Z-0.297
G1 X6.2005 Y-26.0 Z-0.3
G1 X6.2011 Y-25.9812 Z-0.303
G1 X6.2029 Y-25.9625 Z-0.306
G1 X6.2058 Y-25.9438 Z-0.309
G1 X6.2099 Y-25.9256 Z-0.312
G1 X6.2152 Y-25.9074 Z-0.315
G1 X6.2215 Y-25.8897 Z-0.318
G1 X6.229 Y-25.8725 Z-0.321
G1 X6.2376 Y-25.8556 Z-0.324
G1 X6.247 Y-25.8396 Z-0.327
G1 X6.2577 Y-25.8239 Z-0.33
G1 X6.2693 Y-25.809 Z-0.333
G1 X6.2816 Y-25.795 Z-0.336
G1 X6.2951 Y-25.7815 Z-0.339
G1 X6.3089 Y-25.7694 Z-0.342
G1 X6.3237 Y-25.7579 Z-0.345
G1 X6.3396 Y-25.7471 Z-0.348
G1 X6.356 Y-25.7374 Z-0.351
G1 X6.3724 Y-25.729 Z-0.354
G1 X6.3898 Y-25.7215 Z-0.357
G1 X6.4077 Y-25.715 Z-0.3601
G1 X6.4255 Y-25.7099 Z-0.363
G1 X6.4433 Y-25.7059 Z-0.3659
G1 X6.4621 Y-25.7029 Z-0.3689
G1 X6.4815 Y-25.7011 Z-0.372
G1 X6.5 Y-25.7005 Z-0.375
G1 X6.5185 Y-25.7011 Z-0.378
G1 X6.5379 Y-25.7029 Z-0.3811
G1 X6.5567 Y-25.7059 Z-0.3841
G1 X6.5745 Y-25.7099 Z-0.387
G1 X6.5923 Y-25.715 Z-0.3899
G1 X6.6102 Y-25.7215 Z-0.393
G1 X6.6276 Y-25.729 Z-0.396
G1 X6.6441 Y-25.7374 Z-0.399
G1 X6.6604 Y-25.7471 Z-0.402
G1 X6.6763 Y-25.7579 Z-0.405
G1 X6.6911 Y-25.7694 Z-0.408
G1 X6.7049 Y-25.7815 Z-0.411
G1 X6.7184 Y-25.795 Z-0.414
G1 X6.7307 Y-25.809 Z-0.417
G1 X6.7423 Y-25.8239 Z-0.42
G1 X6.753 Y-25.8396 Z-0.423
G1 X6.7624 Y-25.8556 Z-0.426
G1 X6.771 Y-25.8725 Z-0.429
G1 X6.7784 Y-25.8897 Z-0.432
G1 X6.7848 Y-25.9074 Z-0.435
G1 X6.7901 Y-25.9256 Z-0.438
G1 X6.7942 Y-25.9438 Z-0.441
G1 X6.7971 Y-25.9625 Z-0.444
G1 X6.7989 Y-25.9812 Z-0.447
G1 X6.7995 Y-26.0 Z-0.45
G1 X6.7989 Y-26.0188 Z-0.453
G1 X6.7971 Y-26.0375 Z-0.456
G1 X6.7942 Y-26.0562 Z-0.459
G1 X6.7901 Y-26.0744 Z-0.462
G1 X6.7848 Y-26.0926 Z-0.465
G1 X6.7784 Y-26.1103 Z-0.468
G1 X6.771 Y-26.1275 Z-0.471
G1 X6.7624 Y-26.1444 Z-0.474
G1 X6.753 Y-26.1604 Z-0.477
G1 X6.7423 Y-26.1761 Z-0.48
G1 X6.7307 Y-26.191 Z-0.483
G1 X6.7184 Y-26.205 Z-0.486
G1 X6.7049 Y-26.2185 Z-0.489
G1 X6.6911 Y-26.2306 Z-0.492
G1 X6.6763 Y-26.2421 Z-0.495
G1 X6.6604 Y-26.2529 Z-0.498
G1 X6.6441 Y-26.2626 Z-0.501
G1 X6.6276 Y-26.271 Z-0.504
G1 X6.6102 Y-26.2785 Z-0.507
G1 X6.5923 Y-26.285 Z-0.5101
G1 X6.5745 Y-26.2901 Z-0.513
G1 X6.5567 Y-26.2941 Z-0.5159
G1 X6.5379 Y-26.2971 Z-0.5189
G1 X6.5185 Y-26.2989 Z-0.522
G1 X6.5 Y-26.2995 Z-0.525
G1 X6.4815 Y-26.2989 Z-0.528
G1 X6.4621 Y-26.2971 Z-0.5311
G1 X6.4433 Y-26.2941 Z-0.5341
G1 X6.4255 Y-26.2901 Z-0.537
G1 X6.4077 Y-26.285 Z-0.5399
G1 X6.3898 Y-26.2785 Z-0.543
G1 X6.3724 Y-26.271 Z-0.546
G1 X6.356 Y-26.2626 Z-0.549
G1 X6.3396 Y-26.2529 Z-0.552
G1 X6.3237 Y-26.2421 Z-0.555
G1 X6.3089 Y-26.2306 Z-0.558
G1 X6.2951 Y-26.2185 Z-0.561
G1 X6.2816 Y-26.205 Z-0.564
G1 X6.2693 Y-26.191 Z-0.567
G1 X6.2577 Y-26.1761 Z-0.57
G1 X6.247 Y-26.1604 Z-0.573
G1 X6.2376 Y-26.1444 Z-0.576
G1 X6.229 Y-26.1275 Z-0.579
G1 X6.2215 Y-26.1103 Z-0.582
G1 X6.2152 Y-26.0926 Z-0.585
G1 X6.2099 Y-26.0744 Z-0.588
G1 X6.2058 Y-26.0562 Z-0.591
G1 X6.2029 Y-26.0375 Z-0.594
G1 X6.2011 Y-26.0188 Z-0.597
G1 X6.2005 Y-26.0 Z-0.6
G1 X6.2011 Y-25.9812 Z-0.603
G1 X6.2029 Y-25.9625 Z-0.606
G1 X6.2058 Y-25.9438 Z-0.609
G1 X6.2099 Y-25.9256 Z-0.612
G1 X6.2152 Y-25.9074 Z-0.615
G1 X6.2215 Y-25.8897 Z-0.618
G1 X6.229 Y-25.8725 Z-0.621
G1 X6.2376 Y-25.8556 Z-0.624
G1 X6.247 Y-25.8396 Z-0.627
G1 X6.2577 Y-25.8239 Z-0.63
G1 X6.2693 Y-25.809 Z-0.633
G1 X6.2816 Y-25.795 Z-0.636
G1 X6.2951 Y-25.7815 Z-0.639
G1 X6.3089 Y-25.7694 Z-0.642
G1 X6.3237 Y-25.7579 Z-0.645
G1 X6.3396 Y-25.7471 Z-0.648
G1 X6.356 Y-25.7374 Z-0.651
G1 X6.3724 Y-25.729 Z-0.654
G1 X6.3898 Y-25.7215 Z-0.657
G1 X6.4077 Y-25.715 Z-0.6601
G1 X6.4255 Y-25.7099 Z-0.663
G1 X6.4433 Y-25.7059 Z-0.6659
G1 X6.4621 Y-25.7029 Z-0.6689
G1 X6.4815 Y-25.7011 Z-0.672
G1 X6.5 Y-25.7005 Z-0.675
G1 X6.5185 Y-25.7011 Z-0.678
G1 X6.5379 Y-25.7029 Z-0.6811
G1 X6.5567 Y-25.7059 Z-0.6841
G1 X6.5745 Y-25.7099 Z-0.687
G1 X6.5923 Y-25.715 Z-0.6899
G1 X6.6102 Y-25.7215 Z-0.693
G1 X6.6276 Y-25.729 Z-0.696
G1 X6.6441 Y-25.7374 Z-0.699
G1 X6.6604 Y-25.7471 Z-0.702
G1 X6.6763 Y-25.7579 Z-0.705
G1 X6.6911 Y-25.7694 Z-0.708
G1 X6.7049 Y-25.7815 Z-0.711
G1 X6.7184 Y-25.795 Z-0.714
G1 X6.7307 Y-25.809 Z-0.717
G1 X6.7423 Y-25.8239 Z-0.72
G1 X6.753 Y-25.8396 Z-0.723
G1 X6.7624 Y-25.8556 Z-0.726
G1 X6.771 Y-25.8725 Z-0.729
G1 X6.7784 Y-25.8897 Z-0.732
G1 X6.7848 Y-25.9074 Z-0.735
G1 X6.7901 Y-25.9256 Z-0.738
G1 X6.7942 Y-25.9438 Z-0.741
G1 X6.7971 Y-25.9625 Z-0.744
G1 X6.7989 Y-25.9812 Z-0.747
G1 X6.7995 Y-26.0 Z-0.75
G1 X6.7989 Y-26.0188 Z-0.753
G1 X6.7971 Y-26.0375 Z-0.756
G1 X6.7942 Y-26.0562 Z-0.759
G1 X6.7901 Y-26.0744 Z-0.762
G1 X6.7848 Y-26.0926 Z-0.765
G1 X6.7784 Y-26.1103 Z-0.768
G1 X6.771 Y-26.1275 Z-0.771
G1 X6.7624 Y-26.1444 Z-0.774
G1 X6.753 Y-26.1604 Z-0.777
G1 X6.7423 Y-26.1761 Z-0.78
G1 X6.7307 Y-26.191 Z-0.783
G1 X6.7184 Y-26.205 Z-0.786
G1 X6.7049 Y-26.2185 Z-0.789
G1 X6.6911 Y-26.2306 Z-0.792
G1 X6.6763 Y-26.2421 Z-0.795
G1 X6.6604 Y-26.2529 Z-0.798
G1 X6.6441 Y-26.2626 Z-0.801
G1 X6.6276 Y-26.271 Z-0.804
G1 X6.6102 Y-26.2785 Z-0.807
G1 X6.5923 Y-26.285 Z-0.8101
G1 X6.5745 Y-26.2901 Z-0.813
G1 X6.5567 Y-26.2941 Z-0.8159
G1 X6.5379 Y-26.2971 Z-0.8189
G1 X6.5185 Y-26.2989 Z-0.822
G1 X6.5 Y-26.2995 Z-0.825
G1 X6.4815 Y-26.2989 Z-0.828
G1 X6.4621 Y-26.2971 Z-0.8311
G1 X6.4433 Y-26.2941 Z-0.8341
G1 X6.4255 Y-26.2901 Z-0.837
G1 X6.4077 Y-26.285 Z-0.8399
G1 X6.3898 Y-26.2785 Z-0.843
G1 X6.3724 Y-26.271 Z-0.846
G1 X6.356 Y-26.2626 Z-0.849
G1 X6.3396 Y-26.2529 Z-0.852
G1 X6.3237 Y-26.2421 Z-0.855
G1 X6.3089 Y-26.2306 Z-0.858
G1 X6.2951 Y-26.2185 Z-0.861
G1 X6.2816 Y-26.205 Z-0.864
G1 X6.2693 Y-26.191 Z-0.867
G1 X6.2577 Y-26.1761 Z-0.87
G1 X6.247 Y-26.1604 Z-0.873
G1 X6.2376 Y-26.1444 Z-0.876
G1 X6.229 Y-26.1275 Z-0.879
G1 X6.2215 Y-26.1103 Z-0.882
G1 X6.2152 Y-26.0926 Z-0.885
G1 X6.2099 Y-26.0744 Z-0.888
G1 X6.2058 Y-26.0562 Z-0.891
G1 X6.2029 Y-26.0375 Z-0.894
G1 X6.2011 Y-26.0188 Z-0.897
G1 X6.2005 Y-26.0 Z-0.9
G1 X6.2011 Y-25.9812 Z-0.903
G1 X6.2029 Y-25.9625 Z-0.906
G1 X6.2058 Y-25.9438 Z-0.909
G1 X6.2099 Y-25.9256 Z-0.912
G1 X6.2152 Y-25.9074 Z-0.915
G1 X6.2215 Y-25.8897 Z-0.918
G1 X6.229 Y-25.8725 Z-0.921
G1 X6.2376 Y-25.8556 Z-0.924
G1 X6.247 Y-25.8396 Z-0.927
G1 X6.2577 Y-25.8239 Z-0.93
G1 X6.2693 Y-25.809 Z-0.933
G1 X6.2816 Y-25.795 Z-0.936
G1 X6.2951 Y-25.7815 Z-0.939
G1 X6.3089 Y-25.7694 Z-0.942
G1 X6.3237 Y-25.7579 Z-0.945
G1 X6.3396 Y-25.7471 Z-0.948
G1 X6.356 Y-25.7374 Z-0.951
G1 X6.3724 Y-25.729 Z-0.954
G1 X6.3898 Y-25.7215 Z-0.957
G1 X6.4077 Y-25.715 Z-0.9601
G1 X6.4255 Y-25.7099 Z-0.963
G1 X6.4433 Y-25.7059 Z-0.9659
G1 X6.4621 Y-25.7029 Z-0.9689
G1 X6.4815 Y-25.7011 Z-0.972
G1 X6.5 Y-25.7005 Z-0.975
G1 X6.5185 Y-25.7011 Z-0.978
G1 X6.5379 Y-25.7029 Z-0.9811
G1 X6.5567 Y-25.7059 Z-0.9841
G1 X6.5745 Y-25.7099 Z-0.987
G1 X6.5923 Y-25.715 Z-0.9899
G1 X6.6102 Y-25.7215 Z-0.993
G1 X6.6276 Y-25.729 Z-0.996
G1 X6.6441 Y-25.7374 Z-0.999
G1 X6.6604 Y-25.7471 Z-1.002
G1 X6.6763 Y-25.7579 Z-1.005
G1 X6.6911 Y-25.7694 Z-1.008
G1 X6.7049 Y-25.7815 Z-1.011
G1 X6.7184 Y-25.795 Z-1.014
G1 X6.7307 Y-25.809 Z-1.017
G1 X6.7423 Y-25.8239 Z-1.02
G1 X6.753 Y-25.8396 Z-1.023
G1 X6.7624 Y-25.8556 Z-1.026
G1 X6.771 Y-25.8725 Z-1.029
G1 X6.7784 Y-25.8897 Z-1.032
G1 X6.7848 Y-25.9074 Z-1.035
G1 X6.7901 Y-25.9256 Z-1.038
G1 X6.7942 Y-25.9438 Z-1.041
G1 X6.7971 Y-25.9625 Z-1.044
G1 X6.7989 Y-25.9812 Z-1.047
G1 X6.7995 Y-26.0 Z-1.05
G1 X6.7989 Y-26.0188 Z-1.053
