( Made using CamBam - http://www.cambam.co.uk )
( ssc_Front_PANELS_prod_v3_1 2/6/2021 12:07:17 AM )
( T2 : 2.0 )
( CUTVIEWER )
( FROM/0,0,5 )
( Select dummy tool to avoid warnings )
( TOOL/MILL,1,0,20.0,0 )
( STOCK/BLOCK,180.0,100.0,6.0,0.0,0.0,6.0 )
G21 G90 G91.1 G64 G40
G0 Z3.0
( T2 : 2.0 )
( Tool Taper coming soon )
( TOOL/MILL,2.0,0.0,0.0,0 )
T2 M6
( Extent control )
G17
M3 S1000
G0 X163.8 Y75.8
G1 F300.0 Z3.4
G1 F800.0 X0.0 Z3.2645
G3 X-1.0 Y74.8 Z3.2632 I0.0 J-1.0
G1 Y0.0 Z3.2013
G3 X0.0 Y-1.0 Z3.2 I1.0 J0.0
G1 X163.8 Z3.0645
G3 X164.8 Y0.0 Z3.0632 I0.0 J1.0
G1 Y74.8 Z3.0013
G3 X163.8 Y75.8 Z3.0 I-1.0 J0.0
G1 X0.0
G3 X-1.0 Y74.8 I0.0 J-1.0
G1 Y0.0
G3 X0.0 Y-1.0 I1.0 J0.0
G1 X163.8
G3 X164.8 Y0.0 I0.0 J1.0
G1 Y74.8
G3 X163.8 Y75.8 I-1.0 J0.0
( M3_holes )
S1000
G0 X6.2055 Y68.5173
G0 Z1.0
G1 F50.0 Z0.0
G1 F40.0 X6.1874 Y68.505 Z-0.002
G1 X6.1684 Y68.4937 Z-0.004
G1 X6.1487 Y68.4837 Z-0.006
G1 X6.1287 Y68.475 Z-0.008
G1 X6.1081 Y68.4676 Z-0.01
G1 X6.0867 Y68.4614 Z-0.012
G1 X6.0653 Y68.4566 Z-0.014
G1 X6.0441 Y68.4533 Z-0.016
G1 X6.0222 Y68.4512 Z-0.018
G1 X6.0 Y68.4505 Z-0.02
G1 X5.9778 Y68.4512 Z-0.022
G1 X5.9559 Y68.4533 Z-0.024
G1 X5.9347 Y68.4566 Z-0.026
G1 X5.9133 Y68.4614 Z-0.028
G1 X5.8919 Y68.4676 Z-0.03
G1 X5.8713 Y68.475 Z-0.032
G1 X5.8513 Y68.4837 Z-0.034
G1 X5.8316 Y68.4937 Z-0.036
G1 X5.8126 Y68.505 Z-0.038
G1 X5.7945 Y68.5173 Z-0.04
G1 X5.7774 Y68.5305 Z-0.042
G1 X5.7609 Y68.5451 Z-0.044
G1 X5.7451 Y68.5609 Z-0.046
G1 X5.7305 Y68.5774 Z-0.048
G1 X5.7173 Y68.5945 Z-0.05
G1 X5.705 Y68.6126 Z-0.052
G1 X5.6937 Y68.6316 Z-0.054
G1 X5.6837 Y68.6513 Z-0.056
G1 X5.675 Y68.6713 Z-0.058
G1 X5.6676 Y68.6919 Z-0.06
G1 X5.6614 Y68.7133 Z-0.062
G1 X5.6566 Y68.7347 Z-0.064
G1 X5.6533 Y68.7559 Z-0.066
G1 X5.6512 Y68.7778 Z-0.068
G1 X5.6505 Y68.8 Z-0.07
G1 X5.6512 Y68.8222 Z-0.072
G1 X5.6533 Y68.8441 Z-0.074
G1 X5.6566 Y68.8653 Z-0.076
G1 X5.6614 Y68.8867 Z-0.078
G1 X5.6676 Y68.9081 Z-0.08
G1 X5.675 Y68.9287 Z-0.082
G1 X5.6837 Y68.9487 Z-0.084
G1 X5.6937 Y68.9684 Z-0.086
G1 X5.705 Y68.9874 Z-0.088
G1 X5.7173 Y69.0055 Z-0.09
G1 X5.7305 Y69.0226 Z-0.092
G1 X5.7451 Y69.0391 Z-0.094
G1 X5.7609 Y69.0549 Z-0.096
G1 X5.7774 Y69.0695 Z-0.098
G1 X5.7945 Y69.0827 Z-0.1
G1 X5.8126 Y69.095 Z-0.102
G1 X5.8316 Y69.1063 Z-0.104
G1 X5.8513 Y69.1163 Z-0.106
G1 X5.8713 Y69.125 Z-0.108
G1 X5.8919 Y69.1324 Z-0.11
G1 X5.9133 Y69.1386 Z-0.112
G1 X5.9347 Y69.1434 Z-0.114
G1 X5.9559 Y69.1467 Z-0.116
G1 X5.9778 Y69.1488 Z-0.118
G1 X6.0 Y69.1495 Z-0.12
G1 X6.0222 Y69.1488 Z-0.122
G1 X6.0441 Y69.1467 Z-0.124
G1 X6.0653 Y69.1434 Z-0.126
G1 X6.0867 Y69.1386 Z-0.128
G1 X6.1081 Y69.1324 Z-0.13
G1 X6.1287 Y69.125 Z-0.132
G1 X6.1487 Y69.1163 Z-0.134
G1 X6.1684 Y69.1063 Z-0.136
G1 X6.1874 Y69.095 Z-0.138
G1 X6.2055 Y69.0827 Z-0.14
G1 X6.2226 Y69.0695 Z-0.142
G1 X6.2391 Y69.0549 Z-0.144
G1 X6.2549 Y69.0391 Z-0.146
G1 X6.2695 Y69.0226 Z-0.148
G1 X6.2827 Y69.0055 Z-0.15
G1 X6.295 Y68.9874 Z-0.152
G1 X6.3063 Y68.9684 Z-0.154
G1 X6.3163 Y68.9487 Z-0.156
G1 X6.325 Y68.9287 Z-0.158
G1 X6.3324 Y68.9081 Z-0.16
G1 X6.3386 Y68.8867 Z-0.162
G1 X6.3434 Y68.8653 Z-0.164
G1 X6.3467 Y68.8441 Z-0.166
G1 X6.3488 Y68.8222 Z-0.168
G1 X6.3495 Y68.8 Z-0.17
G1 X6.3488 Y68.7778 Z-0.172
G1 X6.3467 Y68.7559 Z-0.174
G1 X6.3434 Y68.7347 Z-0.176
G1 X6.3386 Y68.7133 Z-0.178
G1 X6.3324 Y68.6919 Z-0.18
G1 X6.325 Y68.6713 Z-0.182
G1 X6.3163 Y68.6513 Z-0.184
G1 X6.3063 Y68.6316 Z-0.186
G1 X6.295 Y68.6126 Z-0.188
G1 X6.2827 Y68.5945 Z-0.19
G1 X6.2695 Y68.5774 Z-0.192
G1 X6.2549 Y68.5609 Z-0.194
G1 X6.2391 Y68.5451 Z-0.196
G1 X6.2226 Y68.5305 Z-0.198
G1 X6.2055 Y68.5173 Z-0.2
G1 X6.1874 Y68.505 Z-0.202
G1 X6.1684 Y68.4937 Z-0.204
G1 X6.1487 Y68.4837 Z-0.206
G1 X6.1287 Y68.475 Z-0.208
G1 X6.1081 Y68.4676 Z-0.21
G1 X6.0867 Y68.4614 Z-0.212
G1 X6.0653 Y68.4566 Z-0.214
G1 X6.0441 Y68.4533 Z-0.216
G1 X6.0222 Y68.4512 Z-0.218
G1 X6.0 Y68.4505 Z-0.22
G1 X5.9778 Y68.4512 Z-0.222
G1 X5.9559 Y68.4533 Z-0.224
G1 X5.9347 Y68.4566 Z-0.226
G1 X5.9133 Y68.4614 Z-0.228
G1 X5.8919 Y68.4676 Z-0.23
G1 X5.8713 Y68.475 Z-0.232
G1 X5.8513 Y68.4837 Z-0.234
G1 X5.8316 Y68.4937 Z-0.236
G1 X5.8126 Y68.505 Z-0.238
G1 X5.7945 Y68.5173 Z-0.24
G1 X5.7774 Y68.5305 Z-0.242
G1 X5.7609 Y68.5451 Z-0.244
G1 X5.7451 Y68.5609 Z-0.246
G1 X5.7305 Y68.5774 Z-0.248
G1 X5.7173 Y68.5945 Z-0.25
G1 X5.705 Y68.6126 Z-0.252
G1 X5.6937 Y68.6316 Z-0.254
G1 X5.6837 Y68.6513 Z-0.256
G1 X5.675 Y68.6713 Z-0.258
G1 X5.6676 Y68.6919 Z-0.26
G1 X5.6614 Y68.7133 Z-0.262
G1 X5.6566 Y68.7347 Z-0.264
G1 X5.6533 Y68.7559 Z-0.266
G1 X5.6512 Y68.7778 Z-0.268
G1 X5.6505 Y68.8 Z-0.27
G1 X5.6512 Y68.8222 Z-0.272
G1 X5.6533 Y68.8441 Z-0.274
G1 X5.6566 Y68.8653 Z-0.276
G1 X5.6614 Y68.8867 Z-0.278
G1 X5.6676 Y68.9081 Z-0.28
G1 X5.675 Y68.9287 Z-0.282
G1 X5.6837 Y68.9487 Z-0.284
G1 X5.6937 Y68.9684 Z-0.286
G1 X5.705 Y68.9874 Z-0.288
G1 X5.7173 Y69.0055 Z-0.29
G1 X5.7305 Y69.0226 Z-0.292
G1 X5.7451 Y69.0391 Z-0.294
G1 X5.7609 Y69.0549 Z-0.296
G1 X5.7774 Y69.0695 Z-0.298
G1 X5.7945 Y69.0827 Z-0.3
G1 X5.8126 Y69.095 Z-0.302
G1 X5.8316 Y69.1063 Z-0.304
G1 X5.8513 Y69.1163 Z-0.306
G1 X5.8713 Y69.125 Z-0.308
G1 X5.8919 Y69.1324 Z-0.31
G1 X5.9133 Y69.1386 Z-0.312
G1 X5.9347 Y69.1434 Z-0.314
G1 X5.9559 Y69.1467 Z-0.316
G1 X5.9778 Y69.1488 Z-0.318
G1 X6.0 Y69.1495 Z-0.32
G1 X6.0222 Y69.1488 Z-0.322
G1 X6.0441 Y69.1467 Z-0.324
G1 X6.0653 Y69.1434 Z-0.326
G1 X6.0867 Y69.1386 Z-0.328
G1 X6.1081 Y69.1324 Z-0.33
G1 X6.1287 Y69.125 Z-0.332
G1 X6.1487 Y69.1163 Z-0.334
G1 X6.1684 Y69.1063 Z-0.336
G1 X6.1874 Y69.095 Z-0.338
G1 X6.2055 Y69.0827 Z-0.34
G1 X6.2226 Y69.0695 Z-0.342
G1 X6.2391 Y69.0549 Z-0.344
G1 X6.2549 Y69.0391 Z-0.346
G1 X6.2695 Y69.0226 Z-0.348
G1 X6.2827 Y69.0055 Z-0.35
G1 X6.295 Y68.9874 Z-0.352
G1 X6.3063 Y68.9684 Z-0.354
G1 X6.3163 Y68.9487 Z-0.356
G1 X6.325 Y68.9287 Z-0.358
G1 X6.3324 Y68.9081 Z-0.36
G1 X6.3386 Y68.8867 Z-0.362
G1 X6.3434 Y68.8653 Z-0.364
G1 X6.3467 Y68.8441 Z-0.366
G1 X6.3488 Y68.8222 Z-0.368
G1 X6.3495 Y68.8 Z-0.37
G1 X6.3488 Y68.7778 Z-0.372
G1 X6.3467 Y68.7559 Z-0.374
G1 X6.3434 Y68.7347 Z-0.376
G1 X6.3386 Y68.7133 Z-0.378
G1 X6.3324 Y68.6919 Z-0.38
G1 X6.325 Y68.6713 Z-0.382
G1 X6.3163 Y68.6513 Z-0.384
G1 X6.3063 Y68.6316 Z-0.386
G1 X6.295 Y68.6126 Z-0.388
G1 X6.2827 Y68.5945 Z-0.39
G1 X6.2695 Y68.5774 Z-0.392
G1 X6.2549 Y68.5609 Z-0.394
G1 X6.2391 Y68.5451 Z-0.396
G1 X6.2226 Y68.5305 Z-0.398
G1 X6.2055 Y68.5173 Z-0.4
G1 X6.1874 Y68.505 Z-0.402
G1 X6.1684 Y68.4937 Z-0.404
G1 X6.1487 Y68.4837 Z-0.406
G1 X6.1287 Y68.475 Z-0.408
G1 X6.1081 Y68.4676 Z-0.41
G1 X6.0867 Y68.4614 Z-0.412
G1 X6.0653 Y68.4566 Z-0.414
G1 X6.0441 Y68.4533 Z-0.416
G1 X6.0222 Y68.4512 Z-0.418
G1 X6.0 Y68.4505 Z-0.42
G1 X5.9778 Y68.4512 Z-0.422
G1 X5.9559 Y68.4533 Z-0.424
G1 X5.9347 Y68.4566 Z-0.426
G1 X5.9133 Y68.4614 Z-0.428
G1 X5.8919 Y68.4676 Z-0.43
G1 X5.8713 Y68.475 Z-0.432
G1 X5.8513 Y68.4837 Z-0.434
G1 X5.8316 Y68.4937 Z-0.436
G1 X5.8126 Y68.505 Z-0.438
G1 X5.7945 Y68.5173 Z-0.44
G1 X5.7774 Y68.5305 Z-0.442
G1 X5.7609 Y68.5451 Z-0.444
G1 X5.7451 Y68.5609 Z-0.446
G1 X5.7305 Y68.5774 Z-0.448
G1 X5.7173 Y68.5945 Z-0.45
G1 X5.705 Y68.6126 Z-0.452
G1 X5.6937 Y68.6316 Z-0.454
G1 X5.6837 Y68.6513 Z-0.456
G1 X5.675 Y68.6713 Z-0.458
G1 X5.6676 Y68.6919 Z-0.46
G1 X5.6614 Y68.7133 Z-0.462
G1 X5.6566 Y68.7347 Z-0.464
G1 X5.6533 Y68.7559 Z-0.466
G1 X5.6512 Y68.7778 Z-0.468
G1 X5.6505 Y68.8 Z-0.47
G1 X5.6512 Y68.8222 Z-0.472
G1 X5.6533 Y68.8441 Z-0.474
G1 X5.6566 Y68.8653 Z-0.476
G1 X5.6614 Y68.8867 Z-0.478
G1 X5.6676 Y68.9081 Z-0.48
G1 X5.675 Y68.9287 Z-0.482
G1 X5.6837 Y68.9487 Z-0.484
G1 X5.6937 Y68.9684 Z-0.486
G1 X5.705 Y68.9874 Z-0.488
G1 X5.7173 Y69.0055 Z-0.49
G1 X5.7305 Y69.0226 Z-0.492
G1 X5.7451 Y69.0391 Z-0.494
G1 X5.7609 Y69.0549 Z-0.496
G1 X5.7774 Y69.0695 Z-0.498
G1 X5.7945 Y69.0827 Z-0.5
G1 X5.8126 Y69.095 Z-0.502
G1 X5.8316 Y69.1063 Z-0.504
G1 X5.8513 Y69.1163 Z-0.506
G1 X5.8713 Y69.125 Z-0.508
G1 X5.8919 Y69.1324 Z-0.51
G1 X5.9133 Y69.1386 Z-0.512
G1 X5.9347 Y69.1434 Z-0.514
G1 X5.9559 Y69.1467 Z-0.516
G1 X5.9778 Y69.1488 Z-0.518
G1 X6.0 Y69.1495 Z-0.52
G1 X6.0222 Y69.1488 Z-0.522
G1 X6.0441 Y69.1467 Z-0.524
G1 X6.0653 Y69.1434 Z-0.526
G1 X6.0867 Y69.1386 Z-0.528
G1 X6.1081 Y69.1324 Z-0.53
G1 X6.1287 Y69.125 Z-0.532
G1 X6.1487 Y69.1163 Z-0.534
G1 X6.1684 Y69.1063 Z-0.536
G1 X6.1874 Y69.095 Z-0.538
G1 X6.2055 Y69.0827 Z-0.54
G1 X6.2226 Y69.0695 Z-0.542
G1 X6.2391 Y69.0549 Z-0.544
G1 X6.2549 Y69.0391 Z-0.546
G1 X6.2695 Y69.0226 Z-0.548
G1 X6.2827 Y69.0055 Z-0.55
G1 X6.295 Y68.9874 Z-0.552
G1 X6.3063 Y68.9684 Z-0.554
G1 X6.3163 Y68.9487 Z-0.556
G1 X6.325 Y68.9287 Z-0.558
G1 X6.3324 Y68.9081 Z-0.56
G1 X6.3386 Y68.8867 Z-0.562
G1 X6.3434 Y68.8653 Z-0.564
G1 X6.3467 Y68.8441 Z-0.566
G1 X6.3488 Y68.8222 Z-0.568
G1 X6.3495 Y68.8 Z-0.57
G1 X6.3488 Y68.7778 Z-0.572
G1 X6.3467 Y68.7559 Z-0.574
G1 X6.3434 Y68.7347 Z-0.576
G1 X6.3386 Y68.7133 Z-0.578
G1 X6.3324 Y68.6919 Z-0.58
G1 X6.325 Y68.6713 Z-0.582
G1 X6.3163 Y68.6513 Z-0.584
G1 X6.3063 Y68.6316 Z-0.586
G1 X6.295 Y68.6126 Z-0.588
G1 X6.2827 Y68.5945 Z-0.59
G1 X6.2695 Y68.5774 Z-0.592
G1 X6.2549 Y68.5609 Z-0.594
G1 X6.2391 Y68.5451 Z-0.596
G1 X6.2226 Y68.5305 Z-0.598
G1 X6.2055 Y68.5173 Z-0.6
G1 X6.1874 Y68.505 Z-0.602
G1 X6.1684 Y68.4937 Z-0.604
G1 X6.1487 Y68.4837 Z-0.606
G1 X6.1287 Y68.475 Z-0.608
G1 X6.1081 Y68.4676 Z-0.61
G1 X6.0867 Y68.4614 Z-0.612
G1 X6.0653 Y68.4566 Z-0.614
G1 X6.0441 Y68.4533 Z-0.616
G1 X6.0222 Y68.4512 Z-0.618
G1 X6.0 Y68.4505 Z-0.62
G1 X5.9778 Y68.4512 Z-0.622
G1 X5.9559 Y68.4533 Z-0.624
G1 X5.9347 Y68.4566 Z-0.626
G1 X5.9133 Y68.4614 Z-0.628
G1 X5.8919 Y68.4676 Z-0.63
G1 X5.8713 Y68.475 Z-0.632
G1 X5.8513 Y68.4837 Z-0.634
G1 X5.8316 Y68.4937 Z-0.636
G1 X5.8126 Y68.505 Z-0.638
G1 X5.7945 Y68.5173 Z-0.64
G1 X5.7774 Y68.5305 Z-0.642
G1 X5.7609 Y68.5451 Z-0.644
G1 X5.7451 Y68.5609 Z-0.646
G1 X5.7305 Y68.5774 Z-0.648
G1 X5.7173 Y68.5945 Z-0.65
G1 X5.705 Y68.6126 Z-0.652
G1 X5.6937 Y68.6316 Z-0.654
G1 X5.6837 Y68.6513 Z-0.656
G1 X5.675 Y68.6713 Z-0.658
G1 X5.6676 Y68.6919 Z-0.66
G1 X5.6614 Y68.7133 Z-0.662
G1 X5.6566 Y68.7347 Z-0.664
G1 X5.6533 Y68.7559 Z-0.666
G1 X5.6512 Y68.7778 Z-0.668
G1 X5.6505 Y68.8 Z-0.67
G1 X5.6512 Y68.8222 Z-0.672
G1 X5.6533 Y68.8441 Z-0.674
G1 X5.6566 Y68.8653 Z-0.676
G1 X5.6614 Y68.8867 Z-0.678
G1 X5.6676 Y68.9081 Z-0.68
G1 X5.675 Y68.9287 Z-0.682
G1 X5.6837 Y68.9487 Z-0.684
G1 X5.6937 Y68.9684 Z-0.686
G1 X5.705 Y68.9874 Z-0.688
G1 X5.7173 Y69.0055 Z-0.69
G1 X5.7305 Y69.0226 Z-0.692
G1 X5.7451 Y69.0391 Z-0.694
G1 X5.7609 Y69.0549 Z-0.696
G1 X5.7774 Y69.0695 Z-0.698
G1 X5.7945 Y69.0827 Z-0.7
G1 X5.8126 Y69.095 Z-0.702
G1 X5.8316 Y69.1063 Z-0.704
G1 X5.8513 Y69.1163 Z-0.706
G1 X5.8713 Y69.125 Z-0.708
G1 X5.8919 Y69.1324 Z-0.71
G1 X5.9133 Y69.1386 Z-0.712
G1 X5.9347 Y69.1434 Z-0.714
G1 X5.9559 Y69.1467 Z-0.716
G1 X5.9778 Y69.1488 Z-0.718
G1 X6.0 Y69.1495 Z-0.72
G1 X6.0222 Y69.1488 Z-0.722
G1 X6.0441 Y69.1467 Z-0.724
G1 X6.0653 Y69.1434 Z-0.726
G1 X6.0867 Y69.1386 Z-0.728
G1 X6.1081 Y69.1324 Z-0.73
G1 X6.1287 Y69.125 Z-0.732
G1 X6.1487 Y69.1163 Z-0.734
G1 X6.1684 Y69.1063 Z-0.736
G1 X6.1874 Y69.095 Z-0.738
G1 X6.2055 Y69.0827 Z-0.74
G1 X6.2226 Y69.0695 Z-0.742
G1 X6.2391 Y69.0549 Z-0.744
G1 X6.2549 Y69.0391 Z-0.746
G1 X6.2695 Y69.0226 Z-0.748
G1 X6.2827 Y69.0055 Z-0.75
G1 X6.295 Y68.9874 Z-0.752
G1 X6.3063 Y68.9684 Z-0.754
G1 X6.3163 Y68.9487 Z-0.756
G1 X6.325 Y68.9287 Z-0.758
G1 X6.3324 Y68.9081 Z-0.76
G1 X6.3386 Y68.8867 Z-0.762
G1 X6.3434 Y68.8653 Z-0.764
G1 X6.3467 Y68.8441 Z-0.766
G1 X6.3488 Y68.8222 Z-0.768
G1 X6.3495 Y68.8 Z-0.77
G1 X6.3488 Y68.7778 Z-0.772
G1 X6.3467 Y68.7559 Z-0.774
G1 X6.3434 Y68.7347 Z-0.776
G1 X6.3386 Y68.7133 Z-0.778
G1 X6.3324 Y68.6919 Z-0.78
G1 X6.325 Y68.6713 Z-0.782
G1 X6.3163 Y68.6513 Z-0.784
G1 X6.3063 Y68.6316 Z-0.786
G1 X6.295 Y68.6126 Z-0.788
G1 X6.2827 Y68.5945 Z-0.79
G1 X6.2695 Y68.5774 Z-0.792
G1 X6.2549 Y68.5609 Z-0.794
G1 X6.2391 Y68.5451 Z-0.796
G1 X6.2226 Y68.5305 Z-0.798
G1 X6.2055 Y68.5173 Z-0.8
G1 X6.1874 Y68.505 Z-0.802
G1 X6.1684 Y68.4937 Z-0.804
G1 X6.1487 Y68.4837 Z-0.806
G1 X6.1287 Y68.475 Z-0.808
G1 X6.1081 Y68.4676 Z-0.81
G1 X6.0867 Y68.4614 Z-0.812
G1 X6.0653 Y68.4566 Z-0.814
G1 X6.0441 Y68.4533 Z-0.816
G1 X6.0222 Y68.4512 Z-0.818
G1 X6.0 Y68.4505 Z-0.82
G1 X5.9778 Y68.4512 Z-0.822
G1 X5.9559 Y68.4533 Z-0.824
G1 X5.9347 Y68.4566 Z-0.826
G1 X5.9133 Y68.4614 Z-0.828
G1 X5.8919 Y68.4676 Z-0.83
G1 X5.8713 Y68.475 Z-0.832
G1 X5.8513 Y68.4837 Z-0.834
G1 X5.8316 Y68.4937 Z-0.836
G1 X5.8126 Y68.505 Z-0.838
G1 X5.7945 Y68.5173 Z-0.84
G1 X5.7774 Y68.5305 Z-0.842
G1 X5.7609 Y68.5451 Z-0.844
G1 X5.7451 Y68.5609 Z-0.846
G1 X5.7305 Y68.5774 Z-0.848
G1 X5.7173 Y68.5945 Z-0.85
G1 X5.705 Y68.6126 Z-0.852
G1 X5.6937 Y68.6316 Z-0.854
G1 X5.6837 Y68.6513 Z-0.856
G1 X5.675 Y68.6713 Z-0.858
G1 X5.6676 Y68.6919 Z-0.86
G1 X5.6614 Y68.7133 Z-0.862
G1 X5.6566 Y68.7347 Z-0.864
G1 X5.6533 Y68.7559 Z-0.866
G1 X5.6512 Y68.7778 Z-0.868
G1 X5.6505 Y68.8 Z-0.87
G1 X5.6512 Y68.8222 Z-0.872
G1 X5.6533 Y68.8441 Z-0.874
G1 X5.6566 Y68.8653 Z-0.876
G1 X5.6614 Y68.8867 Z-0.878
G1 X5.6676 Y68.9081 Z-0.88
G1 X5.675 Y68.9287 Z-0.882
G1 X5.6837 Y68.9487 Z-0.884
G1 X5.6937 Y68.9684 Z-0.886
G1 X5.705 Y68.9874 Z-0.888
G1 X5.7173 Y69.0055 Z-0.89
G1 X5.7305 Y69.0226 Z-0.892
G1 X5.7451 Y69.0391 Z-0.894
G1 X5.7609 Y69.0549 Z-0.896
G1 X5.7774 Y69.0695 Z-0.898
G1 X5.7945 Y69.0827 Z-0.9
G1 X5.8126 Y69.095 Z-0.902
G1 X5.8316 Y69.1063 Z-0.904
G1 X5.8513 Y69.1163 Z-0.906
G1 X5.8713 Y69.125 Z-0.908
G1 X5.8919 Y69.1324 Z-0.91
G1 X5.9133 Y69.1386 Z-0.912
G1 X5.9347 Y69.1434 Z-0.914
G1 X5.9559 Y69.1467 Z-0.916
G1 X5.9778 Y69.1488 Z-0.918
G1 X6.0 Y69.1495 Z-0.92
G1 X6.0222 Y69.1488 Z-0.922
G1 X6.0441 Y69.1467 Z-0.924
G1 X6.0653 Y69.1434 Z-0.926
G1 X6.0867 Y69.1386 Z-0.928
G1 X6.1081 Y69.1324 Z-0.93
G1 X6.1287 Y69.125 Z-0.932
G1 X6.1487 Y69.1163 Z-0.934
G1 X6.1684 Y69.1063 Z-0.936
G1 X6.1874 Y69.095 Z-0.938
G1 X6.2055 Y69.0827 Z-0.94
G1 X6.2226 Y69.0695 Z-0.942
G1 X6.2391 Y69.0549 Z-0.944
G1 X6.2549 Y69.0391 Z-0.946
G1 X6.2695 Y69.0226 Z-0.948
G1 X6.2827 Y69.0055 Z-0.95
G1 X6.295 Y68.9874 Z-0.952
G1 X6.3063 Y68.9684 Z-0.954
G1 X6.3163 Y68.9487 Z-0.956
G1 X6.325 Y68.9287 Z-0.958
G1 X6.3324 Y68.9081 Z-0.96
G1 X6.3386 Y68.8867 Z-0.962
G1 X6.3434 Y68.8653 Z-0.964
G1 X6.3467 Y68.8441 Z-0.966
G1 X6.3488 Y68.8222 Z-0.968
G1 X6.3495 Y68.8 Z-0.97
G1 X6.3488 Y68.7778 Z-0.972
G1 X6.3467 Y68.7559 Z-0.974
G1 X6.3434 Y68.7347 Z-0.976
G1 X6.3386 Y68.7133 Z-0.978
G1 X6.3324 Y68.6919 Z-0.98
G1 X6.325 Y68.6713 Z-0.982
G1 X6.3163 Y68.6513 Z-0.984
G1 X6.3063 Y68.6316 Z-0.986
G1 X6.295 Y68.6126 Z-0.988
G1 X6.2827 Y68.5945 Z-0.99
G1 X6.2695 Y68.5774 Z-0.992
G1 X6.2549 Y68.5609 Z-0.994
G1 X6.2391 Y68.5451 Z-0.996
G1 X6.2226 Y68.5305 Z-0.998
G1 X6.2055 Y68.5173 Z-1.0
G1 X6.1874 Y68.505 Z-1.002
G1 X6.1684 Y68.4937 Z-1.004
G1 X6.1487 Y68.4837 Z-1.006
G1 X6.1287 Y68.475 Z-1.008
G1 X6.1081 Y68.4676 Z-1.01
G1 X6.0867 Y68.4614 Z-1.012
G1 X6.0653 Y68.4566 Z-1.014
G1 X6.0441 Y68.4533 Z-1.016
G1 X6.0222 Y68.4512 Z-1.018
G1 X6.0 Y68.4505 Z-1.02
G1 X5.9778 Y68.4512 Z-1.022
G1 X5.9559 Y68.4533 Z-1.024
G1 X5.9347 Y68.4566 Z-1.026
G1 X5.9133 Y68.4614 Z-1.028
G1 X5.8919 Y68.4676 Z-1.03
G1 X5.8713 Y68.475 Z-1.032
G1 X5.8513 Y68.4837 Z-1.034
G1 X5.8316 Y68.4937 Z-1.036
G1 X5.8126 Y68.505 Z-1.038
G1 X5.7945 Y68.5173 Z-1.04
G1 X5.7774 Y68.5305 Z-1.042
G1 X5.7609 Y68.5451 Z-1.044
G1 X5.7451 Y68.5609 Z-1.046
G1 X5.7305 Y68.5774 Z-1.048
G1 X5.7173 Y68.5945 Z-1.05
G1 X5.705 Y68.6126 Z-1.052
G1 X5.6937 Y68.6316 Z-1.054
G1 X5.6837 Y68.6513 Z-1.056
G1 X5.675 Y68.6713 Z-1.058
G1 X5.6676 Y68.6919 Z-1.06
G1 X5.6614 Y68.7133 Z-1.062
G1 X5.6566 Y68.7347 Z-1.064
G1 X5.6533 Y68.7559 Z-1.066
G1 X5.6512 Y68.7778 Z-1.068
G1 X5.6505 Y68.8 Z-1.07
G1 X5.6512 Y68.8222 Z-1.072
G1 X5.6533 Y68.8441 Z-1.074
G1 X5.6566 Y68.8653 Z-1.076
G1 X5.6614 Y68.8867 Z-1.078
G1 X5.6676 Y68.9081 Z-1.08
G1 X5.675 Y68.9287 Z-1.082
G1 X5.6837 Y68.9487 Z-1.084
G1 X5.6937 Y68.9684 Z-1.086
G1 X5.705 Y68.9874 Z-1.088
G1 X5.7173 Y69.0055 Z-1.09
G1 X5.7305 Y69.0226 Z-1.092
G1 X5.7451 Y69.0391 Z-1.094
G1 X5.7609 Y69.0549 Z-1.096
G1 X5.7774 Y69.0695 Z-1.098
G1 X5.7945 Y69.0827 Z-1.1
G1 X5.8126 Y69.095 Z-1.102
G1 X5.8316 Y69.1063 Z-1.104
G1 X5.8513 Y69.1163 Z-1.106
G1 X5.8713 Y69.125 Z-1.108
G1 X5.8919 Y69.1324 Z-1.11
G1 X5.9133 Y69.1386 Z-1.112
G1 X5.9347 Y69.1434 Z-1.114
G1 X5.9559 Y69.1467 Z-1.116
G1 X5.9778 Y69.1488 Z-1.118
G1 X6.0 Y69.1495 Z-1.12
G1 X6.0222 Y69.1488 Z-1.122
G1 X6.0441 Y69.1467 Z-1.124
G1 X6.0653 Y69.1434 Z-1.126
G1 X6.0867 Y69.1386 Z-1.128
G1 X6.1081 Y69.1324 Z-1.13
G1 X6.1287 Y69.125 Z-1.132
G1 X6.1487 Y69.1163 Z-1.134
G1 X6.1684 Y69.1063 Z-1.136
G1 X6.1874 Y69.095 Z-1.138
G1 X6.2055 Y69.0827 Z-1.14
G1 X6.2226 Y69.0695 Z-1.142
G1 X6.2391 Y69.0549 Z-1.144
G1 X6.2549 Y69.0391 Z-1.146
G1 X6.2695 Y69.0226 Z-1.148
G1 X6.2827 Y69.0055 Z-1.15
G1 X6.295 Y68.9874 Z-1.152
G1 X6.3063 Y68.9684 Z-1.154
G1 X6.3163 Y68.9487 Z-1.156
G1 X6.325 Y68.9287 Z-1.158
G1 X6.3324 Y68.9081 Z-1.16
G1 X6.3386 Y68.8867 Z-1.162
G1 X6.3434 Y68.8653 Z-1.164
G1 X6.3467 Y68.8441 Z-1.166
G1 X6.3488 Y68.8222 Z-1.168
G1 X6.3495 Y68.8 Z-1.17
G1 X6.3488 Y68.7778 Z-1.172
G1 X6.3467 Y68.7559 Z-1.174
G1 X6.3434 Y68.7347 Z-1.176
G1 X6.3386 Y68.7133 Z-1.178
G1 X6.3324 Y68.6919 Z-1.18
G1 X6.325 Y68.6713 Z-1.182
G1 X6.3163 Y68.6513 Z-1.184
G1 X6.3063 Y68.6316 Z-1.186
G1 X6.295 Y68.6126 Z-1.188
G1 X6.2827 Y68.5945 Z-1.19
G1 X6.2695 Y68.5774 Z-1.192
G1 X6.2549 Y68.5609 Z-1.194
G1 X6.2391 Y68.5451 Z-1.196
G1 X6.2226 Y68.5305 Z-1.198
G1 X6.2055 Y68.5173 Z-1.2
G1 X6.1874 Y68.505 Z-1.202
G1 X6.1684 Y68.4937 Z-1.204
G1 X6.1487 Y68.4837 Z-1.206
G1 X6.1287 Y68.475 Z-1.208
G1 X6.1081 Y68.4676 Z-1.21
G1 X6.0867 Y68.4614 Z-1.212
G1 X6.0653 Y68.4566 Z-1.214
G1 X6.0441 Y68.4533 Z-1.216
G1 X6.0222 Y68.4512 Z-1.218
G1 X6.0 Y68.4505 Z-1.22
G1 X5.9778 Y68.4512 Z-1.222
G1 X5.9559 Y68.4533 Z-1.224
G1 X5.9347 Y68.4566 Z-1.226
G1 X5.9133 Y68.4614 Z-1.228
G1 X5.8919 Y68.4676 Z-1.23
G1 X5.8713 Y68.475 Z-1.232
G1 X5.8513 Y68.4837 Z-1.234
G1 X5.8316 Y68.4937 Z-1.236
G1 X5.8126 Y68.505 Z-1.238
G1 X5.7945 Y68.5173 Z-1.24
G1 X5.7774 Y68.5305 Z-1.242
G1 X5.7609 Y68.5451 Z-1.244
G1 X5.7451 Y68.5609 Z-1.246
G1 X5.7305 Y68.5774 Z-1.248
G1 X5.7173 Y68.5945 Z-1.25
G1 X5.705 Y68.6126 Z-1.252
G1 X5.6937 Y68.6316 Z-1.254
G1 X5.6837 Y68.6513 Z-1.256
G1 X5.675 Y68.6713 Z-1.258
G1 X5.6676 Y68.6919 Z-1.26
G1 X5.6614 Y68.7133 Z-1.262
G1 X5.6566 Y68.7347 Z-1.264
G1 X5.6533 Y68.7559 Z-1.266
G1 X5.6512 Y68.7778 Z-1.268
G1 X5.6505 Y68.8 Z-1.27
G1 X5.6512 Y68.8222 Z-1.272
G1 X5.6533 Y68.8441 Z-1.274
G1 X5.6566 Y68.8653 Z-1.276
G1 X5.6614 Y68.8867 Z-1.278
G1 X5.6676 Y68.9081 Z-1.28
G1 X5.675 Y68.9287 Z-1.282
G1 X5.6837 Y68.9487 Z-1.284
G1 X5.6937 Y68.9684 Z-1.286
G1 X5.705 Y68.9874 Z-1.288
G1 X5.7173 Y69.0055 Z-1.29
G1 X5.7305 Y69.0226 Z-1.292
G1 X5.7451 Y69.0391 Z-1.294
G1 X5.7609 Y69.0549 Z-1.296
G1 X5.7774 Y69.0695 Z-1.298
G1 X5.7945 Y69.0827 Z-1.3
G1 X5.8126 Y69.095 Z-1.302
G1 X5.8316 Y69.1063 Z-1.304
G1 X5.8513 Y69.1163 Z-1.306
G1 X5.8713 Y69.125 Z-1.308
G1 X5.8919 Y69.1324 Z-1.31
G1 X5.9133 Y69.1386 Z-1.312
G1 X5.9347 Y69.1434 Z-1.314
G1 X5.9559 Y69.1467 Z-1.316
G1 X5.9778 Y69.1488 Z-1.318
G1 X6.0 Y69.1495 Z-1.32
G1 X6.0222 Y69.1488 Z-1.322
G1 X6.0441 Y69.1467 Z-1.324
G1 X6.0653 Y69.1434 Z-1.326
G1 X6.0867 Y69.1386 Z-1.328
G1 X6.1081 Y69.1324 Z-1.33
G1 X6.1287 Y69.125 Z-1.332
G1 X6.1487 Y69.1163 Z-1.334
G1 X6.1684 Y69.1063 Z-1.336
G1 X6.1874 Y69.095 Z-1.338
G1 X6.2055 Y69.0827 Z-1.34
G1 X6.2226 Y69.0695 Z-1.342
G1 X6.2391 Y69.0549 Z-1.344
G1 X6.2549 Y69.0391 Z-1.346
G1 X6.2695 Y69.0226 Z-1.348
G1 X6.2827 Y69.0055 Z-1.35
G1 X6.295 Y68.9874 Z-1.352
G1 X6.3063 Y68.9684 Z-1.354
G1 X6.3163 Y68.9487 Z-1.356
G1 X6.325 Y68.9287 Z-1.358
G1 X6.3324 Y68.9081 Z-1.36
G1 X6.3386 Y68.8867 Z-1.362
G1 X6.3434 Y68.8653 Z-1.364
G1 X6.3467 Y68.8441 Z-1.366
G1 X6.3488 Y68.8222 Z-1.368
G1 X6.3495 Y68.8 Z-1.37
G1 X6.3488 Y68.7778 Z-1.372
G1 X6.3467 Y68.7559 Z-1.374
G1 X6.3434 Y68.7347 Z-1.376
G1 X6.3386 Y68.7133 Z-1.378
G1 X6.3324 Y68.6919 Z-1.38
G1 X6.325 Y68.6713 Z-1.382
G1 X6.3163 Y68.6513 Z-1.384
G1 X6.3063 Y68.6316 Z-1.386
G1 X6.295 Y68.6126 Z-1.388
G1 X6.2827 Y68.5945 Z-1.39
G1 X6.2695 Y68.5774 Z-1.392
G1 X6.2549 Y68.5609 Z-1.394
G1 X6.2391 Y68.5451 Z-1.396
G1 X6.2226 Y68.5305 Z-1.398
G1 X6.2055 Y68.5173 Z-1.4
G1 X6.1874 Y68.505 Z-1.402
G1 X6.1684 Y68.4937 Z-1.404
G1 X6.1487 Y68.4837 Z-1.406
G1 X6.1287 Y68.475 Z-1.408
G1 X6.1081 Y68.4676 Z-1.41
G1 X6.0867 Y68.4614 Z-1.412
G1 X6.0653 Y68.4566 Z-1.414
G1 X6.0441 Y68.4533 Z-1.416
G1 X6.0222 Y68.4512 Z-1.418
G1 X6.0 Y68.4505 Z-1.42
G1 X5.9778 Y68.4512 Z-1.422
G1 X5.9559 Y68.4533 Z-1.424
G1 X5.9347 Y68.4566 Z-1.426
G1 X5.9133 Y68.4614 Z-1.428
G1 X5.8919 Y68.4676 Z-1.43
G1 X5.8713 Y68.475 Z-1.432
G1 X5.8513 Y68.4837 Z-1.434
G1 X5.8316 Y68.4937 Z-1.436
G1 X5.8126 Y68.505 Z-1.438
G1 X5.7945 Y68.5173 Z-1.44
G1 X5.7774 Y68.5305 Z-1.442
G1 X5.7609 Y68.5451 Z-1.444
G1 X5.7451 Y68.5609 Z-1.446
G1 X5.7305 Y68.5774 Z-1.448
G1 X5.7173 Y68.5945 Z-1.45
G1 X5.705 Y68.6126 Z-1.452
G1 X5.6937 Y68.6316 Z-1.454
G1 X5.6837 Y68.6513 Z-1.456
G1 X5.675 Y68.6713 Z-1.458
G1 X5.6676 Y68.6919 Z-1.46
G1 X5.6614 Y68.7133 Z-1.462
G1 X5.6566 Y68.7347 Z-1.464
G1 X5.6533 Y68.7559 Z-1.466
G1 X5.6512 Y68.7778 Z-1.468
G1 X5.6505 Y68.8 Z-1.47
G1 X5.6512 Y68.8222 Z-1.472
G1 X5.6533 Y68.8441 Z-1.474
G1 X5.6566 Y68.8653 Z-1.476
G1 X5.6614 Y68.8867 Z-1.478
G1 X5.6676 Y68.9081 Z-1.48
G1 X5.675 Y68.9287 Z-1.482
G1 X5.6837 Y68.9487 Z-1.484
G1 X5.6937 Y68.9684 Z-1.486
G1 X5.705 Y68.9874 Z-1.488
G1 X5.7173 Y69.0055 Z-1.49
G1 X5.7305 Y69.0226 Z-1.492
G1 X5.7451 Y69.0391 Z-1.494
G1 X5.7609 Y69.0549 Z-1.496
G1 X5.7774 Y69.0695 Z-1.498
G1 X5.7945 Y69.0827 Z-1.5
G1 X5.8126 Y69.095 Z-1.502
G1 X5.8316 Y69.1063 Z-1.504
G1 X5.8513 Y69.1163 Z-1.506
G1 X5.8713 Y69.125 Z-1.508
G1 X5.8919 Y69.1324 Z-1.51
G1 X5.9133 Y69.1386 Z-1.512
G1 X5.9347 Y69.1434 Z-1.514
G1 X5.9559 Y69.1467 Z-1.516
G1 X5.9778 Y69.1488 Z-1.518
G1 X6.0 Y69.1495 Z-1.52
G1 X6.0222 Y69.1488 Z-1.522
G1 X6.0441 Y69.1467 Z-1.524
G1 X6.0653 Y69.1434 Z-1.526
G1 X6.0867 Y69.1386 Z-1.528
G1 X6.1081 Y69.1324 Z-1.53
G1 X6.1287 Y69.125 Z-1.532
G1 X6.1487 Y69.1163 Z-1.534
G1 X6.1684 Y69.1063 Z-1.536
G1 X6.1874 Y69.095 Z-1.538
G1 X6.2055 Y69.0827 Z-1.54
G1 X6.2226 Y69.0695 Z-1.542
G1 X6.2391 Y69.0549 Z-1.544
G1 X6.2549 Y69.0391 Z-1.546
G1 X6.2695 Y69.0226 Z-1.548
G1 X6.2827 Y69.0055 Z-1.55
G1 X6.295 Y68.9874 Z-1.552
G1 X6.3063 Y68.9684 Z-1.554
G1 X6.3163 Y68.9487 Z-1.556
G1 X6.325 Y68.9287 Z-1.558
G1 X6.3324 Y68.9081 Z-1.56
G1 X6.3386 Y68.8867 Z-1.562
G1 X6.3434 Y68.8653 Z-1.564
G1 X6.3467 Y68.8441 Z-1.566
G1 X6.3488 Y68.8222 Z-1.568
G1 X6.3495 Y68.8 Z-1.57
G1 X6.3488 Y68.7778 Z-1.572
G1 X6.3467 Y68.7559 Z-1.574
G1 X6.3434 Y68.7347 Z-1.576
G1 X6.3386 Y68.7133 Z-1.578
G1 X6.3324 Y68.6919 Z-1.58
G1 X6.325 Y68.6713 Z-1.582
G1 X6.3163 Y68.6513 Z-1.584
G1 X6.3063 Y68.6316 Z-1.586
G1 X6.295 Y68.6126 Z-1.588
G1 X6.2827 Y68.5945 Z-1.59
G1 X6.2695 Y68.5774 Z-1.592
G1 X6.2549 Y68.5609 Z-1.594
G1 X6.2391 Y68.5451 Z-1.596
G1 X6.2226 Y68.5305 Z-1.598
G1 X6.2055 Y68.5173 Z-1.6
G1 X6.1874 Y68.505 Z-1.602
G1 X6.1684 Y68.4937 Z-1.604
G1 X6.1487 Y68.4837 Z-1.606
G1 X6.1287 Y68.475 Z-1.608
G1 X6.1081 Y68.4676 Z-1.61
G1 X6.0867 Y68.4614 Z-1.612
G1 X6.0653 Y68.4566 Z-1.614
G1 X6.0441 Y68.4533 Z-1.616
G1 X6.0222 Y68.4512 Z-1.618
G1 X6.0 Y68.4505 Z-1.62
G1 X5.9778 Y68.4512 Z-1.622
G1 X5.9559 Y68.4533 Z-1.624
G1 X5.9347 Y68.4566 Z-1.626
G1 X5.9133 Y68.4614 Z-1.628
G1 X5.8919 Y68.4676 Z-1.63
G1 X5.8713 Y68.475 Z-1.632
G1 X5.8513 Y68.4837 Z-1.634
G1 X5.8316 Y68.4937 Z-1.636
G1 X5.8126 Y68.505 Z-1.638
G1 X5.7945 Y68.5173 Z-1.64
G1 X5.7774 Y68.5305 Z-1.642
G1 X5.7609 Y68.5451 Z-1.644
G1 X5.7451 Y68.5609 Z-1.646
G1 X5.7305 Y68.5774 Z-1.648
G1 X5.7173 Y68.5945 Z-1.65
G1 X5.705 Y68.6126 Z-1.652
G1 X5.6937 Y68.6316 Z-1.654
G1 X5.6837 Y68.6513 Z-1.656
G1 X5.675 Y68.6713 Z-1.658
G1 X5.6676 Y68.6919 Z-1.66
G1 X5.6614 Y68.7133 Z-1.662
G1 X5.6566 Y68.7347 Z-1.664
G1 X5.6533 Y68.7559 Z-1.666
G1 X5.6512 Y68.7778 Z-1.668
G1 X5.6505 Y68.8 Z-1.67
G1 X5.6512 Y68.8222 Z-1.672
G1 X5.6533 Y68.8441 Z-1.674
G1 X5.6566 Y68.8653 Z-1.676
G1 X5.6614 Y68.8867 Z-1.678
G1 X5.6676 Y68.9081 Z-1.68
G1 X5.675 Y68.9287 Z-1.682
G1 X5.6837 Y68.9487 Z-1.684
G1 X5.6937 Y68.9684 Z-1.686
G1 X5.705 Y68.9874 Z-1.688
G1 X5.7173 Y69.0055 Z-1.69
G1 X5.7305 Y69.0226 Z-1.692
G1 X5.7451 Y69.0391 Z-1.694
G1 X5.7609 Y69.0549 Z-1.696
G1 X5.7774 Y69.0695 Z-1.698
G1 X5.7945 Y69.0827 Z-1.7
G1 X5.8126 Y69.095 Z-1.702
G1 X5.8316 Y69.1063 Z-1.704
G1 X5.8513 Y69.1163 Z-1.706
G1 X5.8713 Y69.125 Z-1.708
G1 X5.8919 Y69.1324 Z-1.71
G1 X5.9133 Y69.1386 Z-1.712
G1 X5.9347 Y69.1434 Z-1.714
G1 X5.9559 Y69.1467 Z-1.716
G1 X5.9778 Y69.1488 Z-1.718
G1 X6.0 Y69.1495 Z-1.72
G1 X6.0222 Y69.1488 Z-1.722
G1 X6.0441 Y69.1467 Z-1.724
G1 X6.0653 Y69.1434 Z-1.726
G1 X6.0867 Y69.1386 Z-1.728
G1 X6.1081 Y69.1324 Z-1.73
G1 X6.1287 Y69.125 Z-1.732
G1 X6.1487 Y69.1163 Z-1.734
G1 X6.1684 Y69.1063 Z-1.736
G1 X6.1874 Y69.095 Z-1.738
G1 X6.2055 Y69.0827 Z-1.74
G1 X6.2226 Y69.0695 Z-1.742
G1 X6.2391 Y69.0549 Z-1.744
G1 X6.2549 Y69.0391 Z-1.746
G1 X6.2695 Y69.0226 Z-1.748
G1 X6.2827 Y69.0055 Z-1.75
G1 X6.295 Y68.9874 Z-1.752
G1 X6.3063 Y68.9684 Z-1.754
G1 X6.3163 Y68.9487 Z-1.756
G1 X6.325 Y68.9287 Z-1.758
G1 X6.3324 Y68.9081 Z-1.76
G1 X6.3386 Y68.8867 Z-1.762
G1 X6.3434 Y68.8653 Z-1.764
G1 X6.3467 Y68.8441 Z-1.766
G1 X6.3488 Y68.8222 Z-1.768
G1 X6.3495 Y68.8 Z-1.77
G1 X6.3488 Y68.7778 Z-1.772
G1 X6.3467 Y68.7559 Z-1.774
G1 X6.3434 Y68.7347 Z-1.776
G1 X6.3386 Y68.7133 Z-1.778
G1 X6.3324 Y68.6919 Z-1.78
G1 X6.325 Y68.6713 Z-1.782
G1 X6.3163 Y68.6513 Z-1.784
G1 X6.3063 Y68.6316 Z-1.786
G1 X6.295 Y68.6126 Z-1.788
G1 X6.2827 Y68.5945 Z-1.79
G1 X6.2695 Y68.5774 Z-1.792
G1 X6.2549 Y68.5609 Z-1.794
G1 X6.2391 Y68.5451 Z-1.796
G1 X6.2226 Y68.5305 Z-1.798
G1 X6.2055 Y68.5173 Z-1.8
G1 X6.1874 Y68.505 Z-1.802
G1 X6.1684 Y68.4937 Z-1.804
G1 X6.1487 Y68.4837 Z-1.806
G1 X6.1287 Y68.475 Z-1.808
G1 X6.1081 Y68.4676 Z-1.81
G1 X6.0867 Y68.4614 Z-1.812
G1 X6.0653 Y68.4566 Z-1.814
G1 X6.0441 Y68.4533 Z-1.816
G1 X6.0222 Y68.4512 Z-1.818
G1 X6.0 Y68.4505 Z-1.82
G1 X5.9778 Y68.4512 Z-1.822
G1 X5.9559 Y68.4533 Z-1.824
G1 X5.9347 Y68.4566 Z-1.826
G1 X5.9133 Y68.4614 Z-1.828
G1 X5.8919 Y68.4676 Z-1.83
G1 X5.8713 Y68.475 Z-1.832
G1 X5.8513 Y68.4837 Z-1.834
G1 X5.8316 Y68.4937 Z-1.836
G1 X5.8126 Y68.505 Z-1.838
G1 X5.7945 Y68.5173 Z-1.84
G1 X5.7774 Y68.5305 Z-1.842
G1 X5.7609 Y68.5451 Z-1.844
G1 X5.7451 Y68.5609 Z-1.846
G1 X5.7305 Y68.5774 Z-1.848
G1 X5.7173 Y68.5945 Z-1.85
G1 X5.705 Y68.6126 Z-1.852
G1 X5.6937 Y68.6316 Z-1.854
G1 X5.6837 Y68.6513 Z-1.856
G1 X5.675 Y68.6713 Z-1.858
G1 X5.6676 Y68.6919 Z-1.86
G1 X5.6614 Y68.7133 Z-1.862
G1 X5.6566 Y68.7347 Z-1.864
G1 X5.6533 Y68.7559 Z-1.866
G1 X5.6512 Y68.7778 Z-1.868
G1 X5.6505 Y68.8 Z-1.87
G1 X5.6512 Y68.8222 Z-1.872
G1 X5.6533 Y68.8441 Z-1.874
G1 X5.6566 Y68.8653 Z-1.876
G1 X5.6614 Y68.8867 Z-1.878
G1 X5.6676 Y68.9081 Z-1.88
G1 X5.675 Y68.9287 Z-1.882
G1 X5.6837 Y68.9487 Z-1.884
G1 X5.6937 Y68.9684 Z-1.886
G1 X5.705 Y68.9874 Z-1.888
G1 X5.7173 Y69.0055 Z-1.89
G1 X5.7305 Y69.0226 Z-1.892
G1 X5.7451 Y69.0391 Z-1.894
G1 X5.7609 Y69.0549 Z-1.896
G1 X5.7774 Y69.0695 Z-1.898
G1 X5.7945 Y69.0827 Z-1.9
G1 X5.8126 Y69.095 Z-1.902
G1 X5.8316 Y69.1063 Z-1.904
G1 X5.8513 Y69.1163 Z-1.906
G1 X5.8713 Y69.125 Z-1.908
G1 X5.8919 Y69.1324 Z-1.91
G1 X5.9133 Y69.1386 Z-1.912
G1 X5.9347 Y69.1434 Z-1.914
G1 X5.9559 Y69.1467 Z-1.916
G1 X5.9778 Y69.1488 Z-1.918
G1 X6.0 Y69.1495 Z-1.92
G1 X6.0222 Y69.1488 Z-1.922
G1 X6.0441 Y69.1467 Z-1.924
G1 X6.0653 Y69.1434 Z-1.926
G1 X6.0867 Y69.1386 Z-1.928
G1 X6.1081 Y69.1324 Z-1.93
G1 X6.1287 Y69.125 Z-1.932
G1 X6.1487 Y69.1163 Z-1.934
G1 X6.1684 Y69.1063 Z-1.936
G1 X6.1874 Y69.095 Z-1.938
G1 X6.2055 Y69.0827 Z-1.94
G1 X6.2226 Y69.0695 Z-1.942
G1 X6.2391 Y69.0549 Z-1.944
G1 X6.2549 Y69.0391 Z-1.946
G1 X6.2695 Y69.0226 Z-1.948
G1 X6.2827 Y69.0055 Z-1.95
G1 X6.295 Y68.9874 Z-1.952
G1 X6.3063 Y68.9684 Z-1.954
G1 X6.3163 Y68.9487 Z-1.956
G1 X6.325 Y68.9287 Z-1.958
G1 X6.3324 Y68.9081 Z-1.96
G1 X6.3386 Y68.8867 Z-1.962
G1 X6.3434 Y68.8653 Z-1.964
G1 X6.3467 Y68.8441 Z-1.966
G1 X6.3488 Y68.8222 Z-1.968
G1 X6.3495 Y68.8 Z-1.97
G1 X6.3488 Y68.7778 Z-1.972
G1 X6.3467 Y68.7559 Z-1.974
G1 X6.3434 Y68.7347 Z-1.976
G1 X6.3386 Y68.7133 Z-1.978
G1 X6.3324 Y68.6919 Z-1.98
G1 X6.325 Y68.6713 Z-1.982
G1 X6.3163 Y68.6513 Z-1.984
G1 X6.3063 Y68.6316 Z-1.986
G1 X6.295 Y68.6126 Z-1.988
G1 X6.2827 Y68.5945 Z-1.99
G1 X6.2695 Y68.5774 Z-1.992
G1 X6.2549 Y68.5609 Z-1.994
G1 X6.2391 Y68.5451 Z-1.996
G1 X6.2226 Y68.5305 Z-1.998
G1 X6.2055 Y68.5173 Z-2.0
G1 X6.1874 Y68.505 Z-2.002
G1 X6.1684 Y68.4937 Z-2.004
G1 X6.1487 Y68.4837 Z-2.006
G1 X6.1287 Y68.475 Z-2.008
G1 X6.1081 Y68.4676 Z-2.01
G1 X6.0867 Y68.4614 Z-2.012
G1 X6.0653 Y68.4566 Z-2.014
G1 X6.0441 Y68.4533 Z-2.016
G1 X6.0222 Y68.4512 Z-2.018
G1 X6.0 Y68.4505 Z-2.02
G1 X5.9778 Y68.4512 Z-2.022
G1 X5.9559 Y68.4533 Z-2.024
G1 X5.9347 Y68.4566 Z-2.026
G1 X5.9133 Y68.4614 Z-2.028
G1 X5.8919 Y68.4676 Z-2.03
G1 X5.8713 Y68.475 Z-2.032
G1 X5.8513 Y68.4837 Z-2.034
G1 X5.8316 Y68.4937 Z-2.036
G1 X5.8126 Y68.505 Z-2.038
G1 X5.7945 Y68.5173 Z-2.04
G1 X5.7774 Y68.5305 Z-2.042
G1 X5.7609 Y68.5451 Z-2.044
G1 X5.7451 Y68.5609 Z-2.046
G1 X5.7305 Y68.5774 Z-2.048
G1 X5.7173 Y68.5945 Z-2.05
G1 X5.705 Y68.6126 Z-2.052
G1 X5.6937 Y68.6316 Z-2.054
G1 X5.6837 Y68.6513 Z-2.056
G1 X5.675 Y68.6713 Z-2.058
G1 X5.6676 Y68.6919 Z-2.06
G1 X5.6614 Y68.7133 Z-2.062
G1 X5.6566 Y68.7347 Z-2.064
G1 X5.6533 Y68.7559 Z-2.066
G1 X5.6512 Y68.7778 Z-2.068
G1 X5.6505 Y68.8 Z-2.07
G1 X5.6512 Y68.8222 Z-2.072
G1 X5.6533 Y68.8441 Z-2.074
G1 X5.6566 Y68.8653 Z-2.076
G1 X5.6614 Y68.8867 Z-2.078
G1 X5.6676 Y68.9081 Z-2.08
G1 X5.675 Y68.9287 Z-2.082
G1 X5.6837 Y68.9487 Z-2.084
G1 X5.6937 Y68.9684 Z-2.086
G1 X5.705 Y68.9874 Z-2.088
G1 X5.7173 Y69.0055 Z-2.09
G1 X5.7305 Y69.0226 Z-2.092
G1 X5.7451 Y69.0391 Z-2.094
G1 X5.7609 Y69.0549 Z-2.096
G1 X5.7774 Y69.0695 Z-2.098
G1 X5.7945 Y69.0827 Z-2.1
G1 X5.8126 Y69.095 Z-2.102
G1 X5.8316 Y69.1063 Z-2.104
G1 X5.8513 Y69.1163 Z-2.106
G1 X5.8713 Y69.125 Z-2.108
G1 X5.8919 Y69.1324 Z-2.11
G1 X5.9133 Y69.1386 Z-2.112
G1 X5.9347 Y69.1434 Z-2.114
G1 X5.9559 Y69.1467 Z-2.116
G1 X5.9778 Y69.1488 Z-2.118
G1 X6.0 Y69.1495 Z-2.12
G1 X6.0222 Y69.1488 Z-2.122
G1 X6.0441 Y69.1467 Z-2.124
G1 X6.0653 Y69.1434 Z-2.126
G1 X6.0867 Y69.1386 Z-2.128
G1 X6.1081 Y69.1324 Z-2.13
G1 X6.1287 Y69.125 Z-2.132
G1 X6.1487 Y69.1163 Z-2.134
G1 X6.1684 Y69.1063 Z-2.136
G1 X6.1874 Y69.095 Z-2.138
G1 X6.2055 Y69.0827 Z-2.14
G1 X6.2226 Y69.0695 Z-2.142
G1 X6.2391 Y69.0549 Z-2.144
G1 X6.2549 Y69.0391 Z-2.146
G1 X6.2695 Y69.0226 Z-2.148
G1 X6.2827 Y69.0055 Z-2.15
G1 X6.295 Y68.9874 Z-2.152
G1 X6.3063 Y68.9684 Z-2.154
G1 X6.3163 Y68.9487 Z-2.156
G1 X6.325 Y68.9287 Z-2.158
G1 X6.3324 Y68.9081 Z-2.16
G1 X6.3386 Y68.8867 Z-2.162
G1 X6.3434 Y68.8653 Z-2.164
G1 X6.3467 Y68.8441 Z-2.166
G1 X6.3488 Y68.8222 Z-2.168
G1 X6.3495 Y68.8 Z-2.17
G1 X6.3488 Y68.7778 Z-2.172
G1 X6.3467 Y68.7559 Z-2.174
G1 X6.3434 Y68.7347 Z-2.176
G1 X6.3386 Y68.7133 Z-2.178
G1 X6.3324 Y68.6919 Z-2.18
G1 X6.325 Y68.6713 Z-2.182
G1 X6.3163 Y68.6513 Z-2.184
G1 X6.3063 Y68.6316 Z-2.186
G1 X6.295 Y68.6126 Z-2.188
G1 X6.2827 Y68.5945 Z-2.19
G1 X6.2695 Y68.5774 Z-2.192
G1 X6.2549 Y68.5609 Z-2.194
G1 X6.2391 Y68.5451 Z-2.196
G1 X6.2226 Y68.5305 Z-2.198
G1 X6.2055 Y68.5173 Z-2.2
G1 X6.1874 Y68.505 Z-2.202
G1 X6.1684 Y68.4937 Z-2.204
G1 X6.1487 Y68.4837 Z-2.206
G1 X6.1287 Y68.475 Z-2.208
G1 X6.1081 Y68.4676 Z-2.21
G1 X6.0867 Y68.4614 Z-2.212
G1 X6.0653 Y68.4566 Z-2.214
G1 X6.0441 Y68.4533 Z-2.216
G1 X6.0222 Y68.4512 Z-2.218
G1 X6.0 Y68.4505 Z-2.22
G1 X5.9778 Y68.4512 Z-2.222
G1 X5.9559 Y68.4533 Z-2.224
G1 X5.9347 Y68.4566 Z-2.226
G1 X5.9133 Y68.4614 Z-2.228
G1 X5.8919 Y68.4676 Z-2.23
G1 X5.8713 Y68.475 Z-2.232
G1 X5.8513 Y68.4837 Z-2.234
G1 X5.8316 Y68.4937 Z-2.236
G1 X5.8126 Y68.505 Z-2.238
G1 X5.7945 Y68.5173 Z-2.24
G1 X5.7774 Y68.5305 Z-2.242
G1 X5.7609 Y68.5451 Z-2.244
G1 X5.7451 Y68.5609 Z-2.246
G1 X5.7305 Y68.5774 Z-2.248
G1 X5.7173 Y68.5945 Z-2.25
G1 X5.705 Y68.6126 Z-2.252
G1 X5.6937 Y68.6316 Z-2.254
G1 X5.6837 Y68.6513 Z-2.256
G1 X5.675 Y68.6713 Z-2.258
G1 X5.6676 Y68.6919 Z-2.26
G1 X5.6614 Y68.7133 Z-2.262
G1 X5.6566 Y68.7347 Z-2.264
G1 X5.6533 Y68.7559 Z-2.266
G1 X5.6512 Y68.7778 Z-2.268
G1 X5.6505 Y68.8 Z-2.27
G1 X5.6512 Y68.8222 Z-2.272
G1 X5.6533 Y68.8441 Z-2.274
G1 X5.6566 Y68.8653 Z-2.276
G1 X5.6614 Y68.8867 Z-2.278
G1 X5.6676 Y68.9081 Z-2.28
G1 X5.675 Y68.9287 Z-2.282
G1 X5.6837 Y68.9487 Z-2.284
G1 X5.6937 Y68.9684 Z-2.286
G1 X5.705 Y68.9874 Z-2.288
G1 X5.7173 Y69.0055 Z-2.29
G1 X5.7305 Y69.0226 Z-2.292
G1 X5.7451 Y69.0391 Z-2.294
G1 X5.7609 Y69.0549 Z-2.296
G1 X5.7774 Y69.0695 Z-2.298
G1 X5.7945 Y69.0827 Z-2.3
G1 X5.8126 Y69.095 Z-2.302
G1 X5.8316 Y69.1063 Z-2.304
G1 X5.8513 Y69.1163 Z-2.306
G1 X5.8713 Y69.125 Z-2.308
G1 X5.8919 Y69.1324 Z-2.31
G1 X5.9133 Y69.1386 Z-2.312
G1 X5.9347 Y69.1434 Z-2.314
G1 X5.9559 Y69.1467 Z-2.316
G1 X5.9778 Y69.1488 Z-2.318
G1 X6.0 Y69.1495 Z-2.32
G1 X6.0222 Y69.1488 Z-2.322
G1 X6.0441 Y69.1467 Z-2.324
G1 X6.0653 Y69.1434 Z-2.326
G1 X6.0867 Y69.1386 Z-2.328
G1 X6.1081 Y69.1324 Z-2.33
G1 X6.1287 Y69.125 Z-2.332
G1 X6.1487 Y69.1163 Z-2.334
G1 X6.1684 Y69.1063 Z-2.336
G1 X6.1874 Y69.095 Z-2.338
G1 X6.2055 Y69.0827 Z-2.34
G1 X6.2226 Y69.0695 Z-2.342
G1 X6.2391 Y69.0549 Z-2.344
G1 X6.2549 Y69.0391 Z-2.346
G1 X6.2695 Y69.0226 Z-2.348
G1 X6.2827 Y69.0055 Z-2.35
G1 X6.295 Y68.9874 Z-2.352
G1 X6.3063 Y68.9684 Z-2.354
G1 X6.3163 Y68.9487 Z-2.356
G1 X6.325 Y68.9287 Z-2.358
G1 X6.3324 Y68.9081 Z-2.36
G1 X6.3386 Y68.8867 Z-2.362
G1 X6.3434 Y68.8653 Z-2.364
G1 X6.3467 Y68.8441 Z-2.366
G1 X6.3488 Y68.8222 Z-2.368
G1 X6.3495 Y68.8 Z-2.37
G1 X6.3488 Y68.7778 Z-2.372
G1 X6.3467 Y68.7559 Z-2.374
G1 X6.3434 Y68.7347 Z-2.376
G1 X6.3386 Y68.7133 Z-2.378
G1 X6.3324 Y68.6919 Z-2.38
G1 X6.325 Y68.6713 Z-2.382
G1 X6.3163 Y68.6513 Z-2.384
G1 X6.3063 Y68.6316 Z-2.386
G1 X6.295 Y68.6126 Z-2.388
G1 X6.2827 Y68.5945 Z-2.39
G1 X6.2695 Y68.5774 Z-2.392
G1 X6.2549 Y68.5609 Z-2.394
G1 X6.2391 Y68.5451 Z-2.396
G1 X6.2226 Y68.5305 Z-2.398
G1 X6.2055 Y68.5173 Z-2.4
G1 X6.1874 Y68.505 Z-2.402
G1 X6.1684 Y68.4937 Z-2.404
G1 X6.1487 Y68.4837 Z-2.406
G1 X6.1287 Y68.475 Z-2.408
G1 X6.1081 Y68.4676 Z-2.41
G1 X6.0867 Y68.4614 Z-2.412
G1 X6.0653 Y68.4566 Z-2.414
G1 X6.0441 Y68.4533 Z-2.416
G1 X6.0222 Y68.4512 Z-2.418
G1 X6.0 Y68.4505 Z-2.42
G1 X5.9778 Y68.4512 Z-2.422
G1 X5.9559 Y68.4533 Z-2.424
G1 X5.9347 Y68.4566 Z-2.426
G1 X5.9133 Y68.4614 Z-2.428
G1 X5.8919 Y68.4676 Z-2.43
G1 X5.8713 Y68.475 Z-2.432
G1 X5.8513 Y68.4837 Z-2.434
G1 X5.8316 Y68.4937 Z-2.436
G1 X5.8126 Y68.505 Z-2.438
G1 X5.7945 Y68.5173 Z-2.44
G1 X5.7774 Y68.5305 Z-2.442
G1 X5.7609 Y68.5451 Z-2.444
G1 X5.7451 Y68.5609 Z-2.446
G1 X5.7305 Y68.5774 Z-2.448
G1 X5.7173 Y68.5945 Z-2.45
G1 X5.705 Y68.6126 Z-2.452
G1 X5.6937 Y68.6316 Z-2.454
G1 X5.6837 Y68.6513 Z-2.456
G1 X5.675 Y68.6713 Z-2.458
G1 X5.6676 Y68.6919 Z-2.46
G1 X5.6614 Y68.7133 Z-2.462
G1 X5.6566 Y68.7347 Z-2.464
G1 X5.6533 Y68.7559 Z-2.466
G1 X5.6512 Y68.7778 Z-2.468
G1 X5.6505 Y68.8 Z-2.47
G1 X5.6512 Y68.8222 Z-2.472
G1 X5.6533 Y68.8441 Z-2.474
G1 X5.6566 Y68.8653 Z-2.476
G1 X5.6614 Y68.8867 Z-2.478
G1 X5.6676 Y68.9081 Z-2.48
G1 X5.675 Y68.9287 Z-2.482
G1 X5.6837 Y68.9487 Z-2.484
G1 X5.6937 Y68.9684 Z-2.486
G1 X5.705 Y68.9874 Z-2.488
G1 X5.7173 Y69.0055 Z-2.49
G1 X5.7305 Y69.0226 Z-2.492
G1 X5.7451 Y69.0391 Z-2.494
G1 X5.7609 Y69.0549 Z-2.496
G1 X5.7774 Y69.0695 Z-2.498
G1 X5.7945 Y69.0827 Z-2.5
G1 X5.8126 Y69.095 Z-2.502
G1 X5.8316 Y69.1063 Z-2.504
G1 X5.8513 Y69.1163 Z-2.506
G1 X5.8713 Y69.125 Z-2.508
G1 X5.8919 Y69.1324 Z-2.51
G1 X5.9133 Y69.1386 Z-2.512
G1 X5.9347 Y69.1434 Z-2.514
G1 X5.9559 Y69.1467 Z-2.516
G1 X5.9778 Y69.1488 Z-2.518
G1 X6.0 Y69.1495 Z-2.52
G1 X6.0222 Y69.1488 Z-2.522
G1 X6.0441 Y69.1467 Z-2.524
G1 X6.0653 Y69.1434 Z-2.526
G1 X6.0867 Y69.1386 Z-2.528
G1 X6.1081 Y69.1324 Z-2.53
G1 X6.1287 Y69.125 Z-2.532
G1 X6.1487 Y69.1163 Z-2.534
G1 X6.1684 Y69.1063 Z-2.536
G1 X6.1874 Y69.095 Z-2.538
G1 X6.2055 Y69.0827 Z-2.54
G1 X6.2226 Y69.0695 Z-2.542
G1 X6.2391 Y69.0549 Z-2.544
G1 X6.2549 Y69.0391 Z-2.546
G1 X6.2695 Y69.0226 Z-2.548
G1 X6.2827 Y69.0055 Z-2.55
G1 X6.295 Y68.9874 Z-2.552
G1 X6.3063 Y68.9684 Z-2.554
G1 X6.3163 Y68.9487 Z-2.556
G1 X6.325 Y68.9287 Z-2.558
G1 X6.3324 Y68.9081 Z-2.56
G1 X6.3386 Y68.8867 Z-2.562
G1 X6.3434 Y68.8653 Z-2.564
G1 X6.3467 Y68.8441 Z-2.566
G1 X6.3488 Y68.8222 Z-2.568
G1 X6.3495 Y68.8 Z-2.57
G1 X6.3488 Y68.7778 Z-2.572
G1 X6.3467 Y68.7559 Z-2.574
G1 X6.3434 Y68.7347 Z-2.576
G1 X6.3386 Y68.7133 Z-2.578
G1 X6.3324 Y68.6919 Z-2.58
G1 X6.325 Y68.6713 Z-2.582
G1 X6.3163 Y68.6513 Z-2.584
G1 X6.3063 Y68.6316 Z-2.586
G1 X6.295 Y68.6126 Z-2.588
G1 X6.2827 Y68.5945 Z-2.59
G1 X6.2695 Y68.5774 Z-2.592
G1 X6.2549 Y68.5609 Z-2.594
G1 X6.2391 Y68.5451 Z-2.596
G1 X6.2226 Y68.5305 Z-2.598
G1 X6.2055 Y68.5173 Z-2.6
G1 X6.1874 Y68.505 Z-2.602
G1 X6.1684 Y68.4937 Z-2.604
G1 X6.1487 Y68.4837 Z-2.606
G1 X6.1287 Y68.475 Z-2.608
G1 X6.1081 Y68.4676 Z-2.61
G1 X6.0867 Y68.4614 Z-2.612
G1 X6.0653 Y68.4566 Z-2.614
G1 X6.0441 Y68.4533 Z-2.616
G1 X6.0222 Y68.4512 Z-2.618
G1 X6.0 Y68.4505 Z-2.62
G1 X5.9778 Y68.4512 Z-2.622
G1 X5.9559 Y68.4533 Z-2.624
G1 X5.9347 Y68.4566 Z-2.626
G1 X5.9133 Y68.4614 Z-2.628
G1 X5.8919 Y68.4676 Z-2.63
G1 X5.8713 Y68.475 Z-2.632
G1 X5.8513 Y68.4837 Z-2.634
G1 X5.8316 Y68.4937 Z-2.636
G1 X5.8126 Y68.505 Z-2.638
G1 X5.7945 Y68.5173 Z-2.64
G1 X5.7774 Y68.5305 Z-2.642
G1 X5.7609 Y68.5451 Z-2.644
G1 X5.7451 Y68.5609 Z-2.646
G1 X5.7305 Y68.5774 Z-2.648
G1 X5.7173 Y68.5945 Z-2.65
G1 X5.705 Y68.6126 Z-2.652
G1 X5.6937 Y68.6316 Z-2.654
G1 X5.6837 Y68.6513 Z-2.656
G1 X5.675 Y68.6713 Z-2.658
G1 X5.6676 Y68.6919 Z-2.66
G1 X5.6614 Y68.7133 Z-2.662
G1 X5.6566 Y68.7347 Z-2.664
G1 X5.6533 Y68.7559 Z-2.666
G1 X5.6512 Y68.7778 Z-2.668
G1 X5.6505 Y68.8 Z-2.67
G1 X5.6512 Y68.8222 Z-2.672
G1 X5.6533 Y68.8441 Z-2.674
G1 X5.6566 Y68.8653 Z-2.676
G1 X5.6614 Y68.8867 Z-2.678
G1 X5.6676 Y68.9081 Z-2.68
G1 X5.675 Y68.9287 Z-2.682
G1 X5.6837 Y68.9487 Z-2.684
G1 X5.6937 Y68.9684 Z-2.686
G1 X5.705 Y68.9874 Z-2.688
G1 X5.7173 Y69.0055 Z-2.69
G1 X5.7305 Y69.0226 Z-2.692
G1 X5.7451 Y69.0391 Z-2.694
G1 X5.7609 Y69.0549 Z-2.696
G1 X5.7774 Y69.0695 Z-2.698
G1 X5.7945 Y69.0827 Z-2.7
G1 X5.8126 Y69.095 Z-2.702
G1 X5.8316 Y69.1063 Z-2.704
G1 X5.8513 Y69.1163 Z-2.706
G1 X5.8713 Y69.125 Z-2.708
G1 X5.8919 Y69.1324 Z-2.71
G1 X5.9133 Y69.1386 Z-2.712
G1 X5.9347 Y69.1434 Z-2.714
G1 X5.9559 Y69.1467 Z-2.716
G1 X5.9778 Y69.1488 Z-2.718
G1 X6.0 Y69.1495 Z-2.72
G1 X6.0222 Y69.1488 Z-2.722
G1 X6.0441 Y69.1467 Z-2.724
G1 X6.0653 Y69.1434 Z-2.726
G1 X6.0867 Y69.1386 Z-2.728
G1 X6.1081 Y69.1324 Z-2.73
G1 X6.1287 Y69.125 Z-2.732
G1 X6.1487 Y69.1163 Z-2.734
G1 X6.1684 Y69.1063 Z-2.736
G1 X6.1874 Y69.095 Z-2.738
G1 X6.2055 Y69.0827 Z-2.74
G1 X6.2226 Y69.0695 Z-2.742
G1 X6.2391 Y69.0549 Z-2.744
G1 X6.2549 Y69.0391 Z-2.746
G1 X6.2695 Y69.0226 Z-2.748
G1 X6.2827 Y69.0055 Z-2.75
G1 X6.295 Y68.9874 Z-2.752
G1 X6.3063 Y68.9684 Z-2.754
G1 X6.3163 Y68.9487 Z-2.756
G1 X6.325 Y68.9287 Z-2.758
G1 X6.3324 Y68.9081 Z-2.76
G1 X6.3386 Y68.8867 Z-2.762
G1 X6.3434 Y68.8653 Z-2.764
G1 X6.3467 Y68.8441 Z-2.766
G1 X6.3488 Y68.8222 Z-2.768
G1 X6.3495 Y68.8 Z-2.77
G1 X6.3488 Y68.7778 Z-2.772
G1 X6.3467 Y68.7559 Z-2.774
G1 X6.3434 Y68.7347 Z-2.776
G1 X6.3386 Y68.7133 Z-2.778
G1 X6.3324 Y68.6919 Z-2.78
G1 X6.325 Y68.6713 Z-2.782
G1 X6.3163 Y68.6513 Z-2.784
G1 X6.3063 Y68.6316 Z-2.786
G1 X6.295 Y68.6126 Z-2.788
G1 X6.2827 Y68.5945 Z-2.79
G1 X6.2695 Y68.5774 Z-2.792
G1 X6.2549 Y68.5609 Z-2.794
G1 X6.2391 Y68.5451 Z-2.796
G1 X6.2226 Y68.5305 Z-2.798
G1 X6.2055 Y68.5173 Z-2.8
G1 X6.1874 Y68.505 Z-2.802
G1 X6.1684 Y68.4937 Z-2.804
G1 X6.1487 Y68.4837 Z-2.806
G1 X6.1287 Y68.475 Z-2.808
G1 X6.1081 Y68.4676 Z-2.81
G1 X6.0867 Y68.4614 Z-2.812
G1 X6.0653 Y68.4566 Z-2.814
G1 X6.0441 Y68.4533 Z-2.816
G1 X6.0222 Y68.4512 Z-2.818
G1 X6.0 Y68.4505 Z-2.82
G1 X5.9778 Y68.4512 Z-2.822
G1 X5.9559 Y68.4533 Z-2.824
G1 X5.9347 Y68.4566 Z-2.826
G1 X5.9133 Y68.4614 Z-2.828
G1 X5.8919 Y68.4676 Z-2.83
G1 X5.8713 Y68.475 Z-2.832
G1 X5.8513 Y68.4837 Z-2.834
G1 X5.8316 Y68.4937 Z-2.836
G1 X5.8126 Y68.505 Z-2.838
G1 X5.7945 Y68.5173 Z-2.84
G1 X5.7774 Y68.5305 Z-2.842
G1 X5.7609 Y68.5451 Z-2.844
G1 X5.7451 Y68.5609 Z-2.846
G1 X5.7305 Y68.5774 Z-2.848
G1 X5.7173 Y68.5945 Z-2.85
G1 X5.705 Y68.6126 Z-2.852
G1 X5.6937 Y68.6316 Z-2.854
G1 X5.6837 Y68.6513 Z-2.856
G1 X5.675 Y68.6713 Z-2.858
G1 X5.6676 Y68.6919 Z-2.86
G1 X5.6614 Y68.7133 Z-2.862
G1 X5.6566 Y68.7347 Z-2.864
G1 X5.6533 Y68.7559 Z-2.866
G1 X5.6512 Y68.7778 Z-2.868
G1 X5.6505 Y68.8 Z-2.87
G1 X5.6512 Y68.8222 Z-2.872
G1 X5.6533 Y68.8441 Z-2.874
G1 X5.6566 Y68.8653 Z-2.876
G1 X5.6614 Y68.8867 Z-2.878
G1 X5.6676 Y68.9081 Z-2.88
G1 X5.675 Y68.9287 Z-2.882
G1 X5.6837 Y68.9487 Z-2.884
G1 X5.6937 Y68.9684 Z-2.886
G1 X5.705 Y68.9874 Z-2.888
G1 X5.7173 Y69.0055 Z-2.89
G1 X5.7305 Y69.0226 Z-2.892
G1 X5.7451 Y69.0391 Z-2.894
G1 X5.7609 Y69.0549 Z-2.896
G1 X5.7774 Y69.0695 Z-2.898
G1 X5.7945 Y69.0827 Z-2.9
G1 X5.8126 Y69.095 Z-2.902
G1 X5.8316 Y69.1063 Z-2.904
G1 X5.8513 Y69.1163 Z-2.906
G1 X5.8713 Y69.125 Z-2.908
G1 X5.8919 Y69.1324 Z-2.91
G1 X5.9133 Y69.1386 Z-2.912
G1 X5.9347 Y69.1434 Z-2.914
G1 X5.9559 Y69.1467 Z-2.916
G1 X5.9778 Y69.1488 Z-2.918
G1 X6.0 Y69.1495 Z-2.92
G1 X6.0222 Y69.1488 Z-2.922
G1 X6.0441 Y69.1467 Z-2.924
G1 X6.0653 Y69.1434 Z-2.926
G1 X6.0867 Y69.1386 Z-2.928
G1 X6.1081 Y69.1324 Z-2.93
G1 X6.1287 Y69.125 Z-2.932
G1 X6.1487 Y69.1163 Z-2.934
G1 X6.1684 Y69.1063 Z-2.936
G1 X6.1874 Y69.095 Z-2.938
G1 X6.2055 Y69.0827 Z-2.94
G1 X6.2226 Y69.0695 Z-2.942
G1 X6.2391 Y69.0549 Z-2.944
G1 X6.2549 Y69.0391 Z-2.946
G1 X6.2695 Y69.0226 Z-2.948
G1 X6.2827 Y69.0055 Z-2.95
G1 X6.295 Y68.9874 Z-2.952
G1 X6.3063 Y68.9684 Z-2.954
G1 X6.3163 Y68.9487 Z-2.956
G1 X6.325 Y68.9287 Z-2.958
G1 X6.3324 Y68.9081 Z-2.96
G1 X6.3386 Y68.8867 Z-2.962
G1 X6.3434 Y68.8653 Z-2.964
G1 X6.3467 Y68.8441 Z-2.966
G1 X6.3488 Y68.8222 Z-2.968
G1 X6.3495 Y68.8 Z-2.97
G1 X6.3488 Y68.7778 Z-2.972
G1 X6.3467 Y68.7559 Z-2.974
G1 X6.3434 Y68.7347 Z-2.976
G1 X6.3386 Y68.7133 Z-2.978
G1 X6.3324 Y68.6919 Z-2.98
G1 X6.325 Y68.6713 Z-2.982
G1 X6.3163 Y68.6513 Z-2.984
G1 X6.3063 Y68.6316 Z-2.986
G1 X6.295 Y68.6126 Z-2.988
G1 X6.2827 Y68.5945 Z-2.99
G1 X6.2695 Y68.5774 Z-2.992
G1 X6.2549 Y68.5609 Z-2.994
G1 X6.2391 Y68.5451 Z-2.996
G1 X6.2226 Y68.5305 Z-2.998
G1 X6.2055 Y68.5173 Z-3.0
G1 X6.1874 Y68.505 Z-3.002
G1 X6.1684 Y68.4937 Z-3.004
G1 X6.1487 Y68.4837 Z-3.006
G1 X6.1287 Y68.475 Z-3.008
G1 X6.1081 Y68.4676 Z-3.01
G1 X6.0867 Y68.4614 Z-3.012
G1 X6.0653 Y68.4566 Z-3.014
G1 X6.0441 Y68.4533 Z-3.016
G1 X6.0222 Y68.4512 Z-3.018
G1 X6.0 Y68.4505 Z-3.02
G1 X5.9778 Y68.4512 Z-3.022
G1 X5.9559 Y68.4533 Z-3.024
G1 X5.9347 Y68.4566 Z-3.026
G1 X5.9133 Y68.4614 Z-3.028
G1 X5.8919 Y68.4676 Z-3.03
G1 X5.8713 Y68.475 Z-3.032
G1 X5.8513 Y68.4837 Z-3.034
G1 X5.8316 Y68.4937 Z-3.036
G1 X5.8126 Y68.505 Z-3.038
G1 X5.7945 Y68.5173 Z-3.04
G1 X5.7774 Y68.5305 Z-3.042
G1 X5.7609 Y68.5451 Z-3.044
G1 X5.7451 Y68.5609 Z-3.046
G1 X5.7305 Y68.5774 Z-3.048
G1 X5.7173 Y68.5945 Z-3.05
G1 X5.705 Y68.6126 Z-3.052
G1 X5.6937 Y68.6316 Z-3.054
G1 X5.6837 Y68.6513 Z-3.056
G1 X5.675 Y68.6713 Z-3.058
G1 X5.6676 Y68.6919 Z-3.06
G1 X5.6614 Y68.7133 Z-3.062
G1 X5.6566 Y68.7347 Z-3.064
G1 X5.6533 Y68.7559 Z-3.066
G1 X5.6512 Y68.7778 Z-3.068
G1 X5.6505 Y68.8 Z-3.07
G1 X5.6512 Y68.8222 Z-3.072
G1 X5.6533 Y68.8441 Z-3.074
G1 X5.6566 Y68.8653 Z-3.076
G1 X5.6614 Y68.8867 Z-3.078
G1 X5.6676 Y68.9081 Z-3.08
G1 X5.675 Y68.9287 Z-3.082
G1 X5.6837 Y68.9487 Z-3.084
G1 X5.6937 Y68.9684 Z-3.086
G1 X5.705 Y68.9874 Z-3.088
G1 X5.7173 Y69.0055 Z-3.09
G1 X5.7305 Y69.0226 Z-3.092
G1 X5.7451 Y69.0391 Z-3.094
G1 X5.7609 Y69.0549 Z-3.096
G1 X5.7774 Y69.0695 Z-3.098
G1 X5.7945 Y69.0827 Z-3.1
G1 X5.8126 Y69.095 Z-3.102
G1 X5.8316 Y69.1063 Z-3.104
G1 X5.8513 Y69.1163 Z-3.106
G1 X5.8713 Y69.125 Z-3.108
G1 X5.8919 Y69.1324 Z-3.11
G1 X5.9133 Y69.1386 Z-3.112
G1 X5.9347 Y69.1434 Z-3.114
G1 X5.9559 Y69.1467 Z-3.116
G1 X5.9778 Y69.1488 Z-3.118
G1 X6.0 Y69.1495 Z-3.12
G1 X6.0222 Y69.1488 Z-3.122
G1 X6.0441 Y69.1467 Z-3.124
G1 X6.0653 Y69.1434 Z-3.126
G1 X6.0867 Y69.1386 Z-3.128
G1 X6.1081 Y69.1324 Z-3.13
G1 X6.1287 Y69.125 Z-3.132
G1 X6.1487 Y69.1163 Z-3.134
G1 X6.1684 Y69.1063 Z-3.136
G1 X6.1874 Y69.095 Z-3.138
G1 X6.2055 Y69.0827 Z-3.14
G1 X6.2226 Y69.0695 Z-3.142
G1 X6.2391 Y69.0549 Z-3.144
G1 X6.2549 Y69.0391 Z-3.146
G1 X6.2695 Y69.0226 Z-3.148
G1 X6.2827 Y69.0055 Z-3.15
G1 X6.295 Y68.9874 Z-3.152
G1 X6.3063 Y68.9684 Z-3.154
G1 X6.3163 Y68.9487 Z-3.156
G1 X6.325 Y68.9287 Z-3.158
G1 X6.3324 Y68.9081 Z-3.16
G1 X6.3386 Y68.8867 Z-3.162
G1 X6.3434 Y68.8653 Z-3.164
G1 X6.3467 Y68.8441 Z-3.166
G1 X6.3488 Y68.8222 Z-3.168
G1 X6.3495 Y68.8 Z-3.17
G1 X6.3488 Y68.7778 Z-3.172
G1 X6.3467 Y68.7559 Z-3.174
G1 X6.3434 Y68.7347 Z-3.176
G1 X6.3386 Y68.7133 Z-3.178
G1 X6.3324 Y68.6919 Z-3.18
G1 X6.325 Y68.6713 Z-3.182
G1 X6.3163 Y68.6513 Z-3.184
G1 X6.3063 Y68.6316 Z-3.186
G1 X6.295 Y68.6126 Z-3.188
G1 X6.2827 Y68.5945 Z-3.19
G1 X6.2695 Y68.5774 Z-3.192
G1 X6.2549 Y68.5609 Z-3.194
G1 X6.2391 Y68.5451 Z-3.196
G1 X6.2226 Y68.5305 Z-3.198
G1 X6.2055 Y68.5173 Z-3.2
G1 X6.1874 Y68.505 Z-3.202
G1 X6.1684 Y68.4937 Z-3.204
G1 X6.1487 Y68.4837 Z-3.206
G1 X6.1287 Y68.475 Z-3.208
G1 X6.1081 Y68.4676 Z-3.21
G1 X6.0867 Y68.4614 Z-3.212
G1 X6.0653 Y68.4566 Z-3.214
G1 X6.0441 Y68.4533 Z-3.216
G1 X6.0222 Y68.4512 Z-3.218
G1 X6.0 Y68.4505 Z-3.22
G1 X5.9778 Y68.4512 Z-3.222
G1 X5.9559 Y68.4533 Z-3.224
G1 X5.9347 Y68.4566 Z-3.226
G1 X5.9133 Y68.4614 Z-3.228
G1 X5.8919 Y68.4676 Z-3.23
G1 X5.8713 Y68.475 Z-3.232
G1 X5.8513 Y68.4837 Z-3.234
G1 X5.8316 Y68.4937 Z-3.236
G1 X5.8126 Y68.505 Z-3.238
G1 X5.7945 Y68.5173 Z-3.24
G1 X5.7774 Y68.5305 Z-3.242
G1 X5.7609 Y68.5451 Z-3.244
G1 X5.7451 Y68.5609 Z-3.246
G1 X5.7305 Y68.5774 Z-3.248
G1 X5.7173 Y68.5945 Z-3.25
G1 X5.705 Y68.6126 Z-3.252
G1 X5.6937 Y68.6316 Z-3.254
G1 X5.6837 Y68.6513 Z-3.256
G1 X5.675 Y68.6713 Z-3.258
G1 X5.6676 Y68.6919 Z-3.26
G1 X5.6614 Y68.7133 Z-3.262
G1 X5.6566 Y68.7347 Z-3.264
G1 X5.6533 Y68.7559 Z-3.266
G1 X5.6512 Y68.7778 Z-3.268
G1 X5.6505 Y68.8 Z-3.27
G1 X5.6512 Y68.8222 Z-3.272
G1 X5.6533 Y68.8441 Z-3.274
G1 X5.6566 Y68.8653 Z-3.276
G1 X5.6614 Y68.8867 Z-3.278
G1 X5.6676 Y68.9081 Z-3.28
G1 X5.675 Y68.9287 Z-3.282
G1 X5.6837 Y68.9487 Z-3.284
G1 X5.6937 Y68.9684 Z-3.286
G1 X5.705 Y68.9874 Z-3.288
G1 X5.7173 Y69.0055 Z-3.29
G1 X5.7305 Y69.0226 Z-3.292
G1 X5.7451 Y69.0391 Z-3.294
G1 X5.7609 Y69.0549 Z-3.296
G1 X5.7774 Y69.0695 Z-3.298
G1 X5.7945 Y69.0827 Z-3.3
G1 X5.8126 Y69.095 Z-3.302
G1 X5.8316 Y69.1063 Z-3.304
G1 X5.8513 Y69.1163 Z-3.306
G1 X5.8713 Y69.125 Z-3.308
G1 X5.8919 Y69.1324 Z-3.31
G1 X5.9133 Y69.1386 Z-3.312
G1 X5.9347 Y69.1434 Z-3.314
G1 X5.9559 Y69.1467 Z-3.316
G1 X5.9778 Y69.1488 Z-3.318
G1 X6.0 Y69.1495 Z-3.32
G1 X6.0222 Y69.1488 Z-3.322
G1 X6.0441 Y69.1467 Z-3.324
G1 X6.0653 Y69.1434 Z-3.326
G1 X6.0867 Y69.1386 Z-3.328
G1 X6.1081 Y69.1324 Z-3.33
G1 X6.1287 Y69.125 Z-3.332
G1 X6.1487 Y69.1163 Z-3.334
G1 X6.1684 Y69.1063 Z-3.336
G1 X6.1874 Y69.095 Z-3.338
G1 X6.2055 Y69.0827 Z-3.34
G1 X6.2226 Y69.0695 Z-3.342
G1 X6.2391 Y69.0549 Z-3.344
G1 X6.2549 Y69.0391 Z-3.346
G1 X6.2695 Y69.0226 Z-3.348
G1 X6.2827 Y69.0055 Z-3.35
G1 X6.295 Y68.9874 Z-3.352
G1 X6.3063 Y68.9684 Z-3.354
G1 X6.3163 Y68.9487 Z-3.356
G1 X6.325 Y68.9287 Z-3.358
G1 X6.3324 Y68.9081 Z-3.36
G1 X6.3386 Y68.8867 Z-3.362
G1 X6.3434 Y68.8653 Z-3.364
G1 X6.3467 Y68.8441 Z-3.366
G1 X6.3488 Y68.8222 Z-3.368
G1 X6.3495 Y68.8 Z-3.37
G1 X6.3488 Y68.7778 Z-3.372
G1 X6.3467 Y68.7559 Z-3.374
G1 X6.3434 Y68.7347 Z-3.376
G1 X6.3386 Y68.7133 Z-3.378
G1 X6.3324 Y68.6919 Z-3.38
G1 X6.325 Y68.6713 Z-3.382
G1 X6.3163 Y68.6513 Z-3.384
G1 X6.3063 Y68.6316 Z-3.386
G1 X6.295 Y68.6126 Z-3.388
G1 X6.2827 Y68.5945 Z-3.39
G1 X6.2695 Y68.5774 Z-3.392
G1 X6.2549 Y68.5609 Z-3.394
G1 X6.2391 Y68.5451 Z-3.396
G1 X6.2226 Y68.5305 Z-3.398
G1 X6.2055 Y68.5173 Z-3.4
G1 X6.1874 Y68.505 Z-3.402
G1 X6.1684 Y68.4937 Z-3.404
G1 X6.1487 Y68.4837 Z-3.406
G1 X6.1287 Y68.475 Z-3.408
G1 X6.1081 Y68.4676 Z-3.41
G1 X6.0867 Y68.4614 Z-3.412
G1 X6.0653 Y68.4566 Z-3.414
G1 X6.0441 Y68.4533 Z-3.416
G1 X6.0222 Y68.4512 Z-3.418
G1 X6.0 Y68.4505 Z-3.42
G1 X5.9778 Y68.4512 Z-3.422
G1 X5.9559 Y68.4533 Z-3.424
G1 X5.9347 Y68.4566 Z-3.426
G1 X5.9133 Y68.4614 Z-3.428
G1 X5.8919 Y68.4676 Z-3.43
G1 X5.8713 Y68.475 Z-3.432
G1 X5.8513 Y68.4837 Z-3.434
G1 X5.8316 Y68.4937 Z-3.436
G1 X5.8126 Y68.505 Z-3.438
G1 X5.7945 Y68.5173 Z-3.44
G1 X5.7774 Y68.5305 Z-3.442
G1 X5.7609 Y68.5451 Z-3.444
G1 X5.7451 Y68.5609 Z-3.446
G1 X5.7305 Y68.5774 Z-3.448
G1 X5.7173 Y68.5945 Z-3.45
G1 X5.705 Y68.6126 Z-3.452
G1 X5.6937 Y68.6316 Z-3.454
G1 X5.6837 Y68.6513 Z-3.456
G1 X5.675 Y68.6713 Z-3.458
G1 X5.6676 Y68.6919 Z-3.46
G1 X5.6614 Y68.7133 Z-3.462
G1 X5.6566 Y68.7347 Z-3.464
G1 X5.6533 Y68.7559 Z-3.466
G1 X5.6512 Y68.7778 Z-3.468
G1 X5.6505 Y68.8 Z-3.47
G1 X5.6512 Y68.8222 Z-3.472
G1 X5.6533 Y68.8441 Z-3.474
G1 X5.6566 Y68.8653 Z-3.476
G1 X5.6614 Y68.8867 Z-3.478
G1 X5.6676 Y68.9081 Z-3.48
G1 X5.675 Y68.9287 Z-3.482
G1 X5.6837 Y68.9487 Z-3.484
G1 X5.6937 Y68.9684 Z-3.486
G1 X5.705 Y68.9874 Z-3.488
G1 X5.7173 Y69.0055 Z-3.49
G1 X5.7305 Y69.0226 Z-3.492
G1 X5.7451 Y69.0391 Z-3.494
G1 X5.7609 Y69.0549 Z-3.496
G1 X5.7774 Y69.0695 Z-3.498
G1 X5.7945 Y69.0827 Z-3.5
G1 X5.8126 Y69.095 Z-3.502
G1 X5.8316 Y69.1063 Z-3.504
G1 X5.8513 Y69.1163 Z-3.506
G1 X5.8713 Y69.125 Z-3.508
G1 X5.8919 Y69.1324 Z-3.51
G1 X5.9133 Y69.1386 Z-3.512
G1 X5.9347 Y69.1434 Z-3.514
G1 X5.9559 Y69.1467 Z-3.516
G1 X5.9778 Y69.1488 Z-3.518
G1 X6.0 Y69.1495 Z-3.52
G1 X6.0222 Y69.1488 Z-3.522
G1 X6.0441 Y69.1467 Z-3.524
G1 X6.0653 Y69.1434 Z-3.526
G1 X6.0867 Y69.1386 Z-3.528
G1 X6.1081 Y69.1324 Z-3.53
G1 X6.1287 Y69.125 Z-3.532
G1 X6.1487 Y69.1163 Z-3.534
G1 X6.1684 Y69.1063 Z-3.536
G1 X6.1874 Y69.095 Z-3.538
G1 X6.2055 Y69.0827 Z-3.54
G1 X6.2226 Y69.0695 Z-3.542
G1 X6.2391 Y69.0549 Z-3.544
G1 X6.2549 Y69.0391 Z-3.546
G1 X6.2695 Y69.0226 Z-3.548
G1 X6.2827 Y69.0055 Z-3.55
G1 X6.295 Y68.9874 Z-3.552
G1 X6.3063 Y68.9684 Z-3.554
G1 X6.3163 Y68.9487 Z-3.556
G1 X6.325 Y68.9287 Z-3.558
G1 X6.3324 Y68.9081 Z-3.56
G1 X6.3386 Y68.8867 Z-3.562
G1 X6.3434 Y68.8653 Z-3.564
G1 X6.3467 Y68.8441 Z-3.566
G1 X6.3488 Y68.8222 Z-3.568
G1 X6.3495 Y68.8 Z-3.57
G1 X6.3488 Y68.7778 Z-3.572
G1 X6.3467 Y68.7559 Z-3.574
G1 X6.3434 Y68.7347 Z-3.576
G1 X6.3386 Y68.7133 Z-3.578
G1 X6.3324 Y68.6919 Z-3.58
G1 X6.325 Y68.6713 Z-3.582
G1 X6.3163 Y68.6513 Z-3.584
G1 X6.3063 Y68.6316 Z-3.586
G1 X6.295 Y68.6126 Z-3.588
G1 X6.2827 Y68.5945 Z-3.59
G1 X6.2695 Y68.5774 Z-3.592
G1 X6.2549 Y68.5609 Z-3.594
G1 X6.2391 Y68.5451 Z-3.596
G1 X6.2226 Y68.5305 Z-3.598
G1 X6.2055 Y68.5173 Z-3.6
G1 X6.1874 Y68.505 Z-3.602
G1 X6.1684 Y68.4937 Z-3.604
G1 X6.1487 Y68.4837 Z-3.606
G1 X6.1287 Y68.475 Z-3.608
G1 X6.1081 Y68.4676 Z-3.61
G1 X6.0867 Y68.4614 Z-3.612
G1 X6.0653 Y68.4566 Z-3.614
G1 X6.0441 Y68.4533 Z-3.616
G1 X6.0222 Y68.4512 Z-3.618
G1 X6.0 Y68.4505 Z-3.62
G1 X5.9778 Y68.4512 Z-3.622
G1 X5.9559 Y68.4533 Z-3.624
G1 X5.9347 Y68.4566 Z-3.626
G1 X5.9133 Y68.4614 Z-3.628
G1 X5.8919 Y68.4676 Z-3.63
G1 X5.8713 Y68.475 Z-3.632
G1 X5.8513 Y68.4837 Z-3.634
G1 X5.8316 Y68.4937 Z-3.636
G1 X5.8126 Y68.505 Z-3.638
G1 X5.7945 Y68.5173 Z-3.64
G1 X5.7774 Y68.5305 Z-3.642
G1 X5.7609 Y68.5451 Z-3.644
G1 X5.7451 Y68.5609 Z-3.646
G1 X5.7305 Y68.5774 Z-3.648
G1 X5.7173 Y68.5945 Z-3.65
G1 X5.705 Y68.6126 Z-3.652
G1 X5.6937 Y68.6316 Z-3.654
G1 X5.6837 Y68.6513 Z-3.656
G1 X5.675 Y68.6713 Z-3.658
G1 X5.6676 Y68.6919 Z-3.66
G1 X5.6614 Y68.7133 Z-3.662
G1 X5.6566 Y68.7347 Z-3.664
G1 X5.6533 Y68.7559 Z-3.666
G1 X5.6512 Y68.7778 Z-3.668
G1 X5.6505 Y68.8 Z-3.67
G1 X5.6512 Y68.8222 Z-3.672
G1 X5.6533 Y68.8441 Z-3.674
G1 X5.6566 Y68.8653 Z-3.676
G1 X5.6614 Y68.8867 Z-3.678
G1 X5.6676 Y68.9081 Z-3.68
G1 X5.675 Y68.9287 Z-3.682
G1 X5.6837 Y68.9487 Z-3.684
G1 X5.6937 Y68.9684 Z-3.686
G1 X5.705 Y68.9874 Z-3.688
G1 X5.7173 Y69.0055 Z-3.69
G1 X5.7305 Y69.0226 Z-3.692
G1 X5.7451 Y69.0391 Z-3.694
G1 X5.7609 Y69.0549 Z-3.696
G1 X5.7774 Y69.0695 Z-3.698
G1 X5.7945 Y69.0827 Z-3.7
G1 X5.8126 Y69.095 Z-3.702
G1 X5.8316 Y69.1063 Z-3.704
G1 X5.8513 Y69.1163 Z-3.706
G1 X5.8713 Y69.125 Z-3.708
G1 X5.8919 Y69.1324 Z-3.71
G1 X5.9133 Y69.1386 Z-3.712
G1 X5.9347 Y69.1434 Z-3.714
G1 X5.9559 Y69.1467 Z-3.716
G1 X5.9778 Y69.1488 Z-3.718
G1 X6.0 Y69.1495 Z-3.72
G1 X6.0222 Y69.1488 Z-3.722
G1 X6.0441 Y69.1467 Z-3.724
G1 X6.0653 Y69.1434 Z-3.726
G1 X6.0867 Y69.1386 Z-3.728
G1 X6.1081 Y69.1324 Z-3.73
G1 X6.1287 Y69.125 Z-3.732
G1 X6.1487 Y69.1163 Z-3.734
G1 X6.1684 Y69.1063 Z-3.736
G1 X6.1874 Y69.095 Z-3.738
G1 X6.2055 Y69.0827 Z-3.74
G1 X6.2226 Y69.0695 Z-3.742
G1 X6.2391 Y69.0549 Z-3.744
G1 X6.2549 Y69.0391 Z-3.746
G1 X6.2695 Y69.0226 Z-3.748
G1 X6.2827 Y69.0055 Z-3.75
G1 X6.295 Y68.9874 Z-3.752
G1 X6.3063 Y68.9684 Z-3.754
G1 X6.3163 Y68.9487 Z-3.756
G1 X6.325 Y68.9287 Z-3.758
G1 X6.3324 Y68.9081 Z-3.76
G1 X6.3386 Y68.8867 Z-3.762
G1 X6.3434 Y68.8653 Z-3.764
G1 X6.3467 Y68.8441 Z-3.766
G1 X6.3488 Y68.8222 Z-3.768
G1 X6.3495 Y68.8 Z-3.77
G1 X6.3488 Y68.7778 Z-3.772
G1 X6.3467 Y68.7559 Z-3.774
G1 X6.3434 Y68.7347 Z-3.776
G1 X6.3386 Y68.7133 Z-3.778
G1 X6.3324 Y68.6919 Z-3.78
G1 X6.325 Y68.6713 Z-3.782
G1 X6.3163 Y68.6513 Z-3.784
G1 X6.3063 Y68.6316 Z-3.786
G1 X6.295 Y68.6126 Z-3.788
G1 X6.2827 Y68.5945 Z-3.79
G1 X6.2695 Y68.5774 Z-3.792
G1 X6.2549 Y68.5609 Z-3.794
G1 X6.2391 Y68.5451 Z-3.796
G1 X6.2226 Y68.5305 Z-3.798
G1 X6.2055 Y68.5173 Z-3.8
G1 X6.1874 Y68.505 Z-3.802
G1 X6.1684 Y68.4937 Z-3.804
G1 X6.1487 Y68.4837 Z-3.806
G1 X6.1287 Y68.475 Z-3.808
G1 X6.1081 Y68.4676 Z-3.81
G1 X6.0867 Y68.4614 Z-3.812
G1 X6.0653 Y68.4566 Z-3.814
G1 X6.0441 Y68.4533 Z-3.816
G1 X6.0222 Y68.4512 Z-3.818
G1 X6.0 Y68.4505 Z-3.82
G1 X5.9778 Y68.4512 Z-3.822
G1 X5.9559 Y68.4533 Z-3.824
G1 X5.9347 Y68.4566 Z-3.826
G1 X5.9133 Y68.4614 Z-3.828
G1 X5.8919 Y68.4676 Z-3.83
G1 X5.8713 Y68.475 Z-3.832
G1 X5.8513 Y68.4837 Z-3.834
G1 X5.8316 Y68.4937 Z-3.836
G1 X5.8126 Y68.505 Z-3.838
G1 X5.7945 Y68.5173 Z-3.84
G1 X5.7774 Y68.5305 Z-3.842
G1 X5.7609 Y68.5451 Z-3.844
G1 X5.7451 Y68.5609 Z-3.846
G1 X5.7305 Y68.5774 Z-3.848
G1 X5.7173 Y68.5945 Z-3.85
G1 X5.705 Y68.6126 Z-3.852
G1 X5.6937 Y68.6316 Z-3.854
G1 X5.6837 Y68.6513 Z-3.856
G1 X5.675 Y68.6713 Z-3.858
G1 X5.6676 Y68.6919 Z-3.86
G1 X5.6614 Y68.7133 Z-3.862
G1 X5.6566 Y68.7347 Z-3.864
G1 X5.6533 Y68.7559 Z-3.866
G1 X5.6512 Y68.7778 Z-3.868
G1 X5.6505 Y68.8 Z-3.87
G1 X5.6512 Y68.8222 Z-3.872
G1 X5.6533 Y68.8441 Z-3.874
G1 X5.6566 Y68.8653 Z-3.876
G1 X5.6614 Y68.8867 Z-3.878
G1 X5.6676 Y68.9081 Z-3.88
G1 X5.675 Y68.9287 Z-3.882
G1 X5.6837 Y68.9487 Z-3.884
G1 X5.6937 Y68.9684 Z-3.886
G1 X5.705 Y68.9874 Z-3.888
G1 X5.7173 Y69.0055 Z-3.89
G1 X5.7305 Y69.0226 Z-3.892
G1 X5.7451 Y69.0391 Z-3.894
G1 X5.7609 Y69.0549 Z-3.896
G1 X5.7774 Y69.0695 Z-3.898
G1 X5.7945 Y69.0827 Z-3.9
G1 X5.8126 Y69.095 Z-3.902
G1 X5.8316 Y69.1063 Z-3.904
G1 X5.8513 Y69.1163 Z-3.906
G1 X5.8713 Y69.125 Z-3.908
G1 X5.8919 Y69.1324 Z-3.91
G1 X5.9133 Y69.1386 Z-3.912
G1 X5.9347 Y69.1434 Z-3.914
G1 X5.9559 Y69.1467 Z-3.916
G1 X5.9778 Y69.1488 Z-3.918
G1 X6.0 Y69.1495 Z-3.92
G1 X6.0222 Y69.1488 Z-3.922
G1 X6.0441 Y69.1467 Z-3.924
G1 X6.0653 Y69.1434 Z-3.926
G1 X6.0867 Y69.1386 Z-3.928
G1 X6.1081 Y69.1324 Z-3.93
G1 X6.1287 Y69.125 Z-3.932
G1 X6.1487 Y69.1163 Z-3.934
G1 X6.1684 Y69.1063 Z-3.936
G1 X6.1874 Y69.095 Z-3.938
G1 X6.2055 Y69.0827 Z-3.94
G1 X6.2226 Y69.0695 Z-3.942
G1 X6.2391 Y69.0549 Z-3.944
G1 X6.2549 Y69.0391 Z-3.946
G1 X6.2695 Y69.0226 Z-3.948
G1 X6.2827 Y69.0055 Z-3.95
G1 X6.295 Y68.9874 Z-3.952
G1 X6.3063 Y68.9684 Z-3.954
G1 X6.3163 Y68.9487 Z-3.956
G1 X6.325 Y68.9287 Z-3.958
G1 X6.3324 Y68.9081 Z-3.96
G1 X6.3386 Y68.8867 Z-3.962
G1 X6.3434 Y68.8653 Z-3.964
G1 X6.3467 Y68.8441 Z-3.966
G1 X6.3488 Y68.8222 Z-3.968
G1 X6.3495 Y68.8 Z-3.97
G1 X6.3488 Y68.7778 Z-3.972
G1 X6.3467 Y68.7559 Z-3.974
G1 X6.3434 Y68.7347 Z-3.976
G1 X6.3386 Y68.7133 Z-3.978
G1 X6.3324 Y68.6919 Z-3.98
G1 X6.325 Y68.6713 Z-3.982
G1 X6.3163 Y68.6513 Z-3.984
G1 X6.3063 Y68.6316 Z-3.986
G1 X6.295 Y68.6126 Z-3.988
G1 X6.2827 Y68.5945 Z-3.99
G1 X6.2695 Y68.5774 Z-3.992
G1 X6.2549 Y68.5609 Z-3.994
G1 X6.2391 Y68.5451 Z-3.996
G1 X6.2226 Y68.5305 Z-3.998
G1 X6.2055 Y68.5173 Z-4.0
G1 X6.1874 Y68.505
G1 X6.1684 Y68.4937
G1 X6.1487 Y68.4837
G1 X6.1287 Y68.475
G1 X6.1081 Y68.4676
G1 X6.0867 Y68.4614
G1 X6.0653 Y68.4566
G1 X6.0441 Y68.4533
G1 X6.0222 Y68.4512
G1 X6.0 Y68.4505
G1 X5.9778 Y68.4512
G1 X5.9559 Y68.4533
G1 X5.9347 Y68.4566
G1 X5.9133 Y68.4614
G1 X5.8919 Y68.4676
G1 X5.8713 Y68.475
G1 X5.8513 Y68.4837
G1 X5.8316 Y68.4937
G1 X5.8126 Y68.505
G1 X5.7945 Y68.5173
G1 X5.7774 Y68.5305
G1 X5.7609 Y68.5451
G1 X5.7451 Y68.5609
G1 X5.7305 Y68.5774
G1 X5.7173 Y68.5945
G1 X5.705 Y68.6126
G1 X5.6937 Y68.6316
G1 X5.6837 Y68.6513
G1 X5.675 Y68.6713
G1 X5.6676 Y68.6919
G1 X5.6614 Y68.7133
G1 X5.6566 Y68.7347
G1 X5.6533 Y68.7559
G1 X5.6512 Y68.7778
G1 X5.6505 Y68.8
G1 X5.6512 Y68.8222
G1 X5.6533 Y68.8441
G1 X5.6566 Y68.8653
G1 X5.6614 Y68.8867
G1 X5.6676 Y68.9081
G1 X5.675 Y68.9287
G1 X5.6837 Y68.9487
G1 X5.6937 Y68.9684
G1 X5.705 Y68.9874
G1 X5.7173 Y69.0055
G1 X5.7305 Y69.0226
G1 X5.7451 Y69.0391
G1 X5.7609 Y69.0549
G1 X5.7774 Y69.0695
G1 X5.7945 Y69.0827
G1 X5.8126 Y69.095
G1 X5.8316 Y69.1063
G1 X5.8513 Y69.1163
G1 X5.8713 Y69.125
G1 X5.8919 Y69.1324
G1 X5.9133 Y69.1386
G1 X5.9347 Y69.1434
G1 X5.9559 Y69.1467
G1 X5.9778 Y69.1488
G1 X6.0 Y69.1495
G1 X6.0222 Y69.1488
G1 X6.0441 Y69.1467
G1 X6.0653 Y69.1434
G1 X6.0867 Y69.1386
G1 X6.1081 Y69.1324
G1 X6.1287 Y69.125
G1 X6.1487 Y69.1163
G1 X6.1684 Y69.1063
G1 X6.1874 Y69.095
G1 X6.2055 Y69.0827
G1 X6.2226 Y69.0695
G1 X6.2391 Y69.0549
G1 X6.2549 Y69.0391
G1 X6.2695 Y69.0226
G1 X6.2827 Y69.0055
G1 X6.295 Y68.9874
G1 X6.3063 Y68.9684
G1 X6.3163 Y68.9487
G1 X6.325 Y68.9287
G1 X6.3324 Y68.9081
G1 X6.3386 Y68.8867
G1 X6.3434 Y68.8653
G1 X6.3467 Y68.8441
G1 X6.3488 Y68.8222
G1 X6.3495 Y68.8
G1 X6.3488 Y68.7778
G1 X6.3467 Y68.7559
G1 X6.3434 Y68.7347
G1 X6.3386 Y68.7133
G1 X6.3324 Y68.6919
G1 X6.325 Y68.6713
G1 X6.3163 Y68.6513
G1 X6.3063 Y68.6316
G1 X6.295 Y68.6126
G1 X6.2827 Y68.5945
G1 X6.2695 Y68.5774
G1 X6.2549 Y68.5609
G1 X6.2391 Y68.5451
G1 X6.2226 Y68.5305
G1 X6.2055 Y68.5173
G0 Z3.0
G0 X8.8513 Y63.2163
G0 Z1.0
G1 F50.0 Z0.0
G1 F40.0 X8.8713 Y63.225 Z-0.002
G1 X8.8919 Y63.2324 Z-0.004
G1 X8.9133 Y63.2386 Z-0.006
G1 X8.9347 Y63.2434 Z-0.008
G1 X8.9559 Y63.2467 Z-0.01
G1 X8.9778 Y63.2488 Z-0.012
G1 X9.0 Y63.2495 Z-0.014
G1 X9.0222 Y63.2488 Z-0.016
G1 X9.0441 Y63.2467 Z-0.018
G1 X9.0653 Y63.2434 Z-0.02
G1 X9.0867 Y63.2386 Z-0.022
G1 X9.1081 Y63.2324 Z-0.024
G1 X9.1287 Y63.225 Z-0.026
G1 X9.1487 Y63.2163 Z-0.028
G1 X9.1684 Y63.2063 Z-0.03
G1 X9.1874 Y63.195 Z-0.032
G1 X9.2055 Y63.1827 Z-0.034
G1 X9.2226 Y63.1695 Z-0.036
G1 X9.2391 Y63.1549 Z-0.038
G1 X9.2549 Y63.1391 Z-0.04
G1 X9.2695 Y63.1226 Z-0.042
G1 X9.2827 Y63.1055 Z-0.044
G1 X9.295 Y63.0874 Z-0.046
G1 X9.3063 Y63.0684 Z-0.048
G1 X9.3163 Y63.0487 Z-0.05
G1 X9.325 Y63.0287 Z-0.052
G1 X9.3324 Y63.0081 Z-0.054
G1 X9.3386 Y62.9867 Z-0.056
G1 X9.3434 Y62.9653 Z-0.058
G1 X9.3467 Y62.9441 Z-0.06
G1 X9.3488 Y62.9222 Z-0.062
G1 X9.3495 Y62.9 Z-0.064
G1 X9.3488 Y62.8778 Z-0.066
G1 X9.3467 Y62.8559 Z-0.068
G1 X9.3434 Y62.8347 Z-0.07
G1 X9.3386 Y62.8133 Z-0.072
G1 X9.3324 Y62.7919 Z-0.074
G1 X9.325 Y62.7713 Z-0.076
G1 X9.3163 Y62.7513 Z-0.078
G1 X9.3063 Y62.7316 Z-0.08
G1 X9.295 Y62.7126 Z-0.082
G1 X9.2827 Y62.6945 Z-0.084
G1 X9.2695 Y62.6774 Z-0.086
G1 X9.2549 Y62.6609 Z-0.088
G1 X9.2391 Y62.6451 Z-0.09
G1 X9.2226 Y62.6305 Z-0.092
G1 X9.2055 Y62.6173 Z-0.094
G1 X9.1874 Y62.605 Z-0.096
G1 X9.1684 Y62.5937 Z-0.098
G1 X9.1487 Y62.5837 Z-0.1
G1 X9.1287 Y62.575 Z-0.102
G1 X9.1081 Y62.5676 Z-0.104
G1 X9.0867 Y62.5614 Z-0.106
G1 X9.0653 Y62.5566 Z-0.108
G1 X9.0441 Y62.5533 Z-0.11
G1 X9.0222 Y62.5512 Z-0.112
G1 X9.0 Y62.5505 Z-0.114
G1 X8.9778 Y62.5512 Z-0.116
G1 X8.9559 Y62.5533 Z-0.118
G1 X8.9347 Y62.5566 Z-0.12
G1 X8.9133 Y62.5614 Z-0.122
G1 X8.8919 Y62.5676 Z-0.124
G1 X8.8713 Y62.575 Z-0.126
G1 X8.8513 Y62.5837 Z-0.128
G1 X8.8316 Y62.5937 Z-0.13
G1 X8.8126 Y62.605 Z-0.132
G1 X8.7945 Y62.6173 Z-0.134
G1 X8.7774 Y62.6305 Z-0.136
G1 X8.7609 Y62.6451 Z-0.138
G1 X8.7451 Y62.6609 Z-0.14
G1 X8.7305 Y62.6774 Z-0.142
G1 X8.7173 Y62.6945 Z-0.144
G1 X8.705 Y62.7126 Z-0.146
G1 X8.6937 Y62.7316 Z-0.148
G1 X8.6837 Y62.7513 Z-0.15
G1 X8.675 Y62.7713 Z-0.152
G1 X8.6676 Y62.7919 Z-0.154
G1 X8.6614 Y62.8133 Z-0.156
G1 X8.6566 Y62.8347 Z-0.158
G1 X8.6533 Y62.8559 Z-0.16
G1 X8.6512 Y62.8778 Z-0.162
G1 X8.6505 Y62.9 Z-0.164
G1 X8.6512 Y62.9222 Z-0.166
G1 X8.6533 Y62.9441 Z-0.168
G1 X8.6566 Y62.9653 Z-0.17
G1 X8.6614 Y62.9867 Z-0.172
G1 X8.6676 Y63.0081 Z-0.174
G1 X8.675 Y63.0287 Z-0.176
G1 X8.6837 Y63.0487 Z-0.178
G1 X8.6937 Y63.0684 Z-0.18
G1 X8.705 Y63.0874 Z-0.182
G1 X8.7173 Y63.1055 Z-0.184
G1 X8.7305 Y63.1226 Z-0.186
G1 X8.7451 Y63.1391 Z-0.188
G1 X8.7609 Y63.1549 Z-0.19
G1 X8.7774 Y63.1695 Z-0.192
G1 X8.7945 Y63.1827 Z-0.194
G1 X8.8126 Y63.195 Z-0.196
G1 X8.8316 Y63.2063 Z-0.198
G1 X8.8513 Y63.2163 Z-0.2
G1 X8.8713 Y63.225 Z-0.202
G1 X8.8919 Y63.2324 Z-0.204
G1 X8.9133 Y63.2386 Z-0.206
G1 X8.9347 Y63.2434 Z-0.208
G1 X8.9559 Y63.2467 Z-0.21
G1 X8.9778 Y63.2488 Z-0.212
G1 X9.0 Y63.2495 Z-0.214
G1 X9.0222 Y63.2488 Z-0.216
G1 X9.0441 Y63.2467 Z-0.218
G1 X9.0653 Y63.2434 Z-0.22
G1 X9.0867 Y63.2386 Z-0.222
G1 X9.1081 Y63.2324 Z-0.224
G1 X9.1287 Y63.225 Z-0.226
G1 X9.1487 Y63.2163 Z-0.228
G1 X9.1684 Y63.2063 Z-0.23
G1 X9.1874 Y63.195 Z-0.232
G1 X9.2055 Y63.1827 Z-0.234
G1 X9.2226 Y63.1695 Z-0.236
G1 X9.2391 Y63.1549 Z-0.238
G1 X9.2549 Y63.1391 Z-0.24
G1 X9.2695 Y63.1226 Z-0.242
G1 X9.2827 Y63.1055 Z-0.244
G1 X9.295 Y63.0874 Z-0.246
G1 X9.3063 Y63.0684 Z-0.248
G1 X9.3163 Y63.0487 Z-0.25
G1 X9.325 Y63.0287 Z-0.252
G1 X9.3324 Y63.0081 Z-0.254
G1 X9.3386 Y62.9867 Z-0.256
G1 X9.3434 Y62.9653 Z-0.258
G1 X9.3467 Y62.9441 Z-0.26
G1 X9.3488 Y62.9222 Z-0.262
G1 X9.3495 Y62.9 Z-0.264
G1 X9.3488 Y62.8778 Z-0.266
G1 X9.3467 Y62.8559 Z-0.268
G1 X9.3434 Y62.8347 Z-0.27
G1 X9.3386 Y62.8133 Z-0.272
G1 X9.3324 Y62.7919 Z-0.274
G1 X9.325 Y62.7713 Z-0.276
G1 X9.3163 Y62.7513 Z-0.278
G1 X9.3063 Y62.7316 Z-0.28
G1 X9.295 Y62.7126 Z-0.282
G1 X9.2827 Y62.6945 Z-0.284
G1 X9.2695 Y62.6774 Z-0.286
G1 X9.2549 Y62.6609 Z-0.288
G1 X9.2391 Y62.6451 Z-0.29
G1 X9.2226 Y62.6305 Z-0.292
G1 X9.2055 Y62.6173 Z-0.294
G1 X9.1874 Y62.605 Z-0.296
G1 X9.1684 Y62.5937 Z-0.298
G1 X9.1487 Y62.5837 Z-0.3
G1 X9.1287 Y62.575 Z-0.302
G1 X9.1081 Y62.5676 Z-0.304
G1 X9.0867 Y62.5614 Z-0.306
G1 X9.0653 Y62.5566 Z-0.308
G1 X9.0441 Y62.5533 Z-0.31
G1 X9.0222 Y62.5512 Z-0.312
G1 X9.0 Y62.5505 Z-0.314
G1 X8.9778 Y62.5512 Z-0.316
G1 X8.9559 Y62.5533 Z-0.318
G1 X8.9347 Y62.5566 Z-0.32
G1 X8.9133 Y62.5614 Z-0.322
G1 X8.8919 Y62.5676 Z-0.324
G1 X8.8713 Y62.575 Z-0.326
G1 X8.8513 Y62.5837 Z-0.328
G1 X8.8316 Y62.5937 Z-0.33
G1 X8.8126 Y62.605 Z-0.332
G1 X8.7945 Y62.6173 Z-0.334
G1 X8.7774 Y62.6305 Z-0.336
G1 X8.7609 Y62.6451 Z-0.338
G1 X8.7451 Y62.6609 Z-0.34
G1 X8.7305 Y62.6774 Z-0.342
G1 X8.7173 Y62.6945 Z-0.344
G1 X8.705 Y62.7126 Z-0.346
G1 X8.6937 Y62.7316 Z-0.348
G1 X8.6837 Y62.7513 Z-0.35
G1 X8.675 Y62.7713 Z-0.352
G1 X8.6676 Y62.7919 Z-0.354
G1 X8.6614 Y62.8133 Z-0.356
G1 X8.6566 Y62.8347 Z-0.358
G1 X8.6533 Y62.8559 Z-0.36
G1 X8.6512 Y62.8778 Z-0.362
G1 X8.6505 Y62.9 Z-0.364
G1 X8.6512 Y62.9222 Z-0.366
G1 X8.6533 Y62.9441 Z-0.368
G1 X8.6566 Y62.9653 Z-0.37
G1 X8.6614 Y62.9867 Z-0.372
G1 X8.6676 Y63.0081 Z-0.374
G1 X8.675 Y63.0287 Z-0.376
G1 X8.6837 Y63.0487 Z-0.378
G1 X8.6937 Y63.0684 Z-0.38
G1 X8.705 Y63.0874 Z-0.382
G1 X8.7173 Y63.1055 Z-0.384
G1 X8.7305 Y63.1226 Z-0.386
G1 X8.7451 Y63.1391 Z-0.388
G1 X8.7609 Y63.1549 Z-0.39
G1 X8.7774 Y63.1695 Z-0.392
G1 X8.7945 Y63.1827 Z-0.394
G1 X8.8126 Y63.195 Z-0.396
G1 X8.8316 Y63.2063 Z-0.398
G1 X8.8513 Y63.2163 Z-0.4
G1 X8.8713 Y63.225 Z-0.402
G1 X8.8919 Y63.2324 Z-0.404
G1 X8.9133 Y63.2386 Z-0.406
G1 X8.9347 Y63.2434 Z-0.408
G1 X8.9559 Y63.2467 Z-0.41
G1 X8.9778 Y63.2488 Z-0.412
G1 X9.0 Y63.2495 Z-0.414
G1 X9.0222 Y63.2488 Z-0.416
G1 X9.0441 Y63.2467 Z-0.418
G1 X9.0653 Y63.2434 Z-0.42
G1 X9.0867 Y63.2386 Z-0.422
G1 X9.1081 Y63.2324 Z-0.424
G1 X9.1287 Y63.225 Z-0.426
G1 X9.1487 Y63.2163 Z-0.428
G1 X9.1684 Y63.2063 Z-0.43
G1 X9.1874 Y63.195 Z-0.432
G1 X9.2055 Y63.1827 Z-0.434
G1 X9.2226 Y63.1695 Z-0.436
G1 X9.2391 Y63.1549 Z-0.438
G1 X9.2549 Y63.1391 Z-0.44
G1 X9.2695 Y63.1226 Z-0.442
G1 X9.2827 Y63.1055 Z-0.444
G1 X9.295 Y63.0874 Z-0.446
G1 X9.3063 Y63.0684 Z-0.448
G1 X9.3163 Y63.0487 Z-0.45
G1 X9.325 Y63.0287 Z-0.452
G1 X9.3324 Y63.0081 Z-0.454
G1 X9.3386 Y62.9867 Z-0.456
G1 X9.3434 Y62.9653 Z-0.458
G1 X9.3467 Y62.9441 Z-0.46
G1 X9.3488 Y62.9222 Z-0.462
G1 X9.3495 Y62.9 Z-0.464
G1 X9.3488 Y62.8778 Z-0.466
G1 X9.3467 Y62.8559 Z-0.468
G1 X9.3434 Y62.8347 Z-0.47
G1 X9.3386 Y62.8133 Z-0.472
G1 X9.3324 Y62.7919 Z-0.474
G1 X9.325 Y62.7713 Z-0.476
G1 X9.3163 Y62.7513 Z-0.478
G1 X9.3063 Y62.7316 Z-0.48
G1 X9.295 Y62.7126 Z-0.482
G1 X9.2827 Y62.6945 Z-0.484
G1 X9.2695 Y62.6774 Z-0.486
G1 X9.2549 Y62.6609 Z-0.488
G1 X9.2391 Y62.6451 Z-0.49
G1 X9.2226 Y62.6305 Z-0.492
G1 X9.2055 Y62.6173 Z-0.494
G1 X9.1874 Y62.605 Z-0.496
G1 X9.1684 Y62.5937 Z-0.498
G1 X9.1487 Y62.5837 Z-0.5
G1 X9.1287 Y62.575 Z-0.502
G1 X9.1081 Y62.5676 Z-0.504
G1 X9.0867 Y62.5614 Z-0.506
G1 X9.0653 Y62.5566 Z-0.508
G1 X9.0441 Y62.5533 Z-0.51
G1 X9.0222 Y62.5512 Z-0.512
G1 X9.0 Y62.5505 Z-0.514
G1 X8.9778 Y62.5512 Z-0.516
G1 X8.9559 Y62.5533 Z-0.518
G1 X8.9347 Y62.5566 Z-0.52
G1 X8.9133 Y62.5614 Z-0.522
G1 X8.8919 Y62.5676 Z-0.524
G1 X8.8713 Y62.575 Z-0.526
G1 X8.8513 Y62.5837 Z-0.528
G1 X8.8316 Y62.5937 Z-0.53
G1 X8.8126 Y62.605 Z-0.532
G1 X8.7945 Y62.6173 Z-0.534
G1 X8.7774 Y62.6305 Z-0.536
G1 X8.7609 Y62.6451 Z-0.538
G1 X8.7451 Y62.6609 Z-0.54
G1 X8.7305 Y62.6774 Z-0.542
G1 X8.7173 Y62.6945 Z-0.544
G1 X8.705 Y62.7126 Z-0.546
G1 X8.6937 Y62.7316 Z-0.548
G1 X8.6837 Y62.7513 Z-0.55
G1 X8.675 Y62.7713 Z-0.552
G1 X8.6676 Y62.7919 Z-0.554
G1 X8.6614 Y62.8133 Z-0.556
G1 X8.6566 Y62.8347 Z-0.558
G1 X8.6533 Y62.8559 Z-0.56
G1 X8.6512 Y62.8778 Z-0.562
G1 X8.6505 Y62.9 Z-0.564
G1 X8.6512 Y62.9222 Z-0.566
G1 X8.6533 Y62.9441 Z-0.568
G1 X8.6566 Y62.9653 Z-0.57
G1 X8.6614 Y62.9867 Z-0.572
G1 X8.6676 Y63.0081 Z-0.574
G1 X8.675 Y63.0287 Z-0.576
G1 X8.6837 Y63.0487 Z-0.578
G1 X8.6937 Y63.0684 Z-0.58
G1 X8.705 Y63.0874 Z-0.582
G1 X8.7173 Y63.1055 Z-0.584
G1 X8.7305 Y63.1226 Z-0.586
G1 X8.7451 Y63.1391 Z-0.588
G1 X8.7609 Y63.1549 Z-0.59
G1 X8.7774 Y63.1695 Z-0.592
G1 X8.7945 Y63.1827 Z-0.594
G1 X8.8126 Y63.195 Z-0.596
G1 X8.8316 Y63.2063 Z-0.598
G1 X8.8513 Y63.2163 Z-0.6
G1 X8.8713 Y63.225 Z-0.602
G1 X8.8919 Y63.2324 Z-0.604
G1 X8.9133 Y63.2386 Z-0.606
G1 X8.9347 Y63.2434 Z-0.608
G1 X8.9559 Y63.2467 Z-0.61
G1 X8.9778 Y63.2488 Z-0.612
G1 X9.0 Y63.2495 Z-0.614
G1 X9.0222 Y63.2488 Z-0.616
G1 X9.0441 Y63.2467 Z-0.618
G1 X9.0653 Y63.2434 Z-0.62
G1 X9.0867 Y63.2386 Z-0.622
G1 X9.1081 Y63.2324 Z-0.624
G1 X9.1287 Y63.225 Z-0.626
G1 X9.1487 Y63.2163 Z-0.628
G1 X9.1684 Y63.2063 Z-0.63
G1 X9.1874 Y63.195 Z-0.632
G1 X9.2055 Y63.1827 Z-0.634
G1 X9.2226 Y63.1695 Z-0.636
G1 X9.2391 Y63.1549 Z-0.638
G1 X9.2549 Y63.1391 Z-0.64
G1 X9.2695 Y63.1226 Z-0.642
G1 X9.2827 Y63.1055 Z-0.644
G1 X9.295 Y63.0874 Z-0.646
G1 X9.3063 Y63.0684 Z-0.648
G1 X9.3163 Y63.0487 Z-0.65
G1 X9.325 Y63.0287 Z-0.652
G1 X9.3324 Y63.0081 Z-0.654
G1 X9.3386 Y62.9867 Z-0.656
G1 X9.3434 Y62.9653 Z-0.658
G1 X9.3467 Y62.9441 Z-0.66
G1 X9.3488 Y62.9222 Z-0.662
G1 X9.3495 Y62.9 Z-0.664
G1 X9.3488 Y62.8778 Z-0.666
G1 X9.3467 Y62.8559 Z-0.668
G1 X9.3434 Y62.8347 Z-0.67
G1 X9.3386 Y62.8133 Z-0.672
G1 X9.3324 Y62.7919 Z-0.674
G1 X9.325 Y62.7713 Z-0.676
G1 X9.3163 Y62.7513 Z-0.678
G1 X9.3063 Y62.7316 Z-0.68
G1 X9.295 Y62.7126 Z-0.682
G1 X9.2827 Y62.6945 Z-0.684
G1 X9.2695 Y62.6774 Z-0.686
G1 X9.2549 Y62.6609 Z-0.688
G1 X9.2391 Y62.6451 Z-0.69
G1 X9.2226 Y62.6305 Z-0.692
G1 X9.2055 Y62.6173 Z-0.694
G1 X9.1874 Y62.605 Z-0.696
G1 X9.1684 Y62.5937 Z-0.698
G1 X9.1487 Y62.5837 Z-0.7
G1 X9.1287 Y62.575 Z-0.702
G1 X9.1081 Y62.5676 Z-0.704
G1 X9.0867 Y62.5614 Z-0.706
G1 X9.0653 Y62.5566 Z-0.708
G1 X9.0441 Y62.5533 Z-0.71
G1 X9.0222 Y62.5512 Z-0.712
G1 X9.0 Y62.5505 Z-0.714
G1 X8.9778 Y62.5512 Z-0.716
G1 X8.9559 Y62.5533 Z-0.718
G1 X8.9347 Y62.5566 Z-0.72
G1 X8.9133 Y62.5614 Z-0.722
G1 X8.8919 Y62.5676 Z-0.724
G1 X8.8713 Y62.575 Z-0.726
G1 X8.8513 Y62.5837 Z-0.728
G1 X8.8316 Y62.5937 Z-0.73
G1 X8.8126 Y62.605 Z-0.732
G1 X8.7945 Y62.6173 Z-0.734
G1 X8.7774 Y62.6305 Z-0.736
G1 X8.7609 Y62.6451 Z-0.738
G1 X8.7451 Y62.6609 Z-0.74
G1 X8.7305 Y62.6774 Z-0.742
G1 X8.7173 Y62.6945 Z-0.744
G1 X8.705 Y62.7126 Z-0.746
G1 X8.6937 Y62.7316 Z-0.748
G1 X8.6837 Y62.7513 Z-0.75
G1 X8.675 Y62.7713 Z-0.752
G1 X8.6676 Y62.7919 Z-0.754
G1 X8.6614 Y62.8133 Z-0.756
G1 X8.6566 Y62.8347 Z-0.758
G1 X8.6533 Y62.8559 Z-0.76
G1 X8.6512 Y62.8778 Z-0.762
G1 X8.6505 Y62.9 Z-0.764
G1 X8.6512 Y62.9222 Z-0.766
G1 X8.6533 Y62.9441 Z-0.768
G1 X8.6566 Y62.9653 Z-0.77
G1 X8.6614 Y62.9867 Z-0.772
G1 X8.6676 Y63.0081 Z-0.774
G1 X8.675 Y63.0287 Z-0.776
G1 X8.6837 Y63.0487 Z-0.778
G1 X8.6937 Y63.0684 Z-0.78
G1 X8.705 Y63.0874 Z-0.782
G1 X8.7173 Y63.1055 Z-0.784
G1 X8.7305 Y63.1226 Z-0.786
G1 X8.7451 Y63.1391 Z-0.788
G1 X8.7609 Y63.1549 Z-0.79
G1 X8.7774 Y63.1695 Z-0.792
G1 X8.7945 Y63.1827 Z-0.794
G1 X8.8126 Y63.195 Z-0.796
G1 X8.8316 Y63.2063 Z-0.798
G1 X8.8513 Y63.2163 Z-0.8
G1 X8.8713 Y63.225 Z-0.802
G1 X8.8919 Y63.2324 Z-0.804
G1 X8.9133 Y63.2386 Z-0.806
G1 X8.9347 Y63.2434 Z-0.808
G1 X8.9559 Y63.2467 Z-0.81
G1 X8.9778 Y63.2488 Z-0.812
G1 X9.0 Y63.2495 Z-0.814
G1 X9.0222 Y63.2488 Z-0.816
G1 X9.0441 Y63.2467 Z-0.818
G1 X9.0653 Y63.2434 Z-0.82
G1 X9.0867 Y63.2386 Z-0.822
G1 X9.1081 Y63.2324 Z-0.824
G1 X9.1287 Y63.225 Z-0.826
G1 X9.1487 Y63.2163 Z-0.828
G1 X9.1684 Y63.2063 Z-0.83
G1 X9.1874 Y63.195 Z-0.832
G1 X9.2055 Y63.1827 Z-0.834
G1 X9.2226 Y63.1695 Z-0.836
G1 X9.2391 Y63.1549 Z-0.838
G1 X9.2549 Y63.1391 Z-0.84
G1 X9.2695 Y63.1226 Z-0.842
G1 X9.2827 Y63.1055 Z-0.844
G1 X9.295 Y63.0874 Z-0.846
G1 X9.3063 Y63.0684 Z-0.848
G1 X9.3163 Y63.0487 Z-0.85
G1 X9.325 Y63.0287 Z-0.852
G1 X9.3324 Y63.0081 Z-0.854
G1 X9.3386 Y62.9867 Z-0.856
G1 X9.3434 Y62.9653 Z-0.858
G1 X9.3467 Y62.9441 Z-0.86
G1 X9.3488 Y62.9222 Z-0.862
G1 X9.3495 Y62.9 Z-0.864
G1 X9.3488 Y62.8778 Z-0.866
G1 X9.3467 Y62.8559 Z-0.868
G1 X9.3434 Y62.8347 Z-0.87
G1 X9.3386 Y62.8133 Z-0.872
G1 X9.3324 Y62.7919 Z-0.874
G1 X9.325 Y62.7713 Z-0.876
G1 X9.3163 Y62.7513 Z-0.878
G1 X9.3063 Y62.7316 Z-0.88
G1 X9.295 Y62.7126 Z-0.882
G1 X9.2827 Y62.6945 Z-0.884
G1 X9.2695 Y62.6774 Z-0.886
G1 X9.2549 Y62.6609 Z-0.888
G1 X9.2391 Y62.6451 Z-0.89
G1 X9.2226 Y62.6305 Z-0.892
G1 X9.2055 Y62.6173 Z-0.894
G1 X9.1874 Y62.605 Z-0.896
G1 X9.1684 Y62.5937 Z-0.898
G1 X9.1487 Y62.5837 Z-0.9
G1 X9.1287 Y62.575 Z-0.902
G1 X9.1081 Y62.5676 Z-0.904
G1 X9.0867 Y62.5614 Z-0.906
G1 X9.0653 Y62.5566 Z-0.908
G1 X9.0441 Y62.5533 Z-0.91
G1 X9.0222 Y62.5512 Z-0.912
G1 X9.0 Y62.5505 Z-0.914
G1 X8.9778 Y62.5512 Z-0.916
G1 X8.9559 Y62.5533 Z-0.918
G1 X8.9347 Y62.5566 Z-0.92
G1 X8.9133 Y62.5614 Z-0.922
G1 X8.8919 Y62.5676 Z-0.924
G1 X8.8713 Y62.575 Z-0.926
G1 X8.8513 Y62.5837 Z-0.928
G1 X8.8316 Y62.5937 Z-0.93
G1 X8.8126 Y62.605 Z-0.932
G1 X8.7945 Y62.6173 Z-0.934
G1 X8.7774 Y62.6305 Z-0.936
G1 X8.7609 Y62.6451 Z-0.938
G1 X8.7451 Y62.6609 Z-0.94
G1 X8.7305 Y62.6774 Z-0.942
G1 X8.7173 Y62.6945 Z-0.944
G1 X8.705 Y62.7126 Z-0.946
G1 X8.6937 Y62.7316 Z-0.948
G1 X8.6837 Y62.7513 Z-0.95
G1 X8.675 Y62.7713 Z-0.952
G1 X8.6676 Y62.7919 Z-0.954
G1 X8.6614 Y62.8133 Z-0.956
G1 X8.6566 Y62.8347 Z-0.958
G1 X8.6533 Y62.8559 Z-0.96
G1 X8.6512 Y62.8778 Z-0.962
G1 X8.6505 Y62.9 Z-0.964
G1 X8.6512 Y62.9222 Z-0.966
G1 X8.6533 Y62.9441 Z-0.968
G1 X8.6566 Y62.9653 Z-0.97
G1 X8.6614 Y62.9867 Z-0.972
G1 X8.6676 Y63.0081 Z-0.974
G1 X8.675 Y63.0287 Z-0.976
G1 X8.6837 Y63.0487 Z-0.978
G1 X8.6937 Y63.0684 Z-0.98
G1 X8.705 Y63.0874 Z-0.982
G1 X8.7173 Y63.1055 Z-0.984
G1 X8.7305 Y63.1226 Z-0.986
G1 X8.7451 Y63.1391 Z-0.988
G1 X8.7609 Y63.1549 Z-0.99
G1 X8.7774 Y63.1695 Z-0.992
G1 X8.7945 Y63.1827 Z-0.994
G1 X8.8126 Y63.195 Z-0.996
G1 X8.8316 Y63.2063 Z-0.998
G1 X8.8513 Y63.2163 Z-1.0
G1 X8.8713 Y63.225 Z-1.002
G1 X8.8919 Y63.2324 Z-1.004
G1 X8.9133 Y63.2386 Z-1.006
G1 X8.9347 Y63.2434 Z-1.008
G1 X8.9559 Y63.2467 Z-1.01
G1 X8.9778 Y63.2488 Z-1.012
G1 X9.0 Y63.2495 Z-1.014
G1 X9.0222 Y63.2488 Z-1.016
G1 X9.0441 Y63.2467 Z-1.018
G1 X9.0653 Y63.2434 Z-1.02
G1 X9.0867 Y63.2386 Z-1.022
G1 X9.1081 Y63.2324 Z-1.024
G1 X9.1287 Y63.225 Z-1.026
G1 X9.1487 Y63.2163 Z-1.028
G1 X9.1684 Y63.2063 Z-1.03
G1 X9.1874 Y63.195 Z-1.032
G1 X9.2055 Y63.1827 Z-1.034
G1 X9.2226 Y63.1695 Z-1.036
G1 X9.2391 Y63.1549 Z-1.038
G1 X9.2549 Y63.1391 Z-1.04
G1 X9.2695 Y63.1226 Z-1.042
G1 X9.2827 Y63.1055 Z-1.044
G1 X9.295 Y63.0874 Z-1.046
G1 X9.3063 Y63.0684 Z-1.048
G1 X9.3163 Y63.0487 Z-1.05
G1 X9.325 Y63.0287 Z-1.052
G1 X9.3324 Y63.0081 Z-1.054
G1 X9.3386 Y62.9867 Z-1.056
G1 X9.3434 Y62.9653 Z-1.058
G1 X9.3467 Y62.9441 Z-1.06
G1 X9.3488 Y62.9222 Z-1.062
G1 X9.3495 Y62.9 Z-1.064
G1 X9.3488 Y62.8778 Z-1.066
G1 X9.3467 Y62.8559 Z-1.068
G1 X9.3434 Y62.8347 Z-1.07
G1 X9.3386 Y62.8133 Z-1.072
G1 X9.3324 Y62.7919 Z-1.074
G1 X9.325 Y62.7713 Z-1.076
G1 X9.3163 Y62.7513 Z-1.078
G1 X9.3063 Y62.7316 Z-1.08
G1 X9.295 Y62.7126 Z-1.082
G1 X9.2827 Y62.6945 Z-1.084
G1 X9.2695 Y62.6774 Z-1.086
G1 X9.2549 Y62.6609 Z-1.088
G1 X9.2391 Y62.6451 Z-1.09
G1 X9.2226 Y62.6305 Z-1.092
G1 X9.2055 Y62.6173 Z-1.094
G1 X9.1874 Y62.605 Z-1.096
G1 X9.1684 Y62.5937 Z-1.098
G1 X9.1487 Y62.5837 Z-1.1
G1 X9.1287 Y62.575 Z-1.102
G1 X9.1081 Y62.5676 Z-1.104
G1 X9.0867 Y62.5614 Z-1.106
G1 X9.0653 Y62.5566 Z-1.108
G1 X9.0441 Y62.5533 Z-1.11
G1 X9.0222 Y62.5512 Z-1.112
G1 X9.0 Y62.5505 Z-1.114
G1 X8.9778 Y62.5512 Z-1.116
G1 X8.9559 Y62.5533 Z-1.118
G1 X8.9347 Y62.5566 Z-1.12
G1 X8.9133 Y62.5614 Z-1.122
G1 X8.8919 Y62.5676 Z-1.124
G1 X8.8713 Y62.575 Z-1.126
G1 X8.8513 Y62.5837 Z-1.128
G1 X8.8316 Y62.5937 Z-1.13
G1 X8.8126 Y62.605 Z-1.132
G1 X8.7945 Y62.6173 Z-1.134
G1 X8.7774 Y62.6305 Z-1.136
G1 X8.7609 Y62.6451 Z-1.138
G1 X8.7451 Y62.6609 Z-1.14
G1 X8.7305 Y62.6774 Z-1.142
G1 X8.7173 Y62.6945 Z-1.144
G1 X8.705 Y62.7126 Z-1.146
G1 X8.6937 Y62.7316 Z-1.148
G1 X8.6837 Y62.7513 Z-1.15
G1 X8.675 Y62.7713 Z-1.152
G1 X8.6676 Y62.7919 Z-1.154
G1 X8.6614 Y62.8133 Z-1.156
G1 X8.6566 Y62.8347 Z-1.158
G1 X8.6533 Y62.8559 Z-1.16
G1 X8.6512 Y62.8778 Z-1.162
G1 X8.6505 Y62.9 Z-1.164
G1 X8.6512 Y62.9222 Z-1.166
G1 X8.6533 Y62.9441 Z-1.168
G1 X8.6566 Y62.9653 Z-1.17
G1 X8.6614 Y62.9867 Z-1.172
G1 X8.6676 Y63.0081 Z-1.174
G1 X8.675 Y63.0287 Z-1.176
G1 X8.6837 Y63.0487 Z-1.178
G1 X8.6937 Y63.0684 Z-1.18
G1 X8.705 Y63.0874 Z-1.182
G1 X8.7173 Y63.1055 Z-1.184
G1 X8.7305 Y63.1226 Z-1.186
G1 X8.7451 Y63.1391 Z-1.188
G1 X8.7609 Y63.1549 Z-1.19
G1 X8.7774 Y63.1695 Z-1.192
G1 X8.7945 Y63.1827 Z-1.194
G1 X8.8126 Y63.195 Z-1.196
G1 X8.8316 Y63.2063 Z-1.198
G1 X8.8513 Y63.2163 Z-1.2
G1 X8.8713 Y63.225 Z-1.202
G1 X8.8919 Y63.2324 Z-1.204
G1 X8.9133 Y63.2386 Z-1.206
G1 X8.9347 Y63.2434 Z-1.208
G1 X8.9559 Y63.2467 Z-1.21
G1 X8.9778 Y63.2488 Z-1.212
G1 X9.0 Y63.2495 Z-1.214
G1 X9.0222 Y63.2488 Z-1.216
G1 X9.0441 Y63.2467 Z-1.218
G1 X9.0653 Y63.2434 Z-1.22
G1 X9.0867 Y63.2386 Z-1.222
G1 X9.1081 Y63.2324 Z-1.224
G1 X9.1287 Y63.225 Z-1.226
G1 X9.1487 Y63.2163 Z-1.228
G1 X9.1684 Y63.2063 Z-1.23
G1 X9.1874 Y63.195 Z-1.232
G1 X9.2055 Y63.1827 Z-1.234
G1 X9.2226 Y63.1695 Z-1.236
G1 X9.2391 Y63.1549 Z-1.238
G1 X9.2549 Y63.1391 Z-1.24
G1 X9.2695 Y63.1226 Z-1.242
G1 X9.2827 Y63.1055 Z-1.244
G1 X9.295 Y63.0874 Z-1.246
G1 X9.3063 Y63.0684 Z-1.248
G1 X9.3163 Y63.0487 Z-1.25
G1 X9.325 Y63.0287 Z-1.252
G1 X9.3324 Y63.0081 Z-1.254
G1 X9.3386 Y62.9867 Z-1.256
G1 X9.3434 Y62.9653 Z-1.258
G1 X9.3467 Y62.9441 Z-1.26
G1 X9.3488 Y62.9222 Z-1.262
G1 X9.3495 Y62.9 Z-1.264
G1 X9.3488 Y62.8778 Z-1.266
G1 X9.3467 Y62.8559 Z-1.268
G1 X9.3434 Y62.8347 Z-1.27
G1 X9.3386 Y62.8133 Z-1.272
G1 X9.3324 Y62.7919 Z-1.274
G1 X9.325 Y62.7713 Z-1.276
G1 X9.3163 Y62.7513 Z-1.278
G1 X9.3063 Y62.7316 Z-1.28
G1 X9.295 Y62.7126 Z-1.282
G1 X9.2827 Y62.6945 Z-1.284
G1 X9.2695 Y62.6774 Z-1.286
G1 X9.2549 Y62.6609 Z-1.288
G1 X9.2391 Y62.6451 Z-1.29
G1 X9.2226 Y62.6305 Z-1.292
G1 X9.2055 Y62.6173 Z-1.294
G1 X9.1874 Y62.605 Z-1.296
G1 X9.1684 Y62.5937 Z-1.298
G1 X9.1487 Y62.5837 Z-1.3
G1 X9.1287 Y62.575 Z-1.302
G1 X9.1081 Y62.5676 Z-1.304
G1 X9.0867 Y62.5614 Z-1.306
G1 X9.0653 Y62.5566 Z-1.308
G1 X9.0441 Y62.5533 Z-1.31
G1 X9.0222 Y62.5512 Z-1.312
G1 X9.0 Y62.5505 Z-1.314
G1 X8.9778 Y62.5512 Z-1.316
G1 X8.9559 Y62.5533 Z-1.318
G1 X8.9347 Y62.5566 Z-1.32
G1 X8.9133 Y62.5614 Z-1.322
G1 X8.8919 Y62.5676 Z-1.324
G1 X8.8713 Y62.575 Z-1.326
G1 X8.8513 Y62.5837 Z-1.328
G1 X8.8316 Y62.5937 Z-1.33
G1 X8.8126 Y62.605 Z-1.332
G1 X8.7945 Y62.6173 Z-1.334
G1 X8.7774 Y62.6305 Z-1.336
G1 X8.7609 Y62.6451 Z-1.338
G1 X8.7451 Y62.6609 Z-1.34
G1 X8.7305 Y62.6774 Z-1.342
G1 X8.7173 Y62.6945 Z-1.344
G1 X8.705 Y62.7126 Z-1.346
G1 X8.6937 Y62.7316 Z-1.348
G1 X8.6837 Y62.7513 Z-1.35
G1 X8.675 Y62.7713 Z-1.352
G1 X8.6676 Y62.7919 Z-1.354
G1 X8.6614 Y62.8133 Z-1.356
G1 X8.6566 Y62.8347 Z-1.358
G1 X8.6533 Y62.8559 Z-1.36
G1 X8.6512 Y62.8778 Z-1.362
G1 X8.6505 Y62.9 Z-1.364
G1 X8.6512 Y62.9222 Z-1.366
G1 X8.6533 Y62.9441 Z-1.368
G1 X8.6566 Y62.9653 Z-1.37
G1 X8.6614 Y62.9867 Z-1.372
G1 X8.6676 Y63.0081 Z-1.374
G1 X8.675 Y63.0287 Z-1.376
G1 X8.6837 Y63.0487 Z-1.378
G1 X8.6937 Y63.0684 Z-1.38
G1 X8.705 Y63.0874 Z-1.382
G1 X8.7173 Y63.1055 Z-1.384
G1 X8.7305 Y63.1226 Z-1.386
G1 X8.7451 Y63.1391 Z-1.388
G1 X8.7609 Y63.1549 Z-1.39
G1 X8.7774 Y63.1695 Z-1.392
G1 X8.7945 Y63.1827 Z-1.394
G1 X8.8126 Y63.195 Z-1.396
G1 X8.8316 Y63.2063 Z-1.398
G1 X8.8513 Y63.2163 Z-1.4
G1 X8.8713 Y63.225 Z-1.402
G1 X8.8919 Y63.2324 Z-1.404
G1 X8.9133 Y63.2386 Z-1.406
G1 X8.9347 Y63.2434 Z-1.408
G1 X8.9559 Y63.2467 Z-1.41
G1 X8.9778 Y63.2488 Z-1.412
G1 X9.0 Y63.2495 Z-1.414
G1 X9.0222 Y63.2488 Z-1.416
G1 X9.0441 Y63.2467 Z-1.418
G1 X9.0653 Y63.2434 Z-1.42
G1 X9.0867 Y63.2386 Z-1.422
G1 X9.1081 Y63.2324 Z-1.424
G1 X9.1287 Y63.225 Z-1.426
G1 X9.1487 Y63.2163 Z-1.428
G1 X9.1684 Y63.2063 Z-1.43
G1 X9.1874 Y63.195 Z-1.432
G1 X9.2055 Y63.1827 Z-1.434
G1 X9.2226 Y63.1695 Z-1.436
G1 X9.2391 Y63.1549 Z-1.438
G1 X9.2549 Y63.1391 Z-1.44
G1 X9.2695 Y63.1226 Z-1.442
G1 X9.2827 Y63.1055 Z-1.444
G1 X9.295 Y63.0874 Z-1.446
G1 X9.3063 Y63.0684 Z-1.448
G1 X9.3163 Y63.0487 Z-1.45
G1 X9.325 Y63.0287 Z-1.452
G1 X9.3324 Y63.0081 Z-1.454
G1 X9.3386 Y62.9867 Z-1.456
G1 X9.3434 Y62.9653 Z-1.458
G1 X9.3467 Y62.9441 Z-1.46
G1 X9.3488 Y62.9222 Z-1.462
G1 X9.3495 Y62.9 Z-1.464
G1 X9.3488 Y62.8778 Z-1.466
G1 X9.3467 Y62.8559 Z-1.468
G1 X9.3434 Y62.8347 Z-1.47
G1 X9.3386 Y62.8133 Z-1.472
G1 X9.3324 Y62.7919 Z-1.474
G1 X9.325 Y62.7713 Z-1.476
G1 X9.3163 Y62.7513 Z-1.478
G1 X9.3063 Y62.7316 Z-1.48
G1 X9.295 Y62.7126 Z-1.482
G1 X9.2827 Y62.6945 Z-1.484
G1 X9.2695 Y62.6774 Z-1.486
G1 X9.2549 Y62.6609 Z-1.488
G1 X9.2391 Y62.6451 Z-1.49
G1 X9.2226 Y62.6305 Z-1.492
G1 X9.2055 Y62.6173 Z-1.494
G1 X9.1874 Y62.605 Z-1.496
G1 X9.1684 Y62.5937 Z-1.498
G1 X9.1487 Y62.5837 Z-1.5
G1 X9.1287 Y62.575 Z-1.502
G1 X9.1081 Y62.5676 Z-1.504
G1 X9.0867 Y62.5614 Z-1.506
G1 X9.0653 Y62.5566 Z-1.508
G1 X9.0441 Y62.5533 Z-1.51
G1 X9.0222 Y62.5512 Z-1.512
G1 X9.0 Y62.5505 Z-1.514
G1 X8.9778 Y62.5512 Z-1.516
G1 X8.9559 Y62.5533 Z-1.518
G1 X8.9347 Y62.5566 Z-1.52
G1 X8.9133 Y62.5614 Z-1.522
G1 X8.8919 Y62.5676 Z-1.524
G1 X8.8713 Y62.575 Z-1.526
G1 X8.8513 Y62.5837 Z-1.528
G1 X8.8316 Y62.5937 Z-1.53
G1 X8.8126 Y62.605 Z-1.532
G1 X8.7945 Y62.6173 Z-1.534
G1 X8.7774 Y62.6305 Z-1.536
G1 X8.7609 Y62.6451 Z-1.538
G1 X8.7451 Y62.6609 Z-1.54
G1 X8.7305 Y62.6774 Z-1.542
G1 X8.7173 Y62.6945 Z-1.544
G1 X8.705 Y62.7126 Z-1.546
G1 X8.6937 Y62.7316 Z-1.548
G1 X8.6837 Y62.7513 Z-1.55
G1 X8.675 Y62.7713 Z-1.552
G1 X8.6676 Y62.7919 Z-1.554
G1 X8.6614 Y62.8133 Z-1.556
G1 X8.6566 Y62.8347 Z-1.558
G1 X8.6533 Y62.8559 Z-1.56
G1 X8.6512 Y62.8778 Z-1.562
G1 X8.6505 Y62.9 Z-1.564
G1 X8.6512 Y62.9222 Z-1.566
G1 X8.6533 Y62.9441 Z-1.568
G1 X8.6566 Y62.9653 Z-1.57
G1 X8.6614 Y62.9867 Z-1.572
G1 X8.6676 Y63.0081 Z-1.574
G1 X8.675 Y63.0287 Z-1.576
G1 X8.6837 Y63.0487 Z-1.578
G1 X8.6937 Y63.0684 Z-1.58
G1 X8.705 Y63.0874 Z-1.582
G1 X8.7173 Y63.1055 Z-1.584
G1 X8.7305 Y63.1226 Z-1.586
G1 X8.7451 Y63.1391 Z-1.588
G1 X8.7609 Y63.1549 Z-1.59
G1 X8.7774 Y63.1695 Z-1.592
G1 X8.7945 Y63.1827 Z-1.594
G1 X8.8126 Y63.195 Z-1.596
G1 X8.8316 Y63.2063 Z-1.598
G1 X8.8513 Y63.2163 Z-1.6
G1 X8.8713 Y63.225 Z-1.602
G1 X8.8919 Y63.2324 Z-1.604
G1 X8.9133 Y63.2386 Z-1.606
G1 X8.9347 Y63.2434 Z-1.608
G1 X8.9559 Y63.2467 Z-1.61
G1 X8.9778 Y63.2488 Z-1.612
G1 X9.0 Y63.2495 Z-1.614
G1 X9.0222 Y63.2488 Z-1.616
G1 X9.0441 Y63.2467 Z-1.618
G1 X9.0653 Y63.2434 Z-1.62
G1 X9.0867 Y63.2386 Z-1.622
G1 X9.1081 Y63.2324 Z-1.624
G1 X9.1287 Y63.225 Z-1.626
G1 X9.1487 Y63.2163 Z-1.628
G1 X9.1684 Y63.2063 Z-1.63
G1 X9.1874 Y63.195 Z-1.632
G1 X9.2055 Y63.1827 Z-1.634
G1 X9.2226 Y63.1695 Z-1.636
G1 X9.2391 Y63.1549 Z-1.638
G1 X9.2549 Y63.1391 Z-1.64
G1 X9.2695 Y63.1226 Z-1.642
G1 X9.2827 Y63.1055 Z-1.644
G1 X9.295 Y63.0874 Z-1.646
G1 X9.3063 Y63.0684 Z-1.648
G1 X9.3163 Y63.0487 Z-1.65
G1 X9.325 Y63.0287 Z-1.652
G1 X9.3324 Y63.0081 Z-1.654
G1 X9.3386 Y62.9867 Z-1.656
G1 X9.3434 Y62.9653 Z-1.658
G1 X9.3467 Y62.9441 Z-1.66
G1 X9.3488 Y62.9222 Z-1.662
G1 X9.3495 Y62.9 Z-1.664
G1 X9.3488 Y62.8778 Z-1.666
G1 X9.3467 Y62.8559 Z-1.668
G1 X9.3434 Y62.8347 Z-1.67
G1 X9.3386 Y62.8133 Z-1.672
G1 X9.3324 Y62.7919 Z-1.674
G1 X9.325 Y62.7713 Z-1.676
G1 X9.3163 Y62.7513 Z-1.678
G1 X9.3063 Y62.7316 Z-1.68
G1 X9.295 Y62.7126 Z-1.682
G1 X9.2827 Y62.6945 Z-1.684
G1 X9.2695 Y62.6774 Z-1.686
G1 X9.2549 Y62.6609 Z-1.688
G1 X9.2391 Y62.6451 Z-1.69
G1 X9.2226 Y62.6305 Z-1.692
G1 X9.2055 Y62.6173 Z-1.694
G1 X9.1874 Y62.605 Z-1.696
G1 X9.1684 Y62.5937 Z-1.698
G1 X9.1487 Y62.5837 Z-1.7
G1 X9.1287 Y62.575 Z-1.702
G1 X9.1081 Y62.5676 Z-1.704
G1 X9.0867 Y62.5614 Z-1.706
G1 X9.0653 Y62.5566 Z-1.708
G1 X9.0441 Y62.5533 Z-1.71
G1 X9.0222 Y62.5512 Z-1.712
G1 X9.0 Y62.5505 Z-1.714
G1 X8.9778 Y62.5512 Z-1.716
G1 X8.9559 Y62.5533 Z-1.718
G1 X8.9347 Y62.5566 Z-1.72
G1 X8.9133 Y62.5614 Z-1.722
G1 X8.8919 Y62.5676 Z-1.724
G1 X8.8713 Y62.575 Z-1.726
G1 X8.8513 Y62.5837 Z-1.728
G1 X8.8316 Y62.5937 Z-1.73
G1 X8.8126 Y62.605 Z-1.732
G1 X8.7945 Y62.6173 Z-1.734
G1 X8.7774 Y62.6305 Z-1.736
G1 X8.7609 Y62.6451 Z-1.738
G1 X8.7451 Y62.6609 Z-1.74
G1 X8.7305 Y62.6774 Z-1.742
G1 X8.7173 Y62.6945 Z-1.744
G1 X8.705 Y62.7126 Z-1.746
G1 X8.6937 Y62.7316 Z-1.748
G1 X8.6837 Y62.7513 Z-1.75
G1 X8.675 Y62.7713 Z-1.752
G1 X8.6676 Y62.7919 Z-1.754
G1 X8.6614 Y62.8133 Z-1.756
G1 X8.6566 Y62.8347 Z-1.758
G1 X8.6533 Y62.8559 Z-1.76
G1 X8.6512 Y62.8778 Z-1.762
G1 X8.6505 Y62.9 Z-1.764
G1 X8.6512 Y62.9222 Z-1.766
G1 X8.6533 Y62.9441 Z-1.768
G1 X8.6566 Y62.9653 Z-1.77
G1 X8.6614 Y62.9867 Z-1.772
G1 X8.6676 Y63.0081 Z-1.774
G1 X8.675 Y63.0287 Z-1.776
G1 X8.6837 Y63.0487 Z-1.778
G1 X8.6937 Y63.0684 Z-1.78
G1 X8.705 Y63.0874 Z-1.782
G1 X8.7173 Y63.1055 Z-1.784
G1 X8.7305 Y63.1226 Z-1.786
G1 X8.7451 Y63.1391 Z-1.788
G1 X8.7609 Y63.1549 Z-1.79
G1 X8.7774 Y63.1695 Z-1.792
G1 X8.7945 Y63.1827 Z-1.794
G1 X8.8126 Y63.195 Z-1.796
G1 X8.8316 Y63.2063 Z-1.798
G1 X8.8513 Y63.2163 Z-1.8
G1 X8.8713 Y63.225 Z-1.802
G1 X8.8919 Y63.2324 Z-1.804
G1 X8.9133 Y63.2386 Z-1.806
G1 X8.9347 Y63.2434 Z-1.808
G1 X8.9559 Y63.2467 Z-1.81
G1 X8.9778 Y63.2488 Z-1.812
G1 X9.0 Y63.2495 Z-1.814
G1 X9.0222 Y63.2488 Z-1.816
G1 X9.0441 Y63.2467 Z-1.818
G1 X9.0653 Y63.2434 Z-1.82
G1 X9.0867 Y63.2386 Z-1.822
G1 X9.1081 Y63.2324 Z-1.824
G1 X9.1287 Y63.225 Z-1.826
G1 X9.1487 Y63.2163 Z-1.828
G1 X9.1684 Y63.2063 Z-1.83
G1 X9.1874 Y63.195 Z-1.832
G1 X9.2055 Y63.1827 Z-1.834
G1 X9.2226 Y63.1695 Z-1.836
G1 X9.2391 Y63.1549 Z-1.838
G1 X9.2549 Y63.1391 Z-1.84
G1 X9.2695 Y63.1226 Z-1.842
G1 X9.2827 Y63.1055 Z-1.844
G1 X9.295 Y63.0874 Z-1.846
G1 X9.3063 Y63.0684 Z-1.848
G1 X9.3163 Y63.0487 Z-1.85
G1 X9.325 Y63.0287 Z-1.852
G1 X9.3324 Y63.0081 Z-1.854
G1 X9.3386 Y62.9867 Z-1.856
G1 X9.3434 Y62.9653 Z-1.858
G1 X9.3467 Y62.9441 Z-1.86
G1 X9.3488 Y62.9222 Z-1.862
G1 X9.3495 Y62.9 Z-1.864
G1 X9.3488 Y62.8778 Z-1.866
G1 X9.3467 Y62.8559 Z-1.868
G1 X9.3434 Y62.8347 Z-1.87
G1 X9.3386 Y62.8133 Z-1.872
G1 X9.3324 Y62.7919 Z-1.874
G1 X9.325 Y62.7713 Z-1.876
G1 X9.3163 Y62.7513 Z-1.878
G1 X9.3063 Y62.7316 Z-1.88
G1 X9.295 Y62.7126 Z-1.882
G1 X9.2827 Y62.6945 Z-1.884
G1 X9.2695 Y62.6774 Z-1.886
G1 X9.2549 Y62.6609 Z-1.888
G1 X9.2391 Y62.6451 Z-1.89
G1 X9.2226 Y62.6305 Z-1.892
G1 X9.2055 Y62.6173 Z-1.894
G1 X9.1874 Y62.605 Z-1.896
G1 X9.1684 Y62.5937 Z-1.898
G1 X9.1487 Y62.5837 Z-1.9
G1 X9.1287 Y62.575 Z-1.902
G1 X9.1081 Y62.5676 Z-1.904
G1 X9.0867 Y62.5614 Z-1.906
G1 X9.0653 Y62.5566 Z-1.908
G1 X9.0441 Y62.5533 Z-1.91
G1 X9.0222 Y62.5512 Z-1.912
G1 X9.0 Y62.5505 Z-1.914
G1 X8.9778 Y62.5512 Z-1.916
G1 X8.9559 Y62.5533 Z-1.918
G1 X8.9347 Y62.5566 Z-1.92
G1 X8.9133 Y62.5614 Z-1.922
G1 X8.8919 Y62.5676 Z-1.924
G1 X8.8713 Y62.575 Z-1.926
G1 X8.8513 Y62.5837 Z-1.928
G1 X8.8316 Y62.5937 Z-1.93
G1 X8.8126 Y62.605 Z-1.932
G1 X8.7945 Y62.6173 Z-1.934
G1 X8.7774 Y62.6305 Z-1.936
G1 X8.7609 Y62.6451 Z-1.938
G1 X8.7451 Y62.6609 Z-1.94
G1 X8.7305 Y62.6774 Z-1.942
G1 X8.7173 Y62.6945 Z-1.944
G1 X8.705 Y62.7126 Z-1.946
G1 X8.6937 Y62.7316 Z-1.948
G1 X8.6837 Y62.7513 Z-1.95
G1 X8.675 Y62.7713 Z-1.952
G1 X8.6676 Y62.7919 Z-1.954
G1 X8.6614 Y62.8133 Z-1.956
G1 X8.6566 Y62.8347 Z-1.958
G1 X8.6533 Y62.8559 Z-1.96
G1 X8.6512 Y62.8778 Z-1.962
G1 X8.6505 Y62.9 Z-1.964
G1 X8.6512 Y62.9222 Z-1.966
G1 X8.6533 Y62.9441 Z-1.968
G1 X8.6566 Y62.9653 Z-1.97
G1 X8.6614 Y62.9867 Z-1.972
G1 X8.6676 Y63.0081 Z-1.974
G1 X8.675 Y63.0287 Z-1.976
G1 X8.6837 Y63.0487 Z-1.978
G1 X8.6937 Y63.0684 Z-1.98
G1 X8.705 Y63.0874 Z-1.982
G1 X8.7173 Y63.1055 Z-1.984
G1 X8.7305 Y63.1226 Z-1.986
G1 X8.7451 Y63.1391 Z-1.988
G1 X8.7609 Y63.1549 Z-1.99
G1 X8.7774 Y63.1695 Z-1.992
G1 X8.7945 Y63.1827 Z-1.994
G1 X8.8126 Y63.195 Z-1.996
G1 X8.8316 Y63.2063 Z-1.998
G1 X8.8513 Y63.2163 Z-2.0
G1 X8.8713 Y63.225 Z-2.002
G1 X8.8919 Y63.2324 Z-2.004
G1 X8.9133 Y63.2386 Z-2.006
G1 X8.9347 Y63.2434 Z-2.008
G1 X8.9559 Y63.2467 Z-2.01
G1 X8.9778 Y63.2488 Z-2.012
G1 X9.0 Y63.2495 Z-2.014
G1 X9.0222 Y63.2488 Z-2.016
G1 X9.0441 Y63.2467 Z-2.018
G1 X9.0653 Y63.2434 Z-2.02
G1 X9.0867 Y63.2386 Z-2.022
G1 X9.1081 Y63.2324 Z-2.024
G1 X9.1287 Y63.225 Z-2.026
G1 X9.1487 Y63.2163 Z-2.028
G1 X9.1684 Y63.2063 Z-2.03
G1 X9.1874 Y63.195 Z-2.032
G1 X9.2055 Y63.1827 Z-2.034
G1 X9.2226 Y63.1695 Z-2.036
G1 X9.2391 Y63.1549 Z-2.038
G1 X9.2549 Y63.1391 Z-2.04
G1 X9.2695 Y63.1226 Z-2.042
G1 X9.2827 Y63.1055 Z-2.044
G1 X9.295 Y63.0874 Z-2.046
G1 X9.3063 Y63.0684 Z-2.048
G1 X9.3163 Y63.0487 Z-2.05
G1 X9.325 Y63.0287 Z-2.052
G1 X9.3324 Y63.0081 Z-2.054
G1 X9.3386 Y62.9867 Z-2.056
G1 X9.3434 Y62.9653 Z-2.058
G1 X9.3467 Y62.9441 Z-2.06
G1 X9.3488 Y62.9222 Z-2.062
G1 X9.3495 Y62.9 Z-2.064
G1 X9.3488 Y62.8778 Z-2.066
G1 X9.3467 Y62.8559 Z-2.068
G1 X9.3434 Y62.8347 Z-2.07
G1 X9.3386 Y62.8133 Z-2.072
G1 X9.3324 Y62.7919 Z-2.074
G1 X9.325 Y62.7713 Z-2.076
G1 X9.3163 Y62.7513 Z-2.078
G1 X9.3063 Y62.7316 Z-2.08
G1 X9.295 Y62.7126 Z-2.082
G1 X9.2827 Y62.6945 Z-2.084
G1 X9.2695 Y62.6774 Z-2.086
G1 X9.2549 Y62.6609 Z-2.088
G1 X9.2391 Y62.6451 Z-2.09
G1 X9.2226 Y62.6305 Z-2.092
G1 X9.2055 Y62.6173 Z-2.094
G1 X9.1874 Y62.605 Z-2.096
G1 X9.1684 Y62.5937 Z-2.098
G1 X9.1487 Y62.5837 Z-2.1
G1 X9.1287 Y62.575 Z-2.102
G1 X9.1081 Y62.5676 Z-2.104
G1 X9.0867 Y62.5614 Z-2.106
G1 X9.0653 Y62.5566 Z-2.108
G1 X9.0441 Y62.5533 Z-2.11
G1 X9.0222 Y62.5512 Z-2.112
G1 X9.0 Y62.5505 Z-2.114
G1 X8.9778 Y62.5512 Z-2.116
G1 X8.9559 Y62.5533 Z-2.118
G1 X8.9347 Y62.5566 Z-2.12
G1 X8.9133 Y62.5614 Z-2.122
G1 X8.8919 Y62.5676 Z-2.124
G1 X8.8713 Y62.575 Z-2.126
G1 X8.8513 Y62.5837 Z-2.128
G1 X8.8316 Y62.5937 Z-2.13
G1 X8.8126 Y62.605 Z-2.132
G1 X8.7945 Y62.6173 Z-2.134
G1 X8.7774 Y62.6305 Z-2.136
G1 X8.7609 Y62.6451 Z-2.138
G1 X8.7451 Y62.6609 Z-2.14
G1 X8.7305 Y62.6774 Z-2.142
G1 X8.7173 Y62.6945 Z-2.144
G1 X8.705 Y62.7126 Z-2.146
G1 X8.6937 Y62.7316 Z-2.148
G1 X8.6837 Y62.7513 Z-2.15
G1 X8.675 Y62.7713 Z-2.152
G1 X8.6676 Y62.7919 Z-2.154
G1 X8.6614 Y62.8133 Z-2.156
G1 X8.6566 Y62.8347 Z-2.158
G1 X8.6533 Y62.8559 Z-2.16
G1 X8.6512 Y62.8778 Z-2.162
G1 X8.6505 Y62.9 Z-2.164
G1 X8.6512 Y62.9222 Z-2.166
G1 X8.6533 Y62.9441 Z-2.168
G1 X8.6566 Y62.9653 Z-2.17
G1 X8.6614 Y62.9867 Z-2.172
G1 X8.6676 Y63.0081 Z-2.174
G1 X8.675 Y63.0287 Z-2.176
G1 X8.6837 Y63.0487 Z-2.178
G1 X8.6937 Y63.0684 Z-2.18
G1 X8.705 Y63.0874 Z-2.182
G1 X8.7173 Y63.1055 Z-2.184
G1 X8.7305 Y63.1226 Z-2.186
G1 X8.7451 Y63.1391 Z-2.188
G1 X8.7609 Y63.1549 Z-2.19
G1 X8.7774 Y63.1695 Z-2.192
G1 X8.7945 Y63.1827 Z-2.194
G1 X8.8126 Y63.195 Z-2.196
G1 X8.8316 Y63.2063 Z-2.198
G1 X8.8513 Y63.2163 Z-2.2
G1 X8.8713 Y63.225 Z-2.202
G1 X8.8919 Y63.2324 Z-2.204
G1 X8.9133 Y63.2386 Z-2.206
G1 X8.9347 Y63.2434 Z-2.208
G1 X8.9559 Y63.2467 Z-2.21
G1 X8.9778 Y63.2488 Z-2.212
G1 X9.0 Y63.2495 Z-2.214
G1 X9.0222 Y63.2488 Z-2.216
G1 X9.0441 Y63.2467 Z-2.218
G1 X9.0653 Y63.2434 Z-2.22
G1 X9.0867 Y63.2386 Z-2.222
G1 X9.1081 Y63.2324 Z-2.224
G1 X9.1287 Y63.225 Z-2.226
G1 X9.1487 Y63.2163 Z-2.228
G1 X9.1684 Y63.2063 Z-2.23
G1 X9.1874 Y63.195 Z-2.232
G1 X9.2055 Y63.1827 Z-2.234
G1 X9.2226 Y63.1695 Z-2.236
G1 X9.2391 Y63.1549 Z-2.238
G1 X9.2549 Y63.1391 Z-2.24
G1 X9.2695 Y63.1226 Z-2.242
G1 X9.2827 Y63.1055 Z-2.244
G1 X9.295 Y63.0874 Z-2.246
G1 X9.3063 Y63.0684 Z-2.248
G1 X9.3163 Y63.0487 Z-2.25
G1 X9.325 Y63.0287 Z-2.252
G1 X9.3324 Y63.0081 Z-2.254
G1 X9.3386 Y62.9867 Z-2.256
G1 X9.3434 Y62.9653 Z-2.258
G1 X9.3467 Y62.9441 Z-2.26
G1 X9.3488 Y62.9222 Z-2.262
G1 X9.3495 Y62.9 Z-2.264
G1 X9.3488 Y62.8778 Z-2.266
G1 X9.3467 Y62.8559 Z-2.268
G1 X9.3434 Y62.8347 Z-2.27
G1 X9.3386 Y62.8133 Z-2.272
G1 X9.3324 Y62.7919 Z-2.274
G1 X9.325 Y62.7713 Z-2.276
G1 X9.3163 Y62.7513 Z-2.278
G1 X9.3063 Y62.7316 Z-2.28
G1 X9.295 Y62.7126 Z-2.282
G1 X9.2827 Y62.6945 Z-2.284
G1 X9.2695 Y62.6774 Z-2.286
G1 X9.2549 Y62.6609 Z-2.288
G1 X9.2391 Y62.6451 Z-2.29
G1 X9.2226 Y62.6305 Z-2.292
G1 X9.2055 Y62.6173 Z-2.294
G1 X9.1874 Y62.605 Z-2.296
G1 X9.1684 Y62.5937 Z-2.298
G1 X9.1487 Y62.5837 Z-2.3
G1 X9.1287 Y62.575 Z-2.302
G1 X9.1081 Y62.5676 Z-2.304
G1 X9.0867 Y62.5614 Z-2.306
G1 X9.0653 Y62.5566 Z-2.308
G1 X9.0441 Y62.5533 Z-2.31
G1 X9.0222 Y62.5512 Z-2.312
G1 X9.0 Y62.5505 Z-2.314
G1 X8.9778 Y62.5512 Z-2.316
G1 X8.9559 Y62.5533 Z-2.318
G1 X8.9347 Y62.5566 Z-2.32
G1 X8.9133 Y62.5614 Z-2.322
G1 X8.8919 Y62.5676 Z-2.324
G1 X8.8713 Y62.575 Z-2.326
G1 X8.8513 Y62.5837 Z-2.328
G1 X8.8316 Y62.5937 Z-2.33
G1 X8.8126 Y62.605 Z-2.332
G1 X8.7945 Y62.6173 Z-2.334
G1 X8.7774 Y62.6305 Z-2.336
G1 X8.7609 Y62.6451 Z-2.338
G1 X8.7451 Y62.6609 Z-2.34
G1 X8.7305 Y62.6774 Z-2.342
G1 X8.7173 Y62.6945 Z-2.344
G1 X8.705 Y62.7126 Z-2.346
G1 X8.6937 Y62.7316 Z-2.348
G1 X8.6837 Y62.7513 Z-2.35
G1 X8.675 Y62.7713 Z-2.352
G1 X8.6676 Y62.7919 Z-2.354
G1 X8.6614 Y62.8133 Z-2.356
G1 X8.6566 Y62.8347 Z-2.358
G1 X8.6533 Y62.8559 Z-2.36
G1 X8.6512 Y62.8778 Z-2.362
G1 X8.6505 Y62.9 Z-2.364
G1 X8.6512 Y62.9222 Z-2.366
G1 X8.6533 Y62.9441 Z-2.368
G1 X8.6566 Y62.9653 Z-2.37
G1 X8.6614 Y62.9867 Z-2.372
G1 X8.6676 Y63.0081 Z-2.374
G1 X8.675 Y63.0287 Z-2.376
G1 X8.6837 Y63.0487 Z-2.378
G1 X8.6937 Y63.0684 Z-2.38
G1 X8.705 Y63.0874 Z-2.382
G1 X8.7173 Y63.1055 Z-2.384
G1 X8.7305 Y63.1226 Z-2.386
G1 X8.7451 Y63.1391 Z-2.388
G1 X8.7609 Y63.1549 Z-2.39
G1 X8.7774 Y63.1695 Z-2.392
G1 X8.7945 Y63.1827 Z-2.394
G1 X8.8126 Y63.195 Z-2.396
G1 X8.8316 Y63.2063 Z-2.398
G1 X8.8513 Y63.2163 Z-2.4
G1 X8.8713 Y63.225 Z-2.402
G1 X8.8919 Y63.2324 Z-2.404
G1 X8.9133 Y63.2386 Z-2.406
G1 X8.9347 Y63.2434 Z-2.408
G1 X8.9559 Y63.2467 Z-2.41
G1 X8.9778 Y63.2488 Z-2.412
G1 X9.0 Y63.2495 Z-2.414
G1 X9.0222 Y63.2488 Z-2.416
G1 X9.0441 Y63.2467 Z-2.418
G1 X9.0653 Y63.2434 Z-2.42
G1 X9.0867 Y63.2386 Z-2.422
G1 X9.1081 Y63.2324 Z-2.424
G1 X9.1287 Y63.225 Z-2.426
G1 X9.1487 Y63.2163 Z-2.428
G1 X9.1684 Y63.2063 Z-2.43
G1 X9.1874 Y63.195 Z-2.432
G1 X9.2055 Y63.1827 Z-2.434
G1 X9.2226 Y63.1695 Z-2.436
G1 X9.2391 Y63.1549 Z-2.438
G1 X9.2549 Y63.1391 Z-2.44
G1 X9.2695 Y63.1226 Z-2.442
G1 X9.2827 Y63.1055 Z-2.444
G1 X9.295 Y63.0874 Z-2.446
G1 X9.3063 Y63.0684 Z-2.448
G1 X9.3163 Y63.0487 Z-2.45
G1 X9.325 Y63.0287 Z-2.452
G1 X9.3324 Y63.0081 Z-2.454
G1 X9.3386 Y62.9867 Z-2.456
G1 X9.3434 Y62.9653 Z-2.458
G1 X9.3467 Y62.9441 Z-2.46
G1 X9.3488 Y62.9222 Z-2.462
G1 X9.3495 Y62.9 Z-2.464
G1 X9.3488 Y62.8778 Z-2.466
G1 X9.3467 Y62.8559 Z-2.468
G1 X9.3434 Y62.8347 Z-2.47
G1 X9.3386 Y62.8133 Z-2.472
G1 X9.3324 Y62.7919 Z-2.474
G1 X9.325 Y62.7713 Z-2.476
G1 X9.3163 Y62.7513 Z-2.478
G1 X9.3063 Y62.7316 Z-2.48
G1 X9.295 Y62.7126 Z-2.482
G1 X9.2827 Y62.6945 Z-2.484
G1 X9.2695 Y62.6774 Z-2.486
G1 X9.2549 Y62.6609 Z-2.488
G1 X9.2391 Y62.6451 Z-2.49
G1 X9.2226 Y62.6305 Z-2.492
G1 X9.2055 Y62.6173 Z-2.494
G1 X9.1874 Y62.605 Z-2.496
G1 X9.1684 Y62.5937 Z-2.498
G1 X9.1487 Y62.5837 Z-2.5
G1 X9.1287 Y62.575 Z-2.502
G1 X9.1081 Y62.5676 Z-2.504
G1 X9.0867 Y62.5614 Z-2.506
G1 X9.0653 Y62.5566 Z-2.508
G1 X9.0441 Y62.5533 Z-2.51
G1 X9.0222 Y62.5512 Z-2.512
G1 X9.0 Y62.5505 Z-2.514
G1 X8.9778 Y62.5512 Z-2.516
G1 X8.9559 Y62.5533 Z-2.518
G1 X8.9347 Y62.5566 Z-2.52
G1 X8.9133 Y62.5614 Z-2.522
G1 X8.8919 Y62.5676 Z-2.524
G1 X8.8713 Y62.575 Z-2.526
G1 X8.8513 Y62.5837 Z-2.528
G1 X8.8316 Y62.5937 Z-2.53
G1 X8.8126 Y62.605 Z-2.532
G1 X8.7945 Y62.6173 Z-2.534
G1 X8.7774 Y62.6305 Z-2.536
G1 X8.7609 Y62.6451 Z-2.538
G1 X8.7451 Y62.6609 Z-2.54
G1 X8.7305 Y62.6774 Z-2.542
G1 X8.7173 Y62.6945 Z-2.544
G1 X8.705 Y62.7126 Z-2.546
G1 X8.6937 Y62.7316 Z-2.548
G1 X8.6837 Y62.7513 Z-2.55
G1 X8.675 Y62.7713 Z-2.552
G1 X8.6676 Y62.7919 Z-2.554
G1 X8.6614 Y62.8133 Z-2.556
G1 X8.6566 Y62.8347 Z-2.558
G1 X8.6533 Y62.8559 Z-2.56
G1 X8.6512 Y62.8778 Z-2.562
G1 X8.6505 Y62.9 Z-2.564
G1 X8.6512 Y62.9222 Z-2.566
G1 X8.6533 Y62.9441 Z-2.568
G1 X8.6566 Y62.9653 Z-2.57
G1 X8.6614 Y62.9867 Z-2.572
G1 X8.6676 Y63.0081 Z-2.574
G1 X8.675 Y63.0287 Z-2.576
G1 X8.6837 Y63.0487 Z-2.578
G1 X8.6937 Y63.0684 Z-2.58
G1 X8.705 Y63.0874 Z-2.582
G1 X8.7173 Y63.1055 Z-2.584
G1 X8.7305 Y63.1226 Z-2.586
G1 X8.7451 Y63.1391 Z-2.588
G1 X8.7609 Y63.1549 Z-2.59
G1 X8.7774 Y63.1695 Z-2.592
G1 X8.7945 Y63.1827 Z-2.594
G1 X8.8126 Y63.195 Z-2.596
G1 X8.8316 Y63.2063 Z-2.598
G1 X8.8513 Y63.2163 Z-2.6
G1 X8.8713 Y63.225 Z-2.602
G1 X8.8919 Y63.2324 Z-2.604
G1 X8.9133 Y63.2386 Z-2.606
G1 X8.9347 Y63.2434 Z-2.608
G1 X8.9559 Y63.2467 Z-2.61
G1 X8.9778 Y63.2488 Z-2.612
G1 X9.0 Y63.2495 Z-2.614
G1 X9.0222 Y63.2488 Z-2.616
G1 X9.0441 Y63.2467 Z-2.618
G1 X9.0653 Y63.2434 Z-2.62
G1 X9.0867 Y63.2386 Z-2.622
G1 X9.1081 Y63.2324 Z-2.624
G1 X9.1287 Y63.225 Z-2.626
G1 X9.1487 Y63.2163 Z-2.628
G1 X9.1684 Y63.2063 Z-2.63
G1 X9.1874 Y63.195 Z-2.632
G1 X9.2055 Y63.1827 Z-2.634
G1 X9.2226 Y63.1695 Z-2.636
G1 X9.2391 Y63.1549 Z-2.638
G1 X9.2549 Y63.1391 Z-2.64
G1 X9.2695 Y63.1226 Z-2.642
G1 X9.2827 Y63.1055 Z-2.644
G1 X9.295 Y63.0874 Z-2.646
G1 X9.3063 Y63.0684 Z-2.648
G1 X9.3163 Y63.0487 Z-2.65
G1 X9.325 Y63.0287 Z-2.652
G1 X9.3324 Y63.0081 Z-2.654
G1 X9.3386 Y62.9867 Z-2.656
G1 X9.3434 Y62.9653 Z-2.658
G1 X9.3467 Y62.9441 Z-2.66
G1 X9.3488 Y62.9222 Z-2.662
G1 X9.3495 Y62.9 Z-2.664
G1 X9.3488 Y62.8778 Z-2.666
G1 X9.3467 Y62.8559 Z-2.668
G1 X9.3434 Y62.8347 Z-2.67
G1 X9.3386 Y62.8133 Z-2.672
G1 X9.3324 Y62.7919 Z-2.674
G1 X9.325 Y62.7713 Z-2.676
G1 X9.3163 Y62.7513 Z-2.678
G1 X9.3063 Y62.7316 Z-2.68
G1 X9.295 Y62.7126 Z-2.682
G1 X9.2827 Y62.6945 Z-2.684
G1 X9.2695 Y62.6774 Z-2.686
G1 X9.2549 Y62.6609 Z-2.688
G1 X9.2391 Y62.6451 Z-2.69
G1 X9.2226 Y62.6305 Z-2.692
G1 X9.2055 Y62.6173 Z-2.694
G1 X9.1874 Y62.605 Z-2.696
G1 X9.1684 Y62.5937 Z-2.698
G1 X9.1487 Y62.5837 Z-2.7
G1 X9.1287 Y62.575 Z-2.702
G1 X9.1081 Y62.5676 Z-2.704
G1 X9.0867 Y62.5614 Z-2.706
G1 X9.0653 Y62.5566 Z-2.708
G1 X9.0441 Y62.5533 Z-2.71
G1 X9.0222 Y62.5512 Z-2.712
G1 X9.0 Y62.5505 Z-2.714
G1 X8.9778 Y62.5512 Z-2.716
G1 X8.9559 Y62.5533 Z-2.718
G1 X8.9347 Y62.5566 Z-2.72
G1 X8.9133 Y62.5614 Z-2.722
G1 X8.8919 Y62.5676 Z-2.724
G1 X8.8713 Y62.575 Z-2.726
G1 X8.8513 Y62.5837 Z-2.728
G1 X8.8316 Y62.5937 Z-2.73
G1 X8.8126 Y62.605 Z-2.732
G1 X8.7945 Y62.6173 Z-2.734
G1 X8.7774 Y62.6305 Z-2.736
G1 X8.7609 Y62.6451 Z-2.738
G1 X8.7451 Y62.6609 Z-2.74
G1 X8.7305 Y62.6774 Z-2.742
G1 X8.7173 Y62.6945 Z-2.744
G1 X8.705 Y62.7126 Z-2.746
G1 X8.6937 Y62.7316 Z-2.748
G1 X8.6837 Y62.7513 Z-2.75
G1 X8.675 Y62.7713 Z-2.752
G1 X8.6676 Y62.7919 Z-2.754
G1 X8.6614 Y62.8133 Z-2.756
G1 X8.6566 Y62.8347 Z-2.758
G1 X8.6533 Y62.8559 Z-2.76
G1 X8.6512 Y62.8778 Z-2.762
G1 X8.6505 Y62.9 Z-2.764
G1 X8.6512 Y62.9222 Z-2.766
G1 X8.6533 Y62.9441 Z-2.768
G1 X8.6566 Y62.9653 Z-2.77
G1 X8.6614 Y62.9867 Z-2.772
G1 X8.6676 Y63.0081 Z-2.774
G1 X8.675 Y63.0287 Z-2.776
G1 X8.6837 Y63.0487 Z-2.778
G1 X8.6937 Y63.0684 Z-2.78
G1 X8.705 Y63.0874 Z-2.782
G1 X8.7173 Y63.1055 Z-2.784
G1 X8.7305 Y63.1226 Z-2.786
G1 X8.7451 Y63.1391 Z-2.788
G1 X8.7609 Y63.1549 Z-2.79
G1 X8.7774 Y63.1695 Z-2.792
G1 X8.7945 Y63.1827 Z-2.794
G1 X8.8126 Y63.195 Z-2.796
G1 X8.8316 Y63.2063 Z-2.798
G1 X8.8513 Y63.2163 Z-2.8
G1 X8.8713 Y63.225 Z-2.802
G1 X8.8919 Y63.2324 Z-2.804
G1 X8.9133 Y63.2386 Z-2.806
G1 X8.9347 Y63.2434 Z-2.808
G1 X8.9559 Y63.2467 Z-2.81
G1 X8.9778 Y63.2488 Z-2.812
G1 X9.0 Y63.2495 Z-2.814
G1 X9.0222 Y63.2488 Z-2.816
G1 X9.0441 Y63.2467 Z-2.818
G1 X9.0653 Y63.2434 Z-2.82
G1 X9.0867 Y63.2386 Z-2.822
G1 X9.1081 Y63.2324 Z-2.824
G1 X9.1287 Y63.225 Z-2.826
G1 X9.1487 Y63.2163 Z-2.828
G1 X9.1684 Y63.2063 Z-2.83
G1 X9.1874 Y63.195 Z-2.832
G1 X9.2055 Y63.1827 Z-2.834
G1 X9.2226 Y63.1695 Z-2.836
G1 X9.2391 Y63.1549 Z-2.838
G1 X9.2549 Y63.1391 Z-2.84
G1 X9.2695 Y63.1226 Z-2.842
G1 X9.2827 Y63.1055 Z-2.844
G1 X9.295 Y63.0874 Z-2.846
G1 X9.3063 Y63.0684 Z-2.848
G1 X9.3163 Y63.0487 Z-2.85
G1 X9.325 Y63.0287 Z-2.852
G1 X9.3324 Y63.0081 Z-2.854
G1 X9.3386 Y62.9867 Z-2.856
G1 X9.3434 Y62.9653 Z-2.858
G1 X9.3467 Y62.9441 Z-2.86
G1 X9.3488 Y62.9222 Z-2.862
G1 X9.3495 Y62.9 Z-2.864
G1 X9.3488 Y62.8778 Z-2.866
G1 X9.3467 Y62.8559 Z-2.868
G1 X9.3434 Y62.8347 Z-2.87
G1 X9.3386 Y62.8133 Z-2.872
G1 X9.3324 Y62.7919 Z-2.874
G1 X9.325 Y62.7713 Z-2.876
G1 X9.3163 Y62.7513 Z-2.878
G1 X9.3063 Y62.7316 Z-2.88
G1 X9.295 Y62.7126 Z-2.882
G1 X9.2827 Y62.6945 Z-2.884
G1 X9.2695 Y62.6774 Z-2.886
G1 X9.2549 Y62.6609 Z-2.888
G1 X9.2391 Y62.6451 Z-2.89
G1 X9.2226 Y62.6305 Z-2.892
G1 X9.2055 Y62.6173 Z-2.894
G1 X9.1874 Y62.605 Z-2.896
G1 X9.1684 Y62.5937 Z-2.898
G1 X9.1487 Y62.5837 Z-2.9
G1 X9.1287 Y62.575 Z-2.902
G1 X9.1081 Y62.5676 Z-2.904
G1 X9.0867 Y62.5614 Z-2.906
G1 X9.0653 Y62.5566 Z-2.908
G1 X9.0441 Y62.5533 Z-2.91
G1 X9.0222 Y62.5512 Z-2.912
G1 X9.0 Y62.5505 Z-2.914
G1 X8.9778 Y62.5512 Z-2.916
G1 X8.9559 Y62.5533 Z-2.918
G1 X8.9347 Y62.5566 Z-2.92
G1 X8.9133 Y62.5614 Z-2.922
G1 X8.8919 Y62.5676 Z-2.924
G1 X8.8713 Y62.575 Z-2.926
G1 X8.8513 Y62.5837 Z-2.928
G1 X8.8316 Y62.5937 Z-2.93
G1 X8.8126 Y62.605 Z-2.932
G1 X8.7945 Y62.6173 Z-2.934
G1 X8.7774 Y62.6305 Z-2.936
G1 X8.7609 Y62.6451 Z-2.938
G1 X8.7451 Y62.6609 Z-2.94
G1 X8.7305 Y62.6774 Z-2.942
G1 X8.7173 Y62.6945 Z-2.944
G1 X8.705 Y62.7126 Z-2.946
G1 X8.6937 Y62.7316 Z-2.948
G1 X8.6837 Y62.7513 Z-2.95
G1 X8.675 Y62.7713 Z-2.952
G1 X8.6676 Y62.7919 Z-2.954
G1 X8.6614 Y62.8133 Z-2.956
G1 X8.6566 Y62.8347 Z-2.958
G1 X8.6533 Y62.8559 Z-2.96
G1 X8.6512 Y62.8778 Z-2.962
G1 X8.6505 Y62.9 Z-2.964
G1 X8.6512 Y62.9222 Z-2.966
G1 X8.6533 Y62.9441 Z-2.968
G1 X8.6566 Y62.9653 Z-2.97
G1 X8.6614 Y62.9867 Z-2.972
G1 X8.6676 Y63.0081 Z-2.974
G1 X8.675 Y63.0287 Z-2.976
G1 X8.6837 Y63.0487 Z-2.978
G1 X8.6937 Y63.0684 Z-2.98
G1 X8.705 Y63.0874 Z-2.982
G1 X8.7173 Y63.1055 Z-2.984
G1 X8.7305 Y63.1226 Z-2.986
G1 X8.7451 Y63.1391 Z-2.988
G1 X8.7609 Y63.1549 Z-2.99
G1 X8.7774 Y63.1695 Z-2.992
G1 X8.7945 Y63.1827 Z-2.994
G1 X8.8126 Y63.195 Z-2.996
G1 X8.8316 Y63.2063 Z-2.998
G1 X8.8513 Y63.2163 Z-3.0
G1 X8.8713 Y63.225 Z-3.002
G1 X8.8919 Y63.2324 Z-3.004
G1 X8.9133 Y63.2386 Z-3.006
G1 X8.9347 Y63.2434 Z-3.008
G1 X8.9559 Y63.2467 Z-3.01
G1 X8.9778 Y63.2488 Z-3.012
G1 X9.0 Y63.2495 Z-3.014
G1 X9.0222 Y63.2488 Z-3.016
G1 X9.0441 Y63.2467 Z-3.018
G1 X9.0653 Y63.2434 Z-3.02
G1 X9.0867 Y63.2386 Z-3.022
G1 X9.1081 Y63.2324 Z-3.024
G1 X9.1287 Y63.225 Z-3.026
G1 X9.1487 Y63.2163 Z-3.028
G1 X9.1684 Y63.2063 Z-3.03
G1 X9.1874 Y63.195 Z-3.032
G1 X9.2055 Y63.1827 Z-3.034
G1 X9.2226 Y63.1695 Z-3.036
G1 X9.2391 Y63.1549 Z-3.038
G1 X9.2549 Y63.1391 Z-3.04
G1 X9.2695 Y63.1226 Z-3.042
G1 X9.2827 Y63.1055 Z-3.044
G1 X9.295 Y63.0874 Z-3.046
G1 X9.3063 Y63.0684 Z-3.048
G1 X9.3163 Y63.0487 Z-3.05
G1 X9.325 Y63.0287 Z-3.052
G1 X9.3324 Y63.0081 Z-3.054
G1 X9.3386 Y62.9867 Z-3.056
G1 X9.3434 Y62.9653 Z-3.058
G1 X9.3467 Y62.9441 Z-3.06
G1 X9.3488 Y62.9222 Z-3.062
G1 X9.3495 Y62.9 Z-3.064
