( Made using CamBam - http://www.cambam.co.uk )
( ssc_plexi_Bottom_Panel 2/24/2021 10:50:44 AM )
( T2 : 2.0 )
( CUTVIEWER )
( FROM/0,0,5 )
( Select dummy tool to avoid warnings )
( TOOL/MILL,1,0,20.0,0 )
( STOCK/BLOCK,180.0,95.0,4.0,0.0,0.0,4.0 )
G21 G90 G91.1 G64 G40
G0 Z3.0
( T2 : 2.0 )
( Tool Taper coming soon )
( TOOL/MILL,2.0,0.0,0.0,0 )
T2 M6
( connectorSlot_cutout )
G17
M3 S1000
G0 X152.8 Y82.8
G0 Z1.0
G1 F200.0 Z0.0
G1 F700.0 Y83.1 Z-0.0033
G1 X166.1 Z-0.15
G1 Y82.8 Z-0.1533
G1 X152.8 Z-0.3
G1 F200.0 X152.0
G1 F700.0 Y83.9
G1 X166.9
G1 Y82.0
G1 X152.0
G1 Y82.8
G0 Z3.0
G0 X152.8 Y12.2
G0 Z1.0
G1 F200.0 Z0.0
G1 F700.0 X166.1 Z-0.1467
G1 Y11.9 Z-0.15
G1 X152.8 Z-0.2967
G1 Y12.2 Z-0.3
G1 F200.0 X152.0
G1 F700.0 Y13.0
G1 X166.9
G1 Y11.1
G1 X152.0
G1 Y12.2
G0 Z3.0
G0 X23.2
G0 Z1.0
G1 F200.0 Z0.0
G1 F700.0 Y11.9 Z-0.0033
G1 X9.9 Z-0.15
G1 Y12.2 Z-0.1533
G1 X23.2 Z-0.3
G1 F200.0 X24.0
G1 F700.0 Y11.1
G1 X9.1
G1 Y13.0
G1 X24.0
G1 Y12.2
G0 Z3.0
G0 X23.2 Y82.8
G0 Z1.0
G1 F200.0 Z0.0
G1 F700.0 X9.9 Z-0.1467
G1 Y83.1 Z-0.15
G1 X23.2 Z-0.2967
G1 Y82.8 Z-0.3
G1 F200.0 Y82.0
G1 F700.0 X9.1
G1 Y83.9
G1 X24.0
G1 Y82.0
G1 X23.2
G1 F200.0 Y82.8
G1 F700.0 X9.9 Z-0.3489
G1 Y83.1 Z-0.35
G1 X23.2 Z-0.3989
G1 Y82.8 Z-0.4
G1 F200.0 Y82.0
G1 F700.0 X9.1
G1 Y83.9
G1 X24.0
G1 Y82.0
G1 X23.2
G0 Z3.0
G0 Y12.2
G0 Z0.7
G1 F200.0 Z-0.3
G1 F700.0 Y11.9 Z-0.3011
G1 X9.9 Z-0.35
G1 Y12.2 Z-0.3511
G1 X23.2 Z-0.4
G1 F200.0 X24.0
G1 F700.0 Y11.1
G1 X9.1
G1 Y13.0
G1 X24.0
G1 Y12.2
G0 Z3.0
G0 X152.8
G0 Z0.7
G1 F200.0 Z-0.3
G1 F700.0 X166.1 Z-0.3489
G1 Y11.9 Z-0.35
G1 X152.8 Z-0.3989
G1 Y12.2 Z-0.4
G1 F200.0 X152.0
G1 F700.0 Y13.0
G1 X166.9
G1 Y11.1
G1 X152.0
G1 Y12.2
G0 Z3.0
G0 X152.8 Y82.8
G0 Z0.7
G1 F200.0 Z-0.3
G1 F700.0 Y83.1 Z-0.3011
G1 X166.1 Z-0.35
G1 Y82.8 Z-0.3511
G1 X152.8 Z-0.4
G1 F200.0 X152.0
G1 F700.0 Y83.9
G1 X166.9
G1 Y82.0
G1 X152.0
G1 Y82.8
G1 F200.0 X152.8
G1 F700.0 Y83.1 Z-0.4011
G1 X166.1 Z-0.45
G1 Y82.8 Z-0.4511
G1 X152.8 Z-0.5
G1 Y83.1
G1 X166.1
G1 Y82.8
G1 X152.8
G1 F200.0 X152.0
G1 F700.0 Y83.9
G1 X166.9
G1 Y82.0
G1 X152.0
G1 Y82.8
G0 Z3.0
G0 X152.8 Y12.2
G0 Z0.6
G1 F200.0 Z-0.4
G1 F700.0 X166.1 Z-0.4489
G1 Y11.9 Z-0.45
G1 X152.8 Z-0.4989
G1 Y12.2 Z-0.5
G1 X166.1
G1 Y11.9
G1 X152.8
G1 Y12.2
G1 F200.0 X152.0
G1 F700.0 Y13.0
G1 X166.9
G1 Y11.1
G1 X152.0
G1 Y12.2
G0 Z3.0
G0 X23.2
G0 Z0.6
G1 F200.0 Z-0.4
G1 F700.0 Y11.9 Z-0.4011
G1 X9.9 Z-0.45
G1 Y12.2 Z-0.4511
G1 X23.2 Z-0.5
G1 Y11.9
G1 X9.9
G1 Y12.2
G1 X23.2
G1 F200.0 X24.0
G1 F700.0 Y11.1
G1 X9.1
G1 Y13.0
G1 X24.0
G1 Y12.2
G0 Z3.0
G0 X23.2 Y82.8
G0 Z0.6
G1 F200.0 Z-0.4
G1 F700.0 X9.9 Z-0.4489
G1 Y83.1 Z-0.45
G1 X23.2 Z-0.4989
G1 Y82.8 Z-0.5
G1 X9.9
G1 Y83.1
G1 X23.2
G1 Y82.8
G1 F200.0 Y82.0
G1 F700.0 X9.1
G1 Y83.9
G1 X24.0
G1 Y82.0
G1 X23.2
( connectorSlot_3D )
S1000
G1 F200.0 X23.3 Y82.7
G1 F700.0 X9.8
G1 Y83.2
G1 X23.3
G1 Y82.7
G1 F200.0 X24.1
G1 F700.0 Y81.9
G1 X9.0
G1 Y84.0
G1 X24.1
G1 Y82.7
G0 Z3.0
G0 X23.3 Y12.3
G0 Z1.0
G1 F200.0 Z-0.5
G1 F700.0 Y11.8
G1 X9.8
G1 Y12.3
G1 X23.3
G1 F200.0 Y13.1
G1 F700.0 X24.1
G1 Y11.0
G1 X9.0
G1 Y13.1
G1 X23.3
G0 Z3.0
G0 X152.7 Y12.3
G0 Z1.0
G1 F200.0 Z-0.5
G1 F700.0 X166.2
G1 Y11.8
G1 X152.7
G1 Y12.3
G1 F200.0 Y13.1
G1 F700.0 X167.0
G1 Y11.0
G1 X151.9
G1 Y13.1
G1 X152.7
G0 Z3.0
G0 Y82.7
G0 Z1.0
G1 F200.0 Z-0.5
G1 F700.0 Y83.2
G1 X166.2
G1 Y82.7
G1 X152.7
G1 F200.0 Y81.9
G1 F700.0 X151.9
G1 Y84.0
G1 X167.0
G1 Y81.9
G1 X152.7
( connectorSlot_Overcut )
S1000
G0 Z3.0
G0 X24.0 Y82.0
G1 F200.0 Z0.0
G1 F700.0 X9.1 Z-0.12
G1 X8.7778 Y81.6778 Z-0.1237
G1 X9.1 Y82.0 Z-0.1274
G1 Y83.9 Z-0.1427
G1 X8.7778 Y84.2222 Z-0.1463
G1 X9.1 Y83.9 Z-0.15
G1 X24.0 Z-0.27
G1 X24.3222 Y84.2222 Z-0.2737
G1 X24.0 Y83.9 Z-0.2774
G1 Y82.0 Z-0.2927
G1 X24.3222 Y81.6778 Z-0.2963
G1 X24.0 Y82.0 Z-0.3
G0 Z3.0
G0 X24.3222 Y13.3222
G0 Z1.0
G1 F200.0 Z0.0
G1 F700.0 X24.0 Y13.0 Z-0.0037
G1 Y11.1 Z-0.019
G1 X24.3222 Y10.7778 Z-0.0226
G1 X24.0 Y11.1 Z-0.0263
G1 X9.1 Z-0.1463
G1 X8.7778 Y10.7778 Z-0.15
G1 X9.1 Y11.1 Z-0.1537
G1 Y13.0 Z-0.169
G1 X8.7778 Y13.3222 Z-0.1726
G1 X9.1 Y13.0 Z-0.1763
G1 X24.0 Z-0.2963
G1 X24.3222 Y13.3222 Z-0.3
G0 Z3.0
G0 X151.6778
G0 Z1.0
G1 F200.0 Z0.0
G1 F700.0 X152.0 Y13.0 Z-0.0037
G1 X166.9 Z-0.1237
G1 X167.2222 Y13.3222 Z-0.1274
G1 X166.9 Y13.0 Z-0.131
G1 Y11.1 Z-0.1463
G1 X167.2222 Y10.7778 Z-0.15
G1 X166.9 Y11.1 Z-0.1537
G1 X152.0 Z-0.2737
G1 X151.6778 Y10.7778 Z-0.2774
G1 X152.0 Y11.1 Z-0.281
G1 Y13.0 Z-0.2963
G1 X151.6778 Y13.3222 Z-0.3
G0 Z3.0
G0 Y81.6778
G0 Z1.0
G1 F200.0 Z0.0
G1 F700.0 X152.0 Y82.0 Z-0.0037
G1 Y83.9 Z-0.019
G1 X151.6778 Y84.2222 Z-0.0226
G1 X152.0 Y83.9 Z-0.0263
G1 X166.9 Z-0.1463
G1 X167.2222 Y84.2222 Z-0.15
G1 X166.9 Y83.9 Z-0.1537
G1 Y82.0 Z-0.169
G1 X167.2222 Y81.6778 Z-0.1726
G1 X166.9 Y82.0 Z-0.1763
G1 X152.0 Z-0.2963
G1 X151.6778 Y81.6778 Z-0.3
G1 X152.0 Y82.0 Z-0.3012
G1 Y83.9 Z-0.3063
G1 X151.6778 Y84.2222 Z-0.3075
G1 X152.0 Y83.9 Z-0.3088
G1 X166.9 Z-0.3488
G1 X167.2222 Y84.2222 Z-0.35
G1 X166.9 Y83.9 Z-0.3512
G1 Y82.0 Z-0.3563
G1 X167.2222 Y81.6778 Z-0.3575
G1 X166.9 Y82.0 Z-0.3588
G1 X152.0 Z-0.3988
G1 X151.6778 Y81.6778 Z-0.4
G0 Z3.0
G0 Y13.3222
G0 Z0.7
G1 F200.0 Z-0.3
G1 F700.0 X152.0 Y13.0 Z-0.3012
G1 X166.9 Z-0.3412
G1 X167.2222 Y13.3222 Z-0.3425
G1 X166.9 Y13.0 Z-0.3437
G1 Y11.1 Z-0.3488
G1 X167.2222 Y10.7778 Z-0.35
G1 X166.9 Y11.1 Z-0.3512
G1 X152.0 Z-0.3912
G1 X151.6778 Y10.7778 Z-0.3925
G1 X152.0 Y11.1 Z-0.3937
G1 Y13.0 Z-0.3988
G1 X151.6778 Y13.3222 Z-0.4
G0 Z3.0
G0 X24.3222
G0 Z0.7
G1 F200.0 Z-0.3
G1 F700.0 X24.0 Y13.0 Z-0.3012
G1 Y11.1 Z-0.3063
G1 X24.3222 Y10.7778 Z-0.3075
G1 X24.0 Y11.1 Z-0.3088
G1 X9.1 Z-0.3488
G1 X8.7778 Y10.7778 Z-0.35
G1 X9.1 Y11.1 Z-0.3512
G1 Y13.0 Z-0.3563
G1 X8.7778 Y13.3222 Z-0.3575
G1 X9.1 Y13.0 Z-0.3588
G1 X24.0 Z-0.3988
G1 X24.3222 Y13.3222 Z-0.4
G0 Z3.0
G0 Y81.6778
G0 Z0.7
G1 F200.0 Z-0.3
G1 F700.0 X24.0 Y82.0 Z-0.3012
G1 X9.1 Z-0.3412
G1 X8.7778 Y81.6778 Z-0.3425
G1 X9.1 Y82.0 Z-0.3437
G1 Y83.9 Z-0.3488
G1 X8.7778 Y84.2222 Z-0.35
G1 X9.1 Y83.9 Z-0.3512
G1 X24.0 Z-0.3912
G1 X24.3222 Y84.2222 Z-0.3925
G1 X24.0 Y83.9 Z-0.3937
G1 Y82.0 Z-0.3988
G1 X24.3222 Y81.6778 Z-0.4
G1 X24.0 Y82.0 Z-0.4012
G1 X9.1 Z-0.4412
G1 X8.7778 Y81.6778 Z-0.4425
G1 X9.1 Y82.0 Z-0.4437
G1 Y83.9 Z-0.4488
G1 X8.7778 Y84.2222 Z-0.45
G1 X9.1 Y83.9 Z-0.4512
G1 X24.0 Z-0.4912
G1 X24.3222 Y84.2222 Z-0.4925
G1 X24.0 Y83.9 Z-0.4937
G1 Y82.0 Z-0.4988
G1 X24.3222 Y81.6778 Z-0.5
G1 X24.0 Y82.0
G1 X9.1
G1 X8.7778 Y81.6778
G1 X9.1 Y82.0
G1 Y83.9
G1 X8.7778 Y84.2222
G1 X9.1 Y83.9
G1 X24.0
G1 X24.3222 Y84.2222
G1 X24.0 Y83.9
G1 Y82.0
G1 X24.3222 Y81.6778
G0 Z3.0
G0 Y13.3222
G0 Z0.6
G1 F200.0 Z-0.4
G1 F700.0 X24.0 Y13.0 Z-0.4012
G1 Y11.1 Z-0.4063
G1 X24.3222 Y10.7778 Z-0.4075
G1 X24.0 Y11.1 Z-0.4088
G1 X9.1 Z-0.4488
G1 X8.7778 Y10.7778 Z-0.45
G1 X9.1 Y11.1 Z-0.4512
G1 Y13.0 Z-0.4563
G1 X8.7778 Y13.3222 Z-0.4575
G1 X9.1 Y13.0 Z-0.4588
G1 X24.0 Z-0.4988
G1 X24.3222 Y13.3222 Z-0.5
G1 X24.0 Y13.0
G1 Y11.1
G1 X24.3222 Y10.7778
G1 X24.0 Y11.1
G1 X9.1
G1 X8.7778 Y10.7778
G1 X9.1 Y11.1
G1 Y13.0
G1 X8.7778 Y13.3222
G1 X9.1 Y13.0
G1 X24.0
G1 X24.3222 Y13.3222
G0 Z3.0
G0 X151.6778
G0 Z0.6
G1 F200.0 Z-0.4
G1 F700.0 X152.0 Y13.0 Z-0.4012
G1 X166.9 Z-0.4412
G1 X167.2222 Y13.3222 Z-0.4425
G1 X166.9 Y13.0 Z-0.4437
G1 Y11.1 Z-0.4488
G1 X167.2222 Y10.7778 Z-0.45
G1 X166.9 Y11.1 Z-0.4512
G1 X152.0 Z-0.4912
G1 X151.6778 Y10.7778 Z-0.4925
G1 X152.0 Y11.1 Z-0.4937
G1 Y13.0 Z-0.4988
G1 X151.6778 Y13.3222 Z-0.5
G1 X152.0 Y13.0
G1 X166.9
G1 X167.2222 Y13.3222
G1 X166.9 Y13.0
G1 Y11.1
G1 X167.2222 Y10.7778
G1 X166.9 Y11.1
G1 X152.0
G1 X151.6778 Y10.7778
G1 X152.0 Y11.1
G1 Y13.0
G1 X151.6778 Y13.3222
G0 Z3.0
G0 Y81.6778
G0 Z0.6
G1 F200.0 Z-0.4
G1 F700.0 X152.0 Y82.0 Z-0.4012
G1 Y83.9 Z-0.4063
G1 X151.6778 Y84.2222 Z-0.4075
G1 X152.0 Y83.9 Z-0.4088
G1 X166.9 Z-0.4488
G1 X167.2222 Y84.2222 Z-0.45
G1 X166.9 Y83.9 Z-0.4512
G1 Y82.0 Z-0.4563
G1 X167.2222 Y81.6778 Z-0.4575
G1 X166.9 Y82.0 Z-0.4588
G1 X152.0 Z-0.4988
G1 X151.6778 Y81.6778 Z-0.5
G1 X152.0 Y82.0
G1 Y83.9
G1 X151.6778 Y84.2222
G1 X152.0 Y83.9
G1 X166.9
G1 X167.2222 Y84.2222
G1 X166.9 Y83.9
G1 Y82.0
G1 X167.2222 Y81.6778
G1 X166.9 Y82.0
G1 X152.0
G1 X151.6778 Y81.6778
( connectorSlotTrail_3D )
S1000
G0 Z3.0
G0 X149.9 Y14.1
G0 Z1.0
G1 F300.0 Z-0.4
G1 F800.0 Y11.0
G1 X150.9 Y10.0 Z0.0
G1 X149.9 Y11.0 Z-0.4
G1 X26.1
G1 X25.1 Y10.0 Z0.0
G1 X26.1 Y11.0 Z-0.4
G1 Y14.1
G3 X25.1 Y15.1 I-1.0 J0.0
G1 X9.0
G1 X8.0 Y14.1 Z0.0
G1 X9.0 Y15.1 Z-0.4
G1 Y79.9
G1 X8.0 Y80.9 Z0.0
G1 X9.0 Y79.9 Z-0.4
G1 X25.1
G3 X26.1 Y80.9 I0.0 J1.0
G1 Y84.0
G1 X25.1 Y85.0 Z0.0
G1 X26.1 Y84.0 Z-0.4
G1 X149.9
G1 X150.9 Y85.0 Z0.0
G1 X149.9 Y84.0 Z-0.4
G1 Y80.9
G3 X150.9 Y79.9 I1.0 J0.0
G1 X167.0
G1 X168.0 Y80.9 Z0.0
G1 X167.0 Y79.9 Z-0.4
G1 Y15.1
G1 X168.0 Y14.1 Z0.0
G1 X167.0 Y15.1 Z-0.4
G1 X150.9
G3 X149.9 Y14.1 I0.0 J-1.0
G1 F300.0 Z-0.5
G1 F800.0 Y11.0
G1 X150.9 Y10.0 Z0.0
G1 X149.9 Y11.0 Z-0.5
G1 X26.1
G1 X25.1 Y10.0 Z0.0
G1 X26.1 Y11.0 Z-0.5
G1 Y14.1
G3 X25.1 Y15.1 I-1.0 J0.0
G1 X9.0
G1 X8.0 Y14.1 Z0.0
G1 X9.0 Y15.1 Z-0.5
G1 Y79.9
G1 X8.0 Y80.9 Z0.0
G1 X9.0 Y79.9 Z-0.5
G1 X25.1
G3 X26.1 Y80.9 I0.0 J1.0
G1 Y84.0
G1 X25.1 Y85.0 Z0.0
G1 X26.1 Y84.0 Z-0.5
G1 X149.9
G1 X150.9 Y85.0 Z0.0
G1 X149.9 Y84.0 Z-0.5
G1 Y80.9
G3 X150.9 Y79.9 I1.0 J0.0
G1 X167.0
G1 X168.0 Y80.9 Z0.0
G1 X167.0 Y79.9 Z-0.5
G1 Y15.1
G1 X168.0 Y14.1 Z0.0
G1 X167.0 Y15.1 Z-0.5
G1 X150.9
G3 X149.9 Y14.1 I0.0 J-1.0
( ventBars_cutout )
S1000
G0 Z3.0
G0 X40.0826 Y31.3764
G0 Z1.0
G1 F200.0 Z0.0
G1 F700.0 X40.0701 Y31.3689 Z-0.0001
G1 X40.0569 Y31.3626
G1 X40.0432 Y31.3577 Z-0.0002
G1 X40.029 Y31.3542 Z-0.0003
G1 X40.0146 Y31.352 Z-0.0004
G1 X40.0 Y31.3513
G1 X39.9854 Y31.352 Z-0.0005
G1 X39.971 Y31.3542 Z-0.0006
G1 X39.9568 Y31.3577
G1 X39.9431 Y31.3626 Z-0.0007
G1 X39.9299 Y31.3689 Z-0.0008
G1 X39.9174 Y31.3764 Z-0.0009
G1 X39.9057 Y31.3851
G1 X39.8949 Y31.3949 Z-0.001
G1 X39.8851 Y31.4057 Z-0.0011
G1 X39.8764 Y31.4174
G1 X39.8689 Y31.4299 Z-0.0012
G1 X39.8626 Y31.4431 Z-0.0013
G1 X39.8577 Y31.4568 Z-0.0014
G1 X39.8542 Y31.471
G1 X39.852 Y31.4854 Z-0.0015
G1 X39.85 Y31.527 Z-0.0017
G1 Y61.473 Z-0.1491
G1 X39.852 Y61.5146 Z-0.1494
G1 X39.8542 Y61.529
G1 X39.8577 Y61.5432 Z-0.1495
G1 X39.8626 Y61.5569 Z-0.1496
G1 X39.8689 Y61.5701
G1 X39.8764 Y61.5826 Z-0.1497
G1 X39.8851 Y61.5943 Z-0.1498
G1 X39.8949 Y61.6051 Z-0.1499
G1 X39.9057 Y61.6149
G1 X39.9174 Y61.6236 Z-0.15
G1 X39.9299 Y61.6311 Z-0.1501
G1 X39.9431 Y61.6374
G1 X39.9568 Y61.6423 Z-0.1502
G1 X39.971 Y61.6458 Z-0.1503
G1 X39.9854 Y61.648 Z-0.1504
G1 X40.0 Y61.6487
G1 X40.0146 Y61.648 Z-0.1505
G1 X40.029 Y61.6458 Z-0.1506
G1 X40.0432 Y61.6423
G1 X40.0569 Y61.6374 Z-0.1507
G1 X40.0701 Y61.6311 Z-0.1508
G1 X40.0826 Y61.6236 Z-0.1509
G1 X40.0943 Y61.6149
G1 X40.1051 Y61.6051 Z-0.151
G1 X40.1149 Y61.5943 Z-0.1511
G1 X40.1236 Y61.5826
G1 X40.1311 Y61.5701 Z-0.1512
G1 X40.1374 Y61.5569 Z-0.1513
G1 X40.1423 Y61.5432 Z-0.1514
G1 X40.1458 Y61.529
G1 X40.148 Y61.5146 Z-0.1515
G1 X40.15 Y61.473 Z-0.1517
G1 Y31.527 Z-0.2991
G1 X40.148 Y31.4854 Z-0.2994
G1 X40.1458 Y31.471
G1 X40.1423 Y31.4568 Z-0.2995
G1 X40.1374 Y31.4431 Z-0.2996
G1 X40.1311 Y31.4299
G1 X40.1236 Y31.4174 Z-0.2997
G1 X40.1149 Y31.4057 Z-0.2998
G1 X40.1051 Y31.3949 Z-0.2999
G1 X40.0943 Y31.3851
G1 X40.0826 Y31.3764 Z-0.3
G1 X40.0701 Y31.3689 Z-0.3001
G1 X40.0569 Y31.3626
G1 X40.0432 Y31.3577 Z-0.3002
G1 X40.029 Y31.3542 Z-0.3003
G1 X40.0146 Y31.352 Z-0.3004
G1 X40.0 Y31.3513
G1 X39.9854 Y31.352 Z-0.3005
G1 X39.971 Y31.3542 Z-0.3006
G1 X39.9568 Y31.3577
G1 X39.9431 Y31.3626 Z-0.3007
G1 X39.9299 Y31.3689 Z-0.3008
G1 X39.9174 Y31.3764 Z-0.3009
G1 X39.9057 Y31.3851
G1 X39.8949 Y31.3949 Z-0.301
G1 X39.8851 Y31.4057 Z-0.3011
G1 X39.8764 Y31.4174
G1 X39.8689 Y31.4299 Z-0.3012
G1 X39.8626 Y31.4431 Z-0.3013
G1 X39.8577 Y31.4568 Z-0.3014
G1 X39.8542 Y31.471
G1 X39.852 Y31.4854 Z-0.3015
G1 X39.85 Y31.527 Z-0.3017
G1 Y61.473 Z-0.4491
G1 X39.852 Y61.5146 Z-0.4494
G1 X39.8542 Y61.529
G1 X39.8577 Y61.5432 Z-0.4495
G1 X39.8626 Y61.5569 Z-0.4496
G1 X39.8689 Y61.5701
G1 X39.8764 Y61.5826 Z-0.4497
G1 X39.8851 Y61.5943 Z-0.4498
G1 X39.8949 Y61.6051 Z-0.4499
G1 X39.9057 Y61.6149
G1 X39.9174 Y61.6236 Z-0.45
G1 X39.9299 Y61.6311 Z-0.4501
G1 X39.9431 Y61.6374
G1 X39.9568 Y61.6423 Z-0.4502
G1 X39.971 Y61.6458 Z-0.4503
G1 X39.9854 Y61.648 Z-0.4504
G1 X40.0 Y61.6487
G1 X40.0146 Y61.648 Z-0.4505
G1 X40.029 Y61.6458 Z-0.4506
G1 X40.0432 Y61.6423
G1 X40.0569 Y61.6374 Z-0.4507
G1 X40.0701 Y61.6311 Z-0.4508
G1 X40.0826 Y61.6236 Z-0.4509
G1 X40.0943 Y61.6149
G1 X40.1051 Y61.6051 Z-0.451
G1 X40.1149 Y61.5943 Z-0.4511
G1 X40.1236 Y61.5826
G1 X40.1311 Y61.5701 Z-0.4512
G1 X40.1374 Y61.5569 Z-0.4513
G1 X40.1423 Y61.5432 Z-0.4514
G1 X40.1458 Y61.529
G1 X40.148 Y61.5146 Z-0.4515
G1 X40.15 Y61.473 Z-0.4517
G1 Y31.527 Z-0.5991
G1 X40.148 Y31.4854 Z-0.5994
G1 X40.1458 Y31.471
G1 X40.1423 Y31.4568 Z-0.5995
G1 X40.1374 Y31.4431 Z-0.5996
G1 X40.1311 Y31.4299
G1 X40.1236 Y31.4174 Z-0.5997
G1 X40.1149 Y31.4057 Z-0.5998
G1 X40.1051 Y31.3949 Z-0.5999
G1 X40.0943 Y31.3851
G1 X40.0826 Y31.3764 Z-0.6
G1 X40.0701 Y31.3689 Z-0.6001
G1 X40.0569 Y31.3626
G1 X40.0432 Y31.3577 Z-0.6002
G1 X40.029 Y31.3542 Z-0.6003
G1 X40.0146 Y31.352 Z-0.6004
G1 X40.0 Y31.3513
G1 X39.9854 Y31.352 Z-0.6005
G1 X39.971 Y31.3542 Z-0.6006
G1 X39.9568 Y31.3577
G1 X39.9431 Y31.3626 Z-0.6007
G1 X39.9299 Y31.3689 Z-0.6008
G1 X39.9174 Y31.3764 Z-0.6009
G1 X39.9057 Y31.3851
G1 X39.8949 Y31.3949 Z-0.601
G1 X39.8851 Y31.4057 Z-0.6011
G1 X39.8764 Y31.4174
G1 X39.8689 Y31.4299 Z-0.6012
G1 X39.8626 Y31.4431 Z-0.6013
G1 X39.8577 Y31.4568 Z-0.6014
G1 X39.8542 Y31.471
G1 X39.852 Y31.4854 Z-0.6015
G1 X39.85 Y31.527 Z-0.6017
G1 Y61.473 Z-0.7491
G1 X39.852 Y61.5146 Z-0.7494
G1 X39.8542 Y61.529
G1 X39.8577 Y61.5432 Z-0.7495
G1 X39.8626 Y61.5569 Z-0.7496
G1 X39.8689 Y61.5701
G1 X39.8764 Y61.5826 Z-0.7497
G1 X39.8851 Y61.5943 Z-0.7498
G1 X39.8949 Y61.6051 Z-0.7499
G1 X39.9057 Y61.6149
G1 X39.9174 Y61.6236 Z-0.75
G1 X39.9299 Y61.6311 Z-0.7501
G1 X39.9431 Y61.6374
G1 X39.9568 Y61.6423 Z-0.7502
G1 X39.971 Y61.6458 Z-0.7503
G1 X39.9854 Y61.648 Z-0.7504
G1 X40.0 Y61.6487
G1 X40.0146 Y61.648 Z-0.7505
G1 X40.029 Y61.6458 Z-0.7506
G1 X40.0432 Y61.6423
G1 X40.0569 Y61.6374 Z-0.7507
G1 X40.0701 Y61.6311 Z-0.7508
G1 X40.0826 Y61.6236 Z-0.7509
G1 X40.0943 Y61.6149
G1 X40.1051 Y61.6051 Z-0.751
G1 X40.1149 Y61.5943 Z-0.7511
G1 X40.1236 Y61.5826
G1 X40.1311 Y61.5701 Z-0.7512
G1 X40.1374 Y61.5569 Z-0.7513
G1 X40.1423 Y61.5432 Z-0.7514
G1 X40.1458 Y61.529
G1 X40.148 Y61.5146 Z-0.7515
G1 X40.15 Y61.473 Z-0.7517
G1 Y31.527 Z-0.8991
G1 X40.148 Y31.4854 Z-0.8994
G1 X40.1458 Y31.471
G1 X40.1423 Y31.4568 Z-0.8995
G1 X40.1374 Y31.4431 Z-0.8996
G1 X40.1311 Y31.4299
G1 X40.1236 Y31.4174 Z-0.8997
G1 X40.1149 Y31.4057 Z-0.8998
G1 X40.1051 Y31.3949 Z-0.8999
G1 X40.0943 Y31.3851
G1 X40.0826 Y31.3764 Z-0.9
G1 X40.0701 Y31.3689 Z-0.9001
G1 X40.0569 Y31.3626
G1 X40.0432 Y31.3577 Z-0.9002
G1 X40.029 Y31.3542 Z-0.9003
G1 X40.0146 Y31.352 Z-0.9004
G1 X40.0 Y31.3513
G1 X39.9854 Y31.352 Z-0.9005
G1 X39.971 Y31.3542 Z-0.9006
G1 X39.9568 Y31.3577
G1 X39.9431 Y31.3626 Z-0.9007
G1 X39.9299 Y31.3689 Z-0.9008
G1 X39.9174 Y31.3764 Z-0.9009
G1 X39.9057 Y31.3851
G1 X39.8949 Y31.3949 Z-0.901
G1 X39.8851 Y31.4057 Z-0.9011
G1 X39.8764 Y31.4174
G1 X39.8689 Y31.4299 Z-0.9012
G1 X39.8626 Y31.4431 Z-0.9013
G1 X39.8577 Y31.4568 Z-0.9014
G1 X39.8542 Y31.471
G1 X39.852 Y31.4854 Z-0.9015
G1 X39.85 Y31.527 Z-0.9017
G1 Y61.473 Z-1.0491
G1 X39.852 Y61.5146 Z-1.0494
G1 X39.8542 Y61.529
G1 X39.8577 Y61.5432 Z-1.0495
G1 X39.8626 Y61.5569 Z-1.0496
G1 X39.8689 Y61.5701
G1 X39.8764 Y61.5826 Z-1.0497
G1 X39.8851 Y61.5943 Z-1.0498
G1 X39.8949 Y61.6051 Z-1.0499
G1 X39.9057 Y61.6149
G1 X39.9174 Y61.6236 Z-1.05
G1 X39.9299 Y61.6311 Z-1.0501
G1 X39.9431 Y61.6374
G1 X39.9568 Y61.6423 Z-1.0502
G1 X39.971 Y61.6458 Z-1.0503
G1 X39.9854 Y61.648 Z-1.0504
G1 X40.0 Y61.6487
G1 X40.0146 Y61.648 Z-1.0505
G1 X40.029 Y61.6458 Z-1.0506
G1 X40.0432 Y61.6423
G1 X40.0569 Y61.6374 Z-1.0507
G1 X40.0701 Y61.6311 Z-1.0508
G1 X40.0826 Y61.6236 Z-1.0509
G1 X40.0943 Y61.6149
G1 X40.1051 Y61.6051 Z-1.051
G1 X40.1149 Y61.5943 Z-1.0511
G1 X40.1236 Y61.5826
G1 X40.1311 Y61.5701 Z-1.0512
G1 X40.1374 Y61.5569 Z-1.0513
G1 X40.1423 Y61.5432 Z-1.0514
G1 X40.1458 Y61.529
G1 X40.148 Y61.5146 Z-1.0515
G1 X40.15 Y61.473 Z-1.0517
G1 Y31.527 Z-1.1991
G1 X40.148 Y31.4854 Z-1.1994
G1 X40.1458 Y31.471
G1 X40.1423 Y31.4568 Z-1.1995
G1 X40.1374 Y31.4431 Z-1.1996
G1 X40.1311 Y31.4299
G1 X40.1236 Y31.4174 Z-1.1997
G1 X40.1149 Y31.4057 Z-1.1998
G1 X40.1051 Y31.3949 Z-1.1999
G1 X40.0943 Y31.3851
G1 X40.0826 Y31.3764 Z-1.2
G1 X40.0701 Y31.3689 Z-1.2001
G1 X40.0569 Y31.3626
G1 X40.0432 Y31.3577 Z-1.2002
G1 X40.029 Y31.3542 Z-1.2003
G1 X40.0146 Y31.352 Z-1.2004
G1 X40.0 Y31.3513
G1 X39.9854 Y31.352 Z-1.2005
G1 X39.971 Y31.3542 Z-1.2006
G1 X39.9568 Y31.3577
G1 X39.9431 Y31.3626 Z-1.2007
G1 X39.9299 Y31.3689 Z-1.2008
G1 X39.9174 Y31.3764 Z-1.2009
G1 X39.9057 Y31.3851
G1 X39.8949 Y31.3949 Z-1.201
G1 X39.8851 Y31.4057 Z-1.2011
G1 X39.8764 Y31.4174
G1 X39.8689 Y31.4299 Z-1.2012
G1 X39.8626 Y31.4431 Z-1.2013
G1 X39.8577 Y31.4568 Z-1.2014
G1 X39.8542 Y31.471
G1 X39.852 Y31.4854 Z-1.2015
G1 X39.85 Y31.527 Z-1.2017
G1 Y61.473 Z-1.3491
G1 X39.852 Y61.5146 Z-1.3494
G1 X39.8542 Y61.529
G1 X39.8577 Y61.5432 Z-1.3495
G1 X39.8626 Y61.5569 Z-1.3496
G1 X39.8689 Y61.5701
G1 X39.8764 Y61.5826 Z-1.3497
G1 X39.8851 Y61.5943 Z-1.3498
G1 X39.8949 Y61.6051 Z-1.3499
G1 X39.9057 Y61.6149
G1 X39.9174 Y61.6236 Z-1.35
G1 X39.9299 Y61.6311 Z-1.3501
G1 X39.9431 Y61.6374
G1 X39.9568 Y61.6423 Z-1.3502
G1 X39.971 Y61.6458 Z-1.3503
G1 X39.9854 Y61.648 Z-1.3504
G1 X40.0 Y61.6487
G1 X40.0146 Y61.648 Z-1.3505
G1 X40.029 Y61.6458 Z-1.3506
G1 X40.0432 Y61.6423
G1 X40.0569 Y61.6374 Z-1.3507
G1 X40.0701 Y61.6311 Z-1.3508
G1 X40.0826 Y61.6236 Z-1.3509
G1 X40.0943 Y61.6149
G1 X40.1051 Y61.6051 Z-1.351
G1 X40.1149 Y61.5943 Z-1.3511
G1 X40.1236 Y61.5826
G1 X40.1311 Y61.5701 Z-1.3512
G1 X40.1374 Y61.5569 Z-1.3513
G1 X40.1423 Y61.5432 Z-1.3514
G1 X40.1458 Y61.529
G1 X40.148 Y61.5146 Z-1.3515
G1 X40.15 Y61.473 Z-1.3517
G1 Y31.527 Z-1.4991
G1 X40.148 Y31.4854 Z-1.4994
G1 X40.1458 Y31.471
G1 X40.1423 Y31.4568 Z-1.4995
G1 X40.1374 Y31.4431 Z-1.4996
G1 X40.1311 Y31.4299
G1 X40.1236 Y31.4174 Z-1.4997
G1 X40.1149 Y31.4057 Z-1.4998
G1 X40.1051 Y31.3949 Z-1.4999
G1 X40.0943 Y31.3851
G1 X40.0826 Y31.3764 Z-1.5
G1 X40.0701 Y31.3689 Z-1.5001
G1 X40.0569 Y31.3626
G1 X40.0432 Y31.3577 Z-1.5002
G1 X40.029 Y31.3542 Z-1.5003
G1 X40.0146 Y31.352 Z-1.5004
G1 X40.0 Y31.3513
G1 X39.9854 Y31.352 Z-1.5005
G1 X39.971 Y31.3542 Z-1.5006
G1 X39.9568 Y31.3577
G1 X39.9431 Y31.3626 Z-1.5007
G1 X39.9299 Y31.3689 Z-1.5008
G1 X39.9174 Y31.3764 Z-1.5009
G1 X39.9057 Y31.3851
G1 X39.8949 Y31.3949 Z-1.501
G1 X39.8851 Y31.4057 Z-1.5011
G1 X39.8764 Y31.4174
G1 X39.8689 Y31.4299 Z-1.5012
G1 X39.8626 Y31.4431 Z-1.5013
G1 X39.8577 Y31.4568 Z-1.5014
G1 X39.8542 Y31.471
G1 X39.852 Y31.4854 Z-1.5015
G1 X39.85 Y31.527 Z-1.5017
G1 Y61.473 Z-1.6491
G1 X39.852 Y61.5146 Z-1.6494
G1 X39.8542 Y61.529
G1 X39.8577 Y61.5432 Z-1.6495
G1 X39.8626 Y61.5569 Z-1.6496
G1 X39.8689 Y61.5701
G1 X39.8764 Y61.5826 Z-1.6497
G1 X39.8851 Y61.5943 Z-1.6498
G1 X39.8949 Y61.6051 Z-1.6499
G1 X39.9057 Y61.6149
G1 X39.9174 Y61.6236 Z-1.65
G1 X39.9299 Y61.6311 Z-1.6501
G1 X39.9431 Y61.6374
G1 X39.9568 Y61.6423 Z-1.6502
G1 X39.971 Y61.6458 Z-1.6503
G1 X39.9854 Y61.648 Z-1.6504
G1 X40.0 Y61.6487
G1 X40.0146 Y61.648 Z-1.6505
G1 X40.029 Y61.6458 Z-1.6506
G1 X40.0432 Y61.6423
G1 X40.0569 Y61.6374 Z-1.6507
G1 X40.0701 Y61.6311 Z-1.6508
G1 X40.0826 Y61.6236 Z-1.6509
G1 X40.0943 Y61.6149
G1 X40.1051 Y61.6051 Z-1.651
G1 X40.1149 Y61.5943 Z-1.6511
G1 X40.1236 Y61.5826
G1 X40.1311 Y61.5701 Z-1.6512
G1 X40.1374 Y61.5569 Z-1.6513
G1 X40.1423 Y61.5432 Z-1.6514
G1 X40.1458 Y61.529
G1 X40.148 Y61.5146 Z-1.6515
G1 X40.15 Y61.473 Z-1.6517
G1 Y31.527 Z-1.7991
G1 X40.148 Y31.4854 Z-1.7994
G1 X40.1458 Y31.471
G1 X40.1423 Y31.4568 Z-1.7995
G1 X40.1374 Y31.4431 Z-1.7996
G1 X40.1311 Y31.4299
G1 X40.1236 Y31.4174 Z-1.7997
G1 X40.1149 Y31.4057 Z-1.7998
G1 X40.1051 Y31.3949 Z-1.7999
G1 X40.0943 Y31.3851
G1 X40.0826 Y31.3764 Z-1.8
G1 X40.0701 Y31.3689 Z-1.8001
G1 X40.0569 Y31.3626
G1 X40.0432 Y31.3577 Z-1.8002
G1 X40.029 Y31.3542 Z-1.8003
G1 X40.0146 Y31.352 Z-1.8004
G1 X40.0 Y31.3513
G1 X39.9854 Y31.352 Z-1.8005
G1 X39.971 Y31.3542 Z-1.8006
G1 X39.9568 Y31.3577
G1 X39.9431 Y31.3626 Z-1.8007
G1 X39.9299 Y31.3689 Z-1.8008
G1 X39.9174 Y31.3764 Z-1.8009
G1 X39.9057 Y31.3851
G1 X39.8949 Y31.3949 Z-1.801
G1 X39.8851 Y31.4057 Z-1.8011
G1 X39.8764 Y31.4174
G1 X39.8689 Y31.4299 Z-1.8012
G1 X39.8626 Y31.4431 Z-1.8013
G1 X39.8577 Y31.4568 Z-1.8014
G1 X39.8542 Y31.471
G1 X39.852 Y31.4854 Z-1.8015
G1 X39.85 Y31.527 Z-1.8017
G1 Y61.473 Z-1.9491
G1 X39.852 Y61.5146 Z-1.9494
G1 X39.8542 Y61.529
G1 X39.8577 Y61.5432 Z-1.9495
G1 X39.8626 Y61.5569 Z-1.9496
G1 X39.8689 Y61.5701
G1 X39.8764 Y61.5826 Z-1.9497
G1 X39.8851 Y61.5943 Z-1.9498
G1 X39.8949 Y61.6051 Z-1.9499
G1 X39.9057 Y61.6149
G1 X39.9174 Y61.6236 Z-1.95
G1 X39.9299 Y61.6311 Z-1.9501
G1 X39.9431 Y61.6374
G1 X39.9568 Y61.6423 Z-1.9502
G1 X39.971 Y61.6458 Z-1.9503
G1 X39.9854 Y61.648 Z-1.9504
G1 X40.0 Y61.6487
G1 X40.0146 Y61.648 Z-1.9505
G1 X40.029 Y61.6458 Z-1.9506
G1 X40.0432 Y61.6423
G1 X40.0569 Y61.6374 Z-1.9507
G1 X40.0701 Y61.6311 Z-1.9508
G1 X40.0826 Y61.6236 Z-1.9509
G1 X40.0943 Y61.6149
G1 X40.1051 Y61.6051 Z-1.951
G1 X40.1149 Y61.5943 Z-1.9511
G1 X40.1236 Y61.5826
G1 X40.1311 Y61.5701 Z-1.9512
G1 X40.1374 Y61.5569 Z-1.9513
G1 X40.1423 Y61.5432 Z-1.9514
G1 X40.1458 Y61.529
G1 X40.148 Y61.5146 Z-1.9515
G1 X40.15 Y61.473 Z-1.9517
G1 Y31.527 Z-2.0991
G1 X40.148 Y31.4854 Z-2.0994
G1 X40.1458 Y31.471
G1 X40.1423 Y31.4568 Z-2.0995
G1 X40.1374 Y31.4431 Z-2.0996
G1 X40.1311 Y31.4299
G1 X40.1236 Y31.4174 Z-2.0997
G1 X40.1149 Y31.4057 Z-2.0998
G1 X40.1051 Y31.3949 Z-2.0999
G1 X40.0943 Y31.3851
G1 X40.0826 Y31.3764 Z-2.1
G1 X40.0701 Y31.3689 Z-2.1001
G1 X40.0569 Y31.3626
G1 X40.0432 Y31.3577 Z-2.1002
G1 X40.029 Y31.3542 Z-2.1003
G1 X40.0146 Y31.352 Z-2.1004
G1 X40.0 Y31.3513
G1 X39.9854 Y31.352 Z-2.1005
G1 X39.971 Y31.3542 Z-2.1006
G1 X39.9568 Y31.3577
G1 X39.9431 Y31.3626 Z-2.1007
G1 X39.9299 Y31.3689 Z-2.1008
G1 X39.9174 Y31.3764 Z-2.1009
G1 X39.9057 Y31.3851
G1 X39.8949 Y31.3949 Z-2.101
G1 X39.8851 Y31.4057 Z-2.1011
G1 X39.8764 Y31.4174
G1 X39.8689 Y31.4299 Z-2.1012
G1 X39.8626 Y31.4431 Z-2.1013
G1 X39.8577 Y31.4568 Z-2.1014
G1 X39.8542 Y31.471
G1 X39.852 Y31.4854 Z-2.1015
G1 X39.85 Y31.527 Z-2.1017
G1 Y61.473 Z-2.2491
G1 X39.852 Y61.5146 Z-2.2494
G1 X39.8542 Y61.529
G1 X39.8577 Y61.5432 Z-2.2495
G1 X39.8626 Y61.5569 Z-2.2496
G1 X39.8689 Y61.5701
G1 X39.8764 Y61.5826 Z-2.2497
G1 X39.8851 Y61.5943 Z-2.2498
G1 X39.8949 Y61.6051 Z-2.2499
G1 X39.9057 Y61.6149
G1 X39.9174 Y61.6236 Z-2.25
G1 X39.9299 Y61.6311 Z-2.2501
G1 X39.9431 Y61.6374
G1 X39.9568 Y61.6423 Z-2.2502
G1 X39.971 Y61.6458 Z-2.2503
G1 X39.9854 Y61.648 Z-2.2504
G1 X40.0 Y61.6487
G1 X40.0146 Y61.648 Z-2.2505
G1 X40.029 Y61.6458 Z-2.2506
G1 X40.0432 Y61.6423
G1 X40.0569 Y61.6374 Z-2.2507
G1 X40.0701 Y61.6311 Z-2.2508
G1 X40.0826 Y61.6236 Z-2.2509
G1 X40.0943 Y61.6149
G1 X40.1051 Y61.6051 Z-2.251
G1 X40.1149 Y61.5943 Z-2.2511
G1 X40.1236 Y61.5826
G1 X40.1311 Y61.5701 Z-2.2512
G1 X40.1374 Y61.5569 Z-2.2513
G1 X40.1423 Y61.5432 Z-2.2514
G1 X40.1458 Y61.529
G1 X40.148 Y61.5146 Z-2.2515
G1 X40.15 Y61.473 Z-2.2517
G1 Y31.527 Z-2.3991
G1 X40.148 Y31.4854 Z-2.3994
G1 X40.1458 Y31.471
G1 X40.1423 Y31.4568 Z-2.3995
G1 X40.1374 Y31.4431 Z-2.3996
G1 X40.1311 Y31.4299
G1 X40.1236 Y31.4174 Z-2.3997
G1 X40.1149 Y31.4057 Z-2.3998
G1 X40.1051 Y31.3949 Z-2.3999
G1 X40.0943 Y31.3851
G1 X40.0826 Y31.3764 Z-2.4
G1 X40.0701 Y31.3689 Z-2.4001
G1 X40.0569 Y31.3626
G1 X40.0432 Y31.3577 Z-2.4002
G1 X40.029 Y31.3542 Z-2.4003
G1 X40.0146 Y31.352 Z-2.4004
G1 X40.0 Y31.3513
G1 X39.9854 Y31.352 Z-2.4005
G1 X39.971 Y31.3542 Z-2.4006
G1 X39.9568 Y31.3577
G1 X39.9431 Y31.3626 Z-2.4007
G1 X39.9299 Y31.3689 Z-2.4008
G1 X39.9174 Y31.3764 Z-2.4009
G1 X39.9057 Y31.3851
G1 X39.8949 Y31.3949 Z-2.401
G1 X39.8851 Y31.4057 Z-2.4011
G1 X39.8764 Y31.4174
G1 X39.8689 Y31.4299 Z-2.4012
G1 X39.8626 Y31.4431 Z-2.4013
G1 X39.8577 Y31.4568 Z-2.4014
G1 X39.8542 Y31.471
G1 X39.852 Y31.4854 Z-2.4015
G1 X39.85 Y31.527 Z-2.4017
G1 Y61.473 Z-2.5491
G1 X39.852 Y61.5146 Z-2.5494
G1 X39.8542 Y61.529
G1 X39.8577 Y61.5432 Z-2.5495
G1 X39.8626 Y61.5569 Z-2.5496
G1 X39.8689 Y61.5701
G1 X39.8764 Y61.5826 Z-2.5497
G1 X39.8851 Y61.5943 Z-2.5498
G1 X39.8949 Y61.6051 Z-2.5499
G1 X39.9057 Y61.6149
G1 X39.9174 Y61.6236 Z-2.55
G1 X39.9299 Y61.6311 Z-2.5501
G1 X39.9431 Y61.6374
G1 X39.9568 Y61.6423 Z-2.5502
G1 X39.971 Y61.6458 Z-2.5503
G1 X39.9854 Y61.648 Z-2.5504
G1 X40.0 Y61.6487
G1 X40.0146 Y61.648 Z-2.5505
G1 X40.029 Y61.6458 Z-2.5506
G1 X40.0432 Y61.6423
G1 X40.0569 Y61.6374 Z-2.5507
G1 X40.0701 Y61.6311 Z-2.5508
G1 X40.0826 Y61.6236 Z-2.5509
G1 X40.0943 Y61.6149
G1 X40.1051 Y61.6051 Z-2.551
G1 X40.1149 Y61.5943 Z-2.5511
G1 X40.1236 Y61.5826
G1 X40.1311 Y61.5701 Z-2.5512
G1 X40.1374 Y61.5569 Z-2.5513
G1 X40.1423 Y61.5432 Z-2.5514
G1 X40.1458 Y61.529
G1 X40.148 Y61.5146 Z-2.5515
G1 X40.15 Y61.473 Z-2.5517
G1 Y31.527 Z-2.6991
G1 X40.148 Y31.4854 Z-2.6994
G1 X40.1458 Y31.471
G1 X40.1423 Y31.4568 Z-2.6995
G1 X40.1374 Y31.4431 Z-2.6996
G1 X40.1311 Y31.4299
G1 X40.1236 Y31.4174 Z-2.6997
G1 X40.1149 Y31.4057 Z-2.6998
G1 X40.1051 Y31.3949 Z-2.6999
G1 X40.0943 Y31.3851
G1 X40.0826 Y31.3764 Z-2.7
G1 X40.0701 Y31.3689 Z-2.7001
G1 X40.0569 Y31.3626
G1 X40.0432 Y31.3577 Z-2.7002
G1 X40.029 Y31.3542 Z-2.7003
G1 X40.0146 Y31.352 Z-2.7004
G1 X40.0 Y31.3513
G1 X39.9854 Y31.352 Z-2.7005
G1 X39.971 Y31.3542 Z-2.7006
G1 X39.9568 Y31.3577
G1 X39.9431 Y31.3626 Z-2.7007
G1 X39.9299 Y31.3689 Z-2.7008
G1 X39.9174 Y31.3764 Z-2.7009
G1 X39.9057 Y31.3851
G1 X39.8949 Y31.3949 Z-2.701
G1 X39.8851 Y31.4057 Z-2.7011
G1 X39.8764 Y31.4174
G1 X39.8689 Y31.4299 Z-2.7012
G1 X39.8626 Y31.4431 Z-2.7013
G1 X39.8577 Y31.4568 Z-2.7014
G1 X39.8542 Y31.471
G1 X39.852 Y31.4854 Z-2.7015
G1 X39.85 Y31.527 Z-2.7017
G1 Y61.473 Z-2.8491
G1 X39.852 Y61.5146 Z-2.8494
G1 X39.8542 Y61.529
G1 X39.8577 Y61.5432 Z-2.8495
G1 X39.8626 Y61.5569 Z-2.8496
G1 X39.8689 Y61.5701
G1 X39.8764 Y61.5826 Z-2.8497
G1 X39.8851 Y61.5943 Z-2.8498
G1 X39.8949 Y61.6051 Z-2.8499
G1 X39.9057 Y61.6149
G1 X39.9174 Y61.6236 Z-2.85
G1 X39.9299 Y61.6311 Z-2.8501
G1 X39.9431 Y61.6374
G1 X39.9568 Y61.6423 Z-2.8502
G1 X39.971 Y61.6458 Z-2.8503
G1 X39.9854 Y61.648 Z-2.8504
G1 X40.0 Y61.6487
G1 X40.0146 Y61.648 Z-2.8505
G1 X40.029 Y61.6458 Z-2.8506
G1 X40.0432 Y61.6423
G1 X40.0569 Y61.6374 Z-2.8507
G1 X40.0701 Y61.6311 Z-2.8508
G1 X40.0826 Y61.6236 Z-2.8509
G1 X40.0943 Y61.6149
G1 X40.1051 Y61.6051 Z-2.851
G1 X40.1149 Y61.5943 Z-2.8511
G1 X40.1236 Y61.5826
G1 X40.1311 Y61.5701 Z-2.8512
G1 X40.1374 Y61.5569 Z-2.8513
G1 X40.1423 Y61.5432 Z-2.8514
G1 X40.1458 Y61.529
G1 X40.148 Y61.5146 Z-2.8515
G1 X40.15 Y61.473 Z-2.8517
G1 Y31.527 Z-2.9991
G1 X40.148 Y31.4854 Z-2.9994
G1 X40.1458 Y31.471
G1 X40.1423 Y31.4568 Z-2.9995
G1 X40.1374 Y31.4431 Z-2.9996
G1 X40.1311 Y31.4299
G1 X40.1236 Y31.4174 Z-2.9997
G1 X40.1149 Y31.4057 Z-2.9998
G1 X40.1051 Y31.3949 Z-2.9999
G1 X40.0943 Y31.3851
G1 X40.0826 Y31.3764 Z-3.0
G1 X40.0701 Y31.3689 Z-3.0001
G1 X40.0569 Y31.3626
G1 X40.0432 Y31.3577 Z-3.0002
G1 X40.029 Y31.3542 Z-3.0003
G1 X40.0146 Y31.352 Z-3.0004
G1 X40.0 Y31.3513
G1 X39.9854 Y31.352 Z-3.0005
G1 X39.971 Y31.3542 Z-3.0006
G1 X39.9568 Y31.3577
G1 X39.9431 Y31.3626 Z-3.0007
G1 X39.9299 Y31.3689 Z-3.0008
G1 X39.9174 Y31.3764 Z-3.0009
G1 X39.9057 Y31.3851
G1 X39.8949 Y31.3949 Z-3.001
G1 X39.8851 Y31.4057 Z-3.0011
G1 X39.8764 Y31.4174
G1 X39.8689 Y31.4299 Z-3.0012
G1 X39.8626 Y31.4431 Z-3.0013
G1 X39.8577 Y31.4568 Z-3.0014
G1 X39.8542 Y31.471
G1 X39.852 Y31.4854 Z-3.0015
G1 X39.85 Y31.527 Z-3.0017
G1 Y61.473 Z-3.1491
G1 X39.852 Y61.5146 Z-3.1494
G1 X39.8542 Y61.529
G1 X39.8577 Y61.5432 Z-3.1495
G1 X39.8626 Y61.5569 Z-3.1496
G1 X39.8689 Y61.5701
G1 X39.8764 Y61.5826 Z-3.1497
G1 X39.8851 Y61.5943 Z-3.1498
G1 X39.8949 Y61.6051 Z-3.1499
G1 X39.9057 Y61.6149
G1 X39.9174 Y61.6236 Z-3.15
G1 X39.9299 Y61.6311 Z-3.1501
G1 X39.9431 Y61.6374
G1 X39.9568 Y61.6423 Z-3.1502
G1 X39.971 Y61.6458 Z-3.1503
G1 X39.9854 Y61.648 Z-3.1504
G1 X40.0 Y61.6487
G1 X40.0146 Y61.648 Z-3.1505
G1 X40.029 Y61.6458 Z-3.1506
G1 X40.0432 Y61.6423
G1 X40.0569 Y61.6374 Z-3.1507
G1 X40.0701 Y61.6311 Z-3.1508
G1 X40.0826 Y61.6236 Z-3.1509
G1 X40.0943 Y61.6149
G1 X40.1051 Y61.6051 Z-3.151
G1 X40.1149 Y61.5943 Z-3.1511
G1 X40.1236 Y61.5826
G1 X40.1311 Y61.5701 Z-3.1512
G1 X40.1374 Y61.5569 Z-3.1513
G1 X40.1423 Y61.5432 Z-3.1514
G1 X40.1458 Y61.529
G1 X40.148 Y61.5146 Z-3.1515
G1 X40.15 Y61.473 Z-3.1517
G1 Y31.527 Z-3.2991
G1 X40.148 Y31.4854 Z-3.2994
G1 X40.1458 Y31.471
G1 X40.1423 Y31.4568 Z-3.2995
G1 X40.1374 Y31.4431 Z-3.2996
G1 X40.1311 Y31.4299
G1 X40.1236 Y31.4174 Z-3.2997
G1 X40.1149 Y31.4057 Z-3.2998
G1 X40.1051 Y31.3949 Z-3.2999
G1 X40.0943 Y31.3851
G1 X40.0826 Y31.3764 Z-3.3
G1 X40.0701 Y31.3689 Z-3.3001
G1 X40.0569 Y31.3626
G1 X40.0432 Y31.3577 Z-3.3002
G1 X40.029 Y31.3542 Z-3.3003
G1 X40.0146 Y31.352 Z-3.3004
G1 X40.0 Y31.3513
G1 X39.9854 Y31.352 Z-3.3005
G1 X39.971 Y31.3542 Z-3.3006
G1 X39.9568 Y31.3577
G1 X39.9431 Y31.3626 Z-3.3007
G1 X39.9299 Y31.3689 Z-3.3008
G1 X39.9174 Y31.3764 Z-3.3009
G1 X39.9057 Y31.3851
G1 X39.8949 Y31.3949 Z-3.301
G1 X39.8851 Y31.4057 Z-3.3011
G1 X39.8764 Y31.4174
G1 X39.8689 Y31.4299 Z-3.3012
G1 X39.8626 Y31.4431 Z-3.3013
G1 X39.8577 Y31.4568 Z-3.3014
G1 X39.8542 Y31.471
G1 X39.852 Y31.4854 Z-3.3015
G1 X39.85 Y31.527 Z-3.3017
G1 Y61.473 Z-3.4491
G1 X39.852 Y61.5146 Z-3.4494
G1 X39.8542 Y61.529
G1 X39.8577 Y61.5432 Z-3.4495
G1 X39.8626 Y61.5569 Z-3.4496
G1 X39.8689 Y61.5701
G1 X39.8764 Y61.5826 Z-3.4497
G1 X39.8851 Y61.5943 Z-3.4498
G1 X39.8949 Y61.6051 Z-3.4499
G1 X39.9057 Y61.6149
G1 X39.9174 Y61.6236 Z-3.45
G1 X39.9299 Y61.6311 Z-3.4501
G1 X39.9431 Y61.6374
G1 X39.9568 Y61.6423 Z-3.4502
G1 X39.971 Y61.6458 Z-3.4503
G1 X39.9854 Y61.648 Z-3.4504
G1 X40.0 Y61.6487
G1 X40.0146 Y61.648 Z-3.4505
G1 X40.029 Y61.6458 Z-3.4506
G1 X40.0432 Y61.6423
G1 X40.0569 Y61.6374 Z-3.4507
G1 X40.0701 Y61.6311 Z-3.4508
G1 X40.0826 Y61.6236 Z-3.4509
G1 X40.0943 Y61.6149
G1 X40.1051 Y61.6051 Z-3.451
G1 X40.1149 Y61.5943 Z-3.4511
G1 X40.1236 Y61.5826
G1 X40.1311 Y61.5701 Z-3.4512
G1 X40.1374 Y61.5569 Z-3.4513
G1 X40.1423 Y61.5432 Z-3.4514
G1 X40.1458 Y61.529
G1 X40.148 Y61.5146 Z-3.4515
G1 X40.15 Y61.473 Z-3.4517
G1 Y31.527 Z-3.5991
G1 X40.148 Y31.4854 Z-3.5994
G1 X40.1458 Y31.471
G1 X40.1423 Y31.4568 Z-3.5995
G1 X40.1374 Y31.4431 Z-3.5996
G1 X40.1311 Y31.4299
G1 X40.1236 Y31.4174 Z-3.5997
G1 X40.1149 Y31.4057 Z-3.5998
G1 X40.1051 Y31.3949 Z-3.5999
G1 X40.0943 Y31.3851
G1 X40.0826 Y31.3764 Z-3.6
G1 X40.0701 Y31.3689 Z-3.6001
G1 X40.0569 Y31.3626
G1 X40.0432 Y31.3577 Z-3.6002
G1 X40.029 Y31.3542 Z-3.6003
G1 X40.0146 Y31.352 Z-3.6004
G1 X40.0 Y31.3513
G1 X39.9854 Y31.352 Z-3.6005
G1 X39.971 Y31.3542 Z-3.6006
G1 X39.9568 Y31.3577
G1 X39.9431 Y31.3626 Z-3.6007
G1 X39.9299 Y31.3689 Z-3.6008
G1 X39.9174 Y31.3764 Z-3.6009
G1 X39.9057 Y31.3851
G1 X39.8949 Y31.3949 Z-3.601
G1 X39.8851 Y31.4057 Z-3.6011
G1 X39.8764 Y31.4174
G1 X39.8689 Y31.4299 Z-3.6012
G1 X39.8626 Y31.4431 Z-3.6013
G1 X39.8577 Y31.4568 Z-3.6014
G1 X39.8542 Y31.471
G1 X39.852 Y31.4854 Z-3.6015
G1 X39.85 Y31.527 Z-3.6017
G1 Y61.473 Z-3.7491
G1 X39.852 Y61.5146 Z-3.7494
G1 X39.8542 Y61.529
G1 X39.8577 Y61.5432 Z-3.7495
G1 X39.8626 Y61.5569 Z-3.7496
G1 X39.8689 Y61.5701
G1 X39.8764 Y61.5826 Z-3.7497
G1 X39.8851 Y61.5943 Z-3.7498
G1 X39.8949 Y61.6051 Z-3.7499
G1 X39.9057 Y61.6149
G1 X39.9174 Y61.6236 Z-3.75
G1 X39.9299 Y61.6311 Z-3.7501
G1 X39.9431 Y61.6374
G1 X39.9568 Y61.6423 Z-3.7502
G1 X39.971 Y61.6458 Z-3.7503
G1 X39.9854 Y61.648 Z-3.7504
G1 X40.0 Y61.6487
G1 X40.0146 Y61.648 Z-3.7505
G1 X40.029 Y61.6458 Z-3.7506
G1 X40.0432 Y61.6423
G1 X40.0569 Y61.6374 Z-3.7507
G1 X40.0701 Y61.6311 Z-3.7508
G1 X40.0826 Y61.6236 Z-3.7509
G1 X40.0943 Y61.6149
G1 X40.1051 Y61.6051 Z-3.751
G1 X40.1149 Y61.5943 Z-3.7511
G1 X40.1236 Y61.5826
G1 X40.1311 Y61.5701 Z-3.7512
G1 X40.1374 Y61.5569 Z-3.7513
G1 X40.1423 Y61.5432 Z-3.7514
G1 X40.1458 Y61.529
G1 X40.148 Y61.5146 Z-3.7515
G1 X40.15 Y61.473 Z-3.7517
G1 Y31.527 Z-3.8991
G1 X40.148 Y31.4854 Z-3.8994
G1 X40.1458 Y31.471
G1 X40.1423 Y31.4568 Z-3.8995
G1 X40.1374 Y31.4431 Z-3.8996
G1 X40.1311 Y31.4299
G1 X40.1236 Y31.4174 Z-3.8997
G1 X40.1149 Y31.4057 Z-3.8998
G1 X40.1051 Y31.3949 Z-3.8999
G1 X40.0943 Y31.3851
G1 X40.0826 Y31.3764 Z-3.9
G1 X40.0701 Y31.3689
G1 X40.0569 Y31.3626 Z-3.9001
G1 X40.0432 Y31.3577
G1 X40.029 Y31.3542 Z-3.9002
G1 X40.0146 Y31.352
G1 X40.0 Y31.3513 Z-3.9003
G1 X39.9854 Y31.352
G1 X39.971 Y31.3542 Z-3.9004
G1 X39.9568 Y31.3577
G1 X39.9431 Y31.3626 Z-3.9005
G1 X39.9299 Y31.3689
G1 X39.9174 Y31.3764 Z-3.9006
G1 X39.9057 Y31.3851
G1 X39.8949 Y31.3949 Z-3.9007
G1 X39.8851 Y31.4057
G1 X39.8764 Y31.4174 Z-3.9008
G1 X39.8689 Y31.4299
G1 X39.8626 Y31.4431 Z-3.9009
G1 X39.8577 Y31.4568
G1 X39.8542 Y31.471 Z-3.901
G1 X39.852 Y31.4854
G1 X39.85 Y31.527 Z-3.9011
G1 Y61.473 Z-3.9994
G1 X39.852 Y61.5146 Z-3.9996
G1 X39.8542 Y61.529
G1 X39.8577 Y61.5432 Z-3.9997
G1 X39.8626 Y61.5569
G1 X39.8689 Y61.5701 Z-3.9998
G1 X39.8764 Y61.5826
G1 X39.8851 Y61.5943 Z-3.9999
G1 X39.8949 Y61.6051
G1 X39.9057 Y61.6149 Z-4.0
G1 X39.9174 Y61.6236
G1 X39.9299 Y61.6311
G1 X39.9431 Y61.6374 Z-4.0001
G1 X39.9568 Y61.6423
G1 X39.971 Y61.6458 Z-4.0002
G1 X39.9854 Y61.648
G1 X40.0 Y61.6487 Z-4.0003
G1 X40.0146 Y61.648
G1 X40.029 Y61.6458 Z-4.0004
G1 X40.0432 Y61.6423
G1 X40.0569 Y61.6374 Z-4.0005
G1 X40.0701 Y61.6311
G1 X40.0826 Y61.6236 Z-4.0006
G1 X40.0943 Y61.6149
G1 X40.1051 Y61.6051 Z-4.0007
G1 X40.1149 Y61.5943
G1 X40.1236 Y61.5826 Z-4.0008
G1 X40.1311 Y61.5701
G1 X40.1374 Y61.5569 Z-4.0009
G1 X40.1423 Y61.5432
G1 X40.1458 Y61.529 Z-4.001
G1 X40.148 Y61.5146
G1 X40.15 Y61.473 Z-4.0011
G1 Y31.527 Z-4.0994
G1 X40.148 Y31.4854 Z-4.0996
G1 X40.1458 Y31.471
G1 X40.1423 Y31.4568 Z-4.0997
G1 X40.1374 Y31.4431
G1 X40.1311 Y31.4299 Z-4.0998
G1 X40.1236 Y31.4174
G1 X40.1149 Y31.4057 Z-4.0999
G1 X40.1051 Y31.3949
G1 X40.0943 Y31.3851 Z-4.1
G1 X40.0826 Y31.3764
G1 X40.0701 Y31.3689
G1 X40.0569 Y31.3626
G1 X40.0432 Y31.3577 Z-4.1001
G1 X40.029 Y31.3542
G1 X40.0146 Y31.352
G1 X40.0 Y31.3513
G1 X39.9854 Y31.352 Z-4.1002
G1 X39.971 Y31.3542
G1 X39.9568 Y31.3577
G1 X39.9431 Y31.3626
G1 X39.9299 Y31.3689 Z-4.1003
G1 X39.9174 Y31.3764
G1 X39.9057 Y31.3851
G1 X39.8949 Y31.3949
G1 X39.8851 Y31.4057 Z-4.1004
G1 X39.8764 Y31.4174
G1 X39.8689 Y31.4299
G1 X39.8626 Y31.4431
G1 X39.8577 Y31.4568 Z-4.1005
G1 X39.8542 Y31.471
G1 X39.852 Y31.4854
G1 X39.85 Y31.527 Z-4.1006
G1 Y61.473 Z-4.1497
G1 X39.852 Y61.5146 Z-4.1498
G1 X39.8542 Y61.529
G1 X39.8577 Y61.5432
G1 X39.8626 Y61.5569 Z-4.1499
G1 X39.8689 Y61.5701
G1 X39.8764 Y61.5826
G1 X39.8851 Y61.5943
G1 X39.8949 Y61.6051 Z-4.15
G1 X39.9057 Y61.6149
G1 X39.9174 Y61.6236
G1 X39.9299 Y61.6311
G1 X39.9431 Y61.6374
G1 X39.9568 Y61.6423 Z-4.1501
G1 X39.971 Y61.6458
G1 X39.9854 Y61.648
G1 X40.0 Y61.6487
G1 X40.0146 Y61.648 Z-4.1502
G1 X40.029 Y61.6458
G1 X40.0432 Y61.6423
G1 X40.0569 Y61.6374
G1 X40.0701 Y61.6311 Z-4.1503
G1 X40.0826 Y61.6236
G1 X40.0943 Y61.6149
G1 X40.1051 Y61.6051
G1 X40.1149 Y61.5943 Z-4.1504
G1 X40.1236 Y61.5826
G1 X40.1311 Y61.5701
G1 X40.1374 Y61.5569
G1 X40.1423 Y61.5432 Z-4.1505
G1 X40.1458 Y61.529
G1 X40.148 Y61.5146
G1 X40.15 Y61.473 Z-4.1506
G1 Y31.527 Z-4.1997
G1 X40.148 Y31.4854 Z-4.1998
G1 X40.1458 Y31.471
G1 X40.1423 Y31.4568
G1 X40.1374 Y31.4431 Z-4.1999
G1 X40.1311 Y31.4299
G1 X40.1236 Y31.4174
G1 X40.1149 Y31.4057
G1 X40.1051 Y31.3949 Z-4.2
G1 X40.0943 Y31.3851
G1 X40.0826 Y31.3764
G1 X40.0701 Y31.3689
G1 X40.0569 Y31.3626
G1 X40.0432 Y31.3577
G1 X40.029 Y31.3542
G1 X40.0146 Y31.352
G1 X40.0 Y31.3513
G1 X39.9854 Y31.352
G1 X39.971 Y31.3542
G1 X39.9568 Y31.3577
G1 X39.9431 Y31.3626
G1 X39.9299 Y31.3689
G1 X39.9174 Y31.3764
G1 X39.9057 Y31.3851
G1 X39.8949 Y31.3949
G1 X39.8851 Y31.4057
G1 X39.8764 Y31.4174
G1 X39.8689 Y31.4299
G1 X39.8626 Y31.4431
G1 X39.8577 Y31.4568
G1 X39.8542 Y31.471
G1 X39.852 Y31.4854
G1 X39.85 Y31.527
G1 Y61.473
G1 X39.852 Y61.5146
G1 X39.8542 Y61.529
G1 X39.8577 Y61.5432
G1 X39.8626 Y61.5569
G1 X39.8689 Y61.5701
G1 X39.8764 Y61.5826
G1 X39.8851 Y61.5943
G1 X39.8949 Y61.6051
G1 X39.9057 Y61.6149
G1 X39.9174 Y61.6236
G1 X39.9299 Y61.6311
G1 X39.9431 Y61.6374
G1 X39.9568 Y61.6423
G1 X39.971 Y61.6458
G1 X39.9854 Y61.648
G1 X40.0 Y61.6487
G1 X40.0146 Y61.648
G1 X40.029 Y61.6458
G1 X40.0432 Y61.6423
G1 X40.0569 Y61.6374
G1 X40.0701 Y61.6311
G1 X40.0826 Y61.6236
G1 X40.0943 Y61.6149
G1 X40.1051 Y61.6051
G1 X40.1149 Y61.5943
G1 X40.1236 Y61.5826
G1 X40.1311 Y61.5701
G1 X40.1374 Y61.5569
G1 X40.1423 Y61.5432
G1 X40.1458 Y61.529
G1 X40.148 Y61.5146
G1 X40.15 Y61.473
G1 Y31.527
G1 X40.148 Y31.4854
G1 X40.1458 Y31.471
G1 X40.1423 Y31.4568
G1 X40.1374 Y31.4431
G1 X40.1311 Y31.4299
G1 X40.1236 Y31.4174
G1 X40.1149 Y31.4057
G1 X40.1051 Y31.3949
G1 X40.0943 Y31.3851
G1 X40.0826 Y31.3764
G0 Z3.0
G0 X55.85 Y31.527
G0 Z1.0
G1 F200.0 Z0.0
G1 F700.0 Y61.473 Z-0.1474
G1 X55.852 Y61.5146 Z-0.1476
G1 X55.8542 Y61.529 Z-0.1477
G1 X55.8577 Y61.5432 Z-0.1478
G1 X55.8626 Y61.5569 Z-0.1479
G1 X55.8689 Y61.5701
G1 X55.8764 Y61.5826 Z-0.148
G1 X55.8851 Y61.5943 Z-0.1481
G1 X55.8949 Y61.6051
G1 X55.9057 Y61.6149 Z-0.1482
G1 X55.9174 Y61.6236 Z-0.1483
G1 X55.9299 Y61.6311 Z-0.1484
G1 X55.9431 Y61.6374
G1 X55.9568 Y61.6423 Z-0.1485
G1 X55.971 Y61.6458 Z-0.1486
G1 X55.9854 Y61.648
G1 X56.0 Y61.6487 Z-0.1487
G1 X56.0146 Y61.648 Z-0.1488
G1 X56.029 Y61.6458 Z-0.1489
G1 X56.0432 Y61.6423
G1 X56.0569 Y61.6374 Z-0.149
G1 X56.0701 Y61.6311 Z-0.1491
G1 X56.0826 Y61.6236
G1 X56.0943 Y61.6149 Z-0.1492
G1 X56.1051 Y61.6051 Z-0.1493
G1 X56.1149 Y61.5943 Z-0.1494
G1 X56.1236 Y61.5826
G1 X56.1311 Y61.5701 Z-0.1495
G1 X56.1374 Y61.5569 Z-0.1496
G1 X56.1423 Y61.5432 Z-0.1497
G1 X56.1458 Y61.529
G1 X56.148 Y61.5146 Z-0.1498
G1 X56.15 Y61.473 Z-0.15
G1 Y31.527 Z-0.2974
G1 X56.148 Y31.4854 Z-0.2976
G1 X56.1458 Y31.471 Z-0.2977
G1 X56.1423 Y31.4568 Z-0.2978
G1 X56.1374 Y31.4431 Z-0.2979
G1 X56.1311 Y31.4299
G1 X56.1236 Y31.4174 Z-0.298
G1 X56.1149 Y31.4057 Z-0.2981
G1 X56.1051 Y31.3949
G1 X56.0943 Y31.3851 Z-0.2982
G1 X56.0826 Y31.3764 Z-0.2983
G1 X56.0701 Y31.3689 Z-0.2984
G1 X56.0569 Y31.3626
G1 X56.0432 Y31.3577 Z-0.2985
G1 X56.029 Y31.3542 Z-0.2986
G1 X56.0146 Y31.352
G1 X56.0 Y31.3513 Z-0.2987
G1 X55.9854 Y31.352 Z-0.2988
G1 X55.971 Y31.3542 Z-0.2989
G1 X55.9568 Y31.3577
G1 X55.9431 Y31.3626 Z-0.299
G1 X55.9299 Y31.3689 Z-0.2991
G1 X55.9174 Y31.3764
G1 X55.9057 Y31.3851 Z-0.2992
G1 X55.8949 Y31.3949 Z-0.2993
G1 X55.8851 Y31.4057 Z-0.2994
G1 X55.8764 Y31.4174
G1 X55.8689 Y31.4299 Z-0.2995
G1 X55.8626 Y31.4431 Z-0.2996
G1 X55.8577 Y31.4568 Z-0.2997
G1 X55.8542 Y31.471
G1 X55.852 Y31.4854 Z-0.2998
G1 X55.85 Y31.527 Z-0.3
G1 Y61.473 Z-0.4474
G1 X55.852 Y61.5146 Z-0.4476
G1 X55.8542 Y61.529 Z-0.4477
G1 X55.8577 Y61.5432 Z-0.4478
G1 X55.8626 Y61.5569 Z-0.4479
G1 X55.8689 Y61.5701
G1 X55.8764 Y61.5826 Z-0.448
G1 X55.8851 Y61.5943 Z-0.4481
G1 X55.8949 Y61.6051
G1 X55.9057 Y61.6149 Z-0.4482
G1 X55.9174 Y61.6236 Z-0.4483
G1 X55.9299 Y61.6311 Z-0.4484
G1 X55.9431 Y61.6374
G1 X55.9568 Y61.6423 Z-0.4485
G1 X55.971 Y61.6458 Z-0.4486
G1 X55.9854 Y61.648
G1 X56.0 Y61.6487 Z-0.4487
G1 X56.0146 Y61.648 Z-0.4488
G1 X56.029 Y61.6458 Z-0.4489
G1 X56.0432 Y61.6423
G1 X56.0569 Y61.6374 Z-0.449
G1 X56.0701 Y61.6311 Z-0.4491
G1 X56.0826 Y61.6236
G1 X56.0943 Y61.6149 Z-0.4492
G1 X56.1051 Y61.6051 Z-0.4493
G1 X56.1149 Y61.5943 Z-0.4494
G1 X56.1236 Y61.5826
G1 X56.1311 Y61.5701 Z-0.4495
G1 X56.1374 Y61.5569 Z-0.4496
G1 X56.1423 Y61.5432 Z-0.4497
G1 X56.1458 Y61.529
G1 X56.148 Y61.5146 Z-0.4498
G1 X56.15 Y61.473 Z-0.45
G1 Y31.527 Z-0.5974
G1 X56.148 Y31.4854 Z-0.5976
G1 X56.1458 Y31.471 Z-0.5977
G1 X56.1423 Y31.4568 Z-0.5978
G1 X56.1374 Y31.4431 Z-0.5979
G1 X56.1311 Y31.4299
G1 X56.1236 Y31.4174 Z-0.598
G1 X56.1149 Y31.4057 Z-0.5981
G1 X56.1051 Y31.3949
G1 X56.0943 Y31.3851 Z-0.5982
G1 X56.0826 Y31.3764 Z-0.5983
G1 X56.0701 Y31.3689 Z-0.5984
G1 X56.0569 Y31.3626
G1 X56.0432 Y31.3577 Z-0.5985
G1 X56.029 Y31.3542 Z-0.5986
G1 X56.0146 Y31.352
G1 X56.0 Y31.3513 Z-0.5987
G1 X55.9854 Y31.352 Z-0.5988
G1 X55.971 Y31.3542 Z-0.5989
G1 X55.9568 Y31.3577
G1 X55.9431 Y31.3626 Z-0.599
G1 X55.9299 Y31.3689 Z-0.5991
G1 X55.9174 Y31.3764
G1 X55.9057 Y31.3851 Z-0.5992
G1 X55.8949 Y31.3949 Z-0.5993
G1 X55.8851 Y31.4057 Z-0.5994
G1 X55.8764 Y31.4174
G1 X55.8689 Y31.4299 Z-0.5995
G1 X55.8626 Y31.4431 Z-0.5996
G1 X55.8577 Y31.4568 Z-0.5997
G1 X55.8542 Y31.471
G1 X55.852 Y31.4854 Z-0.5998
G1 X55.85 Y31.527 Z-0.6
G1 Y61.473 Z-0.7474
G1 X55.852 Y61.5146 Z-0.7476
G1 X55.8542 Y61.529 Z-0.7477
G1 X55.8577 Y61.5432 Z-0.7478
G1 X55.8626 Y61.5569 Z-0.7479
G1 X55.8689 Y61.5701
G1 X55.8764 Y61.5826 Z-0.748
G1 X55.8851 Y61.5943 Z-0.7481
G1 X55.8949 Y61.6051
G1 X55.9057 Y61.6149 Z-0.7482
G1 X55.9174 Y61.6236 Z-0.7483
G1 X55.9299 Y61.6311 Z-0.7484
G1 X55.9431 Y61.6374
G1 X55.9568 Y61.6423 Z-0.7485
G1 X55.971 Y61.6458 Z-0.7486
G1 X55.9854 Y61.648
G1 X56.0 Y61.6487 Z-0.7487
G1 X56.0146 Y61.648 Z-0.7488
G1 X56.029 Y61.6458 Z-0.7489
G1 X56.0432 Y61.6423
G1 X56.0569 Y61.6374 Z-0.749
G1 X56.0701 Y61.6311 Z-0.7491
G1 X56.0826 Y61.6236
G1 X56.0943 Y61.6149 Z-0.7492
G1 X56.1051 Y61.6051 Z-0.7493
G1 X56.1149 Y61.5943 Z-0.7494
G1 X56.1236 Y61.5826
G1 X56.1311 Y61.5701 Z-0.7495
G1 X56.1374 Y61.5569 Z-0.7496
G1 X56.1423 Y61.5432 Z-0.7497
G1 X56.1458 Y61.529
G1 X56.148 Y61.5146 Z-0.7498
G1 X56.15 Y61.473 Z-0.75
G1 Y31.527 Z-0.8974
G1 X56.148 Y31.4854 Z-0.8976
G1 X56.1458 Y31.471 Z-0.8977
G1 X56.1423 Y31.4568 Z-0.8978
G1 X56.1374 Y31.4431 Z-0.8979
G1 X56.1311 Y31.4299
G1 X56.1236 Y31.4174 Z-0.898
G1 X56.1149 Y31.4057 Z-0.8981
G1 X56.1051 Y31.3949
G1 X56.0943 Y31.3851 Z-0.8982
G1 X56.0826 Y31.3764 Z-0.8983
G1 X56.0701 Y31.3689 Z-0.8984
G1 X56.0569 Y31.3626
G1 X56.0432 Y31.3577 Z-0.8985
G1 X56.029 Y31.3542 Z-0.8986
G1 X56.0146 Y31.352
G1 X56.0 Y31.3513 Z-0.8987
G1 X55.9854 Y31.352 Z-0.8988
G1 X55.971 Y31.3542 Z-0.8989
G1 X55.9568 Y31.3577
G1 X55.9431 Y31.3626 Z-0.899
G1 X55.9299 Y31.3689 Z-0.8991
G1 X55.9174 Y31.3764
G1 X55.9057 Y31.3851 Z-0.8992
G1 X55.8949 Y31.3949 Z-0.8993
G1 X55.8851 Y31.4057 Z-0.8994
G1 X55.8764 Y31.4174
G1 X55.8689 Y31.4299 Z-0.8995
G1 X55.8626 Y31.4431 Z-0.8996
G1 X55.8577 Y31.4568 Z-0.8997
G1 X55.8542 Y31.471
G1 X55.852 Y31.4854 Z-0.8998
G1 X55.85 Y31.527 Z-0.9
G1 Y61.473 Z-1.0474
G1 X55.852 Y61.5146 Z-1.0476
G1 X55.8542 Y61.529 Z-1.0477
G1 X55.8577 Y61.5432 Z-1.0478
G1 X55.8626 Y61.5569 Z-1.0479
G1 X55.8689 Y61.5701
G1 X55.8764 Y61.5826 Z-1.048
G1 X55.8851 Y61.5943 Z-1.0481
G1 X55.8949 Y61.6051
G1 X55.9057 Y61.6149 Z-1.0482
G1 X55.9174 Y61.6236 Z-1.0483
G1 X55.9299 Y61.6311 Z-1.0484
G1 X55.9431 Y61.6374
G1 X55.9568 Y61.6423 Z-1.0485
G1 X55.971 Y61.6458 Z-1.0486
G1 X55.9854 Y61.648
G1 X56.0 Y61.6487 Z-1.0487
G1 X56.0146 Y61.648 Z-1.0488
G1 X56.029 Y61.6458 Z-1.0489
G1 X56.0432 Y61.6423
G1 X56.0569 Y61.6374 Z-1.049
G1 X56.0701 Y61.6311 Z-1.0491
G1 X56.0826 Y61.6236
G1 X56.0943 Y61.6149 Z-1.0492
G1 X56.1051 Y61.6051 Z-1.0493
G1 X56.1149 Y61.5943 Z-1.0494
G1 X56.1236 Y61.5826
G1 X56.1311 Y61.5701 Z-1.0495
G1 X56.1374 Y61.5569 Z-1.0496
G1 X56.1423 Y61.5432 Z-1.0497
G1 X56.1458 Y61.529
G1 X56.148 Y61.5146 Z-1.0498
G1 X56.15 Y61.473 Z-1.05
G1 Y31.527 Z-1.1974
G1 X56.148 Y31.4854 Z-1.1976
G1 X56.1458 Y31.471 Z-1.1977
G1 X56.1423 Y31.4568 Z-1.1978
G1 X56.1374 Y31.4431 Z-1.1979
G1 X56.1311 Y31.4299
G1 X56.1236 Y31.4174 Z-1.198
G1 X56.1149 Y31.4057 Z-1.1981
G1 X56.1051 Y31.3949
G1 X56.0943 Y31.3851 Z-1.1982
G1 X56.0826 Y31.3764 Z-1.1983
G1 X56.0701 Y31.3689 Z-1.1984
G1 X56.0569 Y31.3626
G1 X56.0432 Y31.3577 Z-1.1985
G1 X56.029 Y31.3542 Z-1.1986
G1 X56.0146 Y31.352
G1 X56.0 Y31.3513 Z-1.1987
G1 X55.9854 Y31.352 Z-1.1988
G1 X55.971 Y31.3542 Z-1.1989
G1 X55.9568 Y31.3577
G1 X55.9431 Y31.3626 Z-1.199
G1 X55.9299 Y31.3689 Z-1.1991
G1 X55.9174 Y31.3764
G1 X55.9057 Y31.3851 Z-1.1992
G1 X55.8949 Y31.3949 Z-1.1993
G1 X55.8851 Y31.4057 Z-1.1994
G1 X55.8764 Y31.4174
G1 X55.8689 Y31.4299 Z-1.1995
G1 X55.8626 Y31.4431 Z-1.1996
G1 X55.8577 Y31.4568 Z-1.1997
G1 X55.8542 Y31.471
G1 X55.852 Y31.4854 Z-1.1998
G1 X55.85 Y31.527 Z-1.2
G1 Y61.473 Z-1.3474
G1 X55.852 Y61.5146 Z-1.3476
G1 X55.8542 Y61.529 Z-1.3477
G1 X55.8577 Y61.5432 Z-1.3478
G1 X55.8626 Y61.5569 Z-1.3479
G1 X55.8689 Y61.5701
G1 X55.8764 Y61.5826 Z-1.348
G1 X55.8851 Y61.5943 Z-1.3481
G1 X55.8949 Y61.6051
G1 X55.9057 Y61.6149 Z-1.3482
G1 X55.9174 Y61.6236 Z-1.3483
G1 X55.9299 Y61.6311 Z-1.3484
G1 X55.9431 Y61.6374
G1 X55.9568 Y61.6423 Z-1.3485
G1 X55.971 Y61.6458 Z-1.3486
G1 X55.9854 Y61.648
G1 X56.0 Y61.6487 Z-1.3487
G1 X56.0146 Y61.648 Z-1.3488
G1 X56.029 Y61.6458 Z-1.3489
G1 X56.0432 Y61.6423
G1 X56.0569 Y61.6374 Z-1.349
G1 X56.0701 Y61.6311 Z-1.3491
G1 X56.0826 Y61.6236
G1 X56.0943 Y61.6149 Z-1.3492
G1 X56.1051 Y61.6051 Z-1.3493
G1 X56.1149 Y61.5943 Z-1.3494
G1 X56.1236 Y61.5826
G1 X56.1311 Y61.5701 Z-1.3495
G1 X56.1374 Y61.5569 Z-1.3496
G1 X56.1423 Y61.5432 Z-1.3497
G1 X56.1458 Y61.529
G1 X56.148 Y61.5146 Z-1.3498
G1 X56.15 Y61.473 Z-1.35
G1 Y31.527 Z-1.4974
G1 X56.148 Y31.4854 Z-1.4976
G1 X56.1458 Y31.471 Z-1.4977
G1 X56.1423 Y31.4568 Z-1.4978
G1 X56.1374 Y31.4431 Z-1.4979
G1 X56.1311 Y31.4299
G1 X56.1236 Y31.4174 Z-1.498
G1 X56.1149 Y31.4057 Z-1.4981
G1 X56.1051 Y31.3949
G1 X56.0943 Y31.3851 Z-1.4982
G1 X56.0826 Y31.3764 Z-1.4983
G1 X56.0701 Y31.3689 Z-1.4984
G1 X56.0569 Y31.3626
G1 X56.0432 Y31.3577 Z-1.4985
G1 X56.029 Y31.3542 Z-1.4986
G1 X56.0146 Y31.352
G1 X56.0 Y31.3513 Z-1.4987
G1 X55.9854 Y31.352 Z-1.4988
G1 X55.971 Y31.3542 Z-1.4989
G1 X55.9568 Y31.3577
G1 X55.9431 Y31.3626 Z-1.499
G1 X55.9299 Y31.3689 Z-1.4991
G1 X55.9174 Y31.3764
G1 X55.9057 Y31.3851 Z-1.4992
G1 X55.8949 Y31.3949 Z-1.4993
G1 X55.8851 Y31.4057 Z-1.4994
G1 X55.8764 Y31.4174
G1 X55.8689 Y31.4299 Z-1.4995
G1 X55.8626 Y31.4431 Z-1.4996
G1 X55.8577 Y31.4568 Z-1.4997
G1 X55.8542 Y31.471
G1 X55.852 Y31.4854 Z-1.4998
G1 X55.85 Y31.527 Z-1.5
G1 Y61.473 Z-1.6474
G1 X55.852 Y61.5146 Z-1.6476
G1 X55.8542 Y61.529 Z-1.6477
G1 X55.8577 Y61.5432 Z-1.6478
G1 X55.8626 Y61.5569 Z-1.6479
G1 X55.8689 Y61.5701
G1 X55.8764 Y61.5826 Z-1.648
G1 X55.8851 Y61.5943 Z-1.6481
G1 X55.8949 Y61.6051
G1 X55.9057 Y61.6149 Z-1.6482
G1 X55.9174 Y61.6236 Z-1.6483
G1 X55.9299 Y61.6311 Z-1.6484
G1 X55.9431 Y61.6374
G1 X55.9568 Y61.6423 Z-1.6485
G1 X55.971 Y61.6458 Z-1.6486
G1 X55.9854 Y61.648
G1 X56.0 Y61.6487 Z-1.6487
G1 X56.0146 Y61.648 Z-1.6488
G1 X56.029 Y61.6458 Z-1.6489
G1 X56.0432 Y61.6423
G1 X56.0569 Y61.6374 Z-1.649
G1 X56.0701 Y61.6311 Z-1.6491
G1 X56.0826 Y61.6236
G1 X56.0943 Y61.6149 Z-1.6492
G1 X56.1051 Y61.6051 Z-1.6493
G1 X56.1149 Y61.5943 Z-1.6494
G1 X56.1236 Y61.5826
G1 X56.1311 Y61.5701 Z-1.6495
G1 X56.1374 Y61.5569 Z-1.6496
G1 X56.1423 Y61.5432 Z-1.6497
G1 X56.1458 Y61.529
G1 X56.148 Y61.5146 Z-1.6498
G1 X56.15 Y61.473 Z-1.65
G1 Y31.527 Z-1.7974
G1 X56.148 Y31.4854 Z-1.7976
G1 X56.1458 Y31.471 Z-1.7977
G1 X56.1423 Y31.4568 Z-1.7978
G1 X56.1374 Y31.4431 Z-1.7979
G1 X56.1311 Y31.4299
G1 X56.1236 Y31.4174 Z-1.798
G1 X56.1149 Y31.4057 Z-1.7981
G1 X56.1051 Y31.3949
G1 X56.0943 Y31.3851 Z-1.7982
G1 X56.0826 Y31.3764 Z-1.7983
G1 X56.0701 Y31.3689 Z-1.7984
G1 X56.0569 Y31.3626
G1 X56.0432 Y31.3577 Z-1.7985
G1 X56.029 Y31.3542 Z-1.7986
G1 X56.0146 Y31.352
G1 X56.0 Y31.3513 Z-1.7987
G1 X55.9854 Y31.352 Z-1.7988
G1 X55.971 Y31.3542 Z-1.7989
G1 X55.9568 Y31.3577
G1 X55.9431 Y31.3626 Z-1.799
G1 X55.9299 Y31.3689 Z-1.7991
G1 X55.9174 Y31.3764
G1 X55.9057 Y31.3851 Z-1.7992
G1 X55.8949 Y31.3949 Z-1.7993
G1 X55.8851 Y31.4057 Z-1.7994
G1 X55.8764 Y31.4174
G1 X55.8689 Y31.4299 Z-1.7995
G1 X55.8626 Y31.4431 Z-1.7996
G1 X55.8577 Y31.4568 Z-1.7997
G1 X55.8542 Y31.471
G1 X55.852 Y31.4854 Z-1.7998
G1 X55.85 Y31.527 Z-1.8
G1 Y61.473 Z-1.9474
G1 X55.852 Y61.5146 Z-1.9476
G1 X55.8542 Y61.529 Z-1.9477
G1 X55.8577 Y61.5432 Z-1.9478
G1 X55.8626 Y61.5569 Z-1.9479
G1 X55.8689 Y61.5701
G1 X55.8764 Y61.5826 Z-1.948
G1 X55.8851 Y61.5943 Z-1.9481
G1 X55.8949 Y61.6051
G1 X55.9057 Y61.6149 Z-1.9482
G1 X55.9174 Y61.6236 Z-1.9483
G1 X55.9299 Y61.6311 Z-1.9484
G1 X55.9431 Y61.6374
G1 X55.9568 Y61.6423 Z-1.9485
G1 X55.971 Y61.6458 Z-1.9486
G1 X55.9854 Y61.648
G1 X56.0 Y61.6487 Z-1.9487
G1 X56.0146 Y61.648 Z-1.9488
G1 X56.029 Y61.6458 Z-1.9489
G1 X56.0432 Y61.6423
G1 X56.0569 Y61.6374 Z-1.949
G1 X56.0701 Y61.6311 Z-1.9491
G1 X56.0826 Y61.6236
G1 X56.0943 Y61.6149 Z-1.9492
G1 X56.1051 Y61.6051 Z-1.9493
G1 X56.1149 Y61.5943 Z-1.9494
G1 X56.1236 Y61.5826
G1 X56.1311 Y61.5701 Z-1.9495
G1 X56.1374 Y61.5569 Z-1.9496
G1 X56.1423 Y61.5432 Z-1.9497
G1 X56.1458 Y61.529
G1 X56.148 Y61.5146 Z-1.9498
G1 X56.15 Y61.473 Z-1.95
G1 Y31.527 Z-2.0974
G1 X56.148 Y31.4854 Z-2.0976
G1 X56.1458 Y31.471 Z-2.0977
G1 X56.1423 Y31.4568 Z-2.0978
G1 X56.1374 Y31.4431 Z-2.0979
G1 X56.1311 Y31.4299
G1 X56.1236 Y31.4174 Z-2.098
G1 X56.1149 Y31.4057 Z-2.0981
G1 X56.1051 Y31.3949
G1 X56.0943 Y31.3851 Z-2.0982
G1 X56.0826 Y31.3764 Z-2.0983
G1 X56.0701 Y31.3689 Z-2.0984
G1 X56.0569 Y31.3626
G1 X56.0432 Y31.3577 Z-2.0985
G1 X56.029 Y31.3542 Z-2.0986
G1 X56.0146 Y31.352
G1 X56.0 Y31.3513 Z-2.0987
G1 X55.9854 Y31.352 Z-2.0988
G1 X55.971 Y31.3542 Z-2.0989
G1 X55.9568 Y31.3577
G1 X55.9431 Y31.3626 Z-2.099
G1 X55.9299 Y31.3689 Z-2.0991
G1 X55.9174 Y31.3764
G1 X55.9057 Y31.3851 Z-2.0992
G1 X55.8949 Y31.3949 Z-2.0993
G1 X55.8851 Y31.4057 Z-2.0994
G1 X55.8764 Y31.4174
G1 X55.8689 Y31.4299 Z-2.0995
G1 X55.8626 Y31.4431 Z-2.0996
G1 X55.8577 Y31.4568 Z-2.0997
G1 X55.8542 Y31.471
G1 X55.852 Y31.4854 Z-2.0998
G1 X55.85 Y31.527 Z-2.1
G1 Y61.473 Z-2.2474
G1 X55.852 Y61.5146 Z-2.2476
G1 X55.8542 Y61.529 Z-2.2477
G1 X55.8577 Y61.5432 Z-2.2478
G1 X55.8626 Y61.5569 Z-2.2479
G1 X55.8689 Y61.5701
G1 X55.8764 Y61.5826 Z-2.248
G1 X55.8851 Y61.5943 Z-2.2481
G1 X55.8949 Y61.6051
G1 X55.9057 Y61.6149 Z-2.2482
G1 X55.9174 Y61.6236 Z-2.2483
G1 X55.9299 Y61.6311 Z-2.2484
G1 X55.9431 Y61.6374
G1 X55.9568 Y61.6423 Z-2.2485
G1 X55.971 Y61.6458 Z-2.2486
G1 X55.9854 Y61.648
G1 X56.0 Y61.6487 Z-2.2487
G1 X56.0146 Y61.648 Z-2.2488
G1 X56.029 Y61.6458 Z-2.2489
G1 X56.0432 Y61.6423
G1 X56.0569 Y61.6374 Z-2.249
G1 X56.0701 Y61.6311 Z-2.2491
G1 X56.0826 Y61.6236
G1 X56.0943 Y61.6149 Z-2.2492
G1 X56.1051 Y61.6051 Z-2.2493
G1 X56.1149 Y61.5943 Z-2.2494
G1 X56.1236 Y61.5826
G1 X56.1311 Y61.5701 Z-2.2495
G1 X56.1374 Y61.5569 Z-2.2496
G1 X56.1423 Y61.5432 Z-2.2497
G1 X56.1458 Y61.529
G1 X56.148 Y61.5146 Z-2.2498
G1 X56.15 Y61.473 Z-2.25
G1 Y31.527 Z-2.3974
G1 X56.148 Y31.4854 Z-2.3976
G1 X56.1458 Y31.471 Z-2.3977
G1 X56.1423 Y31.4568 Z-2.3978
G1 X56.1374 Y31.4431 Z-2.3979
G1 X56.1311 Y31.4299
G1 X56.1236 Y31.4174 Z-2.398
G1 X56.1149 Y31.4057 Z-2.3981
G1 X56.1051 Y31.3949
G1 X56.0943 Y31.3851 Z-2.3982
G1 X56.0826 Y31.3764 Z-2.3983
G1 X56.0701 Y31.3689 Z-2.3984
G1 X56.0569 Y31.3626
G1 X56.0432 Y31.3577 Z-2.3985
G1 X56.029 Y31.3542 Z-2.3986
G1 X56.0146 Y31.352
G1 X56.0 Y31.3513 Z-2.3987
G1 X55.9854 Y31.352 Z-2.3988
G1 X55.971 Y31.3542 Z-2.3989
G1 X55.9568 Y31.3577
G1 X55.9431 Y31.3626 Z-2.399
G1 X55.9299 Y31.3689 Z-2.3991
G1 X55.9174 Y31.3764
G1 X55.9057 Y31.3851 Z-2.3992
G1 X55.8949 Y31.3949 Z-2.3993
G1 X55.8851 Y31.4057 Z-2.3994
G1 X55.8764 Y31.4174
G1 X55.8689 Y31.4299 Z-2.3995
G1 X55.8626 Y31.4431 Z-2.3996
G1 X55.8577 Y31.4568 Z-2.3997
G1 X55.8542 Y31.471
G1 X55.852 Y31.4854 Z-2.3998
G1 X55.85 Y31.527 Z-2.4
G1 Y61.473 Z-2.5474
G1 X55.852 Y61.5146 Z-2.5476
G1 X55.8542 Y61.529 Z-2.5477
G1 X55.8577 Y61.5432 Z-2.5478
G1 X55.8626 Y61.5569 Z-2.5479
G1 X55.8689 Y61.5701
G1 X55.8764 Y61.5826 Z-2.548
G1 X55.8851 Y61.5943 Z-2.5481
G1 X55.8949 Y61.6051
G1 X55.9057 Y61.6149 Z-2.5482
G1 X55.9174 Y61.6236 Z-2.5483
G1 X55.9299 Y61.6311 Z-2.5484
G1 X55.9431 Y61.6374
G1 X55.9568 Y61.6423 Z-2.5485
G1 X55.971 Y61.6458 Z-2.5486
G1 X55.9854 Y61.648
G1 X56.0 Y61.6487 Z-2.5487
G1 X56.0146 Y61.648 Z-2.5488
G1 X56.029 Y61.6458 Z-2.5489
G1 X56.0432 Y61.6423
G1 X56.0569 Y61.6374 Z-2.549
G1 X56.0701 Y61.6311 Z-2.5491
G1 X56.0826 Y61.6236
G1 X56.0943 Y61.6149 Z-2.5492
G1 X56.1051 Y61.6051 Z-2.5493
G1 X56.1149 Y61.5943 Z-2.5494
G1 X56.1236 Y61.5826
G1 X56.1311 Y61.5701 Z-2.5495
G1 X56.1374 Y61.5569 Z-2.5496
G1 X56.1423 Y61.5432 Z-2.5497
G1 X56.1458 Y61.529
G1 X56.148 Y61.5146 Z-2.5498
G1 X56.15 Y61.473 Z-2.55
G1 Y31.527 Z-2.6974
G1 X56.148 Y31.4854 Z-2.6976
G1 X56.1458 Y31.471 Z-2.6977
G1 X56.1423 Y31.4568 Z-2.6978
G1 X56.1374 Y31.4431 Z-2.6979
G1 X56.1311 Y31.4299
G1 X56.1236 Y31.4174 Z-2.698
G1 X56.1149 Y31.4057 Z-2.6981
G1 X56.1051 Y31.3949
G1 X56.0943 Y31.3851 Z-2.6982
G1 X56.0826 Y31.3764 Z-2.6983
G1 X56.0701 Y31.3689 Z-2.6984
G1 X56.0569 Y31.3626
G1 X56.0432 Y31.3577 Z-2.6985
G1 X56.029 Y31.3542 Z-2.6986
G1 X56.0146 Y31.352
G1 X56.0 Y31.3513 Z-2.6987
G1 X55.9854 Y31.352 Z-2.6988
G1 X55.971 Y31.3542 Z-2.6989
G1 X55.9568 Y31.3577
G1 X55.9431 Y31.3626 Z-2.699
G1 X55.9299 Y31.3689 Z-2.6991
G1 X55.9174 Y31.3764
G1 X55.9057 Y31.3851 Z-2.6992
G1 X55.8949 Y31.3949 Z-2.6993
G1 X55.8851 Y31.4057 Z-2.6994
G1 X55.8764 Y31.4174
G1 X55.8689 Y31.4299 Z-2.6995
G1 X55.8626 Y31.4431 Z-2.6996
G1 X55.8577 Y31.4568 Z-2.6997
G1 X55.8542 Y31.471
G1 X55.852 Y31.4854 Z-2.6998
G1 X55.85 Y31.527 Z-2.7
G1 Y61.473 Z-2.8474
G1 X55.852 Y61.5146 Z-2.8476
G1 X55.8542 Y61.529 Z-2.8477
G1 X55.8577 Y61.5432 Z-2.8478
G1 X55.8626 Y61.5569 Z-2.8479
G1 X55.8689 Y61.5701
G1 X55.8764 Y61.5826 Z-2.848
G1 X55.8851 Y61.5943 Z-2.8481
G1 X55.8949 Y61.6051
G1 X55.9057 Y61.6149 Z-2.8482
G1 X55.9174 Y61.6236 Z-2.8483
G1 X55.9299 Y61.6311 Z-2.8484
G1 X55.9431 Y61.6374
G1 X55.9568 Y61.6423 Z-2.8485
G1 X55.971 Y61.6458 Z-2.8486
G1 X55.9854 Y61.648
G1 X56.0 Y61.6487 Z-2.8487
G1 X56.0146 Y61.648 Z-2.8488
G1 X56.029 Y61.6458 Z-2.8489
G1 X56.0432 Y61.6423
G1 X56.0569 Y61.6374 Z-2.849
G1 X56.0701 Y61.6311 Z-2.8491
G1 X56.0826 Y61.6236
G1 X56.0943 Y61.6149 Z-2.8492
G1 X56.1051 Y61.6051 Z-2.8493
G1 X56.1149 Y61.5943 Z-2.8494
G1 X56.1236 Y61.5826
G1 X56.1311 Y61.5701 Z-2.8495
G1 X56.1374 Y61.5569 Z-2.8496
G1 X56.1423 Y61.5432 Z-2.8497
G1 X56.1458 Y61.529
G1 X56.148 Y61.5146 Z-2.8498
G1 X56.15 Y61.473 Z-2.85
G1 Y31.527 Z-2.9974
G1 X56.148 Y31.4854 Z-2.9976
G1 X56.1458 Y31.471 Z-2.9977
G1 X56.1423 Y31.4568 Z-2.9978
G1 X56.1374 Y31.4431 Z-2.9979
G1 X56.1311 Y31.4299
G1 X56.1236 Y31.4174 Z-2.998
G1 X56.1149 Y31.4057 Z-2.9981
G1 X56.1051 Y31.3949
G1 X56.0943 Y31.3851 Z-2.9982
G1 X56.0826 Y31.3764 Z-2.9983
G1 X56.0701 Y31.3689 Z-2.9984
G1 X56.0569 Y31.3626
G1 X56.0432 Y31.3577 Z-2.9985
G1 X56.029 Y31.3542 Z-2.9986
G1 X56.0146 Y31.352
G1 X56.0 Y31.3513 Z-2.9987
G1 X55.9854 Y31.352 Z-2.9988
G1 X55.971 Y31.3542 Z-2.9989
G1 X55.9568 Y31.3577
G1 X55.9431 Y31.3626 Z-2.999
G1 X55.9299 Y31.3689 Z-2.9991
G1 X55.9174 Y31.3764
G1 X55.9057 Y31.3851 Z-2.9992
G1 X55.8949 Y31.3949 Z-2.9993
G1 X55.8851 Y31.4057 Z-2.9994
G1 X55.8764 Y31.4174
G1 X55.8689 Y31.4299 Z-2.9995
G1 X55.8626 Y31.4431 Z-2.9996
G1 X55.8577 Y31.4568 Z-2.9997
G1 X55.8542 Y31.471
G1 X55.852 Y31.4854 Z-2.9998
G1 X55.85 Y31.527 Z-3.0
G1 Y61.473 Z-3.1474
G1 X55.852 Y61.5146 Z-3.1476
G1 X55.8542 Y61.529 Z-3.1477
G1 X55.8577 Y61.5432 Z-3.1478
G1 X55.8626 Y61.5569 Z-3.1479
G1 X55.8689 Y61.5701
G1 X55.8764 Y61.5826 Z-3.148
G1 X55.8851 Y61.5943 Z-3.1481
G1 X55.8949 Y61.6051
G1 X55.9057 Y61.6149 Z-3.1482
G1 X55.9174 Y61.6236 Z-3.1483
G1 X55.9299 Y61.6311 Z-3.1484
G1 X55.9431 Y61.6374
G1 X55.9568 Y61.6423 Z-3.1485
G1 X55.971 Y61.6458 Z-3.1486
G1 X55.9854 Y61.648
G1 X56.0 Y61.6487 Z-3.1487
G1 X56.0146 Y61.648 Z-3.1488
G1 X56.029 Y61.6458 Z-3.1489
G1 X56.0432 Y61.6423
G1 X56.0569 Y61.6374 Z-3.149
G1 X56.0701 Y61.6311 Z-3.1491
G1 X56.0826 Y61.6236
G1 X56.0943 Y61.6149 Z-3.1492
G1 X56.1051 Y61.6051 Z-3.1493
G1 X56.1149 Y61.5943 Z-3.1494
G1 X56.1236 Y61.5826
G1 X56.1311 Y61.5701 Z-3.1495
G1 X56.1374 Y61.5569 Z-3.1496
G1 X56.1423 Y61.5432 Z-3.1497
G1 X56.1458 Y61.529
G1 X56.148 Y61.5146 Z-3.1498
G1 X56.15 Y61.473 Z-3.15
G1 Y31.527 Z-3.2974
G1 X56.148 Y31.4854 Z-3.2976
G1 X56.1458 Y31.471 Z-3.2977
G1 X56.1423 Y31.4568 Z-3.2978
G1 X56.1374 Y31.4431 Z-3.2979
G1 X56.1311 Y31.4299
G1 X56.1236 Y31.4174 Z-3.298
G1 X56.1149 Y31.4057 Z-3.2981
G1 X56.1051 Y31.3949
G1 X56.0943 Y31.3851 Z-3.2982
G1 X56.0826 Y31.3764 Z-3.2983
G1 X56.0701 Y31.3689 Z-3.2984
G1 X56.0569 Y31.3626
G1 X56.0432 Y31.3577 Z-3.2985
G1 X56.029 Y31.3542 Z-3.2986
G1 X56.0146 Y31.352
G1 X56.0 Y31.3513 Z-3.2987
G1 X55.9854 Y31.352 Z-3.2988
G1 X55.971 Y31.3542 Z-3.2989
G1 X55.9568 Y31.3577
G1 X55.9431 Y31.3626 Z-3.299
G1 X55.9299 Y31.3689 Z-3.2991
G1 X55.9174 Y31.3764
G1 X55.9057 Y31.3851 Z-3.2992
G1 X55.8949 Y31.3949 Z-3.2993
G1 X55.8851 Y31.4057 Z-3.2994
G1 X55.8764 Y31.4174
G1 X55.8689 Y31.4299 Z-3.2995
G1 X55.8626 Y31.4431 Z-3.2996
G1 X55.8577 Y31.4568 Z-3.2997
G1 X55.8542 Y31.471
G1 X55.852 Y31.4854 Z-3.2998
G1 X55.85 Y31.527 Z-3.3
G1 Y61.473 Z-3.4474
G1 X55.852 Y61.5146 Z-3.4476
G1 X55.8542 Y61.529 Z-3.4477
G1 X55.8577 Y61.5432 Z-3.4478
G1 X55.8626 Y61.5569 Z-3.4479
G1 X55.8689 Y61.5701
G1 X55.8764 Y61.5826 Z-3.448
G1 X55.8851 Y61.5943 Z-3.4481
G1 X55.8949 Y61.6051
G1 X55.9057 Y61.6149 Z-3.4482
G1 X55.9174 Y61.6236 Z-3.4483
G1 X55.9299 Y61.6311 Z-3.4484
G1 X55.9431 Y61.6374
G1 X55.9568 Y61.6423 Z-3.4485
G1 X55.971 Y61.6458 Z-3.4486
G1 X55.9854 Y61.648
G1 X56.0 Y61.6487 Z-3.4487
G1 X56.0146 Y61.648 Z-3.4488
G1 X56.029 Y61.6458 Z-3.4489
G1 X56.0432 Y61.6423
G1 X56.0569 Y61.6374 Z-3.449
G1 X56.0701 Y61.6311 Z-3.4491
G1 X56.0826 Y61.6236
G1 X56.0943 Y61.6149 Z-3.4492
G1 X56.1051 Y61.6051 Z-3.4493
G1 X56.1149 Y61.5943 Z-3.4494
G1 X56.1236 Y61.5826
G1 X56.1311 Y61.5701 Z-3.4495
G1 X56.1374 Y61.5569 Z-3.4496
G1 X56.1423 Y61.5432 Z-3.4497
G1 X56.1458 Y61.529
G1 X56.148 Y61.5146 Z-3.4498
G1 X56.15 Y61.473 Z-3.45
G1 Y31.527 Z-3.5974
G1 X56.148 Y31.4854 Z-3.5976
G1 X56.1458 Y31.471 Z-3.5977
G1 X56.1423 Y31.4568 Z-3.5978
G1 X56.1374 Y31.4431 Z-3.5979
G1 X56.1311 Y31.4299
G1 X56.1236 Y31.4174 Z-3.598
G1 X56.1149 Y31.4057 Z-3.5981
G1 X56.1051 Y31.3949
G1 X56.0943 Y31.3851 Z-3.5982
G1 X56.0826 Y31.3764 Z-3.5983
G1 X56.0701 Y31.3689 Z-3.5984
G1 X56.0569 Y31.3626
G1 X56.0432 Y31.3577 Z-3.5985
G1 X56.029 Y31.3542 Z-3.5986
G1 X56.0146 Y31.352
G1 X56.0 Y31.3513 Z-3.5987
G1 X55.9854 Y31.352 Z-3.5988
G1 X55.971 Y31.3542 Z-3.5989
G1 X55.9568 Y31.3577
G1 X55.9431 Y31.3626 Z-3.599
G1 X55.9299 Y31.3689 Z-3.5991
G1 X55.9174 Y31.3764
G1 X55.9057 Y31.3851 Z-3.5992
G1 X55.8949 Y31.3949 Z-3.5993
G1 X55.8851 Y31.4057 Z-3.5994
G1 X55.8764 Y31.4174
G1 X55.8689 Y31.4299 Z-3.5995
G1 X55.8626 Y31.4431 Z-3.5996
G1 X55.8577 Y31.4568 Z-3.5997
G1 X55.8542 Y31.471
G1 X55.852 Y31.4854 Z-3.5998
G1 X55.85 Y31.527 Z-3.6
G1 Y61.473 Z-3.7474
G1 X55.852 Y61.5146 Z-3.7476
G1 X55.8542 Y61.529 Z-3.7477
G1 X55.8577 Y61.5432 Z-3.7478
G1 X55.8626 Y61.5569 Z-3.7479
G1 X55.8689 Y61.5701
G1 X55.8764 Y61.5826 Z-3.748
G1 X55.8851 Y61.5943 Z-3.7481
G1 X55.8949 Y61.6051
G1 X55.9057 Y61.6149 Z-3.7482
G1 X55.9174 Y61.6236 Z-3.7483
G1 X55.9299 Y61.6311 Z-3.7484
G1 X55.9431 Y61.6374
G1 X55.9568 Y61.6423 Z-3.7485
G1 X55.971 Y61.6458 Z-3.7486
G1 X55.9854 Y61.648
G1 X56.0 Y61.6487 Z-3.7487
G1 X56.0146 Y61.648 Z-3.7488
G1 X56.029 Y61.6458 Z-3.7489
G1 X56.0432 Y61.6423
G1 X56.0569 Y61.6374 Z-3.749
G1 X56.0701 Y61.6311 Z-3.7491
G1 X56.0826 Y61.6236
G1 X56.0943 Y61.6149 Z-3.7492
G1 X56.1051 Y61.6051 Z-3.7493
G1 X56.1149 Y61.5943 Z-3.7494
G1 X56.1236 Y61.5826
G1 X56.1311 Y61.5701 Z-3.7495
G1 X56.1374 Y61.5569 Z-3.7496
G1 X56.1423 Y61.5432 Z-3.7497
G1 X56.1458 Y61.529
G1 X56.148 Y61.5146 Z-3.7498
G1 X56.15 Y61.473 Z-3.75
G1 Y31.527 Z-3.8974
G1 X56.148 Y31.4854 Z-3.8976
G1 X56.1458 Y31.471 Z-3.8977
G1 X56.1423 Y31.4568 Z-3.8978
G1 X56.1374 Y31.4431 Z-3.8979
G1 X56.1311 Y31.4299
G1 X56.1236 Y31.4174 Z-3.898
G1 X56.1149 Y31.4057 Z-3.8981
G1 X56.1051 Y31.3949
G1 X56.0943 Y31.3851 Z-3.8982
G1 X56.0826 Y31.3764 Z-3.8983
G1 X56.0701 Y31.3689 Z-3.8984
G1 X56.0569 Y31.3626
G1 X56.0432 Y31.3577 Z-3.8985
G1 X56.029 Y31.3542 Z-3.8986
G1 X56.0146 Y31.352
G1 X56.0 Y31.3513 Z-3.8987
G1 X55.9854 Y31.352 Z-3.8988
G1 X55.971 Y31.3542 Z-3.8989
G1 X55.9568 Y31.3577
G1 X55.9431 Y31.3626 Z-3.899
G1 X55.9299 Y31.3689 Z-3.8991
G1 X55.9174 Y31.3764
G1 X55.9057 Y31.3851 Z-3.8992
G1 X55.8949 Y31.3949 Z-3.8993
G1 X55.8851 Y31.4057 Z-3.8994
G1 X55.8764 Y31.4174
G1 X55.8689 Y31.4299 Z-3.8995
G1 X55.8626 Y31.4431 Z-3.8996
G1 X55.8577 Y31.4568 Z-3.8997
G1 X55.8542 Y31.471
G1 X55.852 Y31.4854 Z-3.8998
G1 X55.85 Y31.527 Z-3.9
G1 Y61.473 Z-3.9983
G1 X55.852 Y61.5146 Z-3.9984
G1 X55.8542 Y61.529 Z-3.9985
G1 X55.8577 Y61.5432
G1 X55.8626 Y61.5569 Z-3.9986
G1 X55.8689 Y61.5701
G1 X55.8764 Y61.5826 Z-3.9987
G1 X55.8851 Y61.5943
G1 X55.8949 Y61.6051 Z-3.9988
G1 X55.9057 Y61.6149
G1 X55.9174 Y61.6236 Z-3.9989
G1 X55.9299 Y61.6311
G1 X55.9431 Y61.6374 Z-3.999
G1 X55.9568 Y61.6423
G1 X55.971 Y61.6458
G1 X55.9854 Y61.648 Z-3.9991
G1 X56.0 Y61.6487
G1 X56.0146 Y61.648 Z-3.9992
G1 X56.029 Y61.6458
G1 X56.0432 Y61.6423 Z-3.9993
G1 X56.0569 Y61.6374
G1 X56.0701 Y61.6311 Z-3.9994
G1 X56.0826 Y61.6236
G1 X56.0943 Y61.6149 Z-3.9995
G1 X56.1051 Y61.6051
G1 X56.1149 Y61.5943 Z-3.9996
G1 X56.1236 Y61.5826
G1 X56.1311 Y61.5701 Z-3.9997
G1 X56.1374 Y61.5569
G1 X56.1423 Y61.5432 Z-3.9998
G1 X56.1458 Y61.529
G1 X56.148 Y61.5146 Z-3.9999
G1 X56.15 Y61.473 Z-4.0
G1 Y31.527 Z-4.0983
G1 X56.148 Y31.4854 Z-4.0984
G1 X56.1458 Y31.471 Z-4.0985
G1 X56.1423 Y31.4568
G1 X56.1374 Y31.4431 Z-4.0986
G1 X56.1311 Y31.4299
G1 X56.1236 Y31.4174 Z-4.0987
G1 X56.1149 Y31.4057
G1 X56.1051 Y31.3949 Z-4.0988
G1 X56.0943 Y31.3851
G1 X56.0826 Y31.3764 Z-4.0989
G1 X56.0701 Y31.3689
G1 X56.0569 Y31.3626 Z-4.099
G1 X56.0432 Y31.3577
G1 X56.029 Y31.3542
G1 X56.0146 Y31.352 Z-4.0991
G1 X56.0 Y31.3513
G1 X55.9854 Y31.352 Z-4.0992
G1 X55.971 Y31.3542
G1 X55.9568 Y31.3577 Z-4.0993
G1 X55.9431 Y31.3626
G1 X55.9299 Y31.3689 Z-4.0994
G1 X55.9174 Y31.3764
G1 X55.9057 Y31.3851 Z-4.0995
G1 X55.8949 Y31.3949
G1 X55.8851 Y31.4057 Z-4.0996
G1 X55.8764 Y31.4174
G1 X55.8689 Y31.4299 Z-4.0997
G1 X55.8626 Y31.4431
G1 X55.8577 Y31.4568 Z-4.0998
G1 X55.8542 Y31.471
G1 X55.852 Y31.4854 Z-4.0999
G1 X55.85 Y31.527 Z-4.1
G1 Y61.473 Z-4.1491
G1 X55.852 Y61.5146 Z-4.1492
G1 X55.8542 Y61.529
G1 X55.8577 Y61.5432 Z-4.1493
G1 X55.8626 Y61.5569
G1 X55.8689 Y61.5701
G1 X55.8764 Y61.5826
G1 X55.8851 Y61.5943 Z-4.1494
G1 X55.8949 Y61.6051
G1 X55.9057 Y61.6149
G1 X55.9174 Y61.6236
G1 X55.9299 Y61.6311 Z-4.1495
G1 X55.9431 Y61.6374
G1 X55.9568 Y61.6423
G1 X55.971 Y61.6458
G1 X55.9854 Y61.648
G1 X56.0 Y61.6487 Z-4.1496
G1 X56.0146 Y61.648
G1 X56.029 Y61.6458
G1 X56.0432 Y61.6423
G1 X56.0569 Y61.6374 Z-4.1497
G1 X56.0701 Y61.6311
G1 X56.0826 Y61.6236
G1 X56.0943 Y61.6149
G1 X56.1051 Y61.6051 Z-4.1498
G1 X56.1149 Y61.5943
G1 X56.1236 Y61.5826
G1 X56.1311 Y61.5701
G1 X56.1374 Y61.5569 Z-4.1499
G1 X56.1423 Y61.5432
G1 X56.1458 Y61.529
G1 X56.148 Y61.5146
G1 X56.15 Y61.473 Z-4.15
G1 Y31.527 Z-4.1991
G1 X56.148 Y31.4854 Z-4.1992
G1 X56.1458 Y31.471
G1 X56.1423 Y31.4568 Z-4.1993
G1 X56.1374 Y31.4431
G1 X56.1311 Y31.4299
G1 X56.1236 Y31.4174
G1 X56.1149 Y31.4057 Z-4.1994
G1 X56.1051 Y31.3949
G1 X56.0943 Y31.3851
G1 X56.0826 Y31.3764
G1 X56.0701 Y31.3689 Z-4.1995
G1 X56.0569 Y31.3626
G1 X56.0432 Y31.3577
G1 X56.029 Y31.3542
G1 X56.0146 Y31.352
G1 X56.0 Y31.3513 Z-4.1996
G1 X55.9854 Y31.352
G1 X55.971 Y31.3542
G1 X55.9568 Y31.3577
G1 X55.9431 Y31.3626 Z-4.1997
G1 X55.9299 Y31.3689
G1 X55.9174 Y31.3764
G1 X55.9057 Y31.3851
G1 X55.8949 Y31.3949 Z-4.1998
G1 X55.8851 Y31.4057
G1 X55.8764 Y31.4174
G1 X55.8689 Y31.4299
G1 X55.8626 Y31.4431 Z-4.1999
G1 X55.8577 Y31.4568
G1 X55.8542 Y31.471
G1 X55.852 Y31.4854
G1 X55.85 Y31.527 Z-4.2
G1 Y61.473
G1 X55.852 Y61.5146
G1 X55.8542 Y61.529
G1 X55.8577 Y61.5432
G1 X55.8626 Y61.5569
G1 X55.8689 Y61.5701
G1 X55.8764 Y61.5826
G1 X55.8851 Y61.5943
G1 X55.8949 Y61.6051
G1 X55.9057 Y61.6149
G1 X55.9174 Y61.6236
G1 X55.9299 Y61.6311
G1 X55.9431 Y61.6374
G1 X55.9568 Y61.6423
G1 X55.971 Y61.6458
G1 X55.9854 Y61.648
G1 X56.0 Y61.6487
G1 X56.0146 Y61.648
G1 X56.029 Y61.6458
G1 X56.0432 Y61.6423
G1 X56.0569 Y61.6374
G1 X56.0701 Y61.6311
G1 X56.0826 Y61.6236
G1 X56.0943 Y61.6149
G1 X56.1051 Y61.6051
G1 X56.1149 Y61.5943
G1 X56.1236 Y61.5826
G1 X56.1311 Y61.5701
G1 X56.1374 Y61.5569
G1 X56.1423 Y61.5432
G1 X56.1458 Y61.529
G1 X56.148 Y61.5146
G1 X56.15 Y61.473
G1 Y31.527
G1 X56.148 Y31.4854
G1 X56.1458 Y31.471
G1 X56.1423 Y31.4568
G1 X56.1374 Y31.4431
G1 X56.1311 Y31.4299
G1 X56.1236 Y31.4174
G1 X56.1149 Y31.4057
G1 X56.1051 Y31.3949
G1 X56.0943 Y31.3851
G1 X56.0826 Y31.3764
G1 X56.0701 Y31.3689
G1 X56.0569 Y31.3626
G1 X56.0432 Y31.3577
G1 X56.029 Y31.3542
G1 X56.0146 Y31.352
G1 X56.0 Y31.3513
G1 X55.9854 Y31.352
G1 X55.971 Y31.3542
G1 X55.9568 Y31.3577
G1 X55.9431 Y31.3626
G1 X55.9299 Y31.3689
G1 X55.9174 Y31.3764
G1 X55.9057 Y31.3851
G1 X55.8949 Y31.3949
G1 X55.8851 Y31.4057
G1 X55.8764 Y31.4174
G1 X55.8689 Y31.4299
G1 X55.8626 Y31.4431
G1 X55.8577 Y31.4568
G1 X55.8542 Y31.471
G1 X55.852 Y31.4854
G1 X55.85 Y31.527
G0 Z3.0
G0 X71.85
G0 Z1.0
G1 F200.0 Z0.0
G1 F700.0 Y61.473 Z-0.1474
G1 X71.852 Y61.5146 Z-0.1476
G1 X71.8542 Y61.529 Z-0.1477
G1 X71.8577 Y61.5432 Z-0.1478
G1 X71.8626 Y61.5569 Z-0.1479
G1 X71.8689 Y61.5701
G1 X71.8764 Y61.5826 Z-0.148
G1 X71.8851 Y61.5943 Z-0.1481
G1 X71.8949 Y61.6051
G1 X71.9057 Y61.6149 Z-0.1482
G1 X71.9174 Y61.6236 Z-0.1483
G1 X71.9299 Y61.6311 Z-0.1484
G1 X71.9431 Y61.6374
G1 X71.9568 Y61.6423 Z-0.1485
G1 X71.971 Y61.6458 Z-0.1486
G1 X71.9854 Y61.648
G1 X72.0 Y61.6487 Z-0.1487
G1 X72.0146 Y61.648 Z-0.1488
G1 X72.029 Y61.6458 Z-0.1489
G1 X72.0432 Y61.6423
G1 X72.0569 Y61.6374 Z-0.149
G1 X72.0701 Y61.6311 Z-0.1491
G1 X72.0826 Y61.6236
G1 X72.0943 Y61.6149 Z-0.1492
G1 X72.1051 Y61.6051 Z-0.1493
G1 X72.1149 Y61.5943 Z-0.1494
G1 X72.1236 Y61.5826
G1 X72.1311 Y61.5701 Z-0.1495
G1 X72.1374 Y61.5569 Z-0.1496
G1 X72.1423 Y61.5432 Z-0.1497
G1 X72.1458 Y61.529
G1 X72.148 Y61.5146 Z-0.1498
G1 X72.15 Y61.473 Z-0.15
G1 Y31.527 Z-0.2974
G1 X72.148 Y31.4854 Z-0.2976
G1 X72.1458 Y31.471 Z-0.2977
G1 X72.1423 Y31.4568 Z-0.2978
G1 X72.1374 Y31.4431 Z-0.2979
G1 X72.1311 Y31.4299
G1 X72.1236 Y31.4174 Z-0.298
G1 X72.1149 Y31.4057 Z-0.2981
G1 X72.1051 Y31.3949
G1 X72.0943 Y31.3851 Z-0.2982
G1 X72.0826 Y31.3764 Z-0.2983
G1 X72.0701 Y31.3689 Z-0.2984
G1 X72.0569 Y31.3626
G1 X72.0432 Y31.3577 Z-0.2985
G1 X72.029 Y31.3542 Z-0.2986
G1 X72.0146 Y31.352
G1 X72.0 Y31.3513 Z-0.2987
G1 X71.9854 Y31.352 Z-0.2988
G1 X71.971 Y31.3542 Z-0.2989
G1 X71.9568 Y31.3577
G1 X71.9431 Y31.3626 Z-0.299
G1 X71.9299 Y31.3689 Z-0.2991
G1 X71.9174 Y31.3764
G1 X71.9057 Y31.3851 Z-0.2992
G1 X71.8949 Y31.3949 Z-0.2993
G1 X71.8851 Y31.4057 Z-0.2994
G1 X71.8764 Y31.4174
G1 X71.8689 Y31.4299 Z-0.2995
G1 X71.8626 Y31.4431 Z-0.2996
G1 X71.8577 Y31.4568 Z-0.2997
G1 X71.8542 Y31.471
G1 X71.852 Y31.4854 Z-0.2998
G1 X71.85 Y31.527 Z-0.3
G1 Y61.473 Z-0.4474
G1 X71.852 Y61.5146 Z-0.4476
G1 X71.8542 Y61.529 Z-0.4477
G1 X71.8577 Y61.5432 Z-0.4478
G1 X71.8626 Y61.5569 Z-0.4479
G1 X71.8689 Y61.5701
G1 X71.8764 Y61.5826 Z-0.448
G1 X71.8851 Y61.5943 Z-0.4481
G1 X71.8949 Y61.6051
G1 X71.9057 Y61.6149 Z-0.4482
G1 X71.9174 Y61.6236 Z-0.4483
G1 X71.9299 Y61.6311 Z-0.4484
G1 X71.9431 Y61.6374
G1 X71.9568 Y61.6423 Z-0.4485
G1 X71.971 Y61.6458 Z-0.4486
G1 X71.9854 Y61.648
G1 X72.0 Y61.6487 Z-0.4487
G1 X72.0146 Y61.648 Z-0.4488
G1 X72.029 Y61.6458 Z-0.4489
G1 X72.0432 Y61.6423
G1 X72.0569 Y61.6374 Z-0.449
G1 X72.0701 Y61.6311 Z-0.4491
G1 X72.0826 Y61.6236
G1 X72.0943 Y61.6149 Z-0.4492
G1 X72.1051 Y61.6051 Z-0.4493
G1 X72.1149 Y61.5943 Z-0.4494
G1 X72.1236 Y61.5826
G1 X72.1311 Y61.5701 Z-0.4495
G1 X72.1374 Y61.5569 Z-0.4496
G1 X72.1423 Y61.5432 Z-0.4497
G1 X72.1458 Y61.529
G1 X72.148 Y61.5146 Z-0.4498
G1 X72.15 Y61.473 Z-0.45
G1 Y31.527 Z-0.5974
G1 X72.148 Y31.4854 Z-0.5976
G1 X72.1458 Y31.471 Z-0.5977
G1 X72.1423 Y31.4568 Z-0.5978
G1 X72.1374 Y31.4431 Z-0.5979
G1 X72.1311 Y31.4299
G1 X72.1236 Y31.4174 Z-0.598
G1 X72.1149 Y31.4057 Z-0.5981
G1 X72.1051 Y31.3949
G1 X72.0943 Y31.3851 Z-0.5982
G1 X72.0826 Y31.3764 Z-0.5983
G1 X72.0701 Y31.3689 Z-0.5984
G1 X72.0569 Y31.3626
G1 X72.0432 Y31.3577 Z-0.5985
G1 X72.029 Y31.3542 Z-0.5986
G1 X72.0146 Y31.352
G1 X72.0 Y31.3513 Z-0.5987
G1 X71.9854 Y31.352 Z-0.5988
G1 X71.971 Y31.3542 Z-0.5989
G1 X71.9568 Y31.3577
G1 X71.9431 Y31.3626 Z-0.599
G1 X71.9299 Y31.3689 Z-0.5991
G1 X71.9174 Y31.3764
G1 X71.9057 Y31.3851 Z-0.5992
G1 X71.8949 Y31.3949 Z-0.5993
G1 X71.8851 Y31.4057 Z-0.5994
G1 X71.8764 Y31.4174
G1 X71.8689 Y31.4299 Z-0.5995
G1 X71.8626 Y31.4431 Z-0.5996
G1 X71.8577 Y31.4568 Z-0.5997
G1 X71.8542 Y31.471
G1 X71.852 Y31.4854 Z-0.5998
G1 X71.85 Y31.527 Z-0.6
G1 Y61.473 Z-0.7474
G1 X71.852 Y61.5146 Z-0.7476
G1 X71.8542 Y61.529 Z-0.7477
G1 X71.8577 Y61.5432 Z-0.7478
G1 X71.8626 Y61.5569 Z-0.7479
G1 X71.8689 Y61.5701
G1 X71.8764 Y61.5826 Z-0.748
G1 X71.8851 Y61.5943 Z-0.7481
G1 X71.8949 Y61.6051
G1 X71.9057 Y61.6149 Z-0.7482
G1 X71.9174 Y61.6236 Z-0.7483
G1 X71.9299 Y61.6311 Z-0.7484
G1 X71.9431 Y61.6374
G1 X71.9568 Y61.6423 Z-0.7485
G1 X71.971 Y61.6458 Z-0.7486
G1 X71.9854 Y61.648
G1 X72.0 Y61.6487 Z-0.7487
G1 X72.0146 Y61.648 Z-0.7488
G1 X72.029 Y61.6458 Z-0.7489
G1 X72.0432 Y61.6423
G1 X72.0569 Y61.6374 Z-0.749
G1 X72.0701 Y61.6311 Z-0.7491
G1 X72.0826 Y61.6236
G1 X72.0943 Y61.6149 Z-0.7492
G1 X72.1051 Y61.6051 Z-0.7493
G1 X72.1149 Y61.5943 Z-0.7494
G1 X72.1236 Y61.5826
G1 X72.1311 Y61.5701 Z-0.7495
G1 X72.1374 Y61.5569 Z-0.7496
G1 X72.1423 Y61.5432 Z-0.7497
G1 X72.1458 Y61.529
G1 X72.148 Y61.5146 Z-0.7498
G1 X72.15 Y61.473 Z-0.75
G1 Y31.527 Z-0.8974
G1 X72.148 Y31.4854 Z-0.8976
G1 X72.1458 Y31.471 Z-0.8977
G1 X72.1423 Y31.4568 Z-0.8978
G1 X72.1374 Y31.4431 Z-0.8979
G1 X72.1311 Y31.4299
G1 X72.1236 Y31.4174 Z-0.898
G1 X72.1149 Y31.4057 Z-0.8981
G1 X72.1051 Y31.3949
G1 X72.0943 Y31.3851 Z-0.8982
G1 X72.0826 Y31.3764 Z-0.8983
G1 X72.0701 Y31.3689 Z-0.8984
G1 X72.0569 Y31.3626
G1 X72.0432 Y31.3577 Z-0.8985
G1 X72.029 Y31.3542 Z-0.8986
G1 X72.0146 Y31.352
G1 X72.0 Y31.3513 Z-0.8987
G1 X71.9854 Y31.352 Z-0.8988
G1 X71.971 Y31.3542 Z-0.8989
G1 X71.9568 Y31.3577
G1 X71.9431 Y31.3626 Z-0.899
G1 X71.9299 Y31.3689 Z-0.8991
G1 X71.9174 Y31.3764
G1 X71.9057 Y31.3851 Z-0.8992
G1 X71.8949 Y31.3949 Z-0.8993
G1 X71.8851 Y31.4057 Z-0.8994
G1 X71.8764 Y31.4174
G1 X71.8689 Y31.4299 Z-0.8995
G1 X71.8626 Y31.4431 Z-0.8996
G1 X71.8577 Y31.4568 Z-0.8997
G1 X71.8542 Y31.471
G1 X71.852 Y31.4854 Z-0.8998
G1 X71.85 Y31.527 Z-0.9
G1 Y61.473 Z-1.0474
G1 X71.852 Y61.5146 Z-1.0476
G1 X71.8542 Y61.529 Z-1.0477
G1 X71.8577 Y61.5432 Z-1.0478
G1 X71.8626 Y61.5569 Z-1.0479
G1 X71.8689 Y61.5701
G1 X71.8764 Y61.5826 Z-1.048
G1 X71.8851 Y61.5943 Z-1.0481
G1 X71.8949 Y61.6051
G1 X71.9057 Y61.6149 Z-1.0482
G1 X71.9174 Y61.6236 Z-1.0483
G1 X71.9299 Y61.6311 Z-1.0484
G1 X71.9431 Y61.6374
G1 X71.9568 Y61.6423 Z-1.0485
G1 X71.971 Y61.6458 Z-1.0486
G1 X71.9854 Y61.648
G1 X72.0 Y61.6487 Z-1.0487
G1 X72.0146 Y61.648 Z-1.0488
G1 X72.029 Y61.6458 Z-1.0489
G1 X72.0432 Y61.6423
G1 X72.0569 Y61.6374 Z-1.049
G1 X72.0701 Y61.6311 Z-1.0491
G1 X72.0826 Y61.6236
G1 X72.0943 Y61.6149 Z-1.0492
G1 X72.1051 Y61.6051 Z-1.0493
G1 X72.1149 Y61.5943 Z-1.0494
G1 X72.1236 Y61.5826
G1 X72.1311 Y61.5701 Z-1.0495
G1 X72.1374 Y61.5569 Z-1.0496
G1 X72.1423 Y61.5432 Z-1.0497
G1 X72.1458 Y61.529
G1 X72.148 Y61.5146 Z-1.0498
G1 X72.15 Y61.473 Z-1.05
G1 Y31.527 Z-1.1974
G1 X72.148 Y31.4854 Z-1.1976
G1 X72.1458 Y31.471 Z-1.1977
G1 X72.1423 Y31.4568 Z-1.1978
G1 X72.1374 Y31.4431 Z-1.1979
G1 X72.1311 Y31.4299
G1 X72.1236 Y31.4174 Z-1.198
G1 X72.1149 Y31.4057 Z-1.1981
G1 X72.1051 Y31.3949
G1 X72.0943 Y31.3851 Z-1.1982
G1 X72.0826 Y31.3764 Z-1.1983
G1 X72.0701 Y31.3689 Z-1.1984
G1 X72.0569 Y31.3626
G1 X72.0432 Y31.3577 Z-1.1985
G1 X72.029 Y31.3542 Z-1.1986
G1 X72.0146 Y31.352
G1 X72.0 Y31.3513 Z-1.1987
G1 X71.9854 Y31.352 Z-1.1988
G1 X71.971 Y31.3542 Z-1.1989
G1 X71.9568 Y31.3577
G1 X71.9431 Y31.3626 Z-1.199
G1 X71.9299 Y31.3689 Z-1.1991
G1 X71.9174 Y31.3764
G1 X71.9057 Y31.3851 Z-1.1992
G1 X71.8949 Y31.3949 Z-1.1993
G1 X71.8851 Y31.4057 Z-1.1994
G1 X71.8764 Y31.4174
G1 X71.8689 Y31.4299 Z-1.1995
G1 X71.8626 Y31.4431 Z-1.1996
G1 X71.8577 Y31.4568 Z-1.1997
G1 X71.8542 Y31.471
G1 X71.852 Y31.4854 Z-1.1998
G1 X71.85 Y31.527 Z-1.2
G1 Y61.473 Z-1.3474
G1 X71.852 Y61.5146 Z-1.3476
G1 X71.8542 Y61.529 Z-1.3477
G1 X71.8577 Y61.5432 Z-1.3478
G1 X71.8626 Y61.5569 Z-1.3479
G1 X71.8689 Y61.5701
G1 X71.8764 Y61.5826 Z-1.348
G1 X71.8851 Y61.5943 Z-1.3481
G1 X71.8949 Y61.6051
G1 X71.9057 Y61.6149 Z-1.3482
G1 X71.9174 Y61.6236 Z-1.3483
G1 X71.9299 Y61.6311 Z-1.3484
G1 X71.9431 Y61.6374
G1 X71.9568 Y61.6423 Z-1.3485
G1 X71.971 Y61.6458 Z-1.3486
G1 X71.9854 Y61.648
G1 X72.0 Y61.6487 Z-1.3487
G1 X72.0146 Y61.648 Z-1.3488
G1 X72.029 Y61.6458 Z-1.3489
G1 X72.0432 Y61.6423
G1 X72.0569 Y61.6374 Z-1.349
G1 X72.0701 Y61.6311 Z-1.3491
G1 X72.0826 Y61.6236
G1 X72.0943 Y61.6149 Z-1.3492
G1 X72.1051 Y61.6051 Z-1.3493
G1 X72.1149 Y61.5943 Z-1.3494
G1 X72.1236 Y61.5826
G1 X72.1311 Y61.5701 Z-1.3495
G1 X72.1374 Y61.5569 Z-1.3496
G1 X72.1423 Y61.5432 Z-1.3497
G1 X72.1458 Y61.529
G1 X72.148 Y61.5146 Z-1.3498
G1 X72.15 Y61.473 Z-1.35
G1 Y31.527 Z-1.4974
G1 X72.148 Y31.4854 Z-1.4976
G1 X72.1458 Y31.471 Z-1.4977
G1 X72.1423 Y31.4568 Z-1.4978
G1 X72.1374 Y31.4431 Z-1.4979
G1 X72.1311 Y31.4299
G1 X72.1236 Y31.4174 Z-1.498
G1 X72.1149 Y31.4057 Z-1.4981
G1 X72.1051 Y31.3949
G1 X72.0943 Y31.3851 Z-1.4982
G1 X72.0826 Y31.3764 Z-1.4983
G1 X72.0701 Y31.3689 Z-1.4984
G1 X72.0569 Y31.3626
G1 X72.0432 Y31.3577 Z-1.4985
G1 X72.029 Y31.3542 Z-1.4986
G1 X72.0146 Y31.352
G1 X72.0 Y31.3513 Z-1.4987
G1 X71.9854 Y31.352 Z-1.4988
G1 X71.971 Y31.3542 Z-1.4989
G1 X71.9568 Y31.3577
G1 X71.9431 Y31.3626 Z-1.499
G1 X71.9299 Y31.3689 Z-1.4991
G1 X71.9174 Y31.3764
G1 X71.9057 Y31.3851 Z-1.4992
G1 X71.8949 Y31.3949 Z-1.4993
G1 X71.8851 Y31.4057 Z-1.4994
G1 X71.8764 Y31.4174
G1 X71.8689 Y31.4299 Z-1.4995
G1 X71.8626 Y31.4431 Z-1.4996
G1 X71.8577 Y31.4568 Z-1.4997
G1 X71.8542 Y31.471
G1 X71.852 Y31.4854 Z-1.4998
G1 X71.85 Y31.527 Z-1.5
G1 Y61.473 Z-1.6474
G1 X71.852 Y61.5146 Z-1.6476
G1 X71.8542 Y61.529 Z-1.6477
G1 X71.8577 Y61.5432 Z-1.6478
G1 X71.8626 Y61.5569 Z-1.6479
G1 X71.8689 Y61.5701
G1 X71.8764 Y61.5826 Z-1.648
G1 X71.8851 Y61.5943 Z-1.6481
G1 X71.8949 Y61.6051
G1 X71.9057 Y61.6149 Z-1.6482
G1 X71.9174 Y61.6236 Z-1.6483
G1 X71.9299 Y61.6311 Z-1.6484
G1 X71.9431 Y61.6374
G1 X71.9568 Y61.6423 Z-1.6485
G1 X71.971 Y61.6458 Z-1.6486
G1 X71.9854 Y61.648
G1 X72.0 Y61.6487 Z-1.6487
G1 X72.0146 Y61.648 Z-1.6488
G1 X72.029 Y61.6458 Z-1.6489
G1 X72.0432 Y61.6423
G1 X72.0569 Y61.6374 Z-1.649
G1 X72.0701 Y61.6311 Z-1.6491
G1 X72.0826 Y61.6236
G1 X72.0943 Y61.6149 Z-1.6492
G1 X72.1051 Y61.6051 Z-1.6493
G1 X72.1149 Y61.5943 Z-1.6494
G1 X72.1236 Y61.5826
G1 X72.1311 Y61.5701 Z-1.6495
G1 X72.1374 Y61.5569 Z-1.6496
G1 X72.1423 Y61.5432 Z-1.6497
G1 X72.1458 Y61.529
G1 X72.148 Y61.5146 Z-1.6498
G1 X72.15 Y61.473 Z-1.65
G1 Y31.527 Z-1.7974
G1 X72.148 Y31.4854 Z-1.7976
G1 X72.1458 Y31.471 Z-1.7977
G1 X72.1423 Y31.4568 Z-1.7978
G1 X72.1374 Y31.4431 Z-1.7979
G1 X72.1311 Y31.4299
G1 X72.1236 Y31.4174 Z-1.798
G1 X72.1149 Y31.4057 Z-1.7981
G1 X72.1051 Y31.3949
G1 X72.0943 Y31.3851 Z-1.7982
G1 X72.0826 Y31.3764 Z-1.7983
G1 X72.0701 Y31.3689 Z-1.7984
G1 X72.0569 Y31.3626
G1 X72.0432 Y31.3577 Z-1.7985
G1 X72.029 Y31.3542 Z-1.7986
G1 X72.0146 Y31.352
G1 X72.0 Y31.3513 Z-1.7987
G1 X71.9854 Y31.352 Z-1.7988
G1 X71.971 Y31.3542 Z-1.7989
G1 X71.9568 Y31.3577
G1 X71.9431 Y31.3626 Z-1.799
G1 X71.9299 Y31.3689 Z-1.7991
G1 X71.9174 Y31.3764
G1 X71.9057 Y31.3851 Z-1.7992
G1 X71.8949 Y31.3949 Z-1.7993
G1 X71.8851 Y31.4057 Z-1.7994
G1 X71.8764 Y31.4174
G1 X71.8689 Y31.4299 Z-1.7995
G1 X71.8626 Y31.4431 Z-1.7996
G1 X71.8577 Y31.4568 Z-1.7997
G1 X71.8542 Y31.471
G1 X71.852 Y31.4854 Z-1.7998
G1 X71.85 Y31.527 Z-1.8
G1 Y61.473 Z-1.9474
G1 X71.852 Y61.5146 Z-1.9476
G1 X71.8542 Y61.529 Z-1.9477
G1 X71.8577 Y61.5432 Z-1.9478
G1 X71.8626 Y61.5569 Z-1.9479
G1 X71.8689 Y61.5701
G1 X71.8764 Y61.5826 Z-1.948
G1 X71.8851 Y61.5943 Z-1.9481
G1 X71.8949 Y61.6051
G1 X71.9057 Y61.6149 Z-1.9482
G1 X71.9174 Y61.6236 Z-1.9483
G1 X71.9299 Y61.6311 Z-1.9484
G1 X71.9431 Y61.6374
G1 X71.9568 Y61.6423 Z-1.9485
G1 X71.971 Y61.6458 Z-1.9486
G1 X71.9854 Y61.648
G1 X72.0 Y61.6487 Z-1.9487
G1 X72.0146 Y61.648 Z-1.9488
G1 X72.029 Y61.6458 Z-1.9489
G1 X72.0432 Y61.6423
G1 X72.0569 Y61.6374 Z-1.949
G1 X72.0701 Y61.6311 Z-1.9491
G1 X72.0826 Y61.6236
G1 X72.0943 Y61.6149 Z-1.9492
G1 X72.1051 Y61.6051 Z-1.9493
G1 X72.1149 Y61.5943 Z-1.9494
G1 X72.1236 Y61.5826
G1 X72.1311 Y61.5701 Z-1.9495
G1 X72.1374 Y61.5569 Z-1.9496
G1 X72.1423 Y61.5432 Z-1.9497
G1 X72.1458 Y61.529
G1 X72.148 Y61.5146 Z-1.9498
G1 X72.15 Y61.473 Z-1.95
G1 Y31.527 Z-2.0974
G1 X72.148 Y31.4854 Z-2.0976
G1 X72.1458 Y31.471 Z-2.0977
G1 X72.1423 Y31.4568 Z-2.0978
G1 X72.1374 Y31.4431 Z-2.0979
G1 X72.1311 Y31.4299
G1 X72.1236 Y31.4174 Z-2.098
G1 X72.1149 Y31.4057 Z-2.0981
G1 X72.1051 Y31.3949
G1 X72.0943 Y31.3851 Z-2.0982
G1 X72.0826 Y31.3764 Z-2.0983
G1 X72.0701 Y31.3689 Z-2.0984
G1 X72.0569 Y31.3626
G1 X72.0432 Y31.3577 Z-2.0985
G1 X72.029 Y31.3542 Z-2.0986
G1 X72.0146 Y31.352
G1 X72.0 Y31.3513 Z-2.0987
G1 X71.9854 Y31.352 Z-2.0988
G1 X71.971 Y31.3542 Z-2.0989
G1 X71.9568 Y31.3577
G1 X71.9431 Y31.3626 Z-2.099
G1 X71.9299 Y31.3689 Z-2.0991
G1 X71.9174 Y31.3764
G1 X71.9057 Y31.3851 Z-2.0992
G1 X71.8949 Y31.3949 Z-2.0993
G1 X71.8851 Y31.4057 Z-2.0994
G1 X71.8764 Y31.4174
G1 X71.8689 Y31.4299 Z-2.0995
G1 X71.8626 Y31.4431 Z-2.0996
G1 X71.8577 Y31.4568 Z-2.0997
G1 X71.8542 Y31.471
G1 X71.852 Y31.4854 Z-2.0998
G1 X71.85 Y31.527 Z-2.1
G1 Y61.473 Z-2.2474
G1 X71.852 Y61.5146 Z-2.2476
G1 X71.8542 Y61.529 Z-2.2477
G1 X71.8577 Y61.5432 Z-2.2478
G1 X71.8626 Y61.5569 Z-2.2479
G1 X71.8689 Y61.5701
G1 X71.8764 Y61.5826 Z-2.248
G1 X71.8851 Y61.5943 Z-2.2481
G1 X71.8949 Y61.6051
G1 X71.9057 Y61.6149 Z-2.2482
G1 X71.9174 Y61.6236 Z-2.2483
G1 X71.9299 Y61.6311 Z-2.2484
G1 X71.9431 Y61.6374
G1 X71.9568 Y61.6423 Z-2.2485
G1 X71.971 Y61.6458 Z-2.2486
G1 X71.9854 Y61.648
G1 X72.0 Y61.6487 Z-2.2487
G1 X72.0146 Y61.648 Z-2.2488
G1 X72.029 Y61.6458 Z-2.2489
G1 X72.0432 Y61.6423
G1 X72.0569 Y61.6374 Z-2.249
G1 X72.0701 Y61.6311 Z-2.2491
G1 X72.0826 Y61.6236
G1 X72.0943 Y61.6149 Z-2.2492
G1 X72.1051 Y61.6051 Z-2.2493
G1 X72.1149 Y61.5943 Z-2.2494
G1 X72.1236 Y61.5826
G1 X72.1311 Y61.5701 Z-2.2495
G1 X72.1374 Y61.5569 Z-2.2496
G1 X72.1423 Y61.5432 Z-2.2497
G1 X72.1458 Y61.529
G1 X72.148 Y61.5146 Z-2.2498
G1 X72.15 Y61.473 Z-2.25
G1 Y31.527 Z-2.3974
G1 X72.148 Y31.4854 Z-2.3976
G1 X72.1458 Y31.471 Z-2.3977
G1 X72.1423 Y31.4568 Z-2.3978
G1 X72.1374 Y31.4431 Z-2.3979
G1 X72.1311 Y31.4299
G1 X72.1236 Y31.4174 Z-2.398
G1 X72.1149 Y31.4057 Z-2.3981
G1 X72.1051 Y31.3949
G1 X72.0943 Y31.3851 Z-2.3982
G1 X72.0826 Y31.3764 Z-2.3983
G1 X72.0701 Y31.3689 Z-2.3984
G1 X72.0569 Y31.3626
G1 X72.0432 Y31.3577 Z-2.3985
G1 X72.029 Y31.3542 Z-2.3986
G1 X72.0146 Y31.352
G1 X72.0 Y31.3513 Z-2.3987
G1 X71.9854 Y31.352 Z-2.3988
G1 X71.971 Y31.3542 Z-2.3989
G1 X71.9568 Y31.3577
G1 X71.9431 Y31.3626 Z-2.399
G1 X71.9299 Y31.3689 Z-2.3991
G1 X71.9174 Y31.3764
G1 X71.9057 Y31.3851 Z-2.3992
G1 X71.8949 Y31.3949 Z-2.3993
G1 X71.8851 Y31.4057 Z-2.3994
G1 X71.8764 Y31.4174
G1 X71.8689 Y31.4299 Z-2.3995
G1 X71.8626 Y31.4431 Z-2.3996
G1 X71.8577 Y31.4568 Z-2.3997
G1 X71.8542 Y31.471
G1 X71.852 Y31.4854 Z-2.3998
G1 X71.85 Y31.527 Z-2.4
G1 Y61.473 Z-2.5474
G1 X71.852 Y61.5146 Z-2.5476
G1 X71.8542 Y61.529 Z-2.5477
G1 X71.8577 Y61.5432 Z-2.5478
G1 X71.8626 Y61.5569 Z-2.5479
G1 X71.8689 Y61.5701
G1 X71.8764 Y61.5826 Z-2.548
G1 X71.8851 Y61.5943 Z-2.5481
G1 X71.8949 Y61.6051
G1 X71.9057 Y61.6149 Z-2.5482
G1 X71.9174 Y61.6236 Z-2.5483
G1 X71.9299 Y61.6311 Z-2.5484
G1 X71.9431 Y61.6374
G1 X71.9568 Y61.6423 Z-2.5485
G1 X71.971 Y61.6458 Z-2.5486
G1 X71.9854 Y61.648
G1 X72.0 Y61.6487 Z-2.5487
G1 X72.0146 Y61.648 Z-2.5488
G1 X72.029 Y61.6458 Z-2.5489
G1 X72.0432 Y61.6423
G1 X72.0569 Y61.6374 Z-2.549
G1 X72.0701 Y61.6311 Z-2.5491
G1 X72.0826 Y61.6236
G1 X72.0943 Y61.6149 Z-2.5492
G1 X72.1051 Y61.6051 Z-2.5493
G1 X72.1149 Y61.5943 Z-2.5494
G1 X72.1236 Y61.5826
G1 X72.1311 Y61.5701 Z-2.5495
G1 X72.1374 Y61.5569 Z-2.5496
G1 X72.1423 Y61.5432 Z-2.5497
G1 X72.1458 Y61.529
G1 X72.148 Y61.5146 Z-2.5498
G1 X72.15 Y61.473 Z-2.55
G1 Y31.527 Z-2.6974
G1 X72.148 Y31.4854 Z-2.6976
G1 X72.1458 Y31.471 Z-2.6977
G1 X72.1423 Y31.4568 Z-2.6978
G1 X72.1374 Y31.4431 Z-2.6979
G1 X72.1311 Y31.4299
G1 X72.1236 Y31.4174 Z-2.698
G1 X72.1149 Y31.4057 Z-2.6981
G1 X72.1051 Y31.3949
G1 X72.0943 Y31.3851 Z-2.6982
G1 X72.0826 Y31.3764 Z-2.6983
G1 X72.0701 Y31.3689 Z-2.6984
G1 X72.0569 Y31.3626
G1 X72.0432 Y31.3577 Z-2.6985
G1 X72.029 Y31.3542 Z-2.6986
G1 X72.0146 Y31.352
G1 X72.0 Y31.3513 Z-2.6987
G1 X71.9854 Y31.352 Z-2.6988
G1 X71.971 Y31.3542 Z-2.6989
G1 X71.9568 Y31.3577
G1 X71.9431 Y31.3626 Z-2.699
G1 X71.9299 Y31.3689 Z-2.6991
G1 X71.9174 Y31.3764
G1 X71.9057 Y31.3851 Z-2.6992
G1 X71.8949 Y31.3949 Z-2.6993
G1 X71.8851 Y31.4057 Z-2.6994
G1 X71.8764 Y31.4174
G1 X71.8689 Y31.4299 Z-2.6995
G1 X71.8626 Y31.4431 Z-2.6996
G1 X71.8577 Y31.4568 Z-2.6997
G1 X71.8542 Y31.471
G1 X71.852 Y31.4854 Z-2.6998
G1 X71.85 Y31.527 Z-2.7
G1 Y61.473 Z-2.8474
G1 X71.852 Y61.5146 Z-2.8476
G1 X71.8542 Y61.529 Z-2.8477
G1 X71.8577 Y61.5432 Z-2.8478
G1 X71.8626 Y61.5569 Z-2.8479
G1 X71.8689 Y61.5701
G1 X71.8764 Y61.5826 Z-2.848
G1 X71.8851 Y61.5943 Z-2.8481
G1 X71.8949 Y61.6051
G1 X71.9057 Y61.6149 Z-2.8482
G1 X71.9174 Y61.6236 Z-2.8483
G1 X71.9299 Y61.6311 Z-2.8484
G1 X71.9431 Y61.6374
G1 X71.9568 Y61.6423 Z-2.8485
G1 X71.971 Y61.6458 Z-2.8486
G1 X71.9854 Y61.648
G1 X72.0 Y61.6487 Z-2.8487
G1 X72.0146 Y61.648 Z-2.8488
G1 X72.029 Y61.6458 Z-2.8489
G1 X72.0432 Y61.6423
G1 X72.0569 Y61.6374 Z-2.849
G1 X72.0701 Y61.6311 Z-2.8491
G1 X72.0826 Y61.6236
G1 X72.0943 Y61.6149 Z-2.8492
G1 X72.1051 Y61.6051 Z-2.8493
G1 X72.1149 Y61.5943 Z-2.8494
G1 X72.1236 Y61.5826
G1 X72.1311 Y61.5701 Z-2.8495
G1 X72.1374 Y61.5569 Z-2.8496
G1 X72.1423 Y61.5432 Z-2.8497
G1 X72.1458 Y61.529
G1 X72.148 Y61.5146 Z-2.8498
G1 X72.15 Y61.473 Z-2.85
G1 Y31.527 Z-2.9974
G1 X72.148 Y31.4854 Z-2.9976
G1 X72.1458 Y31.471 Z-2.9977
G1 X72.1423 Y31.4568 Z-2.9978
G1 X72.1374 Y31.4431 Z-2.9979
G1 X72.1311 Y31.4299
G1 X72.1236 Y31.4174 Z-2.998
G1 X72.1149 Y31.4057 Z-2.9981
G1 X72.1051 Y31.3949
G1 X72.0943 Y31.3851 Z-2.9982
G1 X72.0826 Y31.3764 Z-2.9983
G1 X72.0701 Y31.3689 Z-2.9984
G1 X72.0569 Y31.3626
G1 X72.0432 Y31.3577 Z-2.9985
G1 X72.029 Y31.3542 Z-2.9986
G1 X72.0146 Y31.352
G1 X72.0 Y31.3513 Z-2.9987
G1 X71.9854 Y31.352 Z-2.9988
G1 X71.971 Y31.3542 Z-2.9989
G1 X71.9568 Y31.3577
G1 X71.9431 Y31.3626 Z-2.999
G1 X71.9299 Y31.3689 Z-2.9991
G1 X71.9174 Y31.3764
G1 X71.9057 Y31.3851 Z-2.9992
G1 X71.8949 Y31.3949 Z-2.9993
G1 X71.8851 Y31.4057 Z-2.9994
G1 X71.8764 Y31.4174
G1 X71.8689 Y31.4299 Z-2.9995
G1 X71.8626 Y31.4431 Z-2.9996
G1 X71.8577 Y31.4568 Z-2.9997
G1 X71.8542 Y31.471
G1 X71.852 Y31.4854 Z-2.9998
G1 X71.85 Y31.527 Z-3.0
G1 Y61.473 Z-3.1474
G1 X71.852 Y61.5146 Z-3.1476
G1 X71.8542 Y61.529 Z-3.1477
G1 X71.8577 Y61.5432 Z-3.1478
G1 X71.8626 Y61.5569 Z-3.1479
G1 X71.8689 Y61.5701
G1 X71.8764 Y61.5826 Z-3.148
G1 X71.8851 Y61.5943 Z-3.1481
G1 X71.8949 Y61.6051
G1 X71.9057 Y61.6149 Z-3.1482
G1 X71.9174 Y61.6236 Z-3.1483
G1 X71.9299 Y61.6311 Z-3.1484
G1 X71.9431 Y61.6374
G1 X71.9568 Y61.6423 Z-3.1485
G1 X71.971 Y61.6458 Z-3.1486
G1 X71.9854 Y61.648
G1 X72.0 Y61.6487 Z-3.1487
G1 X72.0146 Y61.648 Z-3.1488
G1 X72.029 Y61.6458 Z-3.1489
G1 X72.0432 Y61.6423
G1 X72.0569 Y61.6374 Z-3.149
G1 X72.0701 Y61.6311 Z-3.1491
G1 X72.0826 Y61.6236
G1 X72.0943 Y61.6149 Z-3.1492
G1 X72.1051 Y61.6051 Z-3.1493
G1 X72.1149 Y61.5943 Z-3.1494
G1 X72.1236 Y61.5826
G1 X72.1311 Y61.5701 Z-3.1495
G1 X72.1374 Y61.5569 Z-3.1496
G1 X72.1423 Y61.5432 Z-3.1497
G1 X72.1458 Y61.529
G1 X72.148 Y61.5146 Z-3.1498
G1 X72.15 Y61.473 Z-3.15
G1 Y31.527 Z-3.2974
G1 X72.148 Y31.4854 Z-3.2976
G1 X72.1458 Y31.471 Z-3.2977
G1 X72.1423 Y31.4568 Z-3.2978
G1 X72.1374 Y31.4431 Z-3.2979
G1 X72.1311 Y31.4299
G1 X72.1236 Y31.4174 Z-3.298
G1 X72.1149 Y31.4057 Z-3.2981
G1 X72.1051 Y31.3949
G1 X72.0943 Y31.3851 Z-3.2982
G1 X72.0826 Y31.3764 Z-3.2983
G1 X72.0701 Y31.3689 Z-3.2984
G1 X72.0569 Y31.3626
G1 X72.0432 Y31.3577 Z-3.2985
G1 X72.029 Y31.3542 Z-3.2986
G1 X72.0146 Y31.352
G1 X72.0 Y31.3513 Z-3.2987
G1 X71.9854 Y31.352 Z-3.2988
G1 X71.971 Y31.3542 Z-3.2989
G1 X71.9568 Y31.3577
G1 X71.9431 Y31.3626 Z-3.299
G1 X71.9299 Y31.3689 Z-3.2991
G1 X71.9174 Y31.3764
G1 X71.9057 Y31.3851 Z-3.2992
G1 X71.8949 Y31.3949 Z-3.2993
G1 X71.8851 Y31.4057 Z-3.2994
G1 X71.8764 Y31.4174
G1 X71.8689 Y31.4299 Z-3.2995
G1 X71.8626 Y31.4431 Z-3.2996
G1 X71.8577 Y31.4568 Z-3.2997
G1 X71.8542 Y31.471
G1 X71.852 Y31.4854 Z-3.2998
G1 X71.85 Y31.527 Z-3.3
G1 Y61.473 Z-3.4474
G1 X71.852 Y61.5146 Z-3.4476
G1 X71.8542 Y61.529 Z-3.4477
G1 X71.8577 Y61.5432 Z-3.4478
G1 X71.8626 Y61.5569 Z-3.4479
G1 X71.8689 Y61.5701
G1 X71.8764 Y61.5826 Z-3.448
G1 X71.8851 Y61.5943 Z-3.4481
G1 X71.8949 Y61.6051
G1 X71.9057 Y61.6149 Z-3.4482
G1 X71.9174 Y61.6236 Z-3.4483
G1 X71.9299 Y61.6311 Z-3.4484
G1 X71.9431 Y61.6374
G1 X71.9568 Y61.6423 Z-3.4485
G1 X71.971 Y61.6458 Z-3.4486
G1 X71.9854 Y61.648
G1 X72.0 Y61.6487 Z-3.4487
G1 X72.0146 Y61.648 Z-3.4488
G1 X72.029 Y61.6458 Z-3.4489
G1 X72.0432 Y61.6423
G1 X72.0569 Y61.6374 Z-3.449
G1 X72.0701 Y61.6311 Z-3.4491
G1 X72.0826 Y61.6236
G1 X72.0943 Y61.6149 Z-3.4492
G1 X72.1051 Y61.6051 Z-3.4493
G1 X72.1149 Y61.5943 Z-3.4494
G1 X72.1236 Y61.5826
G1 X72.1311 Y61.5701 Z-3.4495
G1 X72.1374 Y61.5569 Z-3.4496
G1 X72.1423 Y61.5432 Z-3.4497
G1 X72.1458 Y61.529
G1 X72.148 Y61.5146 Z-3.4498
G1 X72.15 Y61.473 Z-3.45
G1 Y31.527 Z-3.5974
G1 X72.148 Y31.4854 Z-3.5976
G1 X72.1458 Y31.471 Z-3.5977
G1 X72.1423 Y31.4568 Z-3.5978
G1 X72.1374 Y31.4431 Z-3.5979
G1 X72.1311 Y31.4299
G1 X72.1236 Y31.4174 Z-3.598
G1 X72.1149 Y31.4057 Z-3.5981
G1 X72.1051 Y31.3949
G1 X72.0943 Y31.3851 Z-3.5982
G1 X72.0826 Y31.3764 Z-3.5983
G1 X72.0701 Y31.3689 Z-3.5984
G1 X72.0569 Y31.3626
G1 X72.0432 Y31.3577 Z-3.5985
G1 X72.029 Y31.3542 Z-3.5986
G1 X72.0146 Y31.352
G1 X72.0 Y31.3513 Z-3.5987
G1 X71.9854 Y31.352 Z-3.5988
G1 X71.971 Y31.3542 Z-3.5989
G1 X71.9568 Y31.3577
G1 X71.9431 Y31.3626 Z-3.599
G1 X71.9299 Y31.3689 Z-3.5991
G1 X71.9174 Y31.3764
G1 X71.9057 Y31.3851 Z-3.5992
G1 X71.8949 Y31.3949 Z-3.5993
G1 X71.8851 Y31.4057 Z-3.5994
G1 X71.8764 Y31.4174
G1 X71.8689 Y31.4299 Z-3.5995
G1 X71.8626 Y31.4431 Z-3.5996
G1 X71.8577 Y31.4568 Z-3.5997
G1 X71.8542 Y31.471
G1 X71.852 Y31.4854 Z-3.5998
G1 X71.85 Y31.527 Z-3.6
G1 Y61.473 Z-3.7474
G1 X71.852 Y61.5146 Z-3.7476
G1 X71.8542 Y61.529 Z-3.7477
G1 X71.8577 Y61.5432 Z-3.7478
G1 X71.8626 Y61.5569 Z-3.7479
G1 X71.8689 Y61.5701
G1 X71.8764 Y61.5826 Z-3.748
G1 X71.8851 Y61.5943 Z-3.7481
G1 X71.8949 Y61.6051
G1 X71.9057 Y61.6149 Z-3.7482
G1 X71.9174 Y61.6236 Z-3.7483
G1 X71.9299 Y61.6311 Z-3.7484
G1 X71.9431 Y61.6374
G1 X71.9568 Y61.6423 Z-3.7485
G1 X71.971 Y61.6458 Z-3.7486
G1 X71.9854 Y61.648
G1 X72.0 Y61.6487 Z-3.7487
G1 X72.0146 Y61.648 Z-3.7488
G1 X72.029 Y61.6458 Z-3.7489
G1 X72.0432 Y61.6423
G1 X72.0569 Y61.6374 Z-3.749
G1 X72.0701 Y61.6311 Z-3.7491
G1 X72.0826 Y61.6236
G1 X72.0943 Y61.6149 Z-3.7492
G1 X72.1051 Y61.6051 Z-3.7493
G1 X72.1149 Y61.5943 Z-3.7494
G1 X72.1236 Y61.5826
G1 X72.1311 Y61.5701 Z-3.7495
G1 X72.1374 Y61.5569 Z-3.7496
G1 X72.1423 Y61.5432 Z-3.7497
G1 X72.1458 Y61.529
G1 X72.148 Y61.5146 Z-3.7498
G1 X72.15 Y61.473 Z-3.75
G1 Y31.527 Z-3.8974
G1 X72.148 Y31.4854 Z-3.8976
G1 X72.1458 Y31.471 Z-3.8977
G1 X72.1423 Y31.4568 Z-3.8978
G1 X72.1374 Y31.4431 Z-3.8979
G1 X72.1311 Y31.4299
G1 X72.1236 Y31.4174 Z-3.898
G1 X72.1149 Y31.4057 Z-3.8981
G1 X72.1051 Y31.3949
G1 X72.0943 Y31.3851 Z-3.8982
G1 X72.0826 Y31.3764 Z-3.8983
G1 X72.0701 Y31.3689 Z-3.8984
G1 X72.0569 Y31.3626
G1 X72.0432 Y31.3577 Z-3.8985
G1 X72.029 Y31.3542 Z-3.8986
G1 X72.0146 Y31.352
G1 X72.0 Y31.3513 Z-3.8987
G1 X71.9854 Y31.352 Z-3.8988
G1 X71.971 Y31.3542 Z-3.8989
G1 X71.9568 Y31.3577
G1 X71.9431 Y31.3626 Z-3.899
G1 X71.9299 Y31.3689 Z-3.8991
G1 X71.9174 Y31.3764
G1 X71.9057 Y31.3851 Z-3.8992
G1 X71.8949 Y31.3949 Z-3.8993
G1 X71.8851 Y31.4057 Z-3.8994
G1 X71.8764 Y31.4174
G1 X71.8689 Y31.4299 Z-3.8995
G1 X71.8626 Y31.4431 Z-3.8996
G1 X71.8577 Y31.4568 Z-3.8997
G1 X71.8542 Y31.471
G1 X71.852 Y31.4854 Z-3.8998
G1 X71.85 Y31.527 Z-3.9
G1 Y61.473 Z-3.9983
G1 X71.852 Y61.5146 Z-3.9984
G1 X71.8542 Y61.529 Z-3.9985
G1 X71.8577 Y61.5432
G1 X71.8626 Y61.5569 Z-3.9986
G1 X71.8689 Y61.5701
G1 X71.8764 Y61.5826 Z-3.9987
G1 X71.8851 Y61.5943
G1 X71.8949 Y61.6051 Z-3.9988
G1 X71.9057 Y61.6149
G1 X71.9174 Y61.6236 Z-3.9989
G1 X71.9299 Y61.6311
G1 X71.9431 Y61.6374 Z-3.999
G1 X71.9568 Y61.6423
G1 X71.971 Y61.6458
G1 X71.9854 Y61.648 Z-3.9991
G1 X72.0 Y61.6487
G1 X72.0146 Y61.648 Z-3.9992
G1 X72.029 Y61.6458
G1 X72.0432 Y61.6423 Z-3.9993
G1 X72.0569 Y61.6374
G1 X72.0701 Y61.6311 Z-3.9994
G1 X72.0826 Y61.6236
G1 X72.0943 Y61.6149 Z-3.9995
G1 X72.1051 Y61.6051
G1 X72.1149 Y61.5943 Z-3.9996
G1 X72.1236 Y61.5826
G1 X72.1311 Y61.5701 Z-3.9997
G1 X72.1374 Y61.5569
G1 X72.1423 Y61.5432 Z-3.9998
G1 X72.1458 Y61.529
G1 X72.148 Y61.5146 Z-3.9999
G1 X72.15 Y61.473 Z-4.0
G1 Y31.527 Z-4.0983
G1 X72.148 Y31.4854 Z-4.0984
G1 X72.1458 Y31.471 Z-4.0985
G1 X72.1423 Y31.4568
G1 X72.1374 Y31.4431 Z-4.0986
G1 X72.1311 Y31.4299
G1 X72.1236 Y31.4174 Z-4.0987
G1 X72.1149 Y31.4057
G1 X72.1051 Y31.3949 Z-4.0988
G1 X72.0943 Y31.3851
G1 X72.0826 Y31.3764 Z-4.0989
G1 X72.0701 Y31.3689
G1 X72.0569 Y31.3626 Z-4.099
G1 X72.0432 Y31.3577
G1 X72.029 Y31.3542
G1 X72.0146 Y31.352 Z-4.0991
G1 X72.0 Y31.3513
G1 X71.9854 Y31.352 Z-4.0992
G1 X71.971 Y31.3542
G1 X71.9568 Y31.3577 Z-4.0993
G1 X71.9431 Y31.3626
G1 X71.9299 Y31.3689 Z-4.0994
G1 X71.9174 Y31.3764
G1 X71.9057 Y31.3851 Z-4.0995
G1 X71.8949 Y31.3949
G1 X71.8851 Y31.4057 Z-4.0996
G1 X71.8764 Y31.4174
G1 X71.8689 Y31.4299 Z-4.0997
G1 X71.8626 Y31.4431
G1 X71.8577 Y31.4568 Z-4.0998
G1 X71.8542 Y31.471
G1 X71.852 Y31.4854 Z-4.0999
G1 X71.85 Y31.527 Z-4.1
G1 Y61.473 Z-4.1491
G1 X71.852 Y61.5146 Z-4.1492
G1 X71.8542 Y61.529
G1 X71.8577 Y61.5432 Z-4.1493
G1 X71.8626 Y61.5569
G1 X71.8689 Y61.5701
G1 X71.8764 Y61.5826
G1 X71.8851 Y61.5943 Z-4.1494
G1 X71.8949 Y61.6051
G1 X71.9057 Y61.6149
G1 X71.9174 Y61.6236
G1 X71.9299 Y61.6311 Z-4.1495
G1 X71.9431 Y61.6374
G1 X71.9568 Y61.6423
G1 X71.971 Y61.6458
G1 X71.9854 Y61.648
G1 X72.0 Y61.6487 Z-4.1496
G1 X72.0146 Y61.648
G1 X72.029 Y61.6458
G1 X72.0432 Y61.6423
G1 X72.0569 Y61.6374 Z-4.1497
G1 X72.0701 Y61.6311
G1 X72.0826 Y61.6236
G1 X72.0943 Y61.6149
G1 X72.1051 Y61.6051 Z-4.1498
G1 X72.1149 Y61.5943
G1 X72.1236 Y61.5826
G1 X72.1311 Y61.5701
G1 X72.1374 Y61.5569 Z-4.1499
G1 X72.1423 Y61.5432
G1 X72.1458 Y61.529
G1 X72.148 Y61.5146
G1 X72.15 Y61.473 Z-4.15
G1 Y31.527 Z-4.1991
G1 X72.148 Y31.4854 Z-4.1992
G1 X72.1458 Y31.471
G1 X72.1423 Y31.4568 Z-4.1993
G1 X72.1374 Y31.4431
G1 X72.1311 Y31.4299
G1 X72.1236 Y31.4174
G1 X72.1149 Y31.4057 Z-4.1994
G1 X72.1051 Y31.3949
G1 X72.0943 Y31.3851
G1 X72.0826 Y31.3764
G1 X72.0701 Y31.3689 Z-4.1995
G1 X72.0569 Y31.3626
G1 X72.0432 Y31.3577
G1 X72.029 Y31.3542
G1 X72.0146 Y31.352
G1 X72.0 Y31.3513 Z-4.1996
G1 X71.9854 Y31.352
G1 X71.971 Y31.3542
G1 X71.9568 Y31.3577
G1 X71.9431 Y31.3626 Z-4.1997
G1 X71.9299 Y31.3689
G1 X71.9174 Y31.3764
G1 X71.9057 Y31.3851
G1 X71.8949 Y31.3949 Z-4.1998
G1 X71.8851 Y31.4057
G1 X71.8764 Y31.4174
G1 X71.8689 Y31.4299
G1 X71.8626 Y31.4431 Z-4.1999
G1 X71.8577 Y31.4568
G1 X71.8542 Y31.471
G1 X71.852 Y31.4854
G1 X71.85 Y31.527 Z-4.2
G1 Y61.473
G1 X71.852 Y61.5146
G1 X71.8542 Y61.529
G1 X71.8577 Y61.5432
G1 X71.8626 Y61.5569
G1 X71.8689 Y61.5701
G1 X71.8764 Y61.5826
G1 X71.8851 Y61.5943
G1 X71.8949 Y61.6051
G1 X71.9057 Y61.6149
G1 X71.9174 Y61.6236
G1 X71.9299 Y61.6311
G1 X71.9431 Y61.6374
G1 X71.9568 Y61.6423
G1 X71.971 Y61.6458
G1 X71.9854 Y61.648
G1 X72.0 Y61.6487
G1 X72.0146 Y61.648
G1 X72.029 Y61.6458
G1 X72.0432 Y61.6423
G1 X72.0569 Y61.6374
G1 X72.0701 Y61.6311
G1 X72.0826 Y61.6236
G1 X72.0943 Y61.6149
G1 X72.1051 Y61.6051
G1 X72.1149 Y61.5943
G1 X72.1236 Y61.5826
G1 X72.1311 Y61.5701
G1 X72.1374 Y61.5569
G1 X72.1423 Y61.5432
G1 X72.1458 Y61.529
G1 X72.148 Y61.5146
G1 X72.15 Y61.473
G1 Y31.527
G1 X72.148 Y31.4854
G1 X72.1458 Y31.471
G1 X72.1423 Y31.4568
G1 X72.1374 Y31.4431
G1 X72.1311 Y31.4299
G1 X72.1236 Y31.4174
G1 X72.1149 Y31.4057
G1 X72.1051 Y31.3949
G1 X72.0943 Y31.3851
G1 X72.0826 Y31.3764
G1 X72.0701 Y31.3689
G1 X72.0569 Y31.3626
G1 X72.0432 Y31.3577
G1 X72.029 Y31.3542
G1 X72.0146 Y31.352
G1 X72.0 Y31.3513
G1 X71.9854 Y31.352
G1 X71.971 Y31.3542
G1 X71.9568 Y31.3577
G1 X71.9431 Y31.3626
G1 X71.9299 Y31.3689
G1 X71.9174 Y31.3764
G1 X71.9057 Y31.3851
G1 X71.8949 Y31.3949
G1 X71.8851 Y31.4057
G1 X71.8764 Y31.4174
G1 X71.8689 Y31.4299
G1 X71.8626 Y31.4431
G1 X71.8577 Y31.4568
G1 X71.8542 Y31.471
G1 X71.852 Y31.4854
G1 X71.85 Y31.527
G0 Z3.0
G0 X87.85
G0 Z1.0
G1 F200.0 Z0.0
G1 F700.0 Y61.473 Z-0.1474
G1 X87.852 Y61.5146 Z-0.1476
G1 X87.8542 Y61.529 Z-0.1477
G1 X87.8577 Y61.5432 Z-0.1478
G1 X87.8626 Y61.5569 Z-0.1479
G1 X87.8689 Y61.5701
G1 X87.8764 Y61.5826 Z-0.148
G1 X87.8851 Y61.5943 Z-0.1481
G1 X87.8949 Y61.6051
G1 X87.9057 Y61.6149 Z-0.1482
G1 X87.9174 Y61.6236 Z-0.1483
G1 X87.9299 Y61.6311 Z-0.1484
G1 X87.9431 Y61.6374
G1 X87.9568 Y61.6423 Z-0.1485
G1 X87.971 Y61.6458 Z-0.1486
G1 X87.9854 Y61.648
G1 X88.0 Y61.6487 Z-0.1487
G1 X88.0146 Y61.648 Z-0.1488
G1 X88.029 Y61.6458 Z-0.1489
G1 X88.0432 Y61.6423
G1 X88.0569 Y61.6374 Z-0.149
G1 X88.0701 Y61.6311 Z-0.1491
G1 X88.0826 Y61.6236
G1 X88.0943 Y61.6149 Z-0.1492
G1 X88.1051 Y61.6051 Z-0.1493
G1 X88.1149 Y61.5943 Z-0.1494
G1 X88.1236 Y61.5826
G1 X88.1311 Y61.5701 Z-0.1495
G1 X88.1374 Y61.5569 Z-0.1496
G1 X88.1423 Y61.5432 Z-0.1497
G1 X88.1458 Y61.529
G1 X88.148 Y61.5146 Z-0.1498
G1 X88.15 Y61.473 Z-0.15
G1 Y31.527 Z-0.2974
G1 X88.148 Y31.4854 Z-0.2976
G1 X88.1458 Y31.471 Z-0.2977
G1 X88.1423 Y31.4568 Z-0.2978
G1 X88.1374 Y31.4431 Z-0.2979
G1 X88.1311 Y31.4299
G1 X88.1236 Y31.4174 Z-0.298
G1 X88.1149 Y31.4057 Z-0.2981
G1 X88.1051 Y31.3949
G1 X88.0943 Y31.3851 Z-0.2982
G1 X88.0826 Y31.3764 Z-0.2983
G1 X88.0701 Y31.3689 Z-0.2984
G1 X88.0569 Y31.3626
G1 X88.0432 Y31.3577 Z-0.2985
G1 X88.029 Y31.3542 Z-0.2986
G1 X88.0146 Y31.352
G1 X88.0 Y31.3513 Z-0.2987
G1 X87.9854 Y31.352 Z-0.2988
G1 X87.971 Y31.3542 Z-0.2989
G1 X87.9568 Y31.3577
G1 X87.9431 Y31.3626 Z-0.299
G1 X87.9299 Y31.3689 Z-0.2991
G1 X87.9174 Y31.3764
G1 X87.9057 Y31.3851 Z-0.2992
G1 X87.8949 Y31.3949 Z-0.2993
G1 X87.8851 Y31.4057 Z-0.2994
G1 X87.8764 Y31.4174
G1 X87.8689 Y31.4299 Z-0.2995
G1 X87.8626 Y31.4431 Z-0.2996
G1 X87.8577 Y31.4568 Z-0.2997
G1 X87.8542 Y31.471
G1 X87.852 Y31.4854 Z-0.2998
G1 X87.85 Y31.527 Z-0.3
G1 Y61.473 Z-0.4474
G1 X87.852 Y61.5146 Z-0.4476
G1 X87.8542 Y61.529 Z-0.4477
G1 X87.8577 Y61.5432 Z-0.4478
G1 X87.8626 Y61.5569 Z-0.4479
G1 X87.8689 Y61.5701
G1 X87.8764 Y61.5826 Z-0.448
G1 X87.8851 Y61.5943 Z-0.4481
G1 X87.8949 Y61.6051
G1 X87.9057 Y61.6149 Z-0.4482
G1 X87.9174 Y61.6236 Z-0.4483
G1 X87.9299 Y61.6311 Z-0.4484
G1 X87.9431 Y61.6374
G1 X87.9568 Y61.6423 Z-0.4485
G1 X87.971 Y61.6458 Z-0.4486
G1 X87.9854 Y61.648
G1 X88.0 Y61.6487 Z-0.4487
G1 X88.0146 Y61.648 Z-0.4488
G1 X88.029 Y61.6458 Z-0.4489
G1 X88.0432 Y61.6423
G1 X88.0569 Y61.6374 Z-0.449
G1 X88.0701 Y61.6311 Z-0.4491
G1 X88.0826 Y61.6236
G1 X88.0943 Y61.6149 Z-0.4492
G1 X88.1051 Y61.6051 Z-0.4493
G1 X88.1149 Y61.5943 Z-0.4494
G1 X88.1236 Y61.5826
G1 X88.1311 Y61.5701 Z-0.4495
G1 X88.1374 Y61.5569 Z-0.4496
G1 X88.1423 Y61.5432 Z-0.4497
G1 X88.1458 Y61.529
G1 X88.148 Y61.5146 Z-0.4498
G1 X88.15 Y61.473 Z-0.45
G1 Y31.527 Z-0.5974
G1 X88.148 Y31.4854 Z-0.5976
G1 X88.1458 Y31.471 Z-0.5977
G1 X88.1423 Y31.4568 Z-0.5978
G1 X88.1374 Y31.4431 Z-0.5979
G1 X88.1311 Y31.4299
G1 X88.1236 Y31.4174 Z-0.598
G1 X88.1149 Y31.4057 Z-0.5981
G1 X88.1051 Y31.3949
G1 X88.0943 Y31.3851 Z-0.5982
G1 X88.0826 Y31.3764 Z-0.5983
G1 X88.0701 Y31.3689 Z-0.5984
G1 X88.0569 Y31.3626
G1 X88.0432 Y31.3577 Z-0.5985
G1 X88.029 Y31.3542 Z-0.5986
G1 X88.0146 Y31.352
G1 X88.0 Y31.3513 Z-0.5987
G1 X87.9854 Y31.352 Z-0.5988
G1 X87.971 Y31.3542 Z-0.5989
G1 X87.9568 Y31.3577
G1 X87.9431 Y31.3626 Z-0.599
G1 X87.9299 Y31.3689 Z-0.5991
G1 X87.9174 Y31.3764
G1 X87.9057 Y31.3851 Z-0.5992
G1 X87.8949 Y31.3949 Z-0.5993
G1 X87.8851 Y31.4057 Z-0.5994
G1 X87.8764 Y31.4174
G1 X87.8689 Y31.4299 Z-0.5995
G1 X87.8626 Y31.4431 Z-0.5996
G1 X87.8577 Y31.4568 Z-0.5997
G1 X87.8542 Y31.471
G1 X87.852 Y31.4854 Z-0.5998
G1 X87.85 Y31.527 Z-0.6
G1 Y61.473 Z-0.7474
G1 X87.852 Y61.5146 Z-0.7476
G1 X87.8542 Y61.529 Z-0.7477
G1 X87.8577 Y61.5432 Z-0.7478
G1 X87.8626 Y61.5569 Z-0.7479
G1 X87.8689 Y61.5701
G1 X87.8764 Y61.5826 Z-0.748
G1 X87.8851 Y61.5943 Z-0.7481
G1 X87.8949 Y61.6051
G1 X87.9057 Y61.6149 Z-0.7482
G1 X87.9174 Y61.6236 Z-0.7483
G1 X87.9299 Y61.6311 Z-0.7484
G1 X87.9431 Y61.6374
G1 X87.9568 Y61.6423 Z-0.7485
G1 X87.971 Y61.6458 Z-0.7486
G1 X87.9854 Y61.648
G1 X88.0 Y61.6487 Z-0.7487
G1 X88.0146 Y61.648 Z-0.7488
G1 X88.029 Y61.6458 Z-0.7489
G1 X88.0432 Y61.6423
G1 X88.0569 Y61.6374 Z-0.749
G1 X88.0701 Y61.6311 Z-0.7491
G1 X88.0826 Y61.6236
G1 X88.0943 Y61.6149 Z-0.7492
G1 X88.1051 Y61.6051 Z-0.7493
G1 X88.1149 Y61.5943 Z-0.7494
G1 X88.1236 Y61.5826
G1 X88.1311 Y61.5701 Z-0.7495
G1 X88.1374 Y61.5569 Z-0.7496
G1 X88.1423 Y61.5432 Z-0.7497
G1 X88.1458 Y61.529
G1 X88.148 Y61.5146 Z-0.7498
G1 X88.15 Y61.473 Z-0.75
G1 Y31.527 Z-0.8974
G1 X88.148 Y31.4854 Z-0.8976
G1 X88.1458 Y31.471 Z-0.8977
G1 X88.1423 Y31.4568 Z-0.8978
G1 X88.1374 Y31.4431 Z-0.8979
G1 X88.1311 Y31.4299
G1 X88.1236 Y31.4174 Z-0.898
G1 X88.1149 Y31.4057 Z-0.8981
G1 X88.1051 Y31.3949
G1 X88.0943 Y31.3851 Z-0.8982
G1 X88.0826 Y31.3764 Z-0.8983
G1 X88.0701 Y31.3689 Z-0.8984
G1 X88.0569 Y31.3626
G1 X88.0432 Y31.3577 Z-0.8985
G1 X88.029 Y31.3542 Z-0.8986
G1 X88.0146 Y31.352
G1 X88.0 Y31.3513 Z-0.8987
G1 X87.9854 Y31.352 Z-0.8988
G1 X87.971 Y31.3542 Z-0.8989
G1 X87.9568 Y31.3577
G1 X87.9431 Y31.3626 Z-0.899
G1 X87.9299 Y31.3689 Z-0.8991
G1 X87.9174 Y31.3764
G1 X87.9057 Y31.3851 Z-0.8992
G1 X87.8949 Y31.3949 Z-0.8993
G1 X87.8851 Y31.4057 Z-0.8994
G1 X87.8764 Y31.4174
G1 X87.8689 Y31.4299 Z-0.8995
G1 X87.8626 Y31.4431 Z-0.8996
G1 X87.8577 Y31.4568 Z-0.8997
G1 X87.8542 Y31.471
G1 X87.852 Y31.4854 Z-0.8998
G1 X87.85 Y31.527 Z-0.9
G1 Y61.473 Z-1.0474
G1 X87.852 Y61.5146 Z-1.0476
G1 X87.8542 Y61.529 Z-1.0477
G1 X87.8577 Y61.5432 Z-1.0478
G1 X87.8626 Y61.5569 Z-1.0479
G1 X87.8689 Y61.5701
G1 X87.8764 Y61.5826 Z-1.048
G1 X87.8851 Y61.5943 Z-1.0481
G1 X87.8949 Y61.6051
G1 X87.9057 Y61.6149 Z-1.0482
G1 X87.9174 Y61.6236 Z-1.0483
G1 X87.9299 Y61.6311 Z-1.0484
G1 X87.9431 Y61.6374
G1 X87.9568 Y61.6423 Z-1.0485
G1 X87.971 Y61.6458 Z-1.0486
G1 X87.9854 Y61.648
G1 X88.0 Y61.6487 Z-1.0487
G1 X88.0146 Y61.648 Z-1.0488
G1 X88.029 Y61.6458 Z-1.0489
G1 X88.0432 Y61.6423
G1 X88.0569 Y61.6374 Z-1.049
G1 X88.0701 Y61.6311 Z-1.0491
G1 X88.0826 Y61.6236
G1 X88.0943 Y61.6149 Z-1.0492
G1 X88.1051 Y61.6051 Z-1.0493
G1 X88.1149 Y61.5943 Z-1.0494
G1 X88.1236 Y61.5826
G1 X88.1311 Y61.5701 Z-1.0495
G1 X88.1374 Y61.5569 Z-1.0496
G1 X88.1423 Y61.5432 Z-1.0497
G1 X88.1458 Y61.529
G1 X88.148 Y61.5146 Z-1.0498
G1 X88.15 Y61.473 Z-1.05
G1 Y31.527 Z-1.1974
G1 X88.148 Y31.4854 Z-1.1976
G1 X88.1458 Y31.471 Z-1.1977
G1 X88.1423 Y31.4568 Z-1.1978
G1 X88.1374 Y31.4431 Z-1.1979
G1 X88.1311 Y31.4299
G1 X88.1236 Y31.4174 Z-1.198
G1 X88.1149 Y31.4057 Z-1.1981
G1 X88.1051 Y31.3949
G1 X88.0943 Y31.3851 Z-1.1982
G1 X88.0826 Y31.3764 Z-1.1983
G1 X88.0701 Y31.3689 Z-1.1984
G1 X88.0569 Y31.3626
G1 X88.0432 Y31.3577 Z-1.1985
G1 X88.029 Y31.3542 Z-1.1986
G1 X88.0146 Y31.352
G1 X88.0 Y31.3513 Z-1.1987
G1 X87.9854 Y31.352 Z-1.1988
G1 X87.971 Y31.3542 Z-1.1989
G1 X87.9568 Y31.3577
G1 X87.9431 Y31.3626 Z-1.199
G1 X87.9299 Y31.3689 Z-1.1991
G1 X87.9174 Y31.3764
G1 X87.9057 Y31.3851 Z-1.1992
G1 X87.8949 Y31.3949 Z-1.1993
G1 X87.8851 Y31.4057 Z-1.1994
G1 X87.8764 Y31.4174
G1 X87.8689 Y31.4299 Z-1.1995
G1 X87.8626 Y31.4431 Z-1.1996
G1 X87.8577 Y31.4568 Z-1.1997
G1 X87.8542 Y31.471
G1 X87.852 Y31.4854 Z-1.1998
G1 X87.85 Y31.527 Z-1.2
G1 Y61.473 Z-1.3474
G1 X87.852 Y61.5146 Z-1.3476
G1 X87.8542 Y61.529 Z-1.3477
G1 X87.8577 Y61.5432 Z-1.3478
G1 X87.8626 Y61.5569 Z-1.3479
G1 X87.8689 Y61.5701
G1 X87.8764 Y61.5826 Z-1.348
G1 X87.8851 Y61.5943 Z-1.3481
G1 X87.8949 Y61.6051
G1 X87.9057 Y61.6149 Z-1.3482
G1 X87.9174 Y61.6236 Z-1.3483
G1 X87.9299 Y61.6311 Z-1.3484
G1 X87.9431 Y61.6374
G1 X87.9568 Y61.6423 Z-1.3485
G1 X87.971 Y61.6458 Z-1.3486
G1 X87.9854 Y61.648
G1 X88.0 Y61.6487 Z-1.3487
G1 X88.0146 Y61.648 Z-1.3488
G1 X88.029 Y61.6458 Z-1.3489
G1 X88.0432 Y61.6423
G1 X88.0569 Y61.6374 Z-1.349
G1 X88.0701 Y61.6311 Z-1.3491
G1 X88.0826 Y61.6236
G1 X88.0943 Y61.6149 Z-1.3492
G1 X88.1051 Y61.6051 Z-1.3493
G1 X88.1149 Y61.5943 Z-1.3494
