; G-Code generated by Simplify3D(R) Version 4.1.2
; Feb 20, 2021 at 3:09:04 PM
; Settings Summary
;   processName,Process1
;   applyToModels,210214_DispHookRight_V2,210214_DispHookRight_V2(2),210214_DispHookRight_V2(3),210214_DispHookRight_V2(4),210214_DispHookRight_V2(5),210214_DispHookRight_V2(6)
;   profileName,ZYYX Pro - SwiftTool Multi0.4 V18 RC2 (modified)
;   profileVersion,2020-12-30 15:19:17
;   baseProfile,ZYYX Pro
;   printMaterial,ZYYX ABS
;   printQuality,Medium
;   printExtruders,
;   extruderName,Primary Extruder
;   extruderToolheadNumber,0
;   extruderDiameter,0.4
;   extruderAutoWidth,0
;   extruderWidth,0.4
;   extrusionMultiplier,1
;   extruderUseRetract,1
;   extruderRetractionDistance,0.75
;   extruderExtraRestartDistance,0
;   extruderRetractionZLift,0
;   extruderRetractionSpeed,702
;   extruderUseCoasting,0
;   extruderCoastingDistance,0.2
;   extruderUseWipe,0
;   extruderWipeDistance,2
;   primaryExtruder,0
;   layerHeight,0.2
;   topSolidLayers,5
;   bottomSolidLayers,5
;   perimeterOutlines,3
;   printPerimetersInsideOut,1
;   startPointOption,2
;   startPointOriginX,300
;   startPointOriginY,300
;   sequentialIslands,0
;   spiralVaseMode,0
;   firstLayerHeightPercentage,150
;   firstLayerWidthPercentage,100
;   firstLayerUnderspeed,0.7
;   useRaft,1
;   raftExtruder,0
;   raftTopLayers,3
;   raftBaseLayers,3
;   raftOffset,4
;   raftSeparationDistance,0.03
;   raftTopInfill,60
;   aboveRaftSpeedMultiplier,0.3
;   useSkirt,1
;   skirtExtruder,0
;   skirtLayers,1
;   skirtOutlines,2
;   skirtOffset,1
;   usePrimePillar,0
;   primePillarExtruder,999
;   primePillarWidth,12
;   primePillarLocation,7
;   primePillarSpeedMultiplier,1
;   useOozeShield,0
;   oozeShieldExtruder,999
;   oozeShieldOffset,2
;   oozeShieldOutlines,1
;   oozeShieldSidewallShape,1
;   oozeShieldSidewallAngle,30
;   oozeShieldSpeedMultiplier,1
;   infillExtruder,0
;   internalInfillPattern,Rectilinear
;   externalInfillPattern,Rectilinear
;   infillPercentage,25
;   outlineOverlapPercentage,25
;   infillExtrusionWidthPercentage,100
;   minInfillLength,3
;   infillLayerInterval,1
;   internalInfillAngles,45,-45
;   overlapInternalInfillAngles,0
;   externalInfillAngles,-45,45
;   generateSupport,1
;   supportExtruder,0
;   supportInfillPercentage,25
;   supportExtraInflation,0
;   supportBaseLayers,1
;   denseSupportExtruder,0
;   denseSupportLayers,4
;   denseSupportInfillPercentage,65
;   supportLayerInterval,1
;   supportHorizontalPartOffset,0.5
;   supportUpperSeparationLayers,1
;   supportLowerSeparationLayers,1
;   supportType,0
;   supportGridSpacing,2.5
;   maxOverhangAngle,45
;   supportAngles,0
;   temperatureName,Primary Extruder,Chamber
;   temperatureNumber,0,0
;   temperatureSetpointCount,6,1
;   temperatureSetpointLayers,1,2,6,7,8,9,1
;   temperatureSetpointTemperatures,225,235,232,228,245,265,65
;   temperatureStabilizeAtStartup,0,0
;   temperatureHeatedBed,0,1
;   fanLayers,1,5,7,8,9
;   fanSpeeds,0,0,100,50,1
;   blipFanToFullPower,0
;   adjustSpeedForCooling,0
;   minSpeedLayerTime,4.5
;   minCoolingSpeedSlowdown,30
;   increaseFanForCooling,1
;   minFanLayerTime,45
;   maxCoolingFanSpeed,50
;   increaseFanForBridging,1
;   bridgingFanSpeed,100
;   use5D,1
;   relativeEdistances,1
;   allowEaxisZeroing,0
;   independentExtruderAxes,1
;   includeM10123,0
;   stickySupport,1
;   applyToolheadOffsets,0
;   gcodeXoffset,0
;   gcodeYoffset,0
;   gcodeZoffset,0.05
;   overrideMachineDefinition,1
;   machineTypeOverride,0
;   strokeXoverride,260
;   strokeYoverride,225
;   strokeZoverride,200
;   originOffsetXoverride,132.5
;   originOffsetYoverride,112.5
;   originOffsetZoverride,0
;   homeXdirOverride,1
;   homeYdirOverride,1
;   homeZdirOverride,-1
;   flipXoverride,1
;   flipYoverride,-1
;   flipZoverride,1
;   toolheadOffsets,0,0|0,0|0,0|0,0|0,0|0,0
;   overrideFirmwareConfiguration,1
;   firmwareTypeOverride,MakerBot/Sailfish Firmware
;   GPXconfigOverride,r2h
;   baudRateOverride,115200
;   overridePrinterModels,1
;   printerModelsOverride,zyyx3dprinter.stl
;   startingGcode,;start of ZYYX Pro startcode,M73 P0; enable build progress,G21; set units to mm,G90; set positioning to absolute,G130 X127 Y127 Z127 A127 B127  ; Set Stepper Vref to default value,,G162 X Y F3000; home XY axes maximum,G161 Z F900,G161 Z F200; home Z axis minimum,,;SET_PROFILE_NAME,M70 P2 (SwiftTool Multi0.4),,G92 X0 Y0 Z0 E0,G1 X0 Y0 Z20 F3000,G1 X-120 Y-110 Z10 F3000,G130 X0 Y0 Z3 A0 B0 ; Set Stepper Vref to low value,,M420 P10; set back fan speed 10 off 11-20 10-100% ,M140 S10 T0; set 100% heater power,M140 S81 T0; set chamber heater negative hysteresis 19 degrees,M140 S120 T0; set chamber heater positive hysteresis 20 degrees,M140 S[bed0_temperature] T0; set chamber temperature,M104 S100 T0; set extruder temp 100 while heating,M134 T0; wait for heated chamber temperature,M420 P13; set fan speed 10 off 11-20 10-100%,,G130 X80 Y80 Z64 A127 B127 ; Set Stepper Vref to default value,,; Perform probing of build-plate,,G162 X Y F3000; home XY axes maximum,G161 Z F450,G161 Z F600; home Z axis minimum,G92 X0 Y0 Z0 E0,G1 X0 Y0 Z5 F200,G161 Z F200; home Z axis minimum again,G92 X0 Y0 Z0 E0,M131 A; store surface calibration point 1,G1 X0 Y0 Z5 F200,G1 X-182 Y0 Z5 F3000; move to 2nd probing point,G161 Z F200,M131 B; store surface calibration point 2,G92 X-182 Y0 Z0 E0,G1 X-182 Y0 Z5 F200,G1 X0 Y0 Z5 F3000; move to home point,G161 Z F200; home Z axis minimum again,G92 X0 Y0 Z0 E0; set reference again,G1 X0 Y0 Z5 F200; clear Z,G1 X0 Y-225 Z5 F3000; move to 3rd calibration point,G161 Z F200,M131 AB; store surface calibration point 3,M132 AB; activate auto leveling,G92 X0 Y-225 Z0 E0,G1 X0 Y-225 Z5 F200,G162 X Y F3000,G161 Z F200,G92 X135 Y115 Z0 E0,M132 Z; Recall stored home offset for Z axis,G1 X135 Y115 Z5 F450; clear nozzle from hole,G1 X0 Y115 Z5 F3000; clear nozzle from hole,; end of ZYYX Pro build-plate calibration,M127; turn off fan,M104 S[extruder0_temperature] T0,M133 T0 ; stabilize extruder temperature,,;SET_ZXPARAM,;SET_SUPPORT_BUMPMAP,,G92 E0 ; Set E to 0,; end of ZYYX Pro start code
;   layerChangeGcode,
;   retractionGcode,
;   toolChangeGcode,{IF NEWTOOL>1} G91,{IF NEWTOOL>1} G1 Z1 E-2 F600,{IF NEWTOOL>1} G90,{IF NEWTOOL>1} M71 P255 (Please change to NEW filament),{IF NEWTOOL>1} G1 E1.5 F600,
;   endingGcode,; ZYYX Pro end gcode,M73 P100 ; end build progress,G0 Z210 F1000 ; send Z axis to bottom of machine,M104 S0 T0 ; cool down extruder,M127 ; stop blower fan,G162 X Y F3000 ; home XY maximum,;M18 ; disable stepper,M70 P5 (ZYYX Print Finished!),M72 P1 ; play Ta-Da song,; end of end gcode
;   exportFileFormat,x3g
;   celebration,0
;   celebrationSong,Random Song
;   postProcessing,{REPLACE "\n;SET_PROFILE_NAME" "\nM70 P1 (<Pro> ZYYX ABS)"},{REPLACE "\n;SET_SUPPORT_BUMPMAP" "\nM420 R255 E20 B12 P2\nM420 R253 P0"},{REPLACE "\n;SET_ZXPARAM" "\nM420 R1 E8 B130 P0"},,{REPLACE "\n; outer perimeter" "\n; outer perimeter\nM420 B1 P75"},{REPLACE "\n; solid layer" "\n; solid layer\nM420 B1 P75"},{REPLACE "\n; bridge" "\n; bridge\nM420 B1 P200"},,{REPLACE "\n; inner perimeter" "\n; inner perimeter\nM420 B1 P25"},{REPLACE "\n; infill" "\n; infill\nM420 B1 P25"},{REPLACE "\n; gap fill" "\n; gap fill\nM420 B1 P25"},{REPLACE "\n; support" "\n; support\nM420 B1 P25"},{REPLACE "\n; dense support" "\n; dense support\nM420 B1 P25"},{REPLACE "\nM126 S" "\nM420 B0 P"},,{REPLACE "\n; outer perimeter" "\n; outer perimeter\nM420 R253 P0"},{REPLACE "\n; gap fill" "\n; gap fill\nM420 R253 P0"},{REPLACE "\n; bridge" "\n; bridge\nM420 R253 P0"},{REPLACE "\n; inner perimeter" "\n; inner perimeter\nM420 R253 P0"},{REPLACE "\n; infill" "\n; infill\nM420 R253 P0"},{REPLACE "\n; solid layer" "\n; solid layer\nM420 R253 P0"},{REPLACE "\n; support" "\n; support\nM420 R253 P0"},{REPLACE "\n; dense support" "\n; dense support\nM420 R253 P1"},{REPLACE "\n; raft" "\n; raft\nM420 R253 P1"},,,CMD /C "REN" [output_filepath] A4-[output_filename].x3g
;   defaultSpeed,2202
;   outlineUnderspeed,1
;   solidInfillUnderspeed,0.75
;   supportUnderspeed,1
;   rapidXYspeed,4998
;   rapidZspeed,600
;   minBridgingArea,10
;   bridgingExtraInflation,0
;   bridgingExtrusionMultiplier,1
;   bridgingSpeedMultiplier,0.75
;   useFixedBridgingAngle,0
;   fixedBridgingAngle,0
;   applyBridgingToPerimeters,1
;   filamentDiameters,1.75|1.75|1.75|1.75|1.75|1.75
;   filamentPricesPerKg,56|56|56|56|56|56
;   filamentDensities,1.06|1.06|1.06|1.06|1.06|1.06
;   useMinPrintHeight,0
;   minPrintHeight,0
;   useMaxPrintHeight,0
;   maxPrintHeight,3
;   useDiaphragm,0
;   diaphragmLayerInterval,20
;   robustSlicing,1
;   mergeAllIntoSolid,0
;   onlyRetractWhenCrossingOutline,0
;   retractBetweenLayers,1
;   useRetractionMinTravel,1
;   retractionMinTravel,1
;   retractWhileWiping,1
;   onlyWipeOutlines,1
;   avoidCrossingOutline,1
;   maxMovementDetourFactor,2
;   toolChangeRetractionDistance,0
;   toolChangeExtraRestartDistance,0
;   toolChangeRetractionSpeed,1998
;   externalThinWallType,0
;   internalThinWallType,2
;   thinWallAllowedOverlapPercentage,16
;   singleExtrusionMinLength,0.4
;   singleExtrusionMinPrintingWidthPercentage,50
;   singleExtrusionMaxPrintingWidthPercentage,150
;   singleExtrusionEndpointExtension,0.2
;   horizontalSizeCompensation,0
G90
M83
M127
;start of ZYYX Pro startcode
M73 P0; enable build progress
G21; set units to mm
G90; set positioning to absolute
G130 X127 Y127 Z127 A127 B127  ; Set Stepper Vref to default value
G162 X Y F3000; home XY axes maximum
G161 Z F900
G161 Z F200; home Z axis minimum
M70 P1 (<Pro> ZYYX ABS)
M70 P2 (SwiftTool Multi0.4)
G92 X0 Y0 Z0 E0
G1 X0 Y0 Z20 F3000
G1 X-120 Y-110 Z10 F3000
G130 X0 Y0 Z3 A0 B0 ; Set Stepper Vref to low value
M420 P10; set back fan speed 10 off 11-20 10-100% 
M140 S10 T0; set 100% heater power
M140 S81 T0; set chamber heater negative hysteresis 19 degrees
M140 S120 T0; set chamber heater positive hysteresis 20 degrees
M140 S65 T0; set chamber temperature
M104 S100 T0; set extruder temp 100 while heating
M134 T0; wait for heated chamber temperature
M420 P13; set fan speed 10 off 11-20 10-100%
G130 X80 Y80 Z64 A127 B127 ; Set Stepper Vref to default value
; Perform probing of build-plate
G162 X Y F3000; home XY axes maximum
G161 Z F450
G161 Z F600; home Z axis minimum
G92 X0 Y0 Z0 E0
G1 X0 Y0 Z5 F200
G161 Z F200; home Z axis minimum again
G92 X0 Y0 Z0 E0
M131 A; store surface calibration point 1
G1 X0 Y0 Z5 F200
G1 X-182 Y0 Z5 F3000; move to 2nd probing point
G161 Z F200
M131 B; store surface calibration point 2
G92 X-182 Y0 Z0 E0
G1 X-182 Y0 Z5 F200
G1 X0 Y0 Z5 F3000; move to home point
G161 Z F200; home Z axis minimum again
G92 X0 Y0 Z0 E0; set reference again
G1 X0 Y0 Z5 F200; clear Z
G1 X0 Y-225 Z5 F3000; move to 3rd calibration point
G161 Z F200
M131 AB; store surface calibration point 3
M132 AB; activate auto leveling
G92 X0 Y-225 Z0 E0
G1 X0 Y-225 Z5 F200
G162 X Y F3000
G161 Z F200
G92 X135 Y115 Z0 E0
M132 Z; Recall stored home offset for Z axis
G1 X135 Y115 Z5 F450; clear nozzle from hole
G1 X0 Y115 Z5 F3000; clear nozzle from hole
; end of ZYYX Pro build-plate calibration
M127; turn off fan
M104 S225 T0
M133 T0 ; stabilize extruder temperature
M420 R1 E8 B130 P0
M420 R255 E20 B12 P2
M420 R253 P0
G92 E0 ; Set E to 0
; end of ZYYX Pro start code
; process Process1
; layer 1, Z = 0.800
M135 T0
G1 E-0.7500 F702
; feature skirt
; tool H0.750 W0.400
G1 Z0.800 F600
G1 X-4.994 Y3.100 F4998
G1 E0.7500 F702
G1 X-5.525 Y3.320 E0.0717 F1541
G1 X-12.195 Y3.320 E0.8319
G1 X-12.783 Y3.076 E0.0794
G1 X-12.837 Y3.022 E0.0095
G1 X-13.025 Y3.100 E0.0253
G1 X-24.994 Y3.100 E1.4928
G1 X-25.525 Y3.320 E0.0717
G1 X-29.400 Y3.320 E0.4833
G1 X-29.400 Y20.475 E2.1397
G1 X-29.644 Y21.063 E0.0794
G1 X-32.437 Y23.856 E0.4927
G1 X-33.025 Y24.100 E0.0794
G1 X-39.300 Y24.100 E0.7827
G1 X-39.300 Y25.900 E0.2245
G1 X-33.025 Y25.900 E0.7827
G1 X-32.437 Y26.144 E0.0794
G1 X-29.644 Y28.937 E0.4927
G1 X-29.400 Y29.525 E0.0794
G1 X-29.400 Y49.475 E2.4883
G1 X-29.644 Y50.063 E0.0794
G1 X-32.437 Y52.856 E0.4927
G1 X-33.025 Y53.100 E0.0794
G1 X-44.994 Y53.100 E1.4928
G1 X-45.525 Y53.320 E0.0717
G1 X-52.195 Y53.320 E0.8319
G1 X-52.783 Y53.076 E0.0794
G1 X-55.576 Y50.283 E0.4927
G1 X-55.820 Y49.695 E0.0794
G1 X-55.820 Y0.305 E6.1602
G1 X-55.694 Y0.000 E0.0412
G1 X-55.820 Y-0.305 E0.0412
G1 X-55.820 Y-49.695 E6.1602
G1 X-55.576 Y-50.283 E0.0794
G1 X-52.783 Y-53.076 E0.4927
G1 X-52.195 Y-53.320 E0.0794
G1 X-45.525 Y-53.320 E0.8319
G1 X-44.994 Y-53.100 E0.0717
G1 X-33.025 Y-53.100 E1.4928
G1 X-32.837 Y-53.022 E0.0253
G1 X-32.783 Y-53.076 E0.0095
G1 X-32.195 Y-53.320 E0.0794
G1 X-25.525 Y-53.320 E0.8319
G1 X-24.994 Y-53.100 E0.0717
G1 X-13.025 Y-53.100 E1.4928
G1 X-12.837 Y-53.022 E0.0253
G1 X-12.783 Y-53.076 E0.0095
G1 X-12.195 Y-53.320 E0.0794
G1 X-5.525 Y-53.320 E0.8319
G1 X-4.994 Y-53.100 E0.0717
G1 X6.975 Y-53.100 E1.4928
G1 X7.163 Y-53.022 E0.0253
G1 X7.217 Y-53.076 E0.0095
G1 X7.805 Y-53.320 E0.0794
G1 X14.475 Y-53.320 E0.8319
G1 X15.006 Y-53.100 E0.0717
G1 X26.975 Y-53.100 E1.4928
G1 X27.163 Y-53.022 E0.0253
G1 X27.217 Y-53.076 E0.0095
G1 X27.805 Y-53.320 E0.0794
G1 X34.475 Y-53.320 E0.8319
G1 X35.006 Y-53.100 E0.0717
G1 X46.975 Y-53.100 E1.4928
G1 X47.563 Y-52.856 E0.0794
G1 X50.356 Y-50.063 E0.4927
G1 X50.600 Y-49.475 E0.0794
G1 X50.600 Y-29.525 E2.4883
G1 X50.356 Y-28.937 E0.0794
G1 X47.563 Y-26.144 E0.4927
G1 X46.975 Y-25.900 E0.0794
G1 X40.700 Y-25.900 E0.7827
G1 X40.700 Y-24.100 E0.2245
G1 X46.975 Y-24.100 E0.7827
G1 X47.563 Y-23.856 E0.0794
G1 X50.356 Y-21.063 E0.4927
G1 X50.600 Y-20.475 E0.0794
G1 X50.600 Y-0.525 E2.4883
G1 X50.356 Y0.063 E0.0794
G1 X47.563 Y2.856 E0.4927
G1 X46.975 Y3.100 E0.0794
G1 X35.006 Y3.100 E1.4928
G1 X34.475 Y3.320 E0.0717
G1 X27.805 Y3.320 E0.8319
G1 X27.217 Y3.076 E0.0794
G1 X27.163 Y3.022 E0.0095
G1 X26.975 Y3.100 E0.0253
G1 X15.006 Y3.100 E1.4928
G1 X14.475 Y3.320 E0.0717
G1 X7.805 Y3.320 E0.8319
G1 X7.217 Y3.076 E0.0794
G1 X7.163 Y3.022 E0.0095
G1 X6.975 Y3.100 E0.0253
G1 X-4.994 Y3.100 E1.4928
G1 X-5.163 Y2.737 F4998
G1 X-5.604 Y2.920 E0.0595 F1541
G1 X-12.116 Y2.920 E0.8121
G1 X-12.557 Y2.737 E0.0595
G1 X-12.743 Y2.550 E0.0330
G1 X-13.104 Y2.700 E0.0487
G1 X-25.126 Y2.700 E1.4994
G1 X-25.163 Y2.737 E0.0066
G1 X-25.604 Y2.920 E0.0595
G1 X-29.800 Y2.920 E0.5233
G1 X-29.800 Y20.396 E2.1796
G1 X-29.983 Y20.837 E0.0595
G1 X-32.663 Y23.517 E0.4728
G1 X-33.104 Y23.700 E0.0595
G1 X-39.700 Y23.700 E0.8226
G1 X-39.700 Y26.300 E0.3243
G1 X-33.104 Y26.300 E0.8226
G1 X-32.663 Y26.483 E0.0595
G1 X-29.983 Y29.163 E0.4728
G1 X-29.800 Y29.604 E0.0595
G1 X-29.800 Y49.396 E2.4685
G1 X-29.983 Y49.837 E0.0595
G1 X-32.663 Y52.517 E0.4728
G1 X-33.104 Y52.700 E0.0595
G1 X-45.126 Y52.700 E1.4994
G1 X-45.163 Y52.737 E0.0066
G1 X-45.604 Y52.920 E0.0595
G1 X-52.116 Y52.920 E0.8121
G1 X-52.557 Y52.737 E0.0595
G1 X-55.237 Y50.057 E0.4728
G1 X-55.420 Y49.616 E0.0595
G1 X-55.420 Y0.384 E6.1404
G1 X-55.261 Y0.000 E0.0519
G1 X-55.420 Y-0.384 E0.0519
G1 X-55.420 Y-49.616 E6.1404
G1 X-55.237 Y-50.057 E0.0595
G1 X-52.557 Y-52.737 E0.4728
G1 X-52.116 Y-52.920 E0.0595
G1 X-45.604 Y-52.920 E0.8121
G1 X-45.163 Y-52.737 E0.0595
G1 X-45.126 Y-52.700 E0.0066
G1 X-33.104 Y-52.700 E1.4994
G1 X-32.743 Y-52.550 E0.0487
G1 X-32.557 Y-52.737 E0.0330
G1 X-32.116 Y-52.920 E0.0595
G1 X-25.604 Y-52.920 E0.8121
G1 X-25.163 Y-52.737 E0.0595
G1 X-25.126 Y-52.700 E0.0066
G1 X-13.104 Y-52.700 E1.4994
G1 X-12.743 Y-52.550 E0.0487
G1 X-12.557 Y-52.737 E0.0330
G1 X-12.116 Y-52.920 E0.0595
G1 X-5.604 Y-52.920 E0.8121
G1 X-5.163 Y-52.737 E0.0595
G1 X-5.126 Y-52.700 E0.0066
G1 X6.896 Y-52.700 E1.4994
G1 X7.257 Y-52.550 E0.0487
G1 X7.443 Y-52.737 E0.0330
G1 X7.884 Y-52.920 E0.0595
G1 X14.396 Y-52.920 E0.8121
G1 X14.837 Y-52.737 E0.0595
G1 X14.874 Y-52.700 E0.0066
G1 X26.896 Y-52.700 E1.4994
G1 X27.257 Y-52.550 E0.0487
G1 X27.443 Y-52.737 E0.0330
G1 X27.884 Y-52.920 E0.0595
G1 X34.396 Y-52.920 E0.8121
G1 X34.837 Y-52.737 E0.0595
G1 X34.874 Y-52.700 E0.0066
G1 X46.896 Y-52.700 E1.4994
G1 X47.337 Y-52.517 E0.0595
G1 X50.017 Y-49.837 E0.4728
