; G-Code generated by Simplify3D(R) Version 4.1.2
; Feb 19, 2021 at 10:24:16 AM
; Settings Summary
;   processName,Process1
;   applyToModels,ssc_plexi_PCB_STAND
;   profileName,ZYYX Pro Multi0.4 PETG v19 + MMBP RC3 (modified)
;   profileVersion,S3D-Software 4.1.2
;   baseProfile,ZYYX Pro
;   printMaterial,
;   printQuality,
;   printExtruders,
;   extruderName,Primary Extruder
;   extruderToolheadNumber,0
;   extruderDiameter,0.4
;   extruderAutoWidth,0
;   extruderWidth,0.4
;   extrusionMultiplier,1
;   extruderUseRetract,1
;   extruderRetractionDistance,1.4
;   extruderExtraRestartDistance,0
;   extruderRetractionZLift,0.2
;   extruderRetractionSpeed,1500
;   extruderUseCoasting,0
;   extruderCoastingDistance,0.1
;   extruderUseWipe,1
;   extruderWipeDistance,1.5
;   primaryExtruder,0
;   layerHeight,0.2
;   topSolidLayers,5
;   bottomSolidLayers,4
;   perimeterOutlines,3
;   printPerimetersInsideOut,1
;   startPointOption,2
;   startPointOriginX,300
;   startPointOriginY,300
;   sequentialIslands,0
;   spiralVaseMode,0
;   firstLayerHeightPercentage,150
;   firstLayerWidthPercentage,125
;   firstLayerUnderspeed,0.3
;   useRaft,1
;   raftExtruder,0
;   raftTopLayers,2
;   raftBaseLayers,2
;   raftOffset,2
;   raftSeparationDistance,0.09
;   raftTopInfill,100
;   aboveRaftSpeedMultiplier,1.75
;   useSkirt,1
;   skirtExtruder,0
;   skirtLayers,1
;   skirtOutlines,1
;   skirtOffset,3
;   usePrimePillar,0
;   primePillarExtruder,999
;   primePillarWidth,12
;   primePillarLocation,7
;   primePillarSpeedMultiplier,1
;   useOozeShield,0
;   oozeShieldExtruder,999
;   oozeShieldOffset,2
;   oozeShieldOutlines,1
;   oozeShieldSidewallShape,1
;   oozeShieldSidewallAngle,30
;   oozeShieldSpeedMultiplier,1
;   infillExtruder,0
;   internalInfillPattern,Rectilinear
;   externalInfillPattern,Rectilinear
;   infillPercentage,25
;   outlineOverlapPercentage,35
;   infillExtrusionWidthPercentage,100
;   minInfillLength,3
;   infillLayerInterval,1
;   internalInfillAngles,45,-45
;   overlapInternalInfillAngles,0
;   externalInfillAngles,45,-45
;   generateSupport,0
;   supportExtruder,0
;   supportInfillPercentage,15
;   supportExtraInflation,0
;   supportBaseLayers,1
;   denseSupportExtruder,0
;   denseSupportLayers,4
;   denseSupportInfillPercentage,65
;   supportLayerInterval,1
;   supportHorizontalPartOffset,0.1
;   supportUpperSeparationLayers,1
;   supportLowerSeparationLayers,1
;   supportType,0
;   supportGridSpacing,2.5
;   maxOverhangAngle,35
;   supportAngles,0
;   temperatureName,Primary extruder,Chamber
;   temperatureNumber,0,0
;   temperatureSetpointCount,2,1
;   temperatureSetpointLayers,1,2,1
;   temperatureSetpointTemperatures,240,240,45
;   temperatureStabilizeAtStartup,0,0
;   temperatureHeatedBed,0,1
;   fanLayers,2
;   fanSpeeds,50
;   blipFanToFullPower,1
;   adjustSpeedForCooling,0
;   minSpeedLayerTime,4.5
;   minCoolingSpeedSlowdown,30
;   increaseFanForCooling,0
;   minFanLayerTime,45
;   maxCoolingFanSpeed,100
;   increaseFanForBridging,1
;   bridgingFanSpeed,100
;   use5D,1
;   relativeEdistances,1
;   allowEaxisZeroing,0
;   independentExtruderAxes,1
;   includeM10123,0
;   stickySupport,1
;   applyToolheadOffsets,0
;   gcodeXoffset,0
;   gcodeYoffset,0
;   gcodeZoffset,0.05
;   overrideMachineDefinition,0
;   machineTypeOverride,0
;   strokeXoverride,260
;   strokeYoverride,225
;   strokeZoverride,200
;   originOffsetXoverride,132.5
;   originOffsetYoverride,112.5
;   originOffsetZoverride,0
;   homeXdirOverride,1
;   homeYdirOverride,1
;   homeZdirOverride,-1
;   flipXoverride,1
;   flipYoverride,1
;   flipZoverride,-1
;   toolheadOffsets,0,0|0,0|0,0|0,0|0,0|0,0
;   overrideFirmwareConfiguration,1
;   firmwareTypeOverride,MakerBot/Sailfish Firmware
;   GPXconfigOverride,r2h
;   baudRateOverride,115200
;   overridePrinterModels,1
;   printerModelsOverride,zyyx3dprinter.stl
;   startingGcode,  ;start of ZYYX Pro startcode,M73 P0  ; enable build progress,G21  ; set units to mm,M127  ; fan off,G90  ; set positioning to absolute,G130 X127 Y127 Z127 A127 B127    ; Set Stepper Vref to default value,  ;,G162 X Y F3000  ; home XY axes maximum,G161 Z F900  ;,G161 Z F200  ; home Z axis minimum,  ;,  ;SET_PROFILE_NAME,M70 P2 (SwiftTool Multi0.4)  ;,  ;,G92 X0 Y0 Z0 E0  ;,G1 X0 Y0 Z20 F3000  ;,G1 X00 Y-110 Z20 F4000  ;,G130 X0 Y0 Z3 A0 B0   ; Set Stepper Vref to low value,  ;,M420 P10  ; set back fan speed 10 off 11-20 10-100% ,M140 S5 T0  ; set 100% heater power,M140 S99 T0  ; set chamber heater negative hysteresis 19 degrees,M140 S130 T0  ; set chamber heater positive hysteresis 30 degrees,M140 S55 T0  ; set chamber temperature,  ;,M134 T0  ; wait for heated chamber temperature,M420 P13  ; set fan speed 10 off 11-20 10-100%,  ;,  ;,  ;,G130 X80 Y80 Z64 A127 B127   ; Set Stepper Vref to default value,  ;,  ; Perform probing of build plate,  ;,G162 X Y F3000  ; home XY axes maximum,G161 Z F450  ;,G161 Z F600  ; home Z axis minimum,G92 X0 Y0 Z0 E0  ;,G1 X0 Y0 Z5 F200  ;,G161 Z F200  ; home Z axis minimum again,G92 X0 Y0 Z0 E0  ;,M131 A  ; store surface calibration point 1,G1 X0 Y0 Z5 F200  ;,  ;,G1 X-182 Y0 Z5 F3000  ; move to 2nd probing point,  ;G1 X-175 Y0 Z5 F3000 Plus Probe point  move to 2nd probing point,  ;,  ;,G161 Z F200  ;,M131 B  ; store surface calibration point 2,G92 X-182 Y0 Z0 E0  ;,G1 X-182 Y0 Z5 F200  ;,G1 X0 Y0 Z5 F3000  ; move to home point,G161 Z F200  ; home Z axis minimum again,G92 X0 Y0 Z0 E0  ; set reference again,G1 X0 Y0 Z5 F200  ; clear Z,G1 X0 Y-225 Z5 F3000  ; move to 3rd calibration point,G161 Z F200  ;,M131 AB  ; store surface calibration point 3,M132 AB  ; activate auto leveling,G92 X0 Y-225 Z0 E0  ;,G1 X0 Y-225 Z5 F200  ;,G162 X Y F3000  ;,G161 Z F200  ;,G92 X135 Y115 Z0 E0  ;,M132 Z  ; Recall stored home offset for Z axis,G1 X135 Y115 Z5 F450   ; clear nozzle from hole,G1 X0 Y115 Z5 F3000  ; clear nozzle from hole,  ;,  ; end of ZYYX Pro build plate calibration,M127  ; turn off fan,  ;,M104 S[extruder0_temperature] T0  ;,M133 T0   ; stabilize extruder temperature,  ;,  ;SET_ZXPARAM,  ;SET_SUPPORT_BUMPMAP,  ;,G92 E0   ; Set E to 0,  ; end of ZYYX Pro start code,  ;,M140 S[bed0_temperature] T0  ;,  ;,G130 X127 Y127 Z127 A127 B127   ; Set Stepper Vref to default value,M126 S[fan_speed_pwm]  ;enable fans,  ;,  ;,  ;,  ;,  ;,  ;,  ;,
;   layerChangeGcode,
;   retractionGcode,
;   toolChangeGcode,{IF NEWTOOL>1} G91  ;,{IF NEWTOOL>1} G1 Z1 E-2 F600  ;,{IF NEWTOOL>1} G90  ;,{IF NEWTOOL>1} M71 P255 (Please change to NEW filament)  ;,{IF NEWTOOL>1} G1 E1.5 F600  ;,  ;,  ;,  ;,  ;,  ;,  ;,  ;,  ;,  ;,  ;,  ;,  ;,  ;,  ;,  ;
;   endingGcode,  ; ZYYX Pro end gcode,G1 E-1 F1200  ;,M73 P100   ; end build progress,G162 X Y F3000   ; home XY maximum,G0 Z210 F1000   ; send Z axis to bottom of machine,M104 S0 T0   ; cool down extruder,M127   ; stop blower fan,G162 X Y F3000   ; home XY maximum,M17   ; enable stepper,M70 P5 (ZYYX Print Finished!)  ;,M72 P1   ; play Ta-Da song,  ; end of end gcode,  ;,  ;,  ;,  ;,  ;,  ;,  ;,  ;,  ;,  ;,  ;,  ;,  ;,  ;,  ;,  ;,  ;,  ;,  ;,  ;,  ;,  ;,  ;
;   exportFileFormat,x3g
;   celebration,0
;   celebrationSong,Random Song
;   postProcessing,{REPLACE "\n;SET_PROFILE_NAME" "\nM70 P1 (ZYYX Pro PETG)"}  ;,  ;{REPLACE "\n;SET_SUPPORT_BUMPMAP" "\nM420 R255 E20 B12 P2\nM420 R253 P0"},  ;{REPLACE "\n;SET_ZXPARAM" "\nM420 R1 E8 B130 P0"},  ;,  ;{REPLACE "\n; outer perimeter" "\n; outer perimeter\nM420 B1 P75"},  ;{REPLACE "\n; solid layer" "\n; solid layer\nM420 B1 P75"},  ;{REPLACE "\n; bridge" "\n; bridge\nM420 B1 P200"},  ;,  ;{REPLACE "\n; inner perimeter" "\n; inner perimeter\nM420 B1 P25"},  ;{REPLACE "\n; infill" "\n; infill\nM420 B1 P25"},  ;{REPLACE "\n; gap fill" "\n; gap fill\nM420 B1 P25"},  ;{REPLACE "\n; support" "\n; support\nM420 B1 P25"},  ;{REPLACE "\n; dense support" "\n; dense support\nM420 B1 P25"},{REPLACE "\nM126 S" "\nM420 B0 P"}  ;,  ;,  ;{REPLACE "\n; outer perimeter" "\n; outer perimeter\nM420 R253 P0"},  ;{REPLACE "\n; gap fill" "\n; gap fill\nM420 R253 P0"},  ;{REPLACE "\n; bridge" "\n; bridge\nM420 R253 P0"},  ;{REPLACE "\n; inner perimeter" "\n; inner perimeter\nM420 R253 P0"},  ;{REPLACE "\n; infill" "\n; infill\nM420 R253 P0"},  ;{REPLACE "\n; solid layer" "\n; solid layer\nM420 R253 P0"},  ;{REPLACE "\n; support" "\n; support\nM420 R253 P0"},  ;{REPLACE "\n; dense support" "\n; dense support\nM420 R253 P1"},  ;{REPLACE "\n; raft" "\n; raft\nM420 R253 P1"},  ;,  ;,  ;,  ;,  ;,  ;,  ;,  ;,  ;,  ;,CMD /C "REN" [output_filepath] E4-[output_filename].x3g  ;
;   defaultSpeed,2400
;   outlineUnderspeed,0.35
;   solidInfillUnderspeed,0.25
;   supportUnderspeed,1
;   rapidXYspeed,6000
;   rapidZspeed,600
;   minBridgingArea,10
;   bridgingExtraInflation,4
;   bridgingExtrusionMultiplier,1.56
;   bridgingSpeedMultiplier,0.56
;   useFixedBridgingAngle,0
;   fixedBridgingAngle,0
;   applyBridgingToPerimeters,0
;   filamentDiameters,1.75|0|0|0|0|0
;   filamentPricesPerKg,56|0|0|0|0|0
;   filamentDensities,1.06|0|0|0|0|0
;   useMinPrintHeight,0
;   minPrintHeight,0
;   useMaxPrintHeight,0
;   maxPrintHeight,0
;   useDiaphragm,0
;   diaphragmLayerInterval,20
;   robustSlicing,1
;   mergeAllIntoSolid,0
;   onlyRetractWhenCrossingOutline,1
;   retractBetweenLayers,0
;   useRetractionMinTravel,1
;   retractionMinTravel,3
;   retractWhileWiping,1
;   onlyWipeOutlines,1
;   avoidCrossingOutline,1
;   maxMovementDetourFactor,3
;   toolChangeRetractionDistance,0
;   toolChangeExtraRestartDistance,0
;   toolChangeRetractionSpeed,1998
;   externalThinWallType,0
;   internalThinWallType,2
;   thinWallAllowedOverlapPercentage,12
;   singleExtrusionMinLength,0.4
;   singleExtrusionMinPrintingWidthPercentage,50
;   singleExtrusionMaxPrintingWidthPercentage,150
;   singleExtrusionEndpointExtension,0.2
;   horizontalSizeCompensation,0
G90
M83
  ;start of ZYYX Pro startcode
M73 P0  ; enable build progress
G21  ; set units to mm
M127  ; fan off
G90  ; set positioning to absolute
G130 X127 Y127 Z127 A127 B127    ; Set Stepper Vref to default value
  ;
G162 X Y F3000  ; home XY axes maximum
G161 Z F900  ;
G161 Z F200  ; home Z axis minimum
  ;
  ;SET_PROFILE_NAME
M70 P2 (SwiftTool Multi0.4)  ;
  ;
G92 X0 Y0 Z0 E0  ;
G1 X0 Y0 Z20 F3000  ;
G1 X00 Y-110 Z20 F4000  ;
G130 X0 Y0 Z3 A0 B0   ; Set Stepper Vref to low value
  ;
M420 P10  ; set back fan speed 10 off 11-20 10-100% 
M140 S5 T0  ; set 100% heater power
M140 S99 T0  ; set chamber heater negative hysteresis 19 degrees
M140 S130 T0  ; set chamber heater positive hysteresis 30 degrees
M140 S55 T0  ; set chamber temperature
  ;
M134 T0  ; wait for heated chamber temperature
M420 P13  ; set fan speed 10 off 11-20 10-100%
  ;
  ;
  ;
G130 X80 Y80 Z64 A127 B127   ; Set Stepper Vref to default value
  ;
  ; Perform probing of build plate
  ;
G162 X Y F3000  ; home XY axes maximum
G161 Z F450  ;
G161 Z F600  ; home Z axis minimum
G92 X0 Y0 Z0 E0  ;
G1 X0 Y0 Z5 F200  ;
G161 Z F200  ; home Z axis minimum again
G92 X0 Y0 Z0 E0  ;
M131 A  ; store surface calibration point 1
G1 X0 Y0 Z5 F200  ;
  ;
G1 X-182 Y0 Z5 F3000  ; move to 2nd probing point
  ;G1 X-175 Y0 Z5 F3000 Plus Probe point  move to 2nd probing point
  ;
  ;
G161 Z F200  ;
M131 B  ; store surface calibration point 2
G92 X-182 Y0 Z0 E0  ;
G1 X-182 Y0 Z5 F200  ;
G1 X0 Y0 Z5 F3000  ; move to home point
G161 Z F200  ; home Z axis minimum again
G92 X0 Y0 Z0 E0  ; set reference again
G1 X0 Y0 Z5 F200  ; clear Z
G1 X0 Y-225 Z5 F3000  ; move to 3rd calibration point
G161 Z F200  ;
M131 AB  ; store surface calibration point 3
M132 AB  ; activate auto leveling
G92 X0 Y-225 Z0 E0  ;
G1 X0 Y-225 Z5 F200  ;
G162 X Y F3000  ;
G161 Z F200  ;
G92 X135 Y115 Z0 E0  ;
M132 Z  ; Recall stored home offset for Z axis
G1 X135 Y115 Z5 F450   ; clear nozzle from hole
G1 X0 Y115 Z5 F3000  ; clear nozzle from hole
  ;
  ; end of ZYYX Pro build plate calibration
M127  ; turn off fan
  ;
M104 S240 T0  ;
M133 T0   ; stabilize extruder temperature
  ;
  ;SET_ZXPARAM
  ;SET_SUPPORT_BUMPMAP
  ;
G92 E0   ; Set E to 0
  ; end of ZYYX Pro start code
  ;
M140 S45 T0  ;
  ;
G130 X127 Y127 Z127 A127 B127   ; Set Stepper Vref to default value
M127  ;enable fans
  ;
  ;
  ;
  ;
  ;
  ;
  ;
; process Process1
; layer 1, Z = 0.800
  ;
  ;
  ;
  ;
  ;
  ;
  ;
  ;
  ;
  ;
  ;
  ;
  ;
  ;
  ;
M135 T0
G1 E-1.4000 F1500
; feature skirt
; tool H0.750 W0.500
G1 Z0.800 F600
G1 X-3.000 Y9.250 F6000
G1 E1.4000 F1500
G1 X-3.000 Y-9.250 E2.8843 F720
G1 X-10.725 Y-9.250 E1.2044
G1 X-11.919 Y-9.745 E0.2016
G1 X-14.005 Y-11.831 E0.4599
G1 X-14.500 Y-13.025 E0.2016
G1 X-14.500 Y-23.975 E1.7071
G1 X-14.005 Y-25.169 E0.2016
G1 X-11.919 Y-27.255 E0.4599
G1 X-10.725 Y-27.750 E0.2016
G1 X5.725 Y-27.750 E2.5646
G1 X6.919 Y-27.255 E0.2016
G1 X9.005 Y-25.169 E0.4599
G1 X9.500 Y-23.975 E0.2016
G1 X9.500 Y-10.175 E2.1515
G1 X9.427 Y-10.000 E0.0295
G1 X9.500 Y-9.825 E0.0295
G1 X9.500 Y9.825 E3.0635
G1 X9.427 Y10.000 E0.0295
G1 X9.500 Y10.175 E0.0295
G1 X9.500 Y23.975 E2.1515
G1 X9.005 Y25.169 E0.2016
G1 X6.919 Y27.255 E0.4599
G1 X5.725 Y27.750 E0.2016
G1 X-10.725 Y27.750 E2.5646
G1 X-11.919 Y27.255 E0.2016
G1 X-14.005 Y25.169 E0.4599
G1 X-14.500 Y23.975 E0.2016
G1 X-14.500 Y13.025 E1.7071
G1 X-14.005 Y11.831 E0.2016
G1 X-11.919 Y9.745 E0.4599
G1 X-10.725 Y9.250 E0.2016
G1 X-3.000 Y9.250 E1.2044
G1 E-1.4000 F1500
; feature raft
; tool H0.750 W0.800
G1 Z1.000 F600
G1 X0.650 Y9.013 F6000
G1 Z0.800 F600
G1 E1.4000 F1500
G1 X0.650 Y-9.013 E4.4965 F180
G1 X1.637 Y-10.000 E0.3483
G1 X0.650 Y-10.987 E0.3483
G1 X0.650 Y-12.900 E0.4771
G1 X-9.913 Y-12.900 E2.6349
G1 X-10.850 Y-13.837 E0.3306
G1 X-10.850 Y-23.163 E2.3263
G1 X-9.913 Y-24.100 E0.3306
G1 X4.913 Y-24.100 E3.6982
G1 X5.850 Y-23.163 E0.3306
G1 X5.850 Y-10.987 E3.0372
G1 X4.863 Y-10.000 E0.3483
G1 X5.850 Y-9.013 E0.3483
G1 X5.850 Y9.013 E4.4965
G1 X4.863 Y10.000 E0.3483
G1 X5.850 Y10.987 E0.3483
G1 X5.850 Y23.163 E3.0372
G1 X4.913 Y24.100 E0.3306
G1 X-9.913 Y24.100 E3.6982
G1 X-10.850 Y23.163 E0.3306
G1 X-10.850 Y13.837 E2.3263
G1 X-9.913 Y12.900 E0.3306
G1 X0.650 Y12.900 E2.6349
G1 X0.650 Y10.987 E0.4771
G1 X1.637 Y10.000 E0.3483
G1 X0.650 Y9.013 E0.3483
G1 E-1.4000 F1500
G1 Z1.000 F600
G1 X5.330 Y22.857 F6000
G1 Z0.800 F600
G1 E1.4000 F1500
G1 X-10.330 Y22.857 E3.9064 F180
G1 X-10.330 Y20.571 E0.5702
G1 X5.330 Y20.571 E3.9064
G1 X5.330 Y18.286 E0.5702
G1 X-10.330 Y18.286 E3.9064
G1 X-10.330 Y16.000 E0.5702
G1 X5.330 Y16.000 E3.9064
G1 X5.330 Y13.714 E0.5702
G1 X-9.992 Y13.714 E3.8220
G1 X-9.697 Y13.420 E0.1038
G1 X1.170 Y13.420 E2.7109
G1 X1.170 Y11.429 E0.4968
G1 X5.330 Y11.429 E1.0377
G1 X5.330 Y11.203 E0.0564
G1 X4.127 Y10.000 E0.4243
G1 X4.984 Y9.143 E0.3024
G1 X1.516 Y9.143 E0.8653
G1 X1.170 Y8.797 E0.1219
G1 X1.170 Y6.857 E0.4840
G1 X5.330 Y6.857 E1.0377
G1 X5.330 Y4.571 E0.5702
G1 X1.170 Y4.571 E1.0377
G1 X1.170 Y2.286 E0.5702
G1 X5.330 Y2.286 E1.0377
G1 X5.330 Y0.000 E0.5702
G1 X1.170 Y0.000 E1.0377
G1 X1.170 Y-2.286 E0.5702
G1 X5.330 Y-2.286 E1.0377
G1 X5.330 Y-4.571 E0.5702
G1 X1.170 Y-4.571 E1.0377
G1 X1.170 Y-6.857 E0.5702
G1 X5.330 Y-6.857 E1.0377
G1 X5.330 Y-8.797 E0.4840
G1 X4.985 Y-9.143 E0.1219
G1 X1.515 Y-9.143 E0.8654
G1 X2.373 Y-10.000 E0.3024
G1 X1.170 Y-11.203 E0.4243
G1 X1.170 Y-11.429 E0.0564
G1 X5.330 Y-11.429 E1.0377
G1 X5.330 Y-13.714 E0.5702
G1 X-9.992 Y-13.714 E3.8220
G1 X-10.330 Y-14.053 E0.1194
G1 X-10.330 Y-16.000 E0.4858
G1 X5.330 Y-16.000 E3.9064
G1 X5.330 Y-18.286 E0.5702
G1 X-10.330 Y-18.286 E3.9064
G1 X-10.330 Y-20.571 E0.5702
G1 X5.330 Y-20.571 E3.9064
G1 X5.330 Y-22.857 E0.5702
G1 X-10.330 Y-22.857 E3.9064
; layer 2, Z = 1.300
M420 B0 P255
G4 P500
M420 B0 P128
; tool H0.500 W0.800
G1 Z1.300 F600
G1 X-10.850 Y-23.163 F6000
G1 X-9.913 Y-24.100 E0.2204 F600
G1 X4.913 Y-24.100 E2.4655
G1 X5.850 Y-23.163 E0.2204
G1 X5.850 Y-10.987 E2.0248
G1 X4.863 Y-10.000 E0.2322
G1 X5.850 Y-9.013 E0.2322
G1 X5.850 Y9.013 E2.9977
G1 X4.863 Y10.000 E0.2322
G1 X5.850 Y10.987 E0.2322
G1 X5.850 Y23.163 E2.0248
G1 X4.913 Y24.100 E0.2204
G1 X-9.913 Y24.100 E2.4655
G1 X-10.850 Y23.163 E0.2204
G1 X-10.850 Y13.837 E1.5508
