( Made using CamBam - http://www.cambam.co.uk )
( ssc_plexi_LeftPanel 2/22/2021 1:49:30 PM )
( T2 : 2.0 )
( CUTVIEWER )
( FROM/0,0,5 )
( Select dummy tool to avoid warnings )
( TOOL/MILL,1,0,20.0,0 )
( STOCK/BLOCK,85.0,90.0,4.0,0.0,0.0,4.0 )
G90 G91.1 G64 G40
G0 Z3.0
( T2 : 2.0 )
( Tool Taper coming soon )
( TOOL/MILL,2.0,0.0,0.0,0 )
T2 M6
( Drill1 )
G17
M3 S1000
G0 X55.5 Y45.5
G0 Z3.0
G0 X55.75 Y45.5
G1 F300.0 Z0.0
G2 F800.0 X55.375 Y45.2835 Z-0.1333 I-0.25 J0.0
G2 Y45.7165 Z-0.2667 I0.125 J0.2165
G2 X55.75 Y45.5 Z-0.4 I0.125 J-0.2165
G2 X55.375 Y45.2835 Z-0.5333 I-0.25 J0.0
G2 Y45.7165 Z-0.6667 I0.125 J0.2165
G2 X55.75 Y45.5 Z-0.8 I0.125 J-0.2165
G2 X55.375 Y45.2835 Z-0.9333 I-0.25 J0.0
G2 Y45.7165 Z-1.0667 I0.125 J0.2165
G2 X55.75 Y45.5 Z-1.2 I0.125 J-0.2165
G2 X55.375 Y45.2835 Z-1.3333 I-0.25 J0.0
G2 Y45.7165 Z-1.4667 I0.125 J0.2165
G2 X55.75 Y45.5 Z-1.6 I0.125 J-0.2165
G2 X55.375 Y45.2835 Z-1.7333 I-0.25 J0.0
G2 Y45.7165 Z-1.8667 I0.125 J0.2165
G2 X55.75 Y45.5 Z-2.0 I0.125 J-0.2165
G2 X55.375 Y45.2835 Z-2.1333 I-0.25 J0.0
G2 Y45.7165 Z-2.2667 I0.125 J0.2165
G2 X55.75 Y45.5 Z-2.4 I0.125 J-0.2165
G2 X55.375 Y45.2835 Z-2.5333 I-0.25 J0.0
G2 Y45.7165 Z-2.6667 I0.125 J0.2165
G2 X55.75 Y45.5 Z-2.8 I0.125 J-0.2165
G2 X55.375 Y45.2835 Z-2.9333 I-0.25 J0.0
G2 Y45.7165 Z-3.0667 I0.125 J0.2165
G2 X55.75 Y45.5 Z-3.2 I0.125 J-0.2165
G2 X55.375 Y45.2835 Z-3.3333 I-0.25 J0.0
G2 Y45.7165 Z-3.4667 I0.125 J0.2165
G2 X55.75 Y45.5 Z-3.6 I0.125 J-0.2165
G2 X55.375 Y45.2835 Z-3.7333 I-0.25 J0.0
G2 Y45.7165 Z-3.8667 I0.125 J0.2165
G2 X55.75 Y45.5 Z-4.0 I0.125 J-0.2165
G2 X55.375 Y45.2835 Z-4.1333 I-0.25 J0.0
G2 X55.25 Y45.5 Z-4.2 I0.125 J0.2165
G2 X55.625 Y45.7165 I0.25 J0.0
G2 Y45.2835 I-0.125 J-0.2165
G2 X55.25 Y45.5 I-0.125 J0.2165
G0 Z3.0
G0 X59.75
G1 F300.0 Z0.0
G2 F800.0 X59.375 Y45.2835 Z-0.1333 I-0.25 J0.0
G2 Y45.7165 Z-0.2667 I0.125 J0.2165
G2 X59.75 Y45.5 Z-0.4 I0.125 J-0.2165
G2 X59.375 Y45.2835 Z-0.5333 I-0.25 J0.0
G2 Y45.7165 Z-0.6667 I0.125 J0.2165
G2 X59.75 Y45.5 Z-0.8 I0.125 J-0.2165
G2 X59.375 Y45.2835 Z-0.9333 I-0.25 J0.0
G2 Y45.7165 Z-1.0667 I0.125 J0.2165
G2 X59.75 Y45.5 Z-1.2 I0.125 J-0.2165
G2 X59.375 Y45.2835 Z-1.3333 I-0.25 J0.0
G2 Y45.7165 Z-1.4667 I0.125 J0.2165
G2 X59.75 Y45.5 Z-1.6 I0.125 J-0.2165
G2 X59.375 Y45.2835 Z-1.7333 I-0.25 J0.0
G2 Y45.7165 Z-1.8667 I0.125 J0.2165
G2 X59.75 Y45.5 Z-2.0 I0.125 J-0.2165
G2 X59.375 Y45.2835 Z-2.1333 I-0.25 J0.0
G2 Y45.7165 Z-2.2667 I0.125 J0.2165
G2 X59.75 Y45.5 Z-2.4 I0.125 J-0.2165
G2 X59.375 Y45.2835 Z-2.5333 I-0.25 J0.0
G2 Y45.7165 Z-2.6667 I0.125 J0.2165
G2 X59.75 Y45.5 Z-2.8 I0.125 J-0.2165
G2 X59.375 Y45.2835 Z-2.9333 I-0.25 J0.0
G2 Y45.7165 Z-3.0667 I0.125 J0.2165
G2 X59.75 Y45.5 Z-3.2 I0.125 J-0.2165
G2 X59.375 Y45.2835 Z-3.3333 I-0.25 J0.0
G2 Y45.7165 Z-3.4667 I0.125 J0.2165
G2 X59.75 Y45.5 Z-3.6 I0.125 J-0.2165
G2 X59.375 Y45.2835 Z-3.7333 I-0.25 J0.0
G2 Y45.7165 Z-3.8667 I0.125 J0.2165
G2 X59.75 Y45.5 Z-4.0 I0.125 J-0.2165
G2 X59.375 Y45.2835 Z-4.1333 I-0.25 J0.0
G2 X59.25 Y45.5 Z-4.2 I0.125 J0.2165
G2 X59.625 Y45.7165 I0.25 J0.0
G2 Y45.2835 I-0.125 J-0.2165
G2 X59.25 Y45.5 I-0.125 J0.2165
G0 Z3.0
G0 X63.75
G1 F300.0 Z0.0
G2 F800.0 X63.375 Y45.2835 Z-0.1333 I-0.25 J0.0
G2 Y45.7165 Z-0.2667 I0.125 J0.2165
G2 X63.75 Y45.5 Z-0.4 I0.125 J-0.2165
G2 X63.375 Y45.2835 Z-0.5333 I-0.25 J0.0
G2 Y45.7165 Z-0.6667 I0.125 J0.2165
G2 X63.75 Y45.5 Z-0.8 I0.125 J-0.2165
G2 X63.375 Y45.2835 Z-0.9333 I-0.25 J0.0
G2 Y45.7165 Z-1.0667 I0.125 J0.2165
G2 X63.75 Y45.5 Z-1.2 I0.125 J-0.2165
G2 X63.375 Y45.2835 Z-1.3333 I-0.25 J0.0
G2 Y45.7165 Z-1.4667 I0.125 J0.2165
G2 X63.75 Y45.5 Z-1.6 I0.125 J-0.2165
G2 X63.375 Y45.2835 Z-1.7333 I-0.25 J0.0
G2 Y45.7165 Z-1.8667 I0.125 J0.2165
G2 X63.75 Y45.5 Z-2.0 I0.125 J-0.2165
G2 X63.375 Y45.2835 Z-2.1333 I-0.25 J0.0
G2 Y45.7165 Z-2.2667 I0.125 J0.2165
G2 X63.75 Y45.5 Z-2.4 I0.125 J-0.2165
G2 X63.375 Y45.2835 Z-2.5333 I-0.25 J0.0
G2 Y45.7165 Z-2.6667 I0.125 J0.2165
G2 X63.75 Y45.5 Z-2.8 I0.125 J-0.2165
G2 X63.375 Y45.2835 Z-2.9333 I-0.25 J0.0
G2 Y45.7165 Z-3.0667 I0.125 J0.2165
G2 X63.75 Y45.5 Z-3.2 I0.125 J-0.2165
G2 X63.375 Y45.2835 Z-3.3333 I-0.25 J0.0
G2 Y45.7165 Z-3.4667 I0.125 J0.2165
G2 X63.75 Y45.5 Z-3.6 I0.125 J-0.2165
G2 X63.375 Y45.2835 Z-3.7333 I-0.25 J0.0
G2 Y45.7165 Z-3.8667 I0.125 J0.2165
G2 X63.75 Y45.5 Z-4.0 I0.125 J-0.2165
G2 X63.375 Y45.2835 Z-4.1333 I-0.25 J0.0
G2 X63.25 Y45.5 Z-4.2 I0.125 J0.2165
G2 X63.625 Y45.7165 I0.25 J0.0
G2 Y45.2835 I-0.125 J-0.2165
G2 X63.25 Y45.5 I-0.125 J0.2165
G0 Z3.0
G0 X67.75
G1 F300.0 Z0.0
G2 F800.0 X67.375 Y45.2835 Z-0.1333 I-0.25 J0.0
G2 Y45.7165 Z-0.2667 I0.125 J0.2165
G2 X67.75 Y45.5 Z-0.4 I0.125 J-0.2165
G2 X67.375 Y45.2835 Z-0.5333 I-0.25 J0.0
G2 Y45.7165 Z-0.6667 I0.125 J0.2165
G2 X67.75 Y45.5 Z-0.8 I0.125 J-0.2165
G2 X67.375 Y45.2835 Z-0.9333 I-0.25 J0.0
G2 Y45.7165 Z-1.0667 I0.125 J0.2165
G2 X67.75 Y45.5 Z-1.2 I0.125 J-0.2165
G2 X67.375 Y45.2835 Z-1.3333 I-0.25 J0.0
G2 Y45.7165 Z-1.4667 I0.125 J0.2165
G2 X67.75 Y45.5 Z-1.6 I0.125 J-0.2165
G2 X67.375 Y45.2835 Z-1.7333 I-0.25 J0.0
G2 Y45.7165 Z-1.8667 I0.125 J0.2165
G2 X67.75 Y45.5 Z-2.0 I0.125 J-0.2165
G2 X67.375 Y45.2835 Z-2.1333 I-0.25 J0.0
G2 Y45.7165 Z-2.2667 I0.125 J0.2165
G2 X67.75 Y45.5 Z-2.4 I0.125 J-0.2165
G2 X67.375 Y45.2835 Z-2.5333 I-0.25 J0.0
G2 Y45.7165 Z-2.6667 I0.125 J0.2165
G2 X67.75 Y45.5 Z-2.8 I0.125 J-0.2165
G2 X67.375 Y45.2835 Z-2.9333 I-0.25 J0.0
G2 Y45.7165 Z-3.0667 I0.125 J0.2165
G2 X67.75 Y45.5 Z-3.2 I0.125 J-0.2165
G2 X67.375 Y45.2835 Z-3.3333 I-0.25 J0.0
G2 Y45.7165 Z-3.4667 I0.125 J0.2165
G2 X67.75 Y45.5 Z-3.6 I0.125 J-0.2165
G2 X67.375 Y45.2835 Z-3.7333 I-0.25 J0.0
G2 Y45.7165 Z-3.8667 I0.125 J0.2165
G2 X67.75 Y45.5 Z-4.0 I0.125 J-0.2165
G2 X67.375 Y45.2835 Z-4.1333 I-0.25 J0.0
G2 X67.25 Y45.5 Z-4.2 I0.125 J0.2165
G2 X67.625 Y45.7165 I0.25 J0.0
G2 Y45.2835 I-0.125 J-0.2165
G2 X67.25 Y45.5 I-0.125 J0.2165
G0 Z3.0
G0 X71.75
G1 F300.0 Z0.0
G2 F800.0 X71.375 Y45.2835 Z-0.1333 I-0.25 J0.0
G2 Y45.7165 Z-0.2667 I0.125 J0.2165
G2 X71.75 Y45.5 Z-0.4 I0.125 J-0.2165
G2 X71.375 Y45.2835 Z-0.5333 I-0.25 J0.0
G2 Y45.7165 Z-0.6667 I0.125 J0.2165
G2 X71.75 Y45.5 Z-0.8 I0.125 J-0.2165
G2 X71.375 Y45.2835 Z-0.9333 I-0.25 J0.0
G2 Y45.7165 Z-1.0667 I0.125 J0.2165
G2 X71.75 Y45.5 Z-1.2 I0.125 J-0.2165
G2 X71.375 Y45.2835 Z-1.3333 I-0.25 J0.0
G2 Y45.7165 Z-1.4667 I0.125 J0.2165
G2 X71.75 Y45.5 Z-1.6 I0.125 J-0.2165
G2 X71.375 Y45.2835 Z-1.7333 I-0.25 J0.0
G2 Y45.7165 Z-1.8667 I0.125 J0.2165
G2 X71.75 Y45.5 Z-2.0 I0.125 J-0.2165
G2 X71.375 Y45.2835 Z-2.1333 I-0.25 J0.0
G2 Y45.7165 Z-2.2667 I0.125 J0.2165
G2 X71.75 Y45.5 Z-2.4 I0.125 J-0.2165
G2 X71.375 Y45.2835 Z-2.5333 I-0.25 J0.0
G2 Y45.7165 Z-2.6667 I0.125 J0.2165
G2 X71.75 Y45.5 Z-2.8 I0.125 J-0.2165
G2 X71.375 Y45.2835 Z-2.9333 I-0.25 J0.0
G2 Y45.7165 Z-3.0667 I0.125 J0.2165
G2 X71.75 Y45.5 Z-3.2 I0.125 J-0.2165
G2 X71.375 Y45.2835 Z-3.3333 I-0.25 J0.0
G2 Y45.7165 Z-3.4667 I0.125 J0.2165
G2 X71.75 Y45.5 Z-3.6 I0.125 J-0.2165
G2 X71.375 Y45.2835 Z-3.7333 I-0.25 J0.0
G2 Y45.7165 Z-3.8667 I0.125 J0.2165
G2 X71.75 Y45.5 Z-4.0 I0.125 J-0.2165
G2 X71.375 Y45.2835 Z-4.1333 I-0.25 J0.0
G2 X71.25 Y45.5 Z-4.2 I0.125 J0.2165
G2 X71.625 Y45.7165 I0.25 J0.0
G2 Y45.2835 I-0.125 J-0.2165
G2 X71.25 Y45.5 I-0.125 J0.2165
G0 Z3.0
G0 X65.847 Y55.0671
G1 F300.0 Z0.0
G2 F800.0 X65.472 Y54.8506 Z-0.1333 I-0.25 J0.0
G2 Y55.2836 Z-0.2667 I0.125 J0.2165
G2 X65.847 Y55.0671 Z-0.4 I0.125 J-0.2165
G2 X65.472 Y54.8506 Z-0.5333 I-0.25 J0.0
G2 Y55.2836 Z-0.6667 I0.125 J0.2165
G2 X65.847 Y55.0671 Z-0.8 I0.125 J-0.2165
G2 X65.472 Y54.8506 Z-0.9333 I-0.25 J0.0
G2 Y55.2836 Z-1.0667 I0.125 J0.2165
G2 X65.847 Y55.0671 Z-1.2 I0.125 J-0.2165
G2 X65.472 Y54.8506 Z-1.3333 I-0.25 J0.0
G2 Y55.2836 Z-1.4667 I0.125 J0.2165
G2 X65.847 Y55.0671 Z-1.6 I0.125 J-0.2165
G2 X65.472 Y54.8506 Z-1.7333 I-0.25 J0.0
G2 Y55.2836 Z-1.8667 I0.125 J0.2165
G2 X65.847 Y55.0671 Z-2.0 I0.125 J-0.2165
G2 X65.472 Y54.8506 Z-2.1333 I-0.25 J0.0
G2 Y55.2836 Z-2.2667 I0.125 J0.2165
G2 X65.847 Y55.0671 Z-2.4 I0.125 J-0.2165
G2 X65.472 Y54.8506 Z-2.5333 I-0.25 J0.0
G2 Y55.2836 Z-2.6667 I0.125 J0.2165
G2 X65.847 Y55.0671 Z-2.8 I0.125 J-0.2165
G2 X65.472 Y54.8506 Z-2.9333 I-0.25 J0.0
G2 Y55.2836 Z-3.0667 I0.125 J0.2165
G2 X65.847 Y55.0671 Z-3.2 I0.125 J-0.2165
G2 X65.472 Y54.8506 Z-3.3333 I-0.25 J0.0
G2 Y55.2836 Z-3.4667 I0.125 J0.2165
G2 X65.847 Y55.0671 Z-3.6 I0.125 J-0.2165
G2 X65.472 Y54.8506 Z-3.7333 I-0.25 J0.0
G2 Y55.2836 Z-3.8667 I0.125 J0.2165
G2 X65.847 Y55.0671 Z-4.0 I0.125 J-0.2165
G2 X65.472 Y54.8506 Z-4.1333 I-0.25 J0.0
G2 X65.347 Y55.0671 Z-4.2 I0.125 J0.2165
G2 X65.722 Y55.2836 I0.25 J0.0
G2 Y54.8506 I-0.125 J-0.2165
G2 X65.347 Y55.0671 I-0.125 J0.2165
G0 Z3.0
G0 X62.1515 Y53.5364
G1 F300.0 Z0.0
G2 F800.0 X61.7765 Y53.3198 Z-0.1333 I-0.25 J0.0
G2 Y53.7529 Z-0.2667 I0.125 J0.2165
G2 X62.1515 Y53.5364 Z-0.4 I0.125 J-0.2165
G2 X61.7765 Y53.3198 Z-0.5333 I-0.25 J0.0
G2 Y53.7529 Z-0.6667 I0.125 J0.2165
G2 X62.1515 Y53.5364 Z-0.8 I0.125 J-0.2165
G2 X61.7765 Y53.3198 Z-0.9333 I-0.25 J0.0
G2 Y53.7529 Z-1.0667 I0.125 J0.2165
G2 X62.1515 Y53.5364 Z-1.2 I0.125 J-0.2165
G2 X61.7765 Y53.3198 Z-1.3333 I-0.25 J0.0
G2 Y53.7529 Z-1.4667 I0.125 J0.2165
G2 X62.1515 Y53.5364 Z-1.6 I0.125 J-0.2165
G2 X61.7765 Y53.3198 Z-1.7333 I-0.25 J0.0
G2 Y53.7529 Z-1.8667 I0.125 J0.2165
G2 X62.1515 Y53.5364 Z-2.0 I0.125 J-0.2165
G2 X61.7765 Y53.3198 Z-2.1333 I-0.25 J0.0
G2 Y53.7529 Z-2.2667 I0.125 J0.2165
G2 X62.1515 Y53.5364 Z-2.4 I0.125 J-0.2165
G2 X61.7765 Y53.3198 Z-2.5333 I-0.25 J0.0
G2 Y53.7529 Z-2.6667 I0.125 J0.2165
G2 X62.1515 Y53.5364 Z-2.8 I0.125 J-0.2165
G2 X61.7765 Y53.3198 Z-2.9333 I-0.25 J0.0
G2 Y53.7529 Z-3.0667 I0.125 J0.2165
G2 X62.1515 Y53.5364 Z-3.2 I0.125 J-0.2165
G2 X61.7765 Y53.3198 Z-3.3333 I-0.25 J0.0
G2 Y53.7529 Z-3.4667 I0.125 J0.2165
G2 X62.1515 Y53.5364 Z-3.6 I0.125 J-0.2165
G2 X61.7765 Y53.3198 Z-3.7333 I-0.25 J0.0
G2 Y53.7529 Z-3.8667 I0.125 J0.2165
G2 X62.1515 Y53.5364 Z-4.0 I0.125 J-0.2165
G2 X61.7765 Y53.3198 Z-4.1333 I-0.25 J0.0
G2 X61.6515 Y53.5364 Z-4.2 I0.125 J0.2165
G2 X62.0265 Y53.7529 I0.25 J0.0
G2 Y53.3198 I-0.125 J-0.2165
G2 X61.6515 Y53.5364 I-0.125 J0.2165
G0 Z3.0
G0 X58.456 Y52.0056
G1 F300.0 Z0.0
G2 F800.0 X58.081 Y51.7891 Z-0.1333 I-0.25 J0.0
G2 Y52.2221 Z-0.2667 I0.125 J0.2165
G2 X58.456 Y52.0056 Z-0.4 I0.125 J-0.2165
G2 X58.081 Y51.7891 Z-0.5333 I-0.25 J0.0
G2 Y52.2221 Z-0.6667 I0.125 J0.2165
G2 X58.456 Y52.0056 Z-0.8 I0.125 J-0.2165
G2 X58.081 Y51.7891 Z-0.9333 I-0.25 J0.0
G2 Y52.2221 Z-1.0667 I0.125 J0.2165
G2 X58.456 Y52.0056 Z-1.2 I0.125 J-0.2165
G2 X58.081 Y51.7891 Z-1.3333 I-0.25 J0.0
G2 Y52.2221 Z-1.4667 I0.125 J0.2165
G2 X58.456 Y52.0056 Z-1.6 I0.125 J-0.2165
G2 X58.081 Y51.7891 Z-1.7333 I-0.25 J0.0
G2 Y52.2221 Z-1.8667 I0.125 J0.2165
G2 X58.456 Y52.0056 Z-2.0 I0.125 J-0.2165
G2 X58.081 Y51.7891 Z-2.1333 I-0.25 J0.0
G2 Y52.2221 Z-2.2667 I0.125 J0.2165
G2 X58.456 Y52.0056 Z-2.4 I0.125 J-0.2165
G2 X58.081 Y51.7891 Z-2.5333 I-0.25 J0.0
G2 Y52.2221 Z-2.6667 I0.125 J0.2165
G2 X58.456 Y52.0056 Z-2.8 I0.125 J-0.2165
G2 X58.081 Y51.7891 Z-2.9333 I-0.25 J0.0
G2 Y52.2221 Z-3.0667 I0.125 J0.2165
G2 X58.456 Y52.0056 Z-3.2 I0.125 J-0.2165
G2 X58.081 Y51.7891 Z-3.3333 I-0.25 J0.0
G2 Y52.2221 Z-3.4667 I0.125 J0.2165
G2 X58.456 Y52.0056 Z-3.6 I0.125 J-0.2165
G2 X58.081 Y51.7891 Z-3.7333 I-0.25 J0.0
G2 Y52.2221 Z-3.8667 I0.125 J0.2165
G2 X58.456 Y52.0056 Z-4.0 I0.125 J-0.2165
G2 X58.081 Y51.7891 Z-4.1333 I-0.25 J0.0
G2 X57.956 Y52.0056 Z-4.2 I0.125 J0.2165
G2 X58.331 Y52.2221 I0.25 J0.0
G2 Y51.7891 I-0.125 J-0.2165
G2 X57.956 Y52.0056 I-0.125 J0.2165
G0 Z3.0
G0 X54.7604 Y50.4749
G1 F300.0 Z0.0
G2 F800.0 X54.3854 Y50.2584 Z-0.1333 I-0.25 J0.0
G2 Y50.6914 Z-0.2667 I0.125 J0.2165
G2 X54.7604 Y50.4749 Z-0.4 I0.125 J-0.2165
G2 X54.3854 Y50.2584 Z-0.5333 I-0.25 J0.0
G2 Y50.6914 Z-0.6667 I0.125 J0.2165
G2 X54.7604 Y50.4749 Z-0.8 I0.125 J-0.2165
G2 X54.3854 Y50.2584 Z-0.9333 I-0.25 J0.0
G2 Y50.6914 Z-1.0667 I0.125 J0.2165
G2 X54.7604 Y50.4749 Z-1.2 I0.125 J-0.2165
G2 X54.3854 Y50.2584 Z-1.3333 I-0.25 J0.0
G2 Y50.6914 Z-1.4667 I0.125 J0.2165
G2 X54.7604 Y50.4749 Z-1.6 I0.125 J-0.2165
G2 X54.3854 Y50.2584 Z-1.7333 I-0.25 J0.0
G2 Y50.6914 Z-1.8667 I0.125 J0.2165
G2 X54.7604 Y50.4749 Z-2.0 I0.125 J-0.2165
G2 X54.3854 Y50.2584 Z-2.1333 I-0.25 J0.0
G2 Y50.6914 Z-2.2667 I0.125 J0.2165
G2 X54.7604 Y50.4749 Z-2.4 I0.125 J-0.2165
G2 X54.3854 Y50.2584 Z-2.5333 I-0.25 J0.0
G2 Y50.6914 Z-2.6667 I0.125 J0.2165
G2 X54.7604 Y50.4749 Z-2.8 I0.125 J-0.2165
G2 X54.3854 Y50.2584 Z-2.9333 I-0.25 J0.0
G2 Y50.6914 Z-3.0667 I0.125 J0.2165
G2 X54.7604 Y50.4749 Z-3.2 I0.125 J-0.2165
G2 X54.3854 Y50.2584 Z-3.3333 I-0.25 J0.0
G2 Y50.6914 Z-3.4667 I0.125 J0.2165
G2 X54.7604 Y50.4749 Z-3.6 I0.125 J-0.2165
G2 X54.3854 Y50.2584 Z-3.7333 I-0.25 J0.0
G2 Y50.6914 Z-3.8667 I0.125 J0.2165
G2 X54.7604 Y50.4749 Z-4.0 I0.125 J-0.2165
G2 X54.3854 Y50.2584 Z-4.1333 I-0.25 J0.0
G2 X54.2604 Y50.4749 Z-4.2 I0.125 J0.2165
G2 X54.6354 Y50.6914 I0.25 J0.0
G2 Y50.2584 I-0.125 J-0.2165
G2 X54.2604 Y50.4749 I-0.125 J0.2165
G0 Z3.0
G0 X51.9424 Y54.6924
G1 F300.0 Z0.0
G2 F800.0 X51.5674 Y54.4759 Z-0.1333 I-0.25 J0.0
G2 Y54.9089 Z-0.2667 I0.125 J0.2165
G2 X51.9424 Y54.6924 Z-0.4 I0.125 J-0.2165
G2 X51.5674 Y54.4759 Z-0.5333 I-0.25 J0.0
G2 Y54.9089 Z-0.6667 I0.125 J0.2165
G2 X51.9424 Y54.6924 Z-0.8 I0.125 J-0.2165
G2 X51.5674 Y54.4759 Z-0.9333 I-0.25 J0.0
G2 Y54.9089 Z-1.0667 I0.125 J0.2165
G2 X51.9424 Y54.6924 Z-1.2 I0.125 J-0.2165
G2 X51.5674 Y54.4759 Z-1.3333 I-0.25 J0.0
G2 Y54.9089 Z-1.4667 I0.125 J0.2165
G2 X51.9424 Y54.6924 Z-1.6 I0.125 J-0.2165
G2 X51.5674 Y54.4759 Z-1.7333 I-0.25 J0.0
G2 Y54.9089 Z-1.8667 I0.125 J0.2165
G2 X51.9424 Y54.6924 Z-2.0 I0.125 J-0.2165
G2 X51.5674 Y54.4759 Z-2.1333 I-0.25 J0.0
G2 Y54.9089 Z-2.2667 I0.125 J0.2165
G2 X51.9424 Y54.6924 Z-2.4 I0.125 J-0.2165
G2 X51.5674 Y54.4759 Z-2.5333 I-0.25 J0.0
G2 Y54.9089 Z-2.6667 I0.125 J0.2165
G2 X51.9424 Y54.6924 Z-2.8 I0.125 J-0.2165
G2 X51.5674 Y54.4759 Z-2.9333 I-0.25 J0.0
G2 Y54.9089 Z-3.0667 I0.125 J0.2165
G2 X51.9424 Y54.6924 Z-3.2 I0.125 J-0.2165
G2 X51.5674 Y54.4759 Z-3.3333 I-0.25 J0.0
G2 Y54.9089 Z-3.4667 I0.125 J0.2165
G2 X51.9424 Y54.6924 Z-3.6 I0.125 J-0.2165
G2 X51.5674 Y54.4759 Z-3.7333 I-0.25 J0.0
G2 Y54.9089 Z-3.8667 I0.125 J0.2165
G2 X51.9424 Y54.6924 Z-4.0 I0.125 J-0.2165
G2 X51.5674 Y54.4759 Z-4.1333 I-0.25 J0.0
G2 X51.4424 Y54.6924 Z-4.2 I0.125 J0.2165
G2 X51.8174 Y54.9089 I0.25 J0.0
G2 Y54.4759 I-0.125 J-0.2165
G2 X51.4424 Y54.6924 I-0.125 J0.2165
G0 Z3.0
G0 X54.7708 Y57.5208
G1 F300.0 Z0.0
G2 F800.0 X54.3958 Y57.3043 Z-0.1333 I-0.25 J0.0
G2 Y57.7373 Z-0.2667 I0.125 J0.2165
G2 X54.7708 Y57.5208 Z-0.4 I0.125 J-0.2165
G2 X54.3958 Y57.3043 Z-0.5333 I-0.25 J0.0
G2 Y57.7373 Z-0.6667 I0.125 J0.2165
G2 X54.7708 Y57.5208 Z-0.8 I0.125 J-0.2165
G2 X54.3958 Y57.3043 Z-0.9333 I-0.25 J0.0
G2 Y57.7373 Z-1.0667 I0.125 J0.2165
G2 X54.7708 Y57.5208 Z-1.2 I0.125 J-0.2165
G2 X54.3958 Y57.3043 Z-1.3333 I-0.25 J0.0
G2 Y57.7373 Z-1.4667 I0.125 J0.2165
G2 X54.7708 Y57.5208 Z-1.6 I0.125 J-0.2165
G2 X54.3958 Y57.3043 Z-1.7333 I-0.25 J0.0
G2 Y57.7373 Z-1.8667 I0.125 J0.2165
G2 X54.7708 Y57.5208 Z-2.0 I0.125 J-0.2165
G2 X54.3958 Y57.3043 Z-2.1333 I-0.25 J0.0
G2 Y57.7373 Z-2.2667 I0.125 J0.2165
G2 X54.7708 Y57.5208 Z-2.4 I0.125 J-0.2165
G2 X54.3958 Y57.3043 Z-2.5333 I-0.25 J0.0
G2 Y57.7373 Z-2.6667 I0.125 J0.2165
G2 X54.7708 Y57.5208 Z-2.8 I0.125 J-0.2165
G2 X54.3958 Y57.3043 Z-2.9333 I-0.25 J0.0
G2 Y57.7373 Z-3.0667 I0.125 J0.2165
G2 X54.7708 Y57.5208 Z-3.2 I0.125 J-0.2165
G2 X54.3958 Y57.3043 Z-3.3333 I-0.25 J0.0
G2 Y57.7373 Z-3.4667 I0.125 J0.2165
G2 X54.7708 Y57.5208 Z-3.6 I0.125 J-0.2165
G2 X54.3958 Y57.3043 Z-3.7333 I-0.25 J0.0
G2 Y57.7373 Z-3.8667 I0.125 J0.2165
G2 X54.7708 Y57.5208 Z-4.0 I0.125 J-0.2165
G2 X54.3958 Y57.3043 Z-4.1333 I-0.25 J0.0
G2 X54.2708 Y57.5208 Z-4.2 I0.125 J0.2165
G2 X54.6458 Y57.7373 I0.25 J0.0
G2 Y57.3043 I-0.125 J-0.2165
G2 X54.2708 Y57.5208 I-0.125 J0.2165
G0 Z3.0
G0 X57.5992 Y60.3492
G1 F300.0 Z0.0
G2 F800.0 X57.2242 Y60.1327 Z-0.1333 I-0.25 J0.0
G2 Y60.5657 Z-0.2667 I0.125 J0.2165
G2 X57.5992 Y60.3492 Z-0.4 I0.125 J-0.2165
G2 X57.2242 Y60.1327 Z-0.5333 I-0.25 J0.0
G2 Y60.5657 Z-0.6667 I0.125 J0.2165
G2 X57.5992 Y60.3492 Z-0.8 I0.125 J-0.2165
G2 X57.2242 Y60.1327 Z-0.9333 I-0.25 J0.0
G2 Y60.5657 Z-1.0667 I0.125 J0.2165
G2 X57.5992 Y60.3492 Z-1.2 I0.125 J-0.2165
G2 X57.2242 Y60.1327 Z-1.3333 I-0.25 J0.0
G2 Y60.5657 Z-1.4667 I0.125 J0.2165
G2 X57.5992 Y60.3492 Z-1.6 I0.125 J-0.2165
G2 X57.2242 Y60.1327 Z-1.7333 I-0.25 J0.0
G2 Y60.5657 Z-1.8667 I0.125 J0.2165
G2 X57.5992 Y60.3492 Z-2.0 I0.125 J-0.2165
G2 X57.2242 Y60.1327 Z-2.1333 I-0.25 J0.0
G2 Y60.5657 Z-2.2667 I0.125 J0.2165
G2 X57.5992 Y60.3492 Z-2.4 I0.125 J-0.2165
G2 X57.2242 Y60.1327 Z-2.5333 I-0.25 J0.0
G2 Y60.5657 Z-2.6667 I0.125 J0.2165
G2 X57.5992 Y60.3492 Z-2.8 I0.125 J-0.2165
G2 X57.2242 Y60.1327 Z-2.9333 I-0.25 J0.0
G2 Y60.5657 Z-3.0667 I0.125 J0.2165
G2 X57.5992 Y60.3492 Z-3.2 I0.125 J-0.2165
G2 X57.2242 Y60.1327 Z-3.3333 I-0.25 J0.0
G2 Y60.5657 Z-3.4667 I0.125 J0.2165
G2 X57.5992 Y60.3492 Z-3.6 I0.125 J-0.2165
G2 X57.2242 Y60.1327 Z-3.7333 I-0.25 J0.0
G2 Y60.5657 Z-3.8667 I0.125 J0.2165
G2 X57.5992 Y60.3492 Z-4.0 I0.125 J-0.2165
G2 X57.2242 Y60.1327 Z-4.1333 I-0.25 J0.0
G2 X57.0992 Y60.3492 Z-4.2 I0.125 J0.2165
G2 X57.4742 Y60.5657 I0.25 J0.0
G2 Y60.1327 I-0.125 J-0.2165
G2 X57.0992 Y60.3492 I-0.125 J0.2165
G0 Z3.0
G0 X60.4277 Y63.1777
G1 F300.0 Z0.0
G2 F800.0 X60.0527 Y62.9612 Z-0.1333 I-0.25 J0.0
G2 Y63.3942 Z-0.2667 I0.125 J0.2165
G2 X60.4277 Y63.1777 Z-0.4 I0.125 J-0.2165
G2 X60.0527 Y62.9612 Z-0.5333 I-0.25 J0.0
G2 Y63.3942 Z-0.6667 I0.125 J0.2165
G2 X60.4277 Y63.1777 Z-0.8 I0.125 J-0.2165
G2 X60.0527 Y62.9612 Z-0.9333 I-0.25 J0.0
G2 Y63.3942 Z-1.0667 I0.125 J0.2165
G2 X60.4277 Y63.1777 Z-1.2 I0.125 J-0.2165
G2 X60.0527 Y62.9612 Z-1.3333 I-0.25 J0.0
G2 Y63.3942 Z-1.4667 I0.125 J0.2165
G2 X60.4277 Y63.1777 Z-1.6 I0.125 J-0.2165
G2 X60.0527 Y62.9612 Z-1.7333 I-0.25 J0.0
G2 Y63.3942 Z-1.8667 I0.125 J0.2165
G2 X60.4277 Y63.1777 Z-2.0 I0.125 J-0.2165
G2 X60.0527 Y62.9612 Z-2.1333 I-0.25 J0.0
G2 Y63.3942 Z-2.2667 I0.125 J0.2165
G2 X60.4277 Y63.1777 Z-2.4 I0.125 J-0.2165
G2 X60.0527 Y62.9612 Z-2.5333 I-0.25 J0.0
G2 Y63.3942 Z-2.6667 I0.125 J0.2165
G2 X60.4277 Y63.1777 Z-2.8 I0.125 J-0.2165
G2 X60.0527 Y62.9612 Z-2.9333 I-0.25 J0.0
G2 Y63.3942 Z-3.0667 I0.125 J0.2165
G2 X60.4277 Y63.1777 Z-3.2 I0.125 J-0.2165
G2 X60.0527 Y62.9612 Z-3.3333 I-0.25 J0.0
G2 Y63.3942 Z-3.4667 I0.125 J0.2165
G2 X60.4277 Y63.1777 Z-3.6 I0.125 J-0.2165
G2 X60.0527 Y62.9612 Z-3.7333 I-0.25 J0.0
G2 Y63.3942 Z-3.8667 I0.125 J0.2165
G2 X60.4277 Y63.1777 Z-4.0 I0.125 J-0.2165
G2 X60.0527 Y62.9612 Z-4.1333 I-0.25 J0.0
G2 X59.9277 Y63.1777 Z-4.2 I0.125 J0.2165
G2 X60.3027 Y63.3942 I0.25 J0.0
G2 Y62.9612 I-0.125 J-0.2165
G2 X59.9277 Y63.1777 I-0.125 J0.2165
G0 Z3.0
G0 X63.2561 Y66.0061
G1 F300.0 Z0.0
G2 F800.0 X62.8811 Y65.7896 Z-0.1333 I-0.25 J0.0
G2 Y66.2226 Z-0.2667 I0.125 J0.2165
G2 X63.2561 Y66.0061 Z-0.4 I0.125 J-0.2165
G2 X62.8811 Y65.7896 Z-0.5333 I-0.25 J0.0
G2 Y66.2226 Z-0.6667 I0.125 J0.2165
G2 X63.2561 Y66.0061 Z-0.8 I0.125 J-0.2165
G2 X62.8811 Y65.7896 Z-0.9333 I-0.25 J0.0
G2 Y66.2226 Z-1.0667 I0.125 J0.2165
G2 X63.2561 Y66.0061 Z-1.2 I0.125 J-0.2165
G2 X62.8811 Y65.7896 Z-1.3333 I-0.25 J0.0
G2 Y66.2226 Z-1.4667 I0.125 J0.2165
G2 X63.2561 Y66.0061 Z-1.6 I0.125 J-0.2165
G2 X62.8811 Y65.7896 Z-1.7333 I-0.25 J0.0
G2 Y66.2226 Z-1.8667 I0.125 J0.2165
G2 X63.2561 Y66.0061 Z-2.0 I0.125 J-0.2165
G2 X62.8811 Y65.7896 Z-2.1333 I-0.25 J0.0
G2 Y66.2226 Z-2.2667 I0.125 J0.2165
G2 X63.2561 Y66.0061 Z-2.4 I0.125 J-0.2165
G2 X62.8811 Y65.7896 Z-2.5333 I-0.25 J0.0
G2 Y66.2226 Z-2.6667 I0.125 J0.2165
G2 X63.2561 Y66.0061 Z-2.8 I0.125 J-0.2165
G2 X62.8811 Y65.7896 Z-2.9333 I-0.25 J0.0
G2 Y66.2226 Z-3.0667 I0.125 J0.2165
G2 X63.2561 Y66.0061 Z-3.2 I0.125 J-0.2165
G2 X62.8811 Y65.7896 Z-3.3333 I-0.25 J0.0
G2 Y66.2226 Z-3.4667 I0.125 J0.2165
G2 X63.2561 Y66.0061 Z-3.6 I0.125 J-0.2165
G2 X62.8811 Y65.7896 Z-3.7333 I-0.25 J0.0
G2 Y66.2226 Z-3.8667 I0.125 J0.2165
G2 X63.2561 Y66.0061 Z-4.0 I0.125 J-0.2165
G2 X62.8811 Y65.7896 Z-4.1333 I-0.25 J0.0
G2 X62.7561 Y66.0061 Z-4.2 I0.125 J0.2165
G2 X63.1311 Y66.2226 I0.25 J0.0
G2 Y65.7896 I-0.125 J-0.2165
G2 X62.7561 Y66.0061 I-0.125 J0.2165
G0 Z3.0
G0 X52.3171 Y68.597
G1 F300.0 Z0.0
G2 F800.0 X51.9421 Y68.3805 Z-0.1333 I-0.25 J0.0
G2 Y68.8135 Z-0.2667 I0.125 J0.2165
G2 X52.3171 Y68.597 Z-0.4 I0.125 J-0.2165
G2 X51.9421 Y68.3805 Z-0.5333 I-0.25 J0.0
G2 Y68.8135 Z-0.6667 I0.125 J0.2165
G2 X52.3171 Y68.597 Z-0.8 I0.125 J-0.2165
G2 X51.9421 Y68.3805 Z-0.9333 I-0.25 J0.0
G2 Y68.8135 Z-1.0667 I0.125 J0.2165
G2 X52.3171 Y68.597 Z-1.2 I0.125 J-0.2165
G2 X51.9421 Y68.3805 Z-1.3333 I-0.25 J0.0
G2 Y68.8135 Z-1.4667 I0.125 J0.2165
G2 X52.3171 Y68.597 Z-1.6 I0.125 J-0.2165
G2 X51.9421 Y68.3805 Z-1.7333 I-0.25 J0.0
G2 Y68.8135 Z-1.8667 I0.125 J0.2165
G2 X52.3171 Y68.597 Z-2.0 I0.125 J-0.2165
G2 X51.9421 Y68.3805 Z-2.1333 I-0.25 J0.0
G2 Y68.8135 Z-2.2667 I0.125 J0.2165
G2 X52.3171 Y68.597 Z-2.4 I0.125 J-0.2165
G2 X51.9421 Y68.3805 Z-2.5333 I-0.25 J0.0
G2 Y68.8135 Z-2.6667 I0.125 J0.2165
G2 X52.3171 Y68.597 Z-2.8 I0.125 J-0.2165
G2 X51.9421 Y68.3805 Z-2.9333 I-0.25 J0.0
G2 Y68.8135 Z-3.0667 I0.125 J0.2165
G2 X52.3171 Y68.597 Z-3.2 I0.125 J-0.2165
G2 X51.9421 Y68.3805 Z-3.3333 I-0.25 J0.0
G2 Y68.8135 Z-3.4667 I0.125 J0.2165
G2 X52.3171 Y68.597 Z-3.6 I0.125 J-0.2165
G2 X51.9421 Y68.3805 Z-3.7333 I-0.25 J0.0
G2 Y68.8135 Z-3.8667 I0.125 J0.2165
G2 X52.3171 Y68.597 Z-4.0 I0.125 J-0.2165
G2 X51.9421 Y68.3805 Z-4.1333 I-0.25 J0.0
G2 X51.8171 Y68.597 Z-4.2 I0.125 J0.2165
G2 X52.1921 Y68.8135 I0.25 J0.0
G2 Y68.3805 I-0.125 J-0.2165
G2 X51.8171 Y68.597 I-0.125 J0.2165
G0 Z3.0
G0 X50.7864 Y64.9015
G1 F300.0 Z0.0
G2 F800.0 X50.4114 Y64.685 Z-0.1333 I-0.25 J0.0
G2 Y65.118 Z-0.2667 I0.125 J0.2165
G2 X50.7864 Y64.9015 Z-0.4 I0.125 J-0.2165
G2 X50.4114 Y64.685 Z-0.5333 I-0.25 J0.0
G2 Y65.118 Z-0.6667 I0.125 J0.2165
G2 X50.7864 Y64.9015 Z-0.8 I0.125 J-0.2165
G2 X50.4114 Y64.685 Z-0.9333 I-0.25 J0.0
G2 Y65.118 Z-1.0667 I0.125 J0.2165
G2 X50.7864 Y64.9015 Z-1.2 I0.125 J-0.2165
G2 X50.4114 Y64.685 Z-1.3333 I-0.25 J0.0
G2 Y65.118 Z-1.4667 I0.125 J0.2165
G2 X50.7864 Y64.9015 Z-1.6 I0.125 J-0.2165
G2 X50.4114 Y64.685 Z-1.7333 I-0.25 J0.0
G2 Y65.118 Z-1.8667 I0.125 J0.2165
G2 X50.7864 Y64.9015 Z-2.0 I0.125 J-0.2165
G2 X50.4114 Y64.685 Z-2.1333 I-0.25 J0.0
G2 Y65.118 Z-2.2667 I0.125 J0.2165
G2 X50.7864 Y64.9015 Z-2.4 I0.125 J-0.2165
G2 X50.4114 Y64.685 Z-2.5333 I-0.25 J0.0
G2 Y65.118 Z-2.6667 I0.125 J0.2165
G2 X50.7864 Y64.9015 Z-2.8 I0.125 J-0.2165
G2 X50.4114 Y64.685 Z-2.9333 I-0.25 J0.0
G2 Y65.118 Z-3.0667 I0.125 J0.2165
G2 X50.7864 Y64.9015 Z-3.2 I0.125 J-0.2165
G2 X50.4114 Y64.685 Z-3.3333 I-0.25 J0.0
G2 Y65.118 Z-3.4667 I0.125 J0.2165
G2 X50.7864 Y64.9015 Z-3.6 I0.125 J-0.2165
G2 X50.4114 Y64.685 Z-3.7333 I-0.25 J0.0
G2 Y65.118 Z-3.8667 I0.125 J0.2165
G2 X50.7864 Y64.9015 Z-4.0 I0.125 J-0.2165
G2 X50.4114 Y64.685 Z-4.1333 I-0.25 J0.0
G2 X50.2864 Y64.9015 Z-4.2 I0.125 J0.2165
G2 X50.6614 Y65.118 I0.25 J0.0
G2 Y64.685 I-0.125 J-0.2165
G2 X50.2864 Y64.9015 I-0.125 J0.2165
G0 Z3.0
G0 X49.2556 Y61.206
G1 F300.0 Z0.0
G2 F800.0 X48.8806 Y60.9894 Z-0.1333 I-0.25 J0.0
G2 Y61.4225 Z-0.2667 I0.125 J0.2165
G2 X49.2556 Y61.206 Z-0.4 I0.125 J-0.2165
G2 X48.8806 Y60.9894 Z-0.5333 I-0.25 J0.0
G2 Y61.4225 Z-0.6667 I0.125 J0.2165
G2 X49.2556 Y61.206 Z-0.8 I0.125 J-0.2165
G2 X48.8806 Y60.9894 Z-0.9333 I-0.25 J0.0
G2 Y61.4225 Z-1.0667 I0.125 J0.2165
G2 X49.2556 Y61.206 Z-1.2 I0.125 J-0.2165
G2 X48.8806 Y60.9894 Z-1.3333 I-0.25 J0.0
G2 Y61.4225 Z-1.4667 I0.125 J0.2165
G2 X49.2556 Y61.206 Z-1.6 I0.125 J-0.2165
G2 X48.8806 Y60.9894 Z-1.7333 I-0.25 J0.0
G2 Y61.4225 Z-1.8667 I0.125 J0.2165
G2 X49.2556 Y61.206 Z-2.0 I0.125 J-0.2165
G2 X48.8806 Y60.9894 Z-2.1333 I-0.25 J0.0
G2 Y61.4225 Z-2.2667 I0.125 J0.2165
G2 X49.2556 Y61.206 Z-2.4 I0.125 J-0.2165
G2 X48.8806 Y60.9894 Z-2.5333 I-0.25 J0.0
G2 Y61.4225 Z-2.6667 I0.125 J0.2165
G2 X49.2556 Y61.206 Z-2.8 I0.125 J-0.2165
G2 X48.8806 Y60.9894 Z-2.9333 I-0.25 J0.0
G2 Y61.4225 Z-3.0667 I0.125 J0.2165
G2 X49.2556 Y61.206 Z-3.2 I0.125 J-0.2165
G2 X48.8806 Y60.9894 Z-3.3333 I-0.25 J0.0
G2 Y61.4225 Z-3.4667 I0.125 J0.2165
G2 X49.2556 Y61.206 Z-3.6 I0.125 J-0.2165
G2 X48.8806 Y60.9894 Z-3.7333 I-0.25 J0.0
G2 Y61.4225 Z-3.8667 I0.125 J0.2165
G2 X49.2556 Y61.206 Z-4.0 I0.125 J-0.2165
G2 X48.8806 Y60.9894 Z-4.1333 I-0.25 J0.0
G2 X48.7556 Y61.206 Z-4.2 I0.125 J0.2165
G2 X49.1306 Y61.4225 I0.25 J0.0
G2 Y60.9894 I-0.125 J-0.2165
G2 X48.7556 Y61.206 I-0.125 J0.2165
G0 Z3.0
G0 X47.7249 Y57.5104
G1 F300.0 Z0.0
G2 F800.0 X47.3499 Y57.2939 Z-0.1333 I-0.25 J0.0
G2 Y57.7269 Z-0.2667 I0.125 J0.2165
G2 X47.7249 Y57.5104 Z-0.4 I0.125 J-0.2165
G2 X47.3499 Y57.2939 Z-0.5333 I-0.25 J0.0
G2 Y57.7269 Z-0.6667 I0.125 J0.2165
G2 X47.7249 Y57.5104 Z-0.8 I0.125 J-0.2165
G2 X47.3499 Y57.2939 Z-0.9333 I-0.25 J0.0
G2 Y57.7269 Z-1.0667 I0.125 J0.2165
G2 X47.7249 Y57.5104 Z-1.2 I0.125 J-0.2165
G2 X47.3499 Y57.2939 Z-1.3333 I-0.25 J0.0
G2 Y57.7269 Z-1.4667 I0.125 J0.2165
G2 X47.7249 Y57.5104 Z-1.6 I0.125 J-0.2165
G2 X47.3499 Y57.2939 Z-1.7333 I-0.25 J0.0
G2 Y57.7269 Z-1.8667 I0.125 J0.2165
G2 X47.7249 Y57.5104 Z-2.0 I0.125 J-0.2165
G2 X47.3499 Y57.2939 Z-2.1333 I-0.25 J0.0
G2 Y57.7269 Z-2.2667 I0.125 J0.2165
G2 X47.7249 Y57.5104 Z-2.4 I0.125 J-0.2165
G2 X47.3499 Y57.2939 Z-2.5333 I-0.25 J0.0
G2 Y57.7269 Z-2.6667 I0.125 J0.2165
G2 X47.7249 Y57.5104 Z-2.8 I0.125 J-0.2165
G2 X47.3499 Y57.2939 Z-2.9333 I-0.25 J0.0
G2 Y57.7269 Z-3.0667 I0.125 J0.2165
G2 X47.7249 Y57.5104 Z-3.2 I0.125 J-0.2165
G2 X47.3499 Y57.2939 Z-3.3333 I-0.25 J0.0
G2 Y57.7269 Z-3.4667 I0.125 J0.2165
G2 X47.7249 Y57.5104 Z-3.6 I0.125 J-0.2165
G2 X47.3499 Y57.2939 Z-3.7333 I-0.25 J0.0
G2 Y57.7269 Z-3.8667 I0.125 J0.2165
G2 X47.7249 Y57.5104 Z-4.0 I0.125 J-0.2165
G2 X47.3499 Y57.2939 Z-4.1333 I-0.25 J0.0
G2 X47.2249 Y57.5104 Z-4.2 I0.125 J0.2165
G2 X47.5999 Y57.7269 I0.25 J0.0
G2 Y57.2939 I-0.125 J-0.2165
G2 X47.2249 Y57.5104 I-0.125 J0.2165
G0 Z3.0
G0 X42.75 Y58.5
G1 F300.0 Z0.0
G2 F800.0 X42.375 Y58.2835 Z-0.1333 I-0.25 J0.0
G2 Y58.7165 Z-0.2667 I0.125 J0.2165
G2 X42.75 Y58.5 Z-0.4 I0.125 J-0.2165
G2 X42.375 Y58.2835 Z-0.5333 I-0.25 J0.0
G2 Y58.7165 Z-0.6667 I0.125 J0.2165
G2 X42.75 Y58.5 Z-0.8 I0.125 J-0.2165
G2 X42.375 Y58.2835 Z-0.9333 I-0.25 J0.0
G2 Y58.7165 Z-1.0667 I0.125 J0.2165
G2 X42.75 Y58.5 Z-1.2 I0.125 J-0.2165
G2 X42.375 Y58.2835 Z-1.3333 I-0.25 J0.0
G2 Y58.7165 Z-1.4667 I0.125 J0.2165
G2 X42.75 Y58.5 Z-1.6 I0.125 J-0.2165
G2 X42.375 Y58.2835 Z-1.7333 I-0.25 J0.0
G2 Y58.7165 Z-1.8667 I0.125 J0.2165
G2 X42.75 Y58.5 Z-2.0 I0.125 J-0.2165
G2 X42.375 Y58.2835 Z-2.1333 I-0.25 J0.0
G2 Y58.7165 Z-2.2667 I0.125 J0.2165
G2 X42.75 Y58.5 Z-2.4 I0.125 J-0.2165
G2 X42.375 Y58.2835 Z-2.5333 I-0.25 J0.0
G2 Y58.7165 Z-2.6667 I0.125 J0.2165
G2 X42.75 Y58.5 Z-2.8 I0.125 J-0.2165
G2 X42.375 Y58.2835 Z-2.9333 I-0.25 J0.0
G2 Y58.7165 Z-3.0667 I0.125 J0.2165
G2 X42.75 Y58.5 Z-3.2 I0.125 J-0.2165
G2 X42.375 Y58.2835 Z-3.3333 I-0.25 J0.0
G2 Y58.7165 Z-3.4667 I0.125 J0.2165
G2 X42.75 Y58.5 Z-3.6 I0.125 J-0.2165
G2 X42.375 Y58.2835 Z-3.7333 I-0.25 J0.0
G2 Y58.7165 Z-3.8667 I0.125 J0.2165
G2 X42.75 Y58.5 Z-4.0 I0.125 J-0.2165
G2 X42.375 Y58.2835 Z-4.1333 I-0.25 J0.0
G2 X42.25 Y58.5 Z-4.2 I0.125 J0.2165
G2 X42.625 Y58.7165 I0.25 J0.0
G2 Y58.2835 I-0.125 J-0.2165
G2 X42.25 Y58.5 I-0.125 J0.2165
G0 Z3.0
G0 X42.75 Y62.5
G1 F300.0 Z0.0
G2 F800.0 X42.375 Y62.2835 Z-0.1333 I-0.25 J0.0
G2 Y62.7165 Z-0.2667 I0.125 J0.2165
G2 X42.75 Y62.5 Z-0.4 I0.125 J-0.2165
G2 X42.375 Y62.2835 Z-0.5333 I-0.25 J0.0
G2 Y62.7165 Z-0.6667 I0.125 J0.2165
G2 X42.75 Y62.5 Z-0.8 I0.125 J-0.2165
G2 X42.375 Y62.2835 Z-0.9333 I-0.25 J0.0
G2 Y62.7165 Z-1.0667 I0.125 J0.2165
G2 X42.75 Y62.5 Z-1.2 I0.125 J-0.2165
G2 X42.375 Y62.2835 Z-1.3333 I-0.25 J0.0
G2 Y62.7165 Z-1.4667 I0.125 J0.2165
G2 X42.75 Y62.5 Z-1.6 I0.125 J-0.2165
G2 X42.375 Y62.2835 Z-1.7333 I-0.25 J0.0
G2 Y62.7165 Z-1.8667 I0.125 J0.2165
G2 X42.75 Y62.5 Z-2.0 I0.125 J-0.2165
G2 X42.375 Y62.2835 Z-2.1333 I-0.25 J0.0
G2 Y62.7165 Z-2.2667 I0.125 J0.2165
G2 X42.75 Y62.5 Z-2.4 I0.125 J-0.2165
G2 X42.375 Y62.2835 Z-2.5333 I-0.25 J0.0
G2 Y62.7165 Z-2.6667 I0.125 J0.2165
G2 X42.75 Y62.5 Z-2.8 I0.125 J-0.2165
G2 X42.375 Y62.2835 Z-2.9333 I-0.25 J0.0
G2 Y62.7165 Z-3.0667 I0.125 J0.2165
G2 X42.75 Y62.5 Z-3.2 I0.125 J-0.2165
G2 X42.375 Y62.2835 Z-3.3333 I-0.25 J0.0
G2 Y62.7165 Z-3.4667 I0.125 J0.2165
G2 X42.75 Y62.5 Z-3.6 I0.125 J-0.2165
G2 X42.375 Y62.2835 Z-3.7333 I-0.25 J0.0
G2 Y62.7165 Z-3.8667 I0.125 J0.2165
G2 X42.75 Y62.5 Z-4.0 I0.125 J-0.2165
G2 X42.375 Y62.2835 Z-4.1333 I-0.25 J0.0
G2 X42.25 Y62.5 Z-4.2 I0.125 J0.2165
G2 X42.625 Y62.7165 I0.25 J0.0
G2 Y62.2835 I-0.125 J-0.2165
G2 X42.25 Y62.5 I-0.125 J0.2165
G0 Z3.0
G0 X42.75 Y66.5
G1 F300.0 Z0.0
G2 F800.0 X42.375 Y66.2835 Z-0.1333 I-0.25 J0.0
G2 Y66.7165 Z-0.2667 I0.125 J0.2165
G2 X42.75 Y66.5 Z-0.4 I0.125 J-0.2165
G2 X42.375 Y66.2835 Z-0.5333 I-0.25 J0.0
G2 Y66.7165 Z-0.6667 I0.125 J0.2165
G2 X42.75 Y66.5 Z-0.8 I0.125 J-0.2165
G2 X42.375 Y66.2835 Z-0.9333 I-0.25 J0.0
G2 Y66.7165 Z-1.0667 I0.125 J0.2165
G2 X42.75 Y66.5 Z-1.2 I0.125 J-0.2165
G2 X42.375 Y66.2835 Z-1.3333 I-0.25 J0.0
G2 Y66.7165 Z-1.4667 I0.125 J0.2165
G2 X42.75 Y66.5 Z-1.6 I0.125 J-0.2165
G2 X42.375 Y66.2835 Z-1.7333 I-0.25 J0.0
G2 Y66.7165 Z-1.8667 I0.125 J0.2165
G2 X42.75 Y66.5 Z-2.0 I0.125 J-0.2165
G2 X42.375 Y66.2835 Z-2.1333 I-0.25 J0.0
G2 Y66.7165 Z-2.2667 I0.125 J0.2165
G2 X42.75 Y66.5 Z-2.4 I0.125 J-0.2165
G2 X42.375 Y66.2835 Z-2.5333 I-0.25 J0.0
G2 Y66.7165 Z-2.6667 I0.125 J0.2165
G2 X42.75 Y66.5 Z-2.8 I0.125 J-0.2165
G2 X42.375 Y66.2835 Z-2.9333 I-0.25 J0.0
G2 Y66.7165 Z-3.0667 I0.125 J0.2165
G2 X42.75 Y66.5 Z-3.2 I0.125 J-0.2165
G2 X42.375 Y66.2835 Z-3.3333 I-0.25 J0.0
G2 Y66.7165 Z-3.4667 I0.125 J0.2165
G2 X42.75 Y66.5 Z-3.6 I0.125 J-0.2165
G2 X42.375 Y66.2835 Z-3.7333 I-0.25 J0.0
G2 Y66.7165 Z-3.8667 I0.125 J0.2165
G2 X42.75 Y66.5 Z-4.0 I0.125 J-0.2165
G2 X42.375 Y66.2835 Z-4.1333 I-0.25 J0.0
G2 X42.25 Y66.5 Z-4.2 I0.125 J0.2165
G2 X42.625 Y66.7165 I0.25 J0.0
G2 Y66.2835 I-0.125 J-0.2165
G2 X42.25 Y66.5 I-0.125 J0.2165
G0 Z3.0
G0 X42.75 Y70.5
G1 F300.0 Z0.0
G2 F800.0 X42.375 Y70.2835 Z-0.1333 I-0.25 J0.0
G2 Y70.7165 Z-0.2667 I0.125 J0.2165
G2 X42.75 Y70.5 Z-0.4 I0.125 J-0.2165
G2 X42.375 Y70.2835 Z-0.5333 I-0.25 J0.0
G2 Y70.7165 Z-0.6667 I0.125 J0.2165
G2 X42.75 Y70.5 Z-0.8 I0.125 J-0.2165
G2 X42.375 Y70.2835 Z-0.9333 I-0.25 J0.0
G2 Y70.7165 Z-1.0667 I0.125 J0.2165
G2 X42.75 Y70.5 Z-1.2 I0.125 J-0.2165
G2 X42.375 Y70.2835 Z-1.3333 I-0.25 J0.0
G2 Y70.7165 Z-1.4667 I0.125 J0.2165
G2 X42.75 Y70.5 Z-1.6 I0.125 J-0.2165
G2 X42.375 Y70.2835 Z-1.7333 I-0.25 J0.0
G2 Y70.7165 Z-1.8667 I0.125 J0.2165
G2 X42.75 Y70.5 Z-2.0 I0.125 J-0.2165
G2 X42.375 Y70.2835 Z-2.1333 I-0.25 J0.0
G2 Y70.7165 Z-2.2667 I0.125 J0.2165
G2 X42.75 Y70.5 Z-2.4 I0.125 J-0.2165
G2 X42.375 Y70.2835 Z-2.5333 I-0.25 J0.0
G2 Y70.7165 Z-2.6667 I0.125 J0.2165
G2 X42.75 Y70.5 Z-2.8 I0.125 J-0.2165
G2 X42.375 Y70.2835 Z-2.9333 I-0.25 J0.0
G2 Y70.7165 Z-3.0667 I0.125 J0.2165
G2 X42.75 Y70.5 Z-3.2 I0.125 J-0.2165
G2 X42.375 Y70.2835 Z-3.3333 I-0.25 J0.0
G2 Y70.7165 Z-3.4667 I0.125 J0.2165
G2 X42.75 Y70.5 Z-3.6 I0.125 J-0.2165
G2 X42.375 Y70.2835 Z-3.7333 I-0.25 J0.0
G2 Y70.7165 Z-3.8667 I0.125 J0.2165
G2 X42.75 Y70.5 Z-4.0 I0.125 J-0.2165
G2 X42.375 Y70.2835 Z-4.1333 I-0.25 J0.0
G2 X42.25 Y70.5 Z-4.2 I0.125 J0.2165
G2 X42.625 Y70.7165 I0.25 J0.0
G2 Y70.2835 I-0.125 J-0.2165
G2 X42.25 Y70.5 I-0.125 J0.2165
G0 Z3.0
G0 X42.75 Y74.5
G1 F300.0 Z0.0
G2 F800.0 X42.375 Y74.2835 Z-0.1333 I-0.25 J0.0
G2 Y74.7165 Z-0.2667 I0.125 J0.2165
G2 X42.75 Y74.5 Z-0.4 I0.125 J-0.2165
G2 X42.375 Y74.2835 Z-0.5333 I-0.25 J0.0
G2 Y74.7165 Z-0.6667 I0.125 J0.2165
G2 X42.75 Y74.5 Z-0.8 I0.125 J-0.2165
G2 X42.375 Y74.2835 Z-0.9333 I-0.25 J0.0
G2 Y74.7165 Z-1.0667 I0.125 J0.2165
G2 X42.75 Y74.5 Z-1.2 I0.125 J-0.2165
G2 X42.375 Y74.2835 Z-1.3333 I-0.25 J0.0
G2 Y74.7165 Z-1.4667 I0.125 J0.2165
G2 X42.75 Y74.5 Z-1.6 I0.125 J-0.2165
G2 X42.375 Y74.2835 Z-1.7333 I-0.25 J0.0
G2 Y74.7165 Z-1.8667 I0.125 J0.2165
G2 X42.75 Y74.5 Z-2.0 I0.125 J-0.2165
G2 X42.375 Y74.2835 Z-2.1333 I-0.25 J0.0
G2 Y74.7165 Z-2.2667 I0.125 J0.2165
G2 X42.75 Y74.5 Z-2.4 I0.125 J-0.2165
G2 X42.375 Y74.2835 Z-2.5333 I-0.25 J0.0
G2 Y74.7165 Z-2.6667 I0.125 J0.2165
G2 X42.75 Y74.5 Z-2.8 I0.125 J-0.2165
G2 X42.375 Y74.2835 Z-2.9333 I-0.25 J0.0
G2 Y74.7165 Z-3.0667 I0.125 J0.2165
G2 X42.75 Y74.5 Z-3.2 I0.125 J-0.2165
G2 X42.375 Y74.2835 Z-3.3333 I-0.25 J0.0
G2 Y74.7165 Z-3.4667 I0.125 J0.2165
G2 X42.75 Y74.5 Z-3.6 I0.125 J-0.2165
G2 X42.375 Y74.2835 Z-3.7333 I-0.25 J0.0
G2 Y74.7165 Z-3.8667 I0.125 J0.2165
G2 X42.75 Y74.5 Z-4.0 I0.125 J-0.2165
G2 X42.375 Y74.2835 Z-4.1333 I-0.25 J0.0
G2 X42.25 Y74.5 Z-4.2 I0.125 J0.2165
G2 X42.625 Y74.7165 I0.25 J0.0
G2 Y74.2835 I-0.125 J-0.2165
G2 X42.25 Y74.5 I-0.125 J0.2165
G0 Z3.0
G0 X33.1829 Y68.597
G1 F300.0 Z0.0
G2 F800.0 X32.8079 Y68.3805 Z-0.1333 I-0.25 J0.0
G2 Y68.8135 Z-0.2667 I0.125 J0.2165
G2 X33.1829 Y68.597 Z-0.4 I0.125 J-0.2165
G2 X32.8079 Y68.3805 Z-0.5333 I-0.25 J0.0
G2 Y68.8135 Z-0.6667 I0.125 J0.2165
G2 X33.1829 Y68.597 Z-0.8 I0.125 J-0.2165
G2 X32.8079 Y68.3805 Z-0.9333 I-0.25 J0.0
G2 Y68.8135 Z-1.0667 I0.125 J0.2165
G2 X33.1829 Y68.597 Z-1.2 I0.125 J-0.2165
G2 X32.8079 Y68.3805 Z-1.3333 I-0.25 J0.0
G2 Y68.8135 Z-1.4667 I0.125 J0.2165
G2 X33.1829 Y68.597 Z-1.6 I0.125 J-0.2165
G2 X32.8079 Y68.3805 Z-1.7333 I-0.25 J0.0
G2 Y68.8135 Z-1.8667 I0.125 J0.2165
G2 X33.1829 Y68.597 Z-2.0 I0.125 J-0.2165
G2 X32.8079 Y68.3805 Z-2.1333 I-0.25 J0.0
G2 Y68.8135 Z-2.2667 I0.125 J0.2165
G2 X33.1829 Y68.597 Z-2.4 I0.125 J-0.2165
G2 X32.8079 Y68.3805 Z-2.5333 I-0.25 J0.0
G2 Y68.8135 Z-2.6667 I0.125 J0.2165
G2 X33.1829 Y68.597 Z-2.8 I0.125 J-0.2165
G2 X32.8079 Y68.3805 Z-2.9333 I-0.25 J0.0
G2 Y68.8135 Z-3.0667 I0.125 J0.2165
G2 X33.1829 Y68.597 Z-3.2 I0.125 J-0.2165
G2 X32.8079 Y68.3805 Z-3.3333 I-0.25 J0.0
G2 Y68.8135 Z-3.4667 I0.125 J0.2165
G2 X33.1829 Y68.597 Z-3.6 I0.125 J-0.2165
G2 X32.8079 Y68.3805 Z-3.7333 I-0.25 J0.0
G2 Y68.8135 Z-3.8667 I0.125 J0.2165
G2 X33.1829 Y68.597 Z-4.0 I0.125 J-0.2165
G2 X32.8079 Y68.3805 Z-4.1333 I-0.25 J0.0
G2 X32.6829 Y68.597 Z-4.2 I0.125 J0.2165
G2 X33.0579 Y68.8135 I0.25 J0.0
G2 Y68.3805 I-0.125 J-0.2165
G2 X32.6829 Y68.597 I-0.125 J0.2165
G0 Z3.0
G0 X34.7136 Y64.9015
G1 F300.0 Z0.0
G2 F800.0 X34.3386 Y64.685 Z-0.1333 I-0.25 J0.0
G2 Y65.118 Z-0.2667 I0.125 J0.2165
G2 X34.7136 Y64.9015 Z-0.4 I0.125 J-0.2165
G2 X34.3386 Y64.685 Z-0.5333 I-0.25 J0.0
G2 Y65.118 Z-0.6667 I0.125 J0.2165
G2 X34.7136 Y64.9015 Z-0.8 I0.125 J-0.2165
G2 X34.3386 Y64.685 Z-0.9333 I-0.25 J0.0
G2 Y65.118 Z-1.0667 I0.125 J0.2165
G2 X34.7136 Y64.9015 Z-1.2 I0.125 J-0.2165
G2 X34.3386 Y64.685 Z-1.3333 I-0.25 J0.0
G2 Y65.118 Z-1.4667 I0.125 J0.2165
G2 X34.7136 Y64.9015 Z-1.6 I0.125 J-0.2165
G2 X34.3386 Y64.685 Z-1.7333 I-0.25 J0.0
G2 Y65.118 Z-1.8667 I0.125 J0.2165
G2 X34.7136 Y64.9015 Z-2.0 I0.125 J-0.2165
G2 X34.3386 Y64.685 Z-2.1333 I-0.25 J0.0
G2 Y65.118 Z-2.2667 I0.125 J0.2165
G2 X34.7136 Y64.9015 Z-2.4 I0.125 J-0.2165
G2 X34.3386 Y64.685 Z-2.5333 I-0.25 J0.0
G2 Y65.118 Z-2.6667 I0.125 J0.2165
G2 X34.7136 Y64.9015 Z-2.8 I0.125 J-0.2165
G2 X34.3386 Y64.685 Z-2.9333 I-0.25 J0.0
G2 Y65.118 Z-3.0667 I0.125 J0.2165
G2 X34.7136 Y64.9015 Z-3.2 I0.125 J-0.2165
G2 X34.3386 Y64.685 Z-3.3333 I-0.25 J0.0
G2 Y65.118 Z-3.4667 I0.125 J0.2165
G2 X34.7136 Y64.9015 Z-3.6 I0.125 J-0.2165
G2 X34.3386 Y64.685 Z-3.7333 I-0.25 J0.0
G2 Y65.118 Z-3.8667 I0.125 J0.2165
G2 X34.7136 Y64.9015 Z-4.0 I0.125 J-0.2165
G2 X34.3386 Y64.685 Z-4.1333 I-0.25 J0.0
G2 X34.2136 Y64.9015 Z-4.2 I0.125 J0.2165
G2 X34.5886 Y65.118 I0.25 J0.0
G2 Y64.685 I-0.125 J-0.2165
G2 X34.2136 Y64.9015 I-0.125 J0.2165
G0 Z3.0
G0 X36.2444 Y61.206
G1 F300.0 Z0.0
G2 F800.0 X35.8694 Y60.9894 Z-0.1333 I-0.25 J0.0
G2 Y61.4225 Z-0.2667 I0.125 J0.2165
G2 X36.2444 Y61.206 Z-0.4 I0.125 J-0.2165
G2 X35.8694 Y60.9894 Z-0.5333 I-0.25 J0.0
G2 Y61.4225 Z-0.6667 I0.125 J0.2165
G2 X36.2444 Y61.206 Z-0.8 I0.125 J-0.2165
G2 X35.8694 Y60.9894 Z-0.9333 I-0.25 J0.0
G2 Y61.4225 Z-1.0667 I0.125 J0.2165
G2 X36.2444 Y61.206 Z-1.2 I0.125 J-0.2165
G2 X35.8694 Y60.9894 Z-1.3333 I-0.25 J0.0
G2 Y61.4225 Z-1.4667 I0.125 J0.2165
G2 X36.2444 Y61.206 Z-1.6 I0.125 J-0.2165
G2 X35.8694 Y60.9894 Z-1.7333 I-0.25 J0.0
G2 Y61.4225 Z-1.8667 I0.125 J0.2165
G2 X36.2444 Y61.206 Z-2.0 I0.125 J-0.2165
G2 X35.8694 Y60.9894 Z-2.1333 I-0.25 J0.0
G2 Y61.4225 Z-2.2667 I0.125 J0.2165
G2 X36.2444 Y61.206 Z-2.4 I0.125 J-0.2165
G2 X35.8694 Y60.9894 Z-2.5333 I-0.25 J0.0
G2 Y61.4225 Z-2.6667 I0.125 J0.2165
G2 X36.2444 Y61.206 Z-2.8 I0.125 J-0.2165
G2 X35.8694 Y60.9894 Z-2.9333 I-0.25 J0.0
G2 Y61.4225 Z-3.0667 I0.125 J0.2165
G2 X36.2444 Y61.206 Z-3.2 I0.125 J-0.2165
G2 X35.8694 Y60.9894 Z-3.3333 I-0.25 J0.0
G2 Y61.4225 Z-3.4667 I0.125 J0.2165
G2 X36.2444 Y61.206 Z-3.6 I0.125 J-0.2165
G2 X35.8694 Y60.9894 Z-3.7333 I-0.25 J0.0
G2 Y61.4225 Z-3.8667 I0.125 J0.2165
G2 X36.2444 Y61.206 Z-4.0 I0.125 J-0.2165
G2 X35.8694 Y60.9894 Z-4.1333 I-0.25 J0.0
G2 X35.7444 Y61.206 Z-4.2 I0.125 J0.2165
G2 X36.1194 Y61.4225 I0.25 J0.0
G2 Y60.9894 I-0.125 J-0.2165
G2 X35.7444 Y61.206 I-0.125 J0.2165
G0 Z3.0
G0 X37.7751 Y57.5104
G1 F300.0 Z0.0
G2 F800.0 X37.4001 Y57.2939 Z-0.1333 I-0.25 J0.0
G2 Y57.7269 Z-0.2667 I0.125 J0.2165
G2 X37.7751 Y57.5104 Z-0.4 I0.125 J-0.2165
G2 X37.4001 Y57.2939 Z-0.5333 I-0.25 J0.0
G2 Y57.7269 Z-0.6667 I0.125 J0.2165
G2 X37.7751 Y57.5104 Z-0.8 I0.125 J-0.2165
G2 X37.4001 Y57.2939 Z-0.9333 I-0.25 J0.0
G2 Y57.7269 Z-1.0667 I0.125 J0.2165
G2 X37.7751 Y57.5104 Z-1.2 I0.125 J-0.2165
G2 X37.4001 Y57.2939 Z-1.3333 I-0.25 J0.0
G2 Y57.7269 Z-1.4667 I0.125 J0.2165
G2 X37.7751 Y57.5104 Z-1.6 I0.125 J-0.2165
G2 X37.4001 Y57.2939 Z-1.7333 I-0.25 J0.0
G2 Y57.7269 Z-1.8667 I0.125 J0.2165
G2 X37.7751 Y57.5104 Z-2.0 I0.125 J-0.2165
G2 X37.4001 Y57.2939 Z-2.1333 I-0.25 J0.0
G2 Y57.7269 Z-2.2667 I0.125 J0.2165
G2 X37.7751 Y57.5104 Z-2.4 I0.125 J-0.2165
G2 X37.4001 Y57.2939 Z-2.5333 I-0.25 J0.0
G2 Y57.7269 Z-2.6667 I0.125 J0.2165
G2 X37.7751 Y57.5104 Z-2.8 I0.125 J-0.2165
G2 X37.4001 Y57.2939 Z-2.9333 I-0.25 J0.0
G2 Y57.7269 Z-3.0667 I0.125 J0.2165
G2 X37.7751 Y57.5104 Z-3.2 I0.125 J-0.2165
G2 X37.4001 Y57.2939 Z-3.3333 I-0.25 J0.0
G2 Y57.7269 Z-3.4667 I0.125 J0.2165
G2 X37.7751 Y57.5104 Z-3.6 I0.125 J-0.2165
G2 X37.4001 Y57.2939 Z-3.7333 I-0.25 J0.0
G2 Y57.7269 Z-3.8667 I0.125 J0.2165
G2 X37.7751 Y57.5104 Z-4.0 I0.125 J-0.2165
G2 X37.4001 Y57.2939 Z-4.1333 I-0.25 J0.0
G2 X37.2751 Y57.5104 Z-4.2 I0.125 J0.2165
G2 X37.6501 Y57.7269 I0.25 J0.0
G2 Y57.2939 I-0.125 J-0.2165
G2 X37.2751 Y57.5104 I-0.125 J0.2165
G0 Z3.0
G0 X33.5576 Y54.6924
G1 F300.0 Z0.0
G2 F800.0 X33.1826 Y54.4759 Z-0.1333 I-0.25 J0.0
G2 Y54.9089 Z-0.2667 I0.125 J0.2165
G2 X33.5576 Y54.6924 Z-0.4 I0.125 J-0.2165
G2 X33.1826 Y54.4759 Z-0.5333 I-0.25 J0.0
G2 Y54.9089 Z-0.6667 I0.125 J0.2165
G2 X33.5576 Y54.6924 Z-0.8 I0.125 J-0.2165
G2 X33.1826 Y54.4759 Z-0.9333 I-0.25 J0.0
G2 Y54.9089 Z-1.0667 I0.125 J0.2165
G2 X33.5576 Y54.6924 Z-1.2 I0.125 J-0.2165
G2 X33.1826 Y54.4759 Z-1.3333 I-0.25 J0.0
G2 Y54.9089 Z-1.4667 I0.125 J0.2165
G2 X33.5576 Y54.6924 Z-1.6 I0.125 J-0.2165
G2 X33.1826 Y54.4759 Z-1.7333 I-0.25 J0.0
G2 Y54.9089 Z-1.8667 I0.125 J0.2165
G2 X33.5576 Y54.6924 Z-2.0 I0.125 J-0.2165
G2 X33.1826 Y54.4759 Z-2.1333 I-0.25 J0.0
G2 Y54.9089 Z-2.2667 I0.125 J0.2165
G2 X33.5576 Y54.6924 Z-2.4 I0.125 J-0.2165
G2 X33.1826 Y54.4759 Z-2.5333 I-0.25 J0.0
G2 Y54.9089 Z-2.6667 I0.125 J0.2165
G2 X33.5576 Y54.6924 Z-2.8 I0.125 J-0.2165
G2 X33.1826 Y54.4759 Z-2.9333 I-0.25 J0.0
G2 Y54.9089 Z-3.0667 I0.125 J0.2165
G2 X33.5576 Y54.6924 Z-3.2 I0.125 J-0.2165
G2 X33.1826 Y54.4759 Z-3.3333 I-0.25 J0.0
G2 Y54.9089 Z-3.4667 I0.125 J0.2165
G2 X33.5576 Y54.6924 Z-3.6 I0.125 J-0.2165
G2 X33.1826 Y54.4759 Z-3.7333 I-0.25 J0.0
G2 Y54.9089 Z-3.8667 I0.125 J0.2165
G2 X33.5576 Y54.6924 Z-4.0 I0.125 J-0.2165
G2 X33.1826 Y54.4759 Z-4.1333 I-0.25 J0.0
G2 X33.0576 Y54.6924 Z-4.2 I0.125 J0.2165
G2 X33.4326 Y54.9089 I0.25 J0.0
G2 Y54.4759 I-0.125 J-0.2165
G2 X33.0576 Y54.6924 I-0.125 J0.2165
G0 Z3.0
G0 X30.7292 Y57.5208
G1 F300.0 Z0.0
G2 F800.0 X30.3542 Y57.3043 Z-0.1333 I-0.25 J0.0
G2 Y57.7373 Z-0.2667 I0.125 J0.2165
G2 X30.7292 Y57.5208 Z-0.4 I0.125 J-0.2165
G2 X30.3542 Y57.3043 Z-0.5333 I-0.25 J0.0
G2 Y57.7373 Z-0.6667 I0.125 J0.2165
G2 X30.7292 Y57.5208 Z-0.8 I0.125 J-0.2165
G2 X30.3542 Y57.3043 Z-0.9333 I-0.25 J0.0
G2 Y57.7373 Z-1.0667 I0.125 J0.2165
G2 X30.7292 Y57.5208 Z-1.2 I0.125 J-0.2165
G2 X30.3542 Y57.3043 Z-1.3333 I-0.25 J0.0
G2 Y57.7373 Z-1.4667 I0.125 J0.2165
G2 X30.7292 Y57.5208 Z-1.6 I0.125 J-0.2165
G2 X30.3542 Y57.3043 Z-1.7333 I-0.25 J0.0
G2 Y57.7373 Z-1.8667 I0.125 J0.2165
G2 X30.7292 Y57.5208 Z-2.0 I0.125 J-0.2165
G2 X30.3542 Y57.3043 Z-2.1333 I-0.25 J0.0
G2 Y57.7373 Z-2.2667 I0.125 J0.2165
G2 X30.7292 Y57.5208 Z-2.4 I0.125 J-0.2165
G2 X30.3542 Y57.3043 Z-2.5333 I-0.25 J0.0
G2 Y57.7373 Z-2.6667 I0.125 J0.2165
G2 X30.7292 Y57.5208 Z-2.8 I0.125 J-0.2165
G2 X30.3542 Y57.3043 Z-2.9333 I-0.25 J0.0
G2 Y57.7373 Z-3.0667 I0.125 J0.2165
G2 X30.7292 Y57.5208 Z-3.2 I0.125 J-0.2165
G2 X30.3542 Y57.3043 Z-3.3333 I-0.25 J0.0
G2 Y57.7373 Z-3.4667 I0.125 J0.2165
G2 X30.7292 Y57.5208 Z-3.6 I0.125 J-0.2165
G2 X30.3542 Y57.3043 Z-3.7333 I-0.25 J0.0
G2 Y57.7373 Z-3.8667 I0.125 J0.2165
G2 X30.7292 Y57.5208 Z-4.0 I0.125 J-0.2165
G2 X30.3542 Y57.3043 Z-4.1333 I-0.25 J0.0
G2 X30.2292 Y57.5208 Z-4.2 I0.125 J0.2165
G2 X30.6042 Y57.7373 I0.25 J0.0
G2 Y57.3043 I-0.125 J-0.2165
G2 X30.2292 Y57.5208 I-0.125 J0.2165
G0 Z3.0
G0 X27.9008 Y60.3492
G1 F300.0 Z0.0
G2 F800.0 X27.5258 Y60.1327 Z-0.1333 I-0.25 J0.0
G2 Y60.5657 Z-0.2667 I0.125 J0.2165
G2 X27.9008 Y60.3492 Z-0.4 I0.125 J-0.2165
G2 X27.5258 Y60.1327 Z-0.5333 I-0.25 J0.0
G2 Y60.5657 Z-0.6667 I0.125 J0.2165
G2 X27.9008 Y60.3492 Z-0.8 I0.125 J-0.2165
G2 X27.5258 Y60.1327 Z-0.9333 I-0.25 J0.0
G2 Y60.5657 Z-1.0667 I0.125 J0.2165
G2 X27.9008 Y60.3492 Z-1.2 I0.125 J-0.2165
G2 X27.5258 Y60.1327 Z-1.3333 I-0.25 J0.0
G2 Y60.5657 Z-1.4667 I0.125 J0.2165
G2 X27.9008 Y60.3492 Z-1.6 I0.125 J-0.2165
G2 X27.5258 Y60.1327 Z-1.7333 I-0.25 J0.0
G2 Y60.5657 Z-1.8667 I0.125 J0.2165
G2 X27.9008 Y60.3492 Z-2.0 I0.125 J-0.2165
G2 X27.5258 Y60.1327 Z-2.1333 I-0.25 J0.0
G2 Y60.5657 Z-2.2667 I0.125 J0.2165
G2 X27.9008 Y60.3492 Z-2.4 I0.125 J-0.2165
G2 X27.5258 Y60.1327 Z-2.5333 I-0.25 J0.0
G2 Y60.5657 Z-2.6667 I0.125 J0.2165
G2 X27.9008 Y60.3492 Z-2.8 I0.125 J-0.2165
G2 X27.5258 Y60.1327 Z-2.9333 I-0.25 J0.0
G2 Y60.5657 Z-3.0667 I0.125 J0.2165
G2 X27.9008 Y60.3492 Z-3.2 I0.125 J-0.2165
G2 X27.5258 Y60.1327 Z-3.3333 I-0.25 J0.0
G2 Y60.5657 Z-3.4667 I0.125 J0.2165
G2 X27.9008 Y60.3492 Z-3.6 I0.125 J-0.2165
G2 X27.5258 Y60.1327 Z-3.7333 I-0.25 J0.0
G2 Y60.5657 Z-3.8667 I0.125 J0.2165
G2 X27.9008 Y60.3492 Z-4.0 I0.125 J-0.2165
G2 X27.5258 Y60.1327 Z-4.1333 I-0.25 J0.0
G2 X27.4008 Y60.3492 Z-4.2 I0.125 J0.2165
G2 X27.7758 Y60.5657 I0.25 J0.0
G2 Y60.1327 I-0.125 J-0.2165
G2 X27.4008 Y60.3492 I-0.125 J0.2165
G0 Z3.0
G0 X25.0723 Y63.1777
G1 F300.0 Z0.0
G2 F800.0 X24.6973 Y62.9612 Z-0.1333 I-0.25 J0.0
G2 Y63.3942 Z-0.2667 I0.125 J0.2165
G2 X25.0723 Y63.1777 Z-0.4 I0.125 J-0.2165
G2 X24.6973 Y62.9612 Z-0.5333 I-0.25 J0.0
G2 Y63.3942 Z-0.6667 I0.125 J0.2165
G2 X25.0723 Y63.1777 Z-0.8 I0.125 J-0.2165
G2 X24.6973 Y62.9612 Z-0.9333 I-0.25 J0.0
G2 Y63.3942 Z-1.0667 I0.125 J0.2165
G2 X25.0723 Y63.1777 Z-1.2 I0.125 J-0.2165
G2 X24.6973 Y62.9612 Z-1.3333 I-0.25 J0.0
G2 Y63.3942 Z-1.4667 I0.125 J0.2165
G2 X25.0723 Y63.1777 Z-1.6 I0.125 J-0.2165
G2 X24.6973 Y62.9612 Z-1.7333 I-0.25 J0.0
G2 Y63.3942 Z-1.8667 I0.125 J0.2165
G2 X25.0723 Y63.1777 Z-2.0 I0.125 J-0.2165
G2 X24.6973 Y62.9612 Z-2.1333 I-0.25 J0.0
G2 Y63.3942 Z-2.2667 I0.125 J0.2165
G2 X25.0723 Y63.1777 Z-2.4 I0.125 J-0.2165
G2 X24.6973 Y62.9612 Z-2.5333 I-0.25 J0.0
G2 Y63.3942 Z-2.6667 I0.125 J0.2165
G2 X25.0723 Y63.1777 Z-2.8 I0.125 J-0.2165
G2 X24.6973 Y62.9612 Z-2.9333 I-0.25 J0.0
G2 Y63.3942 Z-3.0667 I0.125 J0.2165
G2 X25.0723 Y63.1777 Z-3.2 I0.125 J-0.2165
G2 X24.6973 Y62.9612 Z-3.3333 I-0.25 J0.0
G2 Y63.3942 Z-3.4667 I0.125 J0.2165
G2 X25.0723 Y63.1777 Z-3.6 I0.125 J-0.2165
G2 X24.6973 Y62.9612 Z-3.7333 I-0.25 J0.0
G2 Y63.3942 Z-3.8667 I0.125 J0.2165
G2 X25.0723 Y63.1777 Z-4.0 I0.125 J-0.2165
G2 X24.6973 Y62.9612 Z-4.1333 I-0.25 J0.0
G2 X24.5723 Y63.1777 Z-4.2 I0.125 J0.2165
G2 X24.9473 Y63.3942 I0.25 J0.0
G2 Y62.9612 I-0.125 J-0.2165
G2 X24.5723 Y63.1777 I-0.125 J0.2165
G0 Z3.0
G0 X22.2439 Y66.0061
G1 F300.0 Z0.0
G2 F800.0 X21.8689 Y65.7896 Z-0.1333 I-0.25 J0.0
G2 Y66.2226 Z-0.2667 I0.125 J0.2165
G2 X22.2439 Y66.0061 Z-0.4 I0.125 J-0.2165
G2 X21.8689 Y65.7896 Z-0.5333 I-0.25 J0.0
G2 Y66.2226 Z-0.6667 I0.125 J0.2165
G2 X22.2439 Y66.0061 Z-0.8 I0.125 J-0.2165
G2 X21.8689 Y65.7896 Z-0.9333 I-0.25 J0.0
G2 Y66.2226 Z-1.0667 I0.125 J0.2165
G2 X22.2439 Y66.0061 Z-1.2 I0.125 J-0.2165
G2 X21.8689 Y65.7896 Z-1.3333 I-0.25 J0.0
G2 Y66.2226 Z-1.4667 I0.125 J0.2165
G2 X22.2439 Y66.0061 Z-1.6 I0.125 J-0.2165
G2 X21.8689 Y65.7896 Z-1.7333 I-0.25 J0.0
G2 Y66.2226 Z-1.8667 I0.125 J0.2165
G2 X22.2439 Y66.0061 Z-2.0 I0.125 J-0.2165
G2 X21.8689 Y65.7896 Z-2.1333 I-0.25 J0.0
G2 Y66.2226 Z-2.2667 I0.125 J0.2165
G2 X22.2439 Y66.0061 Z-2.4 I0.125 J-0.2165
G2 X21.8689 Y65.7896 Z-2.5333 I-0.25 J0.0
G2 Y66.2226 Z-2.6667 I0.125 J0.2165
G2 X22.2439 Y66.0061 Z-2.8 I0.125 J-0.2165
G2 X21.8689 Y65.7896 Z-2.9333 I-0.25 J0.0
G2 Y66.2226 Z-3.0667 I0.125 J0.2165
G2 X22.2439 Y66.0061 Z-3.2 I0.125 J-0.2165
G2 X21.8689 Y65.7896 Z-3.3333 I-0.25 J0.0
G2 Y66.2226 Z-3.4667 I0.125 J0.2165
G2 X22.2439 Y66.0061 Z-3.6 I0.125 J-0.2165
G2 X21.8689 Y65.7896 Z-3.7333 I-0.25 J0.0
G2 Y66.2226 Z-3.8667 I0.125 J0.2165
G2 X22.2439 Y66.0061 Z-4.0 I0.125 J-0.2165
G2 X21.8689 Y65.7896 Z-4.1333 I-0.25 J0.0
G2 X21.7439 Y66.0061 Z-4.2 I0.125 J0.2165
G2 X22.1189 Y66.2226 I0.25 J0.0
G2 Y65.7896 I-0.125 J-0.2165
G2 X21.7439 Y66.0061 I-0.125 J0.2165
G0 Z3.0
G0 X19.653 Y55.0671
G1 F300.0 Z0.0
G2 F800.0 X19.278 Y54.8506 Z-0.1333 I-0.25 J0.0
G2 Y55.2836 Z-0.2667 I0.125 J0.2165
G2 X19.653 Y55.0671 Z-0.4 I0.125 J-0.2165
G2 X19.278 Y54.8506 Z-0.5333 I-0.25 J0.0
G2 Y55.2836 Z-0.6667 I0.125 J0.2165
G2 X19.653 Y55.0671 Z-0.8 I0.125 J-0.2165
G2 X19.278 Y54.8506 Z-0.9333 I-0.25 J0.0
G2 Y55.2836 Z-1.0667 I0.125 J0.2165
G2 X19.653 Y55.0671 Z-1.2 I0.125 J-0.2165
G2 X19.278 Y54.8506 Z-1.3333 I-0.25 J0.0
G2 Y55.2836 Z-1.4667 I0.125 J0.2165
G2 X19.653 Y55.0671 Z-1.6 I0.125 J-0.2165
G2 X19.278 Y54.8506 Z-1.7333 I-0.25 J0.0
G2 Y55.2836 Z-1.8667 I0.125 J0.2165
G2 X19.653 Y55.0671 Z-2.0 I0.125 J-0.2165
G2 X19.278 Y54.8506 Z-2.1333 I-0.25 J0.0
G2 Y55.2836 Z-2.2667 I0.125 J0.2165
G2 X19.653 Y55.0671 Z-2.4 I0.125 J-0.2165
G2 X19.278 Y54.8506 Z-2.5333 I-0.25 J0.0
G2 Y55.2836 Z-2.6667 I0.125 J0.2165
G2 X19.653 Y55.0671 Z-2.8 I0.125 J-0.2165
G2 X19.278 Y54.8506 Z-2.9333 I-0.25 J0.0
G2 Y55.2836 Z-3.0667 I0.125 J0.2165
G2 X19.653 Y55.0671 Z-3.2 I0.125 J-0.2165
G2 X19.278 Y54.8506 Z-3.3333 I-0.25 J0.0
G2 Y55.2836 Z-3.4667 I0.125 J0.2165
G2 X19.653 Y55.0671 Z-3.6 I0.125 J-0.2165
G2 X19.278 Y54.8506 Z-3.7333 I-0.25 J0.0
G2 Y55.2836 Z-3.8667 I0.125 J0.2165
G2 X19.653 Y55.0671 Z-4.0 I0.125 J-0.2165
G2 X19.278 Y54.8506 Z-4.1333 I-0.25 J0.0
G2 X19.153 Y55.0671 Z-4.2 I0.125 J0.2165
G2 X19.528 Y55.2836 I0.25 J0.0
G2 Y54.8506 I-0.125 J-0.2165
G2 X19.153 Y55.0671 I-0.125 J0.2165
G0 Z3.0
G0 X15.9575 Y56.5978
G1 F300.0 Z0.0
G2 F800.0 X15.5825 Y56.3813 Z-0.1333 I-0.25 J0.0
G2 Y56.8143 Z-0.2667 I0.125 J0.2165
G2 X15.9575 Y56.5978 Z-0.4 I0.125 J-0.2165
G2 X15.5825 Y56.3813 Z-0.5333 I-0.25 J0.0
G2 Y56.8143 Z-0.6667 I0.125 J0.2165
G2 X15.9575 Y56.5978 Z-0.8 I0.125 J-0.2165
G2 X15.5825 Y56.3813 Z-0.9333 I-0.25 J0.0
G2 Y56.8143 Z-1.0667 I0.125 J0.2165
G2 X15.9575 Y56.5978 Z-1.2 I0.125 J-0.2165
G2 X15.5825 Y56.3813 Z-1.3333 I-0.25 J0.0
G2 Y56.8143 Z-1.4667 I0.125 J0.2165
G2 X15.9575 Y56.5978 Z-1.6 I0.125 J-0.2165
G2 X15.5825 Y56.3813 Z-1.7333 I-0.25 J0.0
G2 Y56.8143 Z-1.8667 I0.125 J0.2165
G2 X15.9575 Y56.5978 Z-2.0 I0.125 J-0.2165
G2 X15.5825 Y56.3813 Z-2.1333 I-0.25 J0.0
G2 Y56.8143 Z-2.2667 I0.125 J0.2165
G2 X15.9575 Y56.5978 Z-2.4 I0.125 J-0.2165
G2 X15.5825 Y56.3813 Z-2.5333 I-0.25 J0.0
G2 Y56.8143 Z-2.6667 I0.125 J0.2165
G2 X15.9575 Y56.5978 Z-2.8 I0.125 J-0.2165
G2 X15.5825 Y56.3813 Z-2.9333 I-0.25 J0.0
G2 Y56.8143 Z-3.0667 I0.125 J0.2165
G2 X15.9575 Y56.5978 Z-3.2 I0.125 J-0.2165
G2 X15.5825 Y56.3813 Z-3.3333 I-0.25 J0.0
G2 Y56.8143 Z-3.4667 I0.125 J0.2165
G2 X15.9575 Y56.5978 Z-3.6 I0.125 J-0.2165
G2 X15.5825 Y56.3813 Z-3.7333 I-0.25 J0.0
G2 Y56.8143 Z-3.8667 I0.125 J0.2165
G2 X15.9575 Y56.5978 Z-4.0 I0.125 J-0.2165
G2 X15.5825 Y56.3813 Z-4.1333 I-0.25 J0.0
G2 X15.4575 Y56.5978 Z-4.2 I0.125 J0.2165
G2 X15.8325 Y56.8143 I0.25 J0.0
G2 Y56.3813 I-0.125 J-0.2165
G2 X15.4575 Y56.5978 I-0.125 J0.2165
G0 Z3.0
G0 X23.3485 Y53.5364
G1 F300.0 Z0.0
G2 F800.0 X22.9735 Y53.3198 Z-0.1333 I-0.25 J0.0
G2 Y53.7529 Z-0.2667 I0.125 J0.2165
G2 X23.3485 Y53.5364 Z-0.4 I0.125 J-0.2165
G2 X22.9735 Y53.3198 Z-0.5333 I-0.25 J0.0
G2 Y53.7529 Z-0.6667 I0.125 J0.2165
G2 X23.3485 Y53.5364 Z-0.8 I0.125 J-0.2165
G2 X22.9735 Y53.3198 Z-0.9333 I-0.25 J0.0
G2 Y53.7529 Z-1.0667 I0.125 J0.2165
G2 X23.3485 Y53.5364 Z-1.2 I0.125 J-0.2165
G2 X22.9735 Y53.3198 Z-1.3333 I-0.25 J0.0
G2 Y53.7529 Z-1.4667 I0.125 J0.2165
G2 X23.3485 Y53.5364 Z-1.6 I0.125 J-0.2165
G2 X22.9735 Y53.3198 Z-1.7333 I-0.25 J0.0
G2 Y53.7529 Z-1.8667 I0.125 J0.2165
G2 X23.3485 Y53.5364 Z-2.0 I0.125 J-0.2165
G2 X22.9735 Y53.3198 Z-2.1333 I-0.25 J0.0
G2 Y53.7529 Z-2.2667 I0.125 J0.2165
G2 X23.3485 Y53.5364 Z-2.4 I0.125 J-0.2165
G2 X22.9735 Y53.3198 Z-2.5333 I-0.25 J0.0
G2 Y53.7529 Z-2.6667 I0.125 J0.2165
G2 X23.3485 Y53.5364 Z-2.8 I0.125 J-0.2165
G2 X22.9735 Y53.3198 Z-2.9333 I-0.25 J0.0
G2 Y53.7529 Z-3.0667 I0.125 J0.2165
G2 X23.3485 Y53.5364 Z-3.2 I0.125 J-0.2165
G2 X22.9735 Y53.3198 Z-3.3333 I-0.25 J0.0
G2 Y53.7529 Z-3.4667 I0.125 J0.2165
G2 X23.3485 Y53.5364 Z-3.6 I0.125 J-0.2165
G2 X22.9735 Y53.3198 Z-3.7333 I-0.25 J0.0
G2 Y53.7529 Z-3.8667 I0.125 J0.2165
G2 X23.3485 Y53.5364 Z-4.0 I0.125 J-0.2165
G2 X22.9735 Y53.3198 Z-4.1333 I-0.25 J0.0
G2 X22.8485 Y53.5364 Z-4.2 I0.125 J0.2165
G2 X23.2235 Y53.7529 I0.25 J0.0
G2 Y53.3198 I-0.125 J-0.2165
G2 X22.8485 Y53.5364 I-0.125 J0.2165
G0 Z3.0
G0 X27.044 Y52.0056
G1 F300.0 Z0.0
G2 F800.0 X26.669 Y51.7891 Z-0.1333 I-0.25 J0.0
G2 Y52.2221 Z-0.2667 I0.125 J0.2165
G2 X27.044 Y52.0056 Z-0.4 I0.125 J-0.2165
G2 X26.669 Y51.7891 Z-0.5333 I-0.25 J0.0
G2 Y52.2221 Z-0.6667 I0.125 J0.2165
G2 X27.044 Y52.0056 Z-0.8 I0.125 J-0.2165
G2 X26.669 Y51.7891 Z-0.9333 I-0.25 J0.0
G2 Y52.2221 Z-1.0667 I0.125 J0.2165
G2 X27.044 Y52.0056 Z-1.2 I0.125 J-0.2165
G2 X26.669 Y51.7891 Z-1.3333 I-0.25 J0.0
G2 Y52.2221 Z-1.4667 I0.125 J0.2165
G2 X27.044 Y52.0056 Z-1.6 I0.125 J-0.2165
G2 X26.669 Y51.7891 Z-1.7333 I-0.25 J0.0
G2 Y52.2221 Z-1.8667 I0.125 J0.2165
G2 X27.044 Y52.0056 Z-2.0 I0.125 J-0.2165
G2 X26.669 Y51.7891 Z-2.1333 I-0.25 J0.0
G2 Y52.2221 Z-2.2667 I0.125 J0.2165
G2 X27.044 Y52.0056 Z-2.4 I0.125 J-0.2165
G2 X26.669 Y51.7891 Z-2.5333 I-0.25 J0.0
G2 Y52.2221 Z-2.6667 I0.125 J0.2165
G2 X27.044 Y52.0056 Z-2.8 I0.125 J-0.2165
G2 X26.669 Y51.7891 Z-2.9333 I-0.25 J0.0
G2 Y52.2221 Z-3.0667 I0.125 J0.2165
G2 X27.044 Y52.0056 Z-3.2 I0.125 J-0.2165
G2 X26.669 Y51.7891 Z-3.3333 I-0.25 J0.0
G2 Y52.2221 Z-3.4667 I0.125 J0.2165
G2 X27.044 Y52.0056 Z-3.6 I0.125 J-0.2165
G2 X26.669 Y51.7891 Z-3.7333 I-0.25 J0.0
G2 Y52.2221 Z-3.8667 I0.125 J0.2165
G2 X27.044 Y52.0056 Z-4.0 I0.125 J-0.2165
G2 X26.669 Y51.7891 Z-4.1333 I-0.25 J0.0
G2 X26.544 Y52.0056 Z-4.2 I0.125 J0.2165
G2 X26.919 Y52.2221 I0.25 J0.0
G2 Y51.7891 I-0.125 J-0.2165
G2 X26.544 Y52.0056 I-0.125 J0.2165
G0 Z3.0
G0 X30.7396 Y50.4749
G1 F300.0 Z0.0
G2 F800.0 X30.3646 Y50.2584 Z-0.1333 I-0.25 J0.0
G2 Y50.6914 Z-0.2667 I0.125 J0.2165
G2 X30.7396 Y50.4749 Z-0.4 I0.125 J-0.2165
G2 X30.3646 Y50.2584 Z-0.5333 I-0.25 J0.0
G2 Y50.6914 Z-0.6667 I0.125 J0.2165
G2 X30.7396 Y50.4749 Z-0.8 I0.125 J-0.2165
G2 X30.3646 Y50.2584 Z-0.9333 I-0.25 J0.0
G2 Y50.6914 Z-1.0667 I0.125 J0.2165
G2 X30.7396 Y50.4749 Z-1.2 I0.125 J-0.2165
G2 X30.3646 Y50.2584 Z-1.3333 I-0.25 J0.0
G2 Y50.6914 Z-1.4667 I0.125 J0.2165
G2 X30.7396 Y50.4749 Z-1.6 I0.125 J-0.2165
G2 X30.3646 Y50.2584 Z-1.7333 I-0.25 J0.0
G2 Y50.6914 Z-1.8667 I0.125 J0.2165
G2 X30.7396 Y50.4749 Z-2.0 I0.125 J-0.2165
G2 X30.3646 Y50.2584 Z-2.1333 I-0.25 J0.0
G2 Y50.6914 Z-2.2667 I0.125 J0.2165
G2 X30.7396 Y50.4749 Z-2.4 I0.125 J-0.2165
G2 X30.3646 Y50.2584 Z-2.5333 I-0.25 J0.0
G2 Y50.6914 Z-2.6667 I0.125 J0.2165
G2 X30.7396 Y50.4749 Z-2.8 I0.125 J-0.2165
G2 X30.3646 Y50.2584 Z-2.9333 I-0.25 J0.0
G2 Y50.6914 Z-3.0667 I0.125 J0.2165
G2 X30.7396 Y50.4749 Z-3.2 I0.125 J-0.2165
G2 X30.3646 Y50.2584 Z-3.3333 I-0.25 J0.0
G2 Y50.6914 Z-3.4667 I0.125 J0.2165
G2 X30.7396 Y50.4749 Z-3.6 I0.125 J-0.2165
G2 X30.3646 Y50.2584 Z-3.7333 I-0.25 J0.0
G2 Y50.6914 Z-3.8667 I0.125 J0.2165
G2 X30.7396 Y50.4749 Z-4.0 I0.125 J-0.2165
G2 X30.3646 Y50.2584 Z-4.1333 I-0.25 J0.0
G2 X30.2396 Y50.4749 Z-4.2 I0.125 J0.2165
G2 X30.6146 Y50.6914 I0.25 J0.0
G2 Y50.2584 I-0.125 J-0.2165
G2 X30.2396 Y50.4749 I-0.125 J0.2165
G0 Z3.0
G0 X29.75 Y45.5
G1 F300.0 Z0.0
G2 F800.0 X29.375 Y45.2835 Z-0.1333 I-0.25 J0.0
G2 Y45.7165 Z-0.2667 I0.125 J0.2165
G2 X29.75 Y45.5 Z-0.4 I0.125 J-0.2165
G2 X29.375 Y45.2835 Z-0.5333 I-0.25 J0.0
G2 Y45.7165 Z-0.6667 I0.125 J0.2165
G2 X29.75 Y45.5 Z-0.8 I0.125 J-0.2165
G2 X29.375 Y45.2835 Z-0.9333 I-0.25 J0.0
G2 Y45.7165 Z-1.0667 I0.125 J0.2165
G2 X29.75 Y45.5 Z-1.2 I0.125 J-0.2165
G2 X29.375 Y45.2835 Z-1.3333 I-0.25 J0.0
G2 Y45.7165 Z-1.4667 I0.125 J0.2165
G2 X29.75 Y45.5 Z-1.6 I0.125 J-0.2165
G2 X29.375 Y45.2835 Z-1.7333 I-0.25 J0.0
G2 Y45.7165 Z-1.8667 I0.125 J0.2165
G2 X29.75 Y45.5 Z-2.0 I0.125 J-0.2165
G2 X29.375 Y45.2835 Z-2.1333 I-0.25 J0.0
G2 Y45.7165 Z-2.2667 I0.125 J0.2165
G2 X29.75 Y45.5 Z-2.4 I0.125 J-0.2165
G2 X29.375 Y45.2835 Z-2.5333 I-0.25 J0.0
G2 Y45.7165 Z-2.6667 I0.125 J0.2165
G2 X29.75 Y45.5 Z-2.8 I0.125 J-0.2165
G2 X29.375 Y45.2835 Z-2.9333 I-0.25 J0.0
G2 Y45.7165 Z-3.0667 I0.125 J0.2165
G2 X29.75 Y45.5 Z-3.2 I0.125 J-0.2165
G2 X29.375 Y45.2835 Z-3.3333 I-0.25 J0.0
G2 Y45.7165 Z-3.4667 I0.125 J0.2165
G2 X29.75 Y45.5 Z-3.6 I0.125 J-0.2165
G2 X29.375 Y45.2835 Z-3.7333 I-0.25 J0.0
G2 Y45.7165 Z-3.8667 I0.125 J0.2165
G2 X29.75 Y45.5 Z-4.0 I0.125 J-0.2165
G2 X29.375 Y45.2835 Z-4.1333 I-0.25 J0.0
G2 X29.25 Y45.5 Z-4.2 I0.125 J0.2165
G2 X29.625 Y45.7165 I0.25 J0.0
G2 Y45.2835 I-0.125 J-0.2165
G2 X29.25 Y45.5 I-0.125 J0.2165
G0 Z3.0
G0 X25.75
G1 F300.0 Z0.0
G2 F800.0 X25.375 Y45.2835 Z-0.1333 I-0.25 J0.0
G2 Y45.7165 Z-0.2667 I0.125 J0.2165
G2 X25.75 Y45.5 Z-0.4 I0.125 J-0.2165
G2 X25.375 Y45.2835 Z-0.5333 I-0.25 J0.0
G2 Y45.7165 Z-0.6667 I0.125 J0.2165
G2 X25.75 Y45.5 Z-0.8 I0.125 J-0.2165
G2 X25.375 Y45.2835 Z-0.9333 I-0.25 J0.0
G2 Y45.7165 Z-1.0667 I0.125 J0.2165
G2 X25.75 Y45.5 Z-1.2 I0.125 J-0.2165
G2 X25.375 Y45.2835 Z-1.3333 I-0.25 J0.0
G2 Y45.7165 Z-1.4667 I0.125 J0.2165
G2 X25.75 Y45.5 Z-1.6 I0.125 J-0.2165
G2 X25.375 Y45.2835 Z-1.7333 I-0.25 J0.0
G2 Y45.7165 Z-1.8667 I0.125 J0.2165
G2 X25.75 Y45.5 Z-2.0 I0.125 J-0.2165
G2 X25.375 Y45.2835 Z-2.1333 I-0.25 J0.0
G2 Y45.7165 Z-2.2667 I0.125 J0.2165
G2 X25.75 Y45.5 Z-2.4 I0.125 J-0.2165
G2 X25.375 Y45.2835 Z-2.5333 I-0.25 J0.0
G2 Y45.7165 Z-2.6667 I0.125 J0.2165
G2 X25.75 Y45.5 Z-2.8 I0.125 J-0.2165
G2 X25.375 Y45.2835 Z-2.9333 I-0.25 J0.0
G2 Y45.7165 Z-3.0667 I0.125 J0.2165
G2 X25.75 Y45.5 Z-3.2 I0.125 J-0.2165
G2 X25.375 Y45.2835 Z-3.3333 I-0.25 J0.0
G2 Y45.7165 Z-3.4667 I0.125 J0.2165
G2 X25.75 Y45.5 Z-3.6 I0.125 J-0.2165
G2 X25.375 Y45.2835 Z-3.7333 I-0.25 J0.0
G2 Y45.7165 Z-3.8667 I0.125 J0.2165
G2 X25.75 Y45.5 Z-4.0 I0.125 J-0.2165
G2 X25.375 Y45.2835 Z-4.1333 I-0.25 J0.0
G2 X25.25 Y45.5 Z-4.2 I0.125 J0.2165
G2 X25.625 Y45.7165 I0.25 J0.0
G2 Y45.2835 I-0.125 J-0.2165
G2 X25.25 Y45.5 I-0.125 J0.2165
G0 Z3.0
G0 X21.75
G1 F300.0 Z0.0
G2 F800.0 X21.375 Y45.2835 Z-0.1333 I-0.25 J0.0
G2 Y45.7165 Z-0.2667 I0.125 J0.2165
G2 X21.75 Y45.5 Z-0.4 I0.125 J-0.2165
G2 X21.375 Y45.2835 Z-0.5333 I-0.25 J0.0
G2 Y45.7165 Z-0.6667 I0.125 J0.2165
G2 X21.75 Y45.5 Z-0.8 I0.125 J-0.2165
G2 X21.375 Y45.2835 Z-0.9333 I-0.25 J0.0
G2 Y45.7165 Z-1.0667 I0.125 J0.2165
G2 X21.75 Y45.5 Z-1.2 I0.125 J-0.2165
G2 X21.375 Y45.2835 Z-1.3333 I-0.25 J0.0
G2 Y45.7165 Z-1.4667 I0.125 J0.2165
G2 X21.75 Y45.5 Z-1.6 I0.125 J-0.2165
G2 X21.375 Y45.2835 Z-1.7333 I-0.25 J0.0
G2 Y45.7165 Z-1.8667 I0.125 J0.2165
G2 X21.75 Y45.5 Z-2.0 I0.125 J-0.2165
G2 X21.375 Y45.2835 Z-2.1333 I-0.25 J0.0
G2 Y45.7165 Z-2.2667 I0.125 J0.2165
G2 X21.75 Y45.5 Z-2.4 I0.125 J-0.2165
G2 X21.375 Y45.2835 Z-2.5333 I-0.25 J0.0
G2 Y45.7165 Z-2.6667 I0.125 J0.2165
G2 X21.75 Y45.5 Z-2.8 I0.125 J-0.2165
G2 X21.375 Y45.2835 Z-2.9333 I-0.25 J0.0
G2 Y45.7165 Z-3.0667 I0.125 J0.2165
G2 X21.75 Y45.5 Z-3.2 I0.125 J-0.2165
G2 X21.375 Y45.2835 Z-3.3333 I-0.25 J0.0
G2 Y45.7165 Z-3.4667 I0.125 J0.2165
G2 X21.75 Y45.5 Z-3.6 I0.125 J-0.2165
G2 X21.375 Y45.2835 Z-3.7333 I-0.25 J0.0
G2 Y45.7165 Z-3.8667 I0.125 J0.2165
G2 X21.75 Y45.5 Z-4.0 I0.125 J-0.2165
G2 X21.375 Y45.2835 Z-4.1333 I-0.25 J0.0
G2 X21.25 Y45.5 Z-4.2 I0.125 J0.2165
G2 X21.625 Y45.7165 I0.25 J0.0
G2 Y45.2835 I-0.125 J-0.2165
G2 X21.25 Y45.5 I-0.125 J0.2165
G0 Z3.0
G0 X17.75
G1 F300.0 Z0.0
G2 F800.0 X17.375 Y45.2835 Z-0.1333 I-0.25 J0.0
G2 Y45.7165 Z-0.2667 I0.125 J0.2165
G2 X17.75 Y45.5 Z-0.4 I0.125 J-0.2165
G2 X17.375 Y45.2835 Z-0.5333 I-0.25 J0.0
G2 Y45.7165 Z-0.6667 I0.125 J0.2165
G2 X17.75 Y45.5 Z-0.8 I0.125 J-0.2165
G2 X17.375 Y45.2835 Z-0.9333 I-0.25 J0.0
G2 Y45.7165 Z-1.0667 I0.125 J0.2165
G2 X17.75 Y45.5 Z-1.2 I0.125 J-0.2165
G2 X17.375 Y45.2835 Z-1.3333 I-0.25 J0.0
G2 Y45.7165 Z-1.4667 I0.125 J0.2165
G2 X17.75 Y45.5 Z-1.6 I0.125 J-0.2165
G2 X17.375 Y45.2835 Z-1.7333 I-0.25 J0.0
G2 Y45.7165 Z-1.8667 I0.125 J0.2165
G2 X17.75 Y45.5 Z-2.0 I0.125 J-0.2165
G2 X17.375 Y45.2835 Z-2.1333 I-0.25 J0.0
G2 Y45.7165 Z-2.2667 I0.125 J0.2165
G2 X17.75 Y45.5 Z-2.4 I0.125 J-0.2165
G2 X17.375 Y45.2835 Z-2.5333 I-0.25 J0.0
G2 Y45.7165 Z-2.6667 I0.125 J0.2165
G2 X17.75 Y45.5 Z-2.8 I0.125 J-0.2165
G2 X17.375 Y45.2835 Z-2.9333 I-0.25 J0.0
G2 Y45.7165 Z-3.0667 I0.125 J0.2165
G2 X17.75 Y45.5 Z-3.2 I0.125 J-0.2165
G2 X17.375 Y45.2835 Z-3.3333 I-0.25 J0.0
G2 Y45.7165 Z-3.4667 I0.125 J0.2165
G2 X17.75 Y45.5 Z-3.6 I0.125 J-0.2165
G2 X17.375 Y45.2835 Z-3.7333 I-0.25 J0.0
G2 Y45.7165 Z-3.8667 I0.125 J0.2165
G2 X17.75 Y45.5 Z-4.0 I0.125 J-0.2165
G2 X17.375 Y45.2835 Z-4.1333 I-0.25 J0.0
G2 X17.25 Y45.5 Z-4.2 I0.125 J0.2165
G2 X17.625 Y45.7165 I0.25 J0.0
G2 Y45.2835 I-0.125 J-0.2165
G2 X17.25 Y45.5 I-0.125 J0.2165
G0 Z3.0
G0 X13.75
G1 F300.0 Z0.0
G2 F800.0 X13.375 Y45.2835 Z-0.1333 I-0.25 J0.0
G2 Y45.7165 Z-0.2667 I0.125 J0.2165
G2 X13.75 Y45.5 Z-0.4 I0.125 J-0.2165
G2 X13.375 Y45.2835 Z-0.5333 I-0.25 J0.0
G2 Y45.7165 Z-0.6667 I0.125 J0.2165
G2 X13.75 Y45.5 Z-0.8 I0.125 J-0.2165
G2 X13.375 Y45.2835 Z-0.9333 I-0.25 J0.0
G2 Y45.7165 Z-1.0667 I0.125 J0.2165
G2 X13.75 Y45.5 Z-1.2 I0.125 J-0.2165
G2 X13.375 Y45.2835 Z-1.3333 I-0.25 J0.0
G2 Y45.7165 Z-1.4667 I0.125 J0.2165
G2 X13.75 Y45.5 Z-1.6 I0.125 J-0.2165
G2 X13.375 Y45.2835 Z-1.7333 I-0.25 J0.0
G2 Y45.7165 Z-1.8667 I0.125 J0.2165
G2 X13.75 Y45.5 Z-2.0 I0.125 J-0.2165
G2 X13.375 Y45.2835 Z-2.1333 I-0.25 J0.0
G2 Y45.7165 Z-2.2667 I0.125 J0.2165
G2 X13.75 Y45.5 Z-2.4 I0.125 J-0.2165
G2 X13.375 Y45.2835 Z-2.5333 I-0.25 J0.0
G2 Y45.7165 Z-2.6667 I0.125 J0.2165
G2 X13.75 Y45.5 Z-2.8 I0.125 J-0.2165
G2 X13.375 Y45.2835 Z-2.9333 I-0.25 J0.0
G2 Y45.7165 Z-3.0667 I0.125 J0.2165
G2 X13.75 Y45.5 Z-3.2 I0.125 J-0.2165
G2 X13.375 Y45.2835 Z-3.3333 I-0.25 J0.0
G2 Y45.7165 Z-3.4667 I0.125 J0.2165
G2 X13.75 Y45.5 Z-3.6 I0.125 J-0.2165
G2 X13.375 Y45.2835 Z-3.7333 I-0.25 J0.0
G2 Y45.7165 Z-3.8667 I0.125 J0.2165
G2 X13.75 Y45.5 Z-4.0 I0.125 J-0.2165
G2 X13.375 Y45.2835 Z-4.1333 I-0.25 J0.0
G2 X13.25 Y45.5 Z-4.2 I0.125 J0.2165
G2 X13.625 Y45.7165 I0.25 J0.0
G2 Y45.2835 I-0.125 J-0.2165
G2 X13.25 Y45.5 I-0.125 J0.2165
G0 Z3.0
G0 X19.653 Y35.9329
G1 F300.0 Z0.0
G2 F800.0 X19.278 Y35.7164 Z-0.1333 I-0.25 J0.0
G2 Y36.1494 Z-0.2667 I0.125 J0.2165
G2 X19.653 Y35.9329 Z-0.4 I0.125 J-0.2165
G2 X19.278 Y35.7164 Z-0.5333 I-0.25 J0.0
G2 Y36.1494 Z-0.6667 I0.125 J0.2165
G2 X19.653 Y35.9329 Z-0.8 I0.125 J-0.2165
G2 X19.278 Y35.7164 Z-0.9333 I-0.25 J0.0
G2 Y36.1494 Z-1.0667 I0.125 J0.2165
G2 X19.653 Y35.9329 Z-1.2 I0.125 J-0.2165
G2 X19.278 Y35.7164 Z-1.3333 I-0.25 J0.0
G2 Y36.1494 Z-1.4667 I0.125 J0.2165
G2 X19.653 Y35.9329 Z-1.6 I0.125 J-0.2165
G2 X19.278 Y35.7164 Z-1.7333 I-0.25 J0.0
G2 Y36.1494 Z-1.8667 I0.125 J0.2165
G2 X19.653 Y35.9329 Z-2.0 I0.125 J-0.2165
G2 X19.278 Y35.7164 Z-2.1333 I-0.25 J0.0
G2 Y36.1494 Z-2.2667 I0.125 J0.2165
G2 X19.653 Y35.9329 Z-2.4 I0.125 J-0.2165
G2 X19.278 Y35.7164 Z-2.5333 I-0.25 J0.0
G2 Y36.1494 Z-2.6667 I0.125 J0.2165
G2 X19.653 Y35.9329 Z-2.8 I0.125 J-0.2165
G2 X19.278 Y35.7164 Z-2.9333 I-0.25 J0.0
G2 Y36.1494 Z-3.0667 I0.125 J0.2165
G2 X19.653 Y35.9329 Z-3.2 I0.125 J-0.2165
G2 X19.278 Y35.7164 Z-3.3333 I-0.25 J0.0
G2 Y36.1494 Z-3.4667 I0.125 J0.2165
G2 X19.653 Y35.9329 Z-3.6 I0.125 J-0.2165
G2 X19.278 Y35.7164 Z-3.7333 I-0.25 J0.0
G2 Y36.1494 Z-3.8667 I0.125 J0.2165
G2 X19.653 Y35.9329 Z-4.0 I0.125 J-0.2165
G2 X19.278 Y35.7164 Z-4.1333 I-0.25 J0.0
G2 X19.153 Y35.9329 Z-4.2 I0.125 J0.2165
G2 X19.528 Y36.1494 I0.25 J0.0
G2 Y35.7164 I-0.125 J-0.2165
G2 X19.153 Y35.9329 I-0.125 J0.2165
G0 Z3.0
G0 X15.9575 Y34.4022
G1 F300.0 Z0.0
G2 F800.0 X15.5825 Y34.1857 Z-0.1333 I-0.25 J0.0
G2 Y34.6187 Z-0.2667 I0.125 J0.2165
G2 X15.9575 Y34.4022 Z-0.4 I0.125 J-0.2165
G2 X15.5825 Y34.1857 Z-0.5333 I-0.25 J0.0
G2 Y34.6187 Z-0.6667 I0.125 J0.2165
G2 X15.9575 Y34.4022 Z-0.8 I0.125 J-0.2165
G2 X15.5825 Y34.1857 Z-0.9333 I-0.25 J0.0
G2 Y34.6187 Z-1.0667 I0.125 J0.2165
G2 X15.9575 Y34.4022 Z-1.2 I0.125 J-0.2165
G2 X15.5825 Y34.1857 Z-1.3333 I-0.25 J0.0
G2 Y34.6187 Z-1.4667 I0.125 J0.2165
G2 X15.9575 Y34.4022 Z-1.6 I0.125 J-0.2165
G2 X15.5825 Y34.1857 Z-1.7333 I-0.25 J0.0
G2 Y34.6187 Z-1.8667 I0.125 J0.2165
G2 X15.9575 Y34.4022 Z-2.0 I0.125 J-0.2165
G2 X15.5825 Y34.1857 Z-2.1333 I-0.25 J0.0
G2 Y34.6187 Z-2.2667 I0.125 J0.2165
G2 X15.9575 Y34.4022 Z-2.4 I0.125 J-0.2165
G2 X15.5825 Y34.1857 Z-2.5333 I-0.25 J0.0
G2 Y34.6187 Z-2.6667 I0.125 J0.2165
G2 X15.9575 Y34.4022 Z-2.8 I0.125 J-0.2165
G2 X15.5825 Y34.1857 Z-2.9333 I-0.25 J0.0
G2 Y34.6187 Z-3.0667 I0.125 J0.2165
G2 X15.9575 Y34.4022 Z-3.2 I0.125 J-0.2165
G2 X15.5825 Y34.1857 Z-3.3333 I-0.25 J0.0
G2 Y34.6187 Z-3.4667 I0.125 J0.2165
G2 X15.9575 Y34.4022 Z-3.6 I0.125 J-0.2165
G2 X15.5825 Y34.1857 Z-3.7333 I-0.25 J0.0
G2 Y34.6187 Z-3.8667 I0.125 J0.2165
G2 X15.9575 Y34.4022 Z-4.0 I0.125 J-0.2165
G2 X15.5825 Y34.1857 Z-4.1333 I-0.25 J0.0
G2 X15.4575 Y34.4022 Z-4.2 I0.125 J0.2165
G2 X15.8325 Y34.6187 I0.25 J0.0
G2 Y34.1857 I-0.125 J-0.2165
G2 X15.4575 Y34.4022 I-0.125 J0.2165
G0 Z3.0
G0 X23.3485 Y37.4636
G1 F300.0 Z0.0
G2 F800.0 X22.9735 Y37.2471 Z-0.1333 I-0.25 J0.0
G2 Y37.6802 Z-0.2667 I0.125 J0.2165
G2 X23.3485 Y37.4636 Z-0.4 I0.125 J-0.2165
G2 X22.9735 Y37.2471 Z-0.5333 I-0.25 J0.0
G2 Y37.6802 Z-0.6667 I0.125 J0.2165
G2 X23.3485 Y37.4636 Z-0.8 I0.125 J-0.2165
G2 X22.9735 Y37.2471 Z-0.9333 I-0.25 J0.0
G2 Y37.6802 Z-1.0667 I0.125 J0.2165
G2 X23.3485 Y37.4636 Z-1.2 I0.125 J-0.2165
G2 X22.9735 Y37.2471 Z-1.3333 I-0.25 J0.0
G2 Y37.6802 Z-1.4667 I0.125 J0.2165
G2 X23.3485 Y37.4636 Z-1.6 I0.125 J-0.2165
G2 X22.9735 Y37.2471 Z-1.7333 I-0.25 J0.0
G2 Y37.6802 Z-1.8667 I0.125 J0.2165
G2 X23.3485 Y37.4636 Z-2.0 I0.125 J-0.2165
G2 X22.9735 Y37.2471 Z-2.1333 I-0.25 J0.0
G2 Y37.6802 Z-2.2667 I0.125 J0.2165
G2 X23.3485 Y37.4636 Z-2.4 I0.125 J-0.2165
G2 X22.9735 Y37.2471 Z-2.5333 I-0.25 J0.0
G2 Y37.6802 Z-2.6667 I0.125 J0.2165
G2 X23.3485 Y37.4636 Z-2.8 I0.125 J-0.2165
G2 X22.9735 Y37.2471 Z-2.9333 I-0.25 J0.0
G2 Y37.6802 Z-3.0667 I0.125 J0.2165
G2 X23.3485 Y37.4636 Z-3.2 I0.125 J-0.2165
G2 X22.9735 Y37.2471 Z-3.3333 I-0.25 J0.0
G2 Y37.6802 Z-3.4667 I0.125 J0.2165
G2 X23.3485 Y37.4636 Z-3.6 I0.125 J-0.2165
G2 X22.9735 Y37.2471 Z-3.7333 I-0.25 J0.0
G2 Y37.6802 Z-3.8667 I0.125 J0.2165
G2 X23.3485 Y37.4636 Z-4.0 I0.125 J-0.2165
G2 X22.9735 Y37.2471 Z-4.1333 I-0.25 J0.0
G2 X22.8485 Y37.4636 Z-4.2 I0.125 J0.2165
G2 X23.2235 Y37.6802 I0.25 J0.0
G2 Y37.2471 I-0.125 J-0.2165
G2 X22.8485 Y37.4636 I-0.125 J0.2165
G0 Z3.0
G0 X27.044 Y38.9944
G1 F300.0 Z0.0
G2 F800.0 X26.669 Y38.7779 Z-0.1333 I-0.25 J0.0
G2 Y39.2109 Z-0.2667 I0.125 J0.2165
G2 X27.044 Y38.9944 Z-0.4 I0.125 J-0.2165
G2 X26.669 Y38.7779 Z-0.5333 I-0.25 J0.0
G2 Y39.2109 Z-0.6667 I0.125 J0.2165
G2 X27.044 Y38.9944 Z-0.8 I0.125 J-0.2165
G2 X26.669 Y38.7779 Z-0.9333 I-0.25 J0.0
G2 Y39.2109 Z-1.0667 I0.125 J0.2165
G2 X27.044 Y38.9944 Z-1.2 I0.125 J-0.2165
G2 X26.669 Y38.7779 Z-1.3333 I-0.25 J0.0
G2 Y39.2109 Z-1.4667 I0.125 J0.2165
G2 X27.044 Y38.9944 Z-1.6 I0.125 J-0.2165
G2 X26.669 Y38.7779 Z-1.7333 I-0.25 J0.0
G2 Y39.2109 Z-1.8667 I0.125 J0.2165
G2 X27.044 Y38.9944 Z-2.0 I0.125 J-0.2165
G2 X26.669 Y38.7779 Z-2.1333 I-0.25 J0.0
G2 Y39.2109 Z-2.2667 I0.125 J0.2165
G2 X27.044 Y38.9944 Z-2.4 I0.125 J-0.2165
G2 X26.669 Y38.7779 Z-2.5333 I-0.25 J0.0
G2 Y39.2109 Z-2.6667 I0.125 J0.2165
G2 X27.044 Y38.9944 Z-2.8 I0.125 J-0.2165
G2 X26.669 Y38.7779 Z-2.9333 I-0.25 J0.0
G2 Y39.2109 Z-3.0667 I0.125 J0.2165
G2 X27.044 Y38.9944 Z-3.2 I0.125 J-0.2165
G2 X26.669 Y38.7779 Z-3.3333 I-0.25 J0.0
G2 Y39.2109 Z-3.4667 I0.125 J0.2165
G2 X27.044 Y38.9944 Z-3.6 I0.125 J-0.2165
G2 X26.669 Y38.7779 Z-3.7333 I-0.25 J0.0
G2 Y39.2109 Z-3.8667 I0.125 J0.2165
G2 X27.044 Y38.9944 Z-4.0 I0.125 J-0.2165
G2 X26.669 Y38.7779 Z-4.1333 I-0.25 J0.0
G2 X26.544 Y38.9944 Z-4.2 I0.125 J0.2165
G2 X26.919 Y39.2109 I0.25 J0.0
G2 Y38.7779 I-0.125 J-0.2165
G2 X26.544 Y38.9944 I-0.125 J0.2165
G0 Z3.0
G0 X30.7396 Y40.5251
G1 F300.0 Z0.0
G2 F800.0 X30.3646 Y40.3086 Z-0.1333 I-0.25 J0.0
G2 Y40.7416 Z-0.2667 I0.125 J0.2165
G2 X30.7396 Y40.5251 Z-0.4 I0.125 J-0.2165
G2 X30.3646 Y40.3086 Z-0.5333 I-0.25 J0.0
G2 Y40.7416 Z-0.6667 I0.125 J0.2165
G2 X30.7396 Y40.5251 Z-0.8 I0.125 J-0.2165
G2 X30.3646 Y40.3086 Z-0.9333 I-0.25 J0.0
G2 Y40.7416 Z-1.0667 I0.125 J0.2165
G2 X30.7396 Y40.5251 Z-1.2 I0.125 J-0.2165
G2 X30.3646 Y40.3086 Z-1.3333 I-0.25 J0.0
G2 Y40.7416 Z-1.4667 I0.125 J0.2165
G2 X30.7396 Y40.5251 Z-1.6 I0.125 J-0.2165
G2 X30.3646 Y40.3086 Z-1.7333 I-0.25 J0.0
G2 Y40.7416 Z-1.8667 I0.125 J0.2165
G2 X30.7396 Y40.5251 Z-2.0 I0.125 J-0.2165
G2 X30.3646 Y40.3086 Z-2.1333 I-0.25 J0.0
G2 Y40.7416 Z-2.2667 I0.125 J0.2165
G2 X30.7396 Y40.5251 Z-2.4 I0.125 J-0.2165
G2 X30.3646 Y40.3086 Z-2.5333 I-0.25 J0.0
G2 Y40.7416 Z-2.6667 I0.125 J0.2165
G2 X30.7396 Y40.5251 Z-2.8 I0.125 J-0.2165
G2 X30.3646 Y40.3086 Z-2.9333 I-0.25 J0.0
G2 Y40.7416 Z-3.0667 I0.125 J0.2165
G2 X30.7396 Y40.5251 Z-3.2 I0.125 J-0.2165
G2 X30.3646 Y40.3086 Z-3.3333 I-0.25 J0.0
G2 Y40.7416 Z-3.4667 I0.125 J0.2165
G2 X30.7396 Y40.5251 Z-3.6 I0.125 J-0.2165
G2 X30.3646 Y40.3086 Z-3.7333 I-0.25 J0.0
G2 Y40.7416 Z-3.8667 I0.125 J0.2165
G2 X30.7396 Y40.5251 Z-4.0 I0.125 J-0.2165
G2 X30.3646 Y40.3086 Z-4.1333 I-0.25 J0.0
G2 X30.2396 Y40.5251 Z-4.2 I0.125 J0.2165
G2 X30.6146 Y40.7416 I0.25 J0.0
G2 Y40.3086 I-0.125 J-0.2165
G2 X30.2396 Y40.5251 I-0.125 J0.2165
G0 Z3.0
G0 X33.5576 Y36.3076
G1 F300.0 Z0.0
G2 F800.0 X33.1826 Y36.0911 Z-0.1333 I-0.25 J0.0
G2 Y36.5241 Z-0.2667 I0.125 J0.2165
G2 X33.5576 Y36.3076 Z-0.4 I0.125 J-0.2165
G2 X33.1826 Y36.0911 Z-0.5333 I-0.25 J0.0
G2 Y36.5241 Z-0.6667 I0.125 J0.2165
G2 X33.5576 Y36.3076 Z-0.8 I0.125 J-0.2165
G2 X33.1826 Y36.0911 Z-0.9333 I-0.25 J0.0
G2 Y36.5241 Z-1.0667 I0.125 J0.2165
G2 X33.5576 Y36.3076 Z-1.2 I0.125 J-0.2165
G2 X33.1826 Y36.0911 Z-1.3333 I-0.25 J0.0
G2 Y36.5241 Z-1.4667 I0.125 J0.2165
G2 X33.5576 Y36.3076 Z-1.6 I0.125 J-0.2165
G2 X33.1826 Y36.0911 Z-1.7333 I-0.25 J0.0
G2 Y36.5241 Z-1.8667 I0.125 J0.2165
G2 X33.5576 Y36.3076 Z-2.0 I0.125 J-0.2165
G2 X33.1826 Y36.0911 Z-2.1333 I-0.25 J0.0
G2 Y36.5241 Z-2.2667 I0.125 J0.2165
G2 X33.5576 Y36.3076 Z-2.4 I0.125 J-0.2165
G2 X33.1826 Y36.0911 Z-2.5333 I-0.25 J0.0
G2 Y36.5241 Z-2.6667 I0.125 J0.2165
G2 X33.5576 Y36.3076 Z-2.8 I0.125 J-0.2165
G2 X33.1826 Y36.0911 Z-2.9333 I-0.25 J0.0
G2 Y36.5241 Z-3.0667 I0.125 J0.2165
G2 X33.5576 Y36.3076 Z-3.2 I0.125 J-0.2165
G2 X33.1826 Y36.0911 Z-3.3333 I-0.25 J0.0
G2 Y36.5241 Z-3.4667 I0.125 J0.2165
G2 X33.5576 Y36.3076 Z-3.6 I0.125 J-0.2165
G2 X33.1826 Y36.0911 Z-3.7333 I-0.25 J0.0
G2 Y36.5241 Z-3.8667 I0.125 J0.2165
G2 X33.5576 Y36.3076 Z-4.0 I0.125 J-0.2165
G2 X33.1826 Y36.0911 Z-4.1333 I-0.25 J0.0
G2 X33.0576 Y36.3076 Z-4.2 I0.125 J0.2165
G2 X33.4326 Y36.5241 I0.25 J0.0
G2 Y36.0911 I-0.125 J-0.2165
G2 X33.0576 Y36.3076 I-0.125 J0.2165
G0 Z3.0
G0 X30.7292 Y33.4792
G1 F300.0 Z0.0
G2 F800.0 X30.3542 Y33.2627 Z-0.1333 I-0.25 J0.0
G2 Y33.6957 Z-0.2667 I0.125 J0.2165
G2 X30.7292 Y33.4792 Z-0.4 I0.125 J-0.2165
G2 X30.3542 Y33.2627 Z-0.5333 I-0.25 J0.0
G2 Y33.6957 Z-0.6667 I0.125 J0.2165
G2 X30.7292 Y33.4792 Z-0.8 I0.125 J-0.2165
G2 X30.3542 Y33.2627 Z-0.9333 I-0.25 J0.0
G2 Y33.6957 Z-1.0667 I0.125 J0.2165
G2 X30.7292 Y33.4792 Z-1.2 I0.125 J-0.2165
G2 X30.3542 Y33.2627 Z-1.3333 I-0.25 J0.0
G2 Y33.6957 Z-1.4667 I0.125 J0.2165
G2 X30.7292 Y33.4792 Z-1.6 I0.125 J-0.2165
G2 X30.3542 Y33.2627 Z-1.7333 I-0.25 J0.0
G2 Y33.6957 Z-1.8667 I0.125 J0.2165
G2 X30.7292 Y33.4792 Z-2.0 I0.125 J-0.2165
G2 X30.3542 Y33.2627 Z-2.1333 I-0.25 J0.0
G2 Y33.6957 Z-2.2667 I0.125 J0.2165
G2 X30.7292 Y33.4792 Z-2.4 I0.125 J-0.2165
G2 X30.3542 Y33.2627 Z-2.5333 I-0.25 J0.0
G2 Y33.6957 Z-2.6667 I0.125 J0.2165
G2 X30.7292 Y33.4792 Z-2.8 I0.125 J-0.2165
G2 X30.3542 Y33.2627 Z-2.9333 I-0.25 J0.0
G2 Y33.6957 Z-3.0667 I0.125 J0.2165
G2 X30.7292 Y33.4792 Z-3.2 I0.125 J-0.2165
G2 X30.3542 Y33.2627 Z-3.3333 I-0.25 J0.0
G2 Y33.6957 Z-3.4667 I0.125 J0.2165
G2 X30.7292 Y33.4792 Z-3.6 I0.125 J-0.2165
G2 X30.3542 Y33.2627 Z-3.7333 I-0.25 J0.0
G2 Y33.6957 Z-3.8667 I0.125 J0.2165
G2 X30.7292 Y33.4792 Z-4.0 I0.125 J-0.2165
G2 X30.3542 Y33.2627 Z-4.1333 I-0.25 J0.0
G2 X30.2292 Y33.4792 Z-4.2 I0.125 J0.2165
G2 X30.6042 Y33.6957 I0.25 J0.0
G2 Y33.2627 I-0.125 J-0.2165
G2 X30.2292 Y33.4792 I-0.125 J0.2165
G0 Z3.0
G0 X27.9008 Y30.6508
G1 F300.0 Z0.0
G2 F800.0 X27.5258 Y30.4343 Z-0.1333 I-0.25 J0.0
G2 Y30.8673 Z-0.2667 I0.125 J0.2165
G2 X27.9008 Y30.6508 Z-0.4 I0.125 J-0.2165
G2 X27.5258 Y30.4343 Z-0.5333 I-0.25 J0.0
G2 Y30.8673 Z-0.6667 I0.125 J0.2165
G2 X27.9008 Y30.6508 Z-0.8 I0.125 J-0.2165
G2 X27.5258 Y30.4343 Z-0.9333 I-0.25 J0.0
G2 Y30.8673 Z-1.0667 I0.125 J0.2165
G2 X27.9008 Y30.6508 Z-1.2 I0.125 J-0.2165
G2 X27.5258 Y30.4343 Z-1.3333 I-0.25 J0.0
G2 Y30.8673 Z-1.4667 I0.125 J0.2165
G2 X27.9008 Y30.6508 Z-1.6 I0.125 J-0.2165
G2 X27.5258 Y30.4343 Z-1.7333 I-0.25 J0.0
G2 Y30.8673 Z-1.8667 I0.125 J0.2165
G2 X27.9008 Y30.6508 Z-2.0 I0.125 J-0.2165
G2 X27.5258 Y30.4343 Z-2.1333 I-0.25 J0.0
G2 Y30.8673 Z-2.2667 I0.125 J0.2165
G2 X27.9008 Y30.6508 Z-2.4 I0.125 J-0.2165
G2 X27.5258 Y30.4343 Z-2.5333 I-0.25 J0.0
G2 Y30.8673 Z-2.6667 I0.125 J0.2165
G2 X27.9008 Y30.6508 Z-2.8 I0.125 J-0.2165
G2 X27.5258 Y30.4343 Z-2.9333 I-0.25 J0.0
G2 Y30.8673 Z-3.0667 I0.125 J0.2165
G2 X27.9008 Y30.6508 Z-3.2 I0.125 J-0.2165
G2 X27.5258 Y30.4343 Z-3.3333 I-0.25 J0.0
G2 Y30.8673 Z-3.4667 I0.125 J0.2165
G2 X27.9008 Y30.6508 Z-3.6 I0.125 J-0.2165
G2 X27.5258 Y30.4343 Z-3.7333 I-0.25 J0.0
G2 Y30.8673 Z-3.8667 I0.125 J0.2165
G2 X27.9008 Y30.6508 Z-4.0 I0.125 J-0.2165
G2 X27.5258 Y30.4343 Z-4.1333 I-0.25 J0.0
G2 X27.4008 Y30.6508 Z-4.2 I0.125 J0.2165
G2 X27.7758 Y30.8673 I0.25 J0.0
G2 Y30.4343 I-0.125 J-0.2165
G2 X27.4008 Y30.6508 I-0.125 J0.2165
G0 Z3.0
G0 X25.0723 Y27.8223
G1 F300.0 Z0.0
G2 F800.0 X24.6973 Y27.6058 Z-0.1333 I-0.25 J0.0
G2 Y28.0388 Z-0.2667 I0.125 J0.2165
G2 X25.0723 Y27.8223 Z-0.4 I0.125 J-0.2165
G2 X24.6973 Y27.6058 Z-0.5333 I-0.25 J0.0
G2 Y28.0388 Z-0.6667 I0.125 J0.2165
G2 X25.0723 Y27.8223 Z-0.8 I0.125 J-0.2165
G2 X24.6973 Y27.6058 Z-0.9333 I-0.25 J0.0
G2 Y28.0388 Z-1.0667 I0.125 J0.2165
G2 X25.0723 Y27.8223 Z-1.2 I0.125 J-0.2165
G2 X24.6973 Y27.6058 Z-1.3333 I-0.25 J0.0
G2 Y28.0388 Z-1.4667 I0.125 J0.2165
G2 X25.0723 Y27.8223 Z-1.6 I0.125 J-0.2165
G2 X24.6973 Y27.6058 Z-1.7333 I-0.25 J0.0
G2 Y28.0388 Z-1.8667 I0.125 J0.2165
G2 X25.0723 Y27.8223 Z-2.0 I0.125 J-0.2165
G2 X24.6973 Y27.6058 Z-2.1333 I-0.25 J0.0
G2 Y28.0388 Z-2.2667 I0.125 J0.2165
G2 X25.0723 Y27.8223 Z-2.4 I0.125 J-0.2165
G2 X24.6973 Y27.6058 Z-2.5333 I-0.25 J0.0
G2 Y28.0388 Z-2.6667 I0.125 J0.2165
G2 X25.0723 Y27.8223 Z-2.8 I0.125 J-0.2165
G2 X24.6973 Y27.6058 Z-2.9333 I-0.25 J0.0
G2 Y28.0388 Z-3.0667 I0.125 J0.2165
G2 X25.0723 Y27.8223 Z-3.2 I0.125 J-0.2165
G2 X24.6973 Y27.6058 Z-3.3333 I-0.25 J0.0
G2 Y28.0388 Z-3.4667 I0.125 J0.2165
G2 X25.0723 Y27.8223 Z-3.6 I0.125 J-0.2165
G2 X24.6973 Y27.6058 Z-3.7333 I-0.25 J0.0
G2 Y28.0388 Z-3.8667 I0.125 J0.2165
G2 X25.0723 Y27.8223 Z-4.0 I0.125 J-0.2165
G2 X24.6973 Y27.6058 Z-4.1333 I-0.25 J0.0
G2 X24.5723 Y27.8223 Z-4.2 I0.125 J0.2165
G2 X24.9473 Y28.0388 I0.25 J0.0
G2 Y27.6058 I-0.125 J-0.2165
G2 X24.5723 Y27.8223 I-0.125 J0.2165
G0 Z3.0
G0 X22.2439 Y24.9939
G1 F300.0 Z0.0
G2 F800.0 X21.8689 Y24.7774 Z-0.1333 I-0.25 J0.0
G2 Y25.2104 Z-0.2667 I0.125 J0.2165
G2 X22.2439 Y24.9939 Z-0.4 I0.125 J-0.2165
G2 X21.8689 Y24.7774 Z-0.5333 I-0.25 J0.0
G2 Y25.2104 Z-0.6667 I0.125 J0.2165
G2 X22.2439 Y24.9939 Z-0.8 I0.125 J-0.2165
G2 X21.8689 Y24.7774 Z-0.9333 I-0.25 J0.0
G2 Y25.2104 Z-1.0667 I0.125 J0.2165
G2 X22.2439 Y24.9939 Z-1.2 I0.125 J-0.2165
G2 X21.8689 Y24.7774 Z-1.3333 I-0.25 J0.0
G2 Y25.2104 Z-1.4667 I0.125 J0.2165
G2 X22.2439 Y24.9939 Z-1.6 I0.125 J-0.2165
G2 X21.8689 Y24.7774 Z-1.7333 I-0.25 J0.0
G2 Y25.2104 Z-1.8667 I0.125 J0.2165
G2 X22.2439 Y24.9939 Z-2.0 I0.125 J-0.2165
G2 X21.8689 Y24.7774 Z-2.1333 I-0.25 J0.0
G2 Y25.2104 Z-2.2667 I0.125 J0.2165
G2 X22.2439 Y24.9939 Z-2.4 I0.125 J-0.2165
G2 X21.8689 Y24.7774 Z-2.5333 I-0.25 J0.0
G2 Y25.2104 Z-2.6667 I0.125 J0.2165
G2 X22.2439 Y24.9939 Z-2.8 I0.125 J-0.2165
G2 X21.8689 Y24.7774 Z-2.9333 I-0.25 J0.0
G2 Y25.2104 Z-3.0667 I0.125 J0.2165
G2 X22.2439 Y24.9939 Z-3.2 I0.125 J-0.2165
G2 X21.8689 Y24.7774 Z-3.3333 I-0.25 J0.0
G2 Y25.2104 Z-3.4667 I0.125 J0.2165
G2 X22.2439 Y24.9939 Z-3.6 I0.125 J-0.2165
G2 X21.8689 Y24.7774 Z-3.7333 I-0.25 J0.0
G2 Y25.2104 Z-3.8667 I0.125 J0.2165
G2 X22.2439 Y24.9939 Z-4.0 I0.125 J-0.2165
G2 X21.8689 Y24.7774 Z-4.1333 I-0.25 J0.0
G2 X21.7439 Y24.9939 Z-4.2 I0.125 J0.2165
G2 X22.1189 Y25.2104 I0.25 J0.0
G2 Y24.7774 I-0.125 J-0.2165
G2 X21.7439 Y24.9939 I-0.125 J0.2165
G0 Z3.0
G0 X33.1829 Y22.403
G1 F300.0 Z0.0
G2 F800.0 X32.8079 Y22.1865 Z-0.1333 I-0.25 J0.0
G2 Y22.6195 Z-0.2667 I0.125 J0.2165
G2 X33.1829 Y22.403 Z-0.4 I0.125 J-0.2165
G2 X32.8079 Y22.1865 Z-0.5333 I-0.25 J0.0
G2 Y22.6195 Z-0.6667 I0.125 J0.2165
G2 X33.1829 Y22.403 Z-0.8 I0.125 J-0.2165
G2 X32.8079 Y22.1865 Z-0.9333 I-0.25 J0.0
G2 Y22.6195 Z-1.0667 I0.125 J0.2165
G2 X33.1829 Y22.403 Z-1.2 I0.125 J-0.2165
G2 X32.8079 Y22.1865 Z-1.3333 I-0.25 J0.0
G2 Y22.6195 Z-1.4667 I0.125 J0.2165
G2 X33.1829 Y22.403 Z-1.6 I0.125 J-0.2165
G2 X32.8079 Y22.1865 Z-1.7333 I-0.25 J0.0
G2 Y22.6195 Z-1.8667 I0.125 J0.2165
G2 X33.1829 Y22.403 Z-2.0 I0.125 J-0.2165
G2 X32.8079 Y22.1865 Z-2.1333 I-0.25 J0.0
G2 Y22.6195 Z-2.2667 I0.125 J0.2165
G2 X33.1829 Y22.403 Z-2.4 I0.125 J-0.2165
G2 X32.8079 Y22.1865 Z-2.5333 I-0.25 J0.0
G2 Y22.6195 Z-2.6667 I0.125 J0.2165
G2 X33.1829 Y22.403 Z-2.8 I0.125 J-0.2165
G2 X32.8079 Y22.1865 Z-2.9333 I-0.25 J0.0
G2 Y22.6195 Z-3.0667 I0.125 J0.2165
G2 X33.1829 Y22.403 Z-3.2 I0.125 J-0.2165
G2 X32.8079 Y22.1865 Z-3.3333 I-0.25 J0.0
G2 Y22.6195 Z-3.4667 I0.125 J0.2165
G2 X33.1829 Y22.403 Z-3.6 I0.125 J-0.2165
G2 X32.8079 Y22.1865 Z-3.7333 I-0.25 J0.0
G2 Y22.6195 Z-3.8667 I0.125 J0.2165
G2 X33.1829 Y22.403 Z-4.0 I0.125 J-0.2165
G2 X32.8079 Y22.1865 Z-4.1333 I-0.25 J0.0
G2 X32.6829 Y22.403 Z-4.2 I0.125 J0.2165
G2 X33.0579 Y22.6195 I0.25 J0.0
G2 Y22.1865 I-0.125 J-0.2165
G2 X32.6829 Y22.403 I-0.125 J0.2165
G0 Z3.0
G0 X34.7136 Y26.0985
G1 F300.0 Z0.0
G2 F800.0 X34.3386 Y25.882 Z-0.1333 I-0.25 J0.0
G2 Y26.315 Z-0.2667 I0.125 J0.2165
G2 X34.7136 Y26.0985 Z-0.4 I0.125 J-0.2165
G2 X34.3386 Y25.882 Z-0.5333 I-0.25 J0.0
G2 Y26.315 Z-0.6667 I0.125 J0.2165
G2 X34.7136 Y26.0985 Z-0.8 I0.125 J-0.2165
G2 X34.3386 Y25.882 Z-0.9333 I-0.25 J0.0
G2 Y26.315 Z-1.0667 I0.125 J0.2165
G2 X34.7136 Y26.0985 Z-1.2 I0.125 J-0.2165
G2 X34.3386 Y25.882 Z-1.3333 I-0.25 J0.0
G2 Y26.315 Z-1.4667 I0.125 J0.2165
G2 X34.7136 Y26.0985 Z-1.6 I0.125 J-0.2165
G2 X34.3386 Y25.882 Z-1.7333 I-0.25 J0.0
G2 Y26.315 Z-1.8667 I0.125 J0.2165
G2 X34.7136 Y26.0985 Z-2.0 I0.125 J-0.2165
G2 X34.3386 Y25.882 Z-2.1333 I-0.25 J0.0
G2 Y26.315 Z-2.2667 I0.125 J0.2165
G2 X34.7136 Y26.0985 Z-2.4 I0.125 J-0.2165
G2 X34.3386 Y25.882 Z-2.5333 I-0.25 J0.0
G2 Y26.315 Z-2.6667 I0.125 J0.2165
G2 X34.7136 Y26.0985 Z-2.8 I0.125 J-0.2165
G2 X34.3386 Y25.882 Z-2.9333 I-0.25 J0.0
G2 Y26.315 Z-3.0667 I0.125 J0.2165
G2 X34.7136 Y26.0985 Z-3.2 I0.125 J-0.2165
G2 X34.3386 Y25.882 Z-3.3333 I-0.25 J0.0
G2 Y26.315 Z-3.4667 I0.125 J0.2165
G2 X34.7136 Y26.0985 Z-3.6 I0.125 J-0.2165
G2 X34.3386 Y25.882 Z-3.7333 I-0.25 J0.0
G2 Y26.315 Z-3.8667 I0.125 J0.2165
G2 X34.7136 Y26.0985 Z-4.0 I0.125 J-0.2165
G2 X34.3386 Y25.882 Z-4.1333 I-0.25 J0.0
G2 X34.2136 Y26.0985 Z-4.2 I0.125 J0.2165
G2 X34.5886 Y26.315 I0.25 J0.0
G2 Y25.882 I-0.125 J-0.2165
G2 X34.2136 Y26.0985 I-0.125 J0.2165
G0 Z3.0
G0 X36.2444 Y29.794
G1 F300.0 Z0.0
G2 F800.0 X35.8694 Y29.5775 Z-0.1333 I-0.25 J0.0
G2 Y30.0106 Z-0.2667 I0.125 J0.2165
G2 X36.2444 Y29.794 Z-0.4 I0.125 J-0.2165
G2 X35.8694 Y29.5775 Z-0.5333 I-0.25 J0.0
G2 Y30.0106 Z-0.6667 I0.125 J0.2165
G2 X36.2444 Y29.794 Z-0.8 I0.125 J-0.2165
G2 X35.8694 Y29.5775 Z-0.9333 I-0.25 J0.0
G2 Y30.0106 Z-1.0667 I0.125 J0.2165
G2 X36.2444 Y29.794 Z-1.2 I0.125 J-0.2165
G2 X35.8694 Y29.5775 Z-1.3333 I-0.25 J0.0
G2 Y30.0106 Z-1.4667 I0.125 J0.2165
G2 X36.2444 Y29.794 Z-1.6 I0.125 J-0.2165
G2 X35.8694 Y29.5775 Z-1.7333 I-0.25 J0.0
G2 Y30.0106 Z-1.8667 I0.125 J0.2165
G2 X36.2444 Y29.794 Z-2.0 I0.125 J-0.2165
G2 X35.8694 Y29.5775 Z-2.1333 I-0.25 J0.0
G2 Y30.0106 Z-2.2667 I0.125 J0.2165
G2 X36.2444 Y29.794 Z-2.4 I0.125 J-0.2165
G2 X35.8694 Y29.5775 Z-2.5333 I-0.25 J0.0
G2 Y30.0106 Z-2.6667 I0.125 J0.2165
G2 X36.2444 Y29.794 Z-2.8 I0.125 J-0.2165
G2 X35.8694 Y29.5775 Z-2.9333 I-0.25 J0.0
G2 Y30.0106 Z-3.0667 I0.125 J0.2165
G2 X36.2444 Y29.794 Z-3.2 I0.125 J-0.2165
G2 X35.8694 Y29.5775 Z-3.3333 I-0.25 J0.0
G2 Y30.0106 Z-3.4667 I0.125 J0.2165
G2 X36.2444 Y29.794 Z-3.6 I0.125 J-0.2165
G2 X35.8694 Y29.5775 Z-3.7333 I-0.25 J0.0
G2 Y30.0106 Z-3.8667 I0.125 J0.2165
G2 X36.2444 Y29.794 Z-4.0 I0.125 J-0.2165
G2 X35.8694 Y29.5775 Z-4.1333 I-0.25 J0.0
G2 X35.7444 Y29.794 Z-4.2 I0.125 J0.2165
G2 X36.1194 Y30.0106 I0.25 J0.0
G2 Y29.5775 I-0.125 J-0.2165
G2 X35.7444 Y29.794 I-0.125 J0.2165
G0 Z3.0
G0 X37.7751 Y33.4896
G1 F300.0 Z0.0
G2 F800.0 X37.4001 Y33.2731 Z-0.1333 I-0.25 J0.0
G2 Y33.7061 Z-0.2667 I0.125 J0.2165
G2 X37.7751 Y33.4896 Z-0.4 I0.125 J-0.2165
G2 X37.4001 Y33.2731 Z-0.5333 I-0.25 J0.0
G2 Y33.7061 Z-0.6667 I0.125 J0.2165
G2 X37.7751 Y33.4896 Z-0.8 I0.125 J-0.2165
G2 X37.4001 Y33.2731 Z-0.9333 I-0.25 J0.0
G2 Y33.7061 Z-1.0667 I0.125 J0.2165
G2 X37.7751 Y33.4896 Z-1.2 I0.125 J-0.2165
G2 X37.4001 Y33.2731 Z-1.3333 I-0.25 J0.0
G2 Y33.7061 Z-1.4667 I0.125 J0.2165
G2 X37.7751 Y33.4896 Z-1.6 I0.125 J-0.2165
G2 X37.4001 Y33.2731 Z-1.7333 I-0.25 J0.0
G2 Y33.7061 Z-1.8667 I0.125 J0.2165
G2 X37.7751 Y33.4896 Z-2.0 I0.125 J-0.2165
G2 X37.4001 Y33.2731 Z-2.1333 I-0.25 J0.0
G2 Y33.7061 Z-2.2667 I0.125 J0.2165
G2 X37.7751 Y33.4896 Z-2.4 I0.125 J-0.2165
G2 X37.4001 Y33.2731 Z-2.5333 I-0.25 J0.0
G2 Y33.7061 Z-2.6667 I0.125 J0.2165
G2 X37.7751 Y33.4896 Z-2.8 I0.125 J-0.2165
G2 X37.4001 Y33.2731 Z-2.9333 I-0.25 J0.0
G2 Y33.7061 Z-3.0667 I0.125 J0.2165
G2 X37.7751 Y33.4896 Z-3.2 I0.125 J-0.2165
G2 X37.4001 Y33.2731 Z-3.3333 I-0.25 J0.0
G2 Y33.7061 Z-3.4667 I0.125 J0.2165
G2 X37.7751 Y33.4896 Z-3.6 I0.125 J-0.2165
G2 X37.4001 Y33.2731 Z-3.7333 I-0.25 J0.0
G2 Y33.7061 Z-3.8667 I0.125 J0.2165
G2 X37.7751 Y33.4896 Z-4.0 I0.125 J-0.2165
G2 X37.4001 Y33.2731 Z-4.1333 I-0.25 J0.0
G2 X37.2751 Y33.4896 Z-4.2 I0.125 J0.2165
G2 X37.6501 Y33.7061 I0.25 J0.0
G2 Y33.2731 I-0.125 J-0.2165
G2 X37.2751 Y33.4896 I-0.125 J0.2165
G0 Z3.0
G0 X42.75 Y32.5
G1 F300.0 Z0.0
G2 F800.0 X42.375 Y32.2835 Z-0.1333 I-0.25 J0.0
G2 Y32.7165 Z-0.2667 I0.125 J0.2165
G2 X42.75 Y32.5 Z-0.4 I0.125 J-0.2165
G2 X42.375 Y32.2835 Z-0.5333 I-0.25 J0.0
G2 Y32.7165 Z-0.6667 I0.125 J0.2165
G2 X42.75 Y32.5 Z-0.8 I0.125 J-0.2165
G2 X42.375 Y32.2835 Z-0.9333 I-0.25 J0.0
G2 Y32.7165 Z-1.0667 I0.125 J0.2165
G2 X42.75 Y32.5 Z-1.2 I0.125 J-0.2165
G2 X42.375 Y32.2835 Z-1.3333 I-0.25 J0.0
G2 Y32.7165 Z-1.4667 I0.125 J0.2165
G2 X42.75 Y32.5 Z-1.6 I0.125 J-0.2165
G2 X42.375 Y32.2835 Z-1.7333 I-0.25 J0.0
G2 Y32.7165 Z-1.8667 I0.125 J0.2165
G2 X42.75 Y32.5 Z-2.0 I0.125 J-0.2165
G2 X42.375 Y32.2835 Z-2.1333 I-0.25 J0.0
G2 Y32.7165 Z-2.2667 I0.125 J0.2165
G2 X42.75 Y32.5 Z-2.4 I0.125 J-0.2165
G2 X42.375 Y32.2835 Z-2.5333 I-0.25 J0.0
G2 Y32.7165 Z-2.6667 I0.125 J0.2165
G2 X42.75 Y32.5 Z-2.8 I0.125 J-0.2165
G2 X42.375 Y32.2835 Z-2.9333 I-0.25 J0.0
G2 Y32.7165 Z-3.0667 I0.125 J0.2165
G2 X42.75 Y32.5 Z-3.2 I0.125 J-0.2165
G2 X42.375 Y32.2835 Z-3.3333 I-0.25 J0.0
G2 Y32.7165 Z-3.4667 I0.125 J0.2165
G2 X42.75 Y32.5 Z-3.6 I0.125 J-0.2165
G2 X42.375 Y32.2835 Z-3.7333 I-0.25 J0.0
G2 Y32.7165 Z-3.8667 I0.125 J0.2165
G2 X42.75 Y32.5 Z-4.0 I0.125 J-0.2165
G2 X42.375 Y32.2835 Z-4.1333 I-0.25 J0.0
G2 X42.25 Y32.5 Z-4.2 I0.125 J0.2165
G2 X42.625 Y32.7165 I0.25 J0.0
G2 Y32.2835 I-0.125 J-0.2165
G2 X42.25 Y32.5 I-0.125 J0.2165
G0 Z3.0
G0 X42.75 Y28.5
G1 F300.0 Z0.0
G2 F800.0 X42.375 Y28.2835 Z-0.1333 I-0.25 J0.0
G2 Y28.7165 Z-0.2667 I0.125 J0.2165
G2 X42.75 Y28.5 Z-0.4 I0.125 J-0.2165
G2 X42.375 Y28.2835 Z-0.5333 I-0.25 J0.0
G2 Y28.7165 Z-0.6667 I0.125 J0.2165
G2 X42.75 Y28.5 Z-0.8 I0.125 J-0.2165
G2 X42.375 Y28.2835 Z-0.9333 I-0.25 J0.0
G2 Y28.7165 Z-1.0667 I0.125 J0.2165
G2 X42.75 Y28.5 Z-1.2 I0.125 J-0.2165
G2 X42.375 Y28.2835 Z-1.3333 I-0.25 J0.0
G2 Y28.7165 Z-1.4667 I0.125 J0.2165
G2 X42.75 Y28.5 Z-1.6 I0.125 J-0.2165
G2 X42.375 Y28.2835 Z-1.7333 I-0.25 J0.0
G2 Y28.7165 Z-1.8667 I0.125 J0.2165
G2 X42.75 Y28.5 Z-2.0 I0.125 J-0.2165
G2 X42.375 Y28.2835 Z-2.1333 I-0.25 J0.0
G2 Y28.7165 Z-2.2667 I0.125 J0.2165
G2 X42.75 Y28.5 Z-2.4 I0.125 J-0.2165
G2 X42.375 Y28.2835 Z-2.5333 I-0.25 J0.0
G2 Y28.7165 Z-2.6667 I0.125 J0.2165
G2 X42.75 Y28.5 Z-2.8 I0.125 J-0.2165
G2 X42.375 Y28.2835 Z-2.9333 I-0.25 J0.0
G2 Y28.7165 Z-3.0667 I0.125 J0.2165
G2 X42.75 Y28.5 Z-3.2 I0.125 J-0.2165
G2 X42.375 Y28.2835 Z-3.3333 I-0.25 J0.0
G2 Y28.7165 Z-3.4667 I0.125 J0.2165
G2 X42.75 Y28.5 Z-3.6 I0.125 J-0.2165
G2 X42.375 Y28.2835 Z-3.7333 I-0.25 J0.0
G2 Y28.7165 Z-3.8667 I0.125 J0.2165
G2 X42.75 Y28.5 Z-4.0 I0.125 J-0.2165
G2 X42.375 Y28.2835 Z-4.1333 I-0.25 J0.0
G2 X42.25 Y28.5 Z-4.2 I0.125 J0.2165
G2 X42.625 Y28.7165 I0.25 J0.0
G2 Y28.2835 I-0.125 J-0.2165
G2 X42.25 Y28.5 I-0.125 J0.2165
G0 Z3.0
G0 X42.75 Y24.5
G1 F300.0 Z0.0
G2 F800.0 X42.375 Y24.2835 Z-0.1333 I-0.25 J0.0
G2 Y24.7165 Z-0.2667 I0.125 J0.2165
G2 X42.75 Y24.5 Z-0.4 I0.125 J-0.2165
G2 X42.375 Y24.2835 Z-0.5333 I-0.25 J0.0
G2 Y24.7165 Z-0.6667 I0.125 J0.2165
G2 X42.75 Y24.5 Z-0.8 I0.125 J-0.2165
G2 X42.375 Y24.2835 Z-0.9333 I-0.25 J0.0
G2 Y24.7165 Z-1.0667 I0.125 J0.2165
G2 X42.75 Y24.5 Z-1.2 I0.125 J-0.2165
G2 X42.375 Y24.2835 Z-1.3333 I-0.25 J0.0
G2 Y24.7165 Z-1.4667 I0.125 J0.2165
G2 X42.75 Y24.5 Z-1.6 I0.125 J-0.2165
G2 X42.375 Y24.2835 Z-1.7333 I-0.25 J0.0
G2 Y24.7165 Z-1.8667 I0.125 J0.2165
G2 X42.75 Y24.5 Z-2.0 I0.125 J-0.2165
G2 X42.375 Y24.2835 Z-2.1333 I-0.25 J0.0
G2 Y24.7165 Z-2.2667 I0.125 J0.2165
G2 X42.75 Y24.5 Z-2.4 I0.125 J-0.2165
G2 X42.375 Y24.2835 Z-2.5333 I-0.25 J0.0
G2 Y24.7165 Z-2.6667 I0.125 J0.2165
G2 X42.75 Y24.5 Z-2.8 I0.125 J-0.2165
G2 X42.375 Y24.2835 Z-2.9333 I-0.25 J0.0
G2 Y24.7165 Z-3.0667 I0.125 J0.2165
G2 X42.75 Y24.5 Z-3.2 I0.125 J-0.2165
G2 X42.375 Y24.2835 Z-3.3333 I-0.25 J0.0
G2 Y24.7165 Z-3.4667 I0.125 J0.2165
G2 X42.75 Y24.5 Z-3.6 I0.125 J-0.2165
G2 X42.375 Y24.2835 Z-3.7333 I-0.25 J0.0
G2 Y24.7165 Z-3.8667 I0.125 J0.2165
G2 X42.75 Y24.5 Z-4.0 I0.125 J-0.2165
G2 X42.375 Y24.2835 Z-4.1333 I-0.25 J0.0
G2 X42.25 Y24.5 Z-4.2 I0.125 J0.2165
G2 X42.625 Y24.7165 I0.25 J0.0
G2 Y24.2835 I-0.125 J-0.2165
G2 X42.25 Y24.5 I-0.125 J0.2165
G0 Z3.0
G0 X42.75 Y20.5
G1 F300.0 Z0.0
G2 F800.0 X42.375 Y20.2835 Z-0.1333 I-0.25 J0.0
G2 Y20.7165 Z-0.2667 I0.125 J0.2165
G2 X42.75 Y20.5 Z-0.4 I0.125 J-0.2165
G2 X42.375 Y20.2835 Z-0.5333 I-0.25 J0.0
G2 Y20.7165 Z-0.6667 I0.125 J0.2165
G2 X42.75 Y20.5 Z-0.8 I0.125 J-0.2165
G2 X42.375 Y20.2835 Z-0.9333 I-0.25 J0.0
G2 Y20.7165 Z-1.0667 I0.125 J0.2165
G2 X42.75 Y20.5 Z-1.2 I0.125 J-0.2165
G2 X42.375 Y20.2835 Z-1.3333 I-0.25 J0.0
G2 Y20.7165 Z-1.4667 I0.125 J0.2165
G2 X42.75 Y20.5 Z-1.6 I0.125 J-0.2165
G2 X42.375 Y20.2835 Z-1.7333 I-0.25 J0.0
G2 Y20.7165 Z-1.8667 I0.125 J0.2165
G2 X42.75 Y20.5 Z-2.0 I0.125 J-0.2165
G2 X42.375 Y20.2835 Z-2.1333 I-0.25 J0.0
G2 Y20.7165 Z-2.2667 I0.125 J0.2165
G2 X42.75 Y20.5 Z-2.4 I0.125 J-0.2165
G2 X42.375 Y20.2835 Z-2.5333 I-0.25 J0.0
G2 Y20.7165 Z-2.6667 I0.125 J0.2165
G2 X42.75 Y20.5 Z-2.8 I0.125 J-0.2165
G2 X42.375 Y20.2835 Z-2.9333 I-0.25 J0.0
G2 Y20.7165 Z-3.0667 I0.125 J0.2165
G2 X42.75 Y20.5 Z-3.2 I0.125 J-0.2165
G2 X42.375 Y20.2835 Z-3.3333 I-0.25 J0.0
G2 Y20.7165 Z-3.4667 I0.125 J0.2165
G2 X42.75 Y20.5 Z-3.6 I0.125 J-0.2165
G2 X42.375 Y20.2835 Z-3.7333 I-0.25 J0.0
G2 Y20.7165 Z-3.8667 I0.125 J0.2165
G2 X42.75 Y20.5 Z-4.0 I0.125 J-0.2165
G2 X42.375 Y20.2835 Z-4.1333 I-0.25 J0.0
G2 X42.25 Y20.5 Z-4.2 I0.125 J0.2165
G2 X42.625 Y20.7165 I0.25 J0.0
G2 Y20.2835 I-0.125 J-0.2165
G2 X42.25 Y20.5 I-0.125 J0.2165
G0 Z3.0
G0 X42.75 Y16.5
G1 F300.0 Z0.0
G2 F800.0 X42.375 Y16.2835 Z-0.1333 I-0.25 J0.0
G2 Y16.7165 Z-0.2667 I0.125 J0.2165
G2 X42.75 Y16.5 Z-0.4 I0.125 J-0.2165
G2 X42.375 Y16.2835 Z-0.5333 I-0.25 J0.0
G2 Y16.7165 Z-0.6667 I0.125 J0.2165
G2 X42.75 Y16.5 Z-0.8 I0.125 J-0.2165
G2 X42.375 Y16.2835 Z-0.9333 I-0.25 J0.0
G2 Y16.7165 Z-1.0667 I0.125 J0.2165
G2 X42.75 Y16.5 Z-1.2 I0.125 J-0.2165
G2 X42.375 Y16.2835 Z-1.3333 I-0.25 J0.0
G2 Y16.7165 Z-1.4667 I0.125 J0.2165
G2 X42.75 Y16.5 Z-1.6 I0.125 J-0.2165
G2 X42.375 Y16.2835 Z-1.7333 I-0.25 J0.0
G2 Y16.7165 Z-1.8667 I0.125 J0.2165
G2 X42.75 Y16.5 Z-2.0 I0.125 J-0.2165
G2 X42.375 Y16.2835 Z-2.1333 I-0.25 J0.0
G2 Y16.7165 Z-2.2667 I0.125 J0.2165
G2 X42.75 Y16.5 Z-2.4 I0.125 J-0.2165
G2 X42.375 Y16.2835 Z-2.5333 I-0.25 J0.0
G2 Y16.7165 Z-2.6667 I0.125 J0.2165
G2 X42.75 Y16.5 Z-2.8 I0.125 J-0.2165
G2 X42.375 Y16.2835 Z-2.9333 I-0.25 J0.0
G2 Y16.7165 Z-3.0667 I0.125 J0.2165
G2 X42.75 Y16.5 Z-3.2 I0.125 J-0.2165
G2 X42.375 Y16.2835 Z-3.3333 I-0.25 J0.0
G2 Y16.7165 Z-3.4667 I0.125 J0.2165
G2 X42.75 Y16.5 Z-3.6 I0.125 J-0.2165
G2 X42.375 Y16.2835 Z-3.7333 I-0.25 J0.0
G2 Y16.7165 Z-3.8667 I0.125 J0.2165
G2 X42.75 Y16.5 Z-4.0 I0.125 J-0.2165
G2 X42.375 Y16.2835 Z-4.1333 I-0.25 J0.0
G2 X42.25 Y16.5 Z-4.2 I0.125 J0.2165
G2 X42.625 Y16.7165 I0.25 J0.0
G2 Y16.2835 I-0.125 J-0.2165
G2 X42.25 Y16.5 I-0.125 J0.2165
G0 Z3.0
G0 X52.3171 Y22.403
G1 F300.0 Z0.0
G2 F800.0 X51.9421 Y22.1865 Z-0.1333 I-0.25 J0.0
G2 Y22.6195 Z-0.2667 I0.125 J0.2165
G2 X52.3171 Y22.403 Z-0.4 I0.125 J-0.2165
G2 X51.9421 Y22.1865 Z-0.5333 I-0.25 J0.0
G2 Y22.6195 Z-0.6667 I0.125 J0.2165
G2 X52.3171 Y22.403 Z-0.8 I0.125 J-0.2165
G2 X51.9421 Y22.1865 Z-0.9333 I-0.25 J0.0
G2 Y22.6195 Z-1.0667 I0.125 J0.2165
G2 X52.3171 Y22.403 Z-1.2 I0.125 J-0.2165
G2 X51.9421 Y22.1865 Z-1.3333 I-0.25 J0.0
G2 Y22.6195 Z-1.4667 I0.125 J0.2165
G2 X52.3171 Y22.403 Z-1.6 I0.125 J-0.2165
G2 X51.9421 Y22.1865 Z-1.7333 I-0.25 J0.0
G2 Y22.6195 Z-1.8667 I0.125 J0.2165
G2 X52.3171 Y22.403 Z-2.0 I0.125 J-0.2165
G2 X51.9421 Y22.1865 Z-2.1333 I-0.25 J0.0
G2 Y22.6195 Z-2.2667 I0.125 J0.2165
G2 X52.3171 Y22.403 Z-2.4 I0.125 J-0.2165
G2 X51.9421 Y22.1865 Z-2.5333 I-0.25 J0.0
G2 Y22.6195 Z-2.6667 I0.125 J0.2165
G2 X52.3171 Y22.403 Z-2.8 I0.125 J-0.2165
G2 X51.9421 Y22.1865 Z-2.9333 I-0.25 J0.0
G2 Y22.6195 Z-3.0667 I0.125 J0.2165
G2 X52.3171 Y22.403 Z-3.2 I0.125 J-0.2165
G2 X51.9421 Y22.1865 Z-3.3333 I-0.25 J0.0
G2 Y22.6195 Z-3.4667 I0.125 J0.2165
G2 X52.3171 Y22.403 Z-3.6 I0.125 J-0.2165
G2 X51.9421 Y22.1865 Z-3.7333 I-0.25 J0.0
G2 Y22.6195 Z-3.8667 I0.125 J0.2165
G2 X52.3171 Y22.403 Z-4.0 I0.125 J-0.2165
G2 X51.9421 Y22.1865 Z-4.1333 I-0.25 J0.0
G2 X51.8171 Y22.403 Z-4.2 I0.125 J0.2165
G2 X52.1921 Y22.6195 I0.25 J0.0
G2 Y22.1865 I-0.125 J-0.2165
G2 X51.8171 Y22.403 I-0.125 J0.2165
G0 Z3.0
G0 X50.7864 Y26.0985
G1 F300.0 Z0.0
G2 F800.0 X50.4114 Y25.882 Z-0.1333 I-0.25 J0.0
G2 Y26.315 Z-0.2667 I0.125 J0.2165
G2 X50.7864 Y26.0985 Z-0.4 I0.125 J-0.2165
G2 X50.4114 Y25.882 Z-0.5333 I-0.25 J0.0
G2 Y26.315 Z-0.6667 I0.125 J0.2165
G2 X50.7864 Y26.0985 Z-0.8 I0.125 J-0.2165
G2 X50.4114 Y25.882 Z-0.9333 I-0.25 J0.0
G2 Y26.315 Z-1.0667 I0.125 J0.2165
G2 X50.7864 Y26.0985 Z-1.2 I0.125 J-0.2165
G2 X50.4114 Y25.882 Z-1.3333 I-0.25 J0.0
G2 Y26.315 Z-1.4667 I0.125 J0.2165
G2 X50.7864 Y26.0985 Z-1.6 I0.125 J-0.2165
G2 X50.4114 Y25.882 Z-1.7333 I-0.25 J0.0
G2 Y26.315 Z-1.8667 I0.125 J0.2165
G2 X50.7864 Y26.0985 Z-2.0 I0.125 J-0.2165
G2 X50.4114 Y25.882 Z-2.1333 I-0.25 J0.0
G2 Y26.315 Z-2.2667 I0.125 J0.2165
G2 X50.7864 Y26.0985 Z-2.4 I0.125 J-0.2165
G2 X50.4114 Y25.882 Z-2.5333 I-0.25 J0.0
G2 Y26.315 Z-2.6667 I0.125 J0.2165
G2 X50.7864 Y26.0985 Z-2.8 I0.125 J-0.2165
G2 X50.4114 Y25.882 Z-2.9333 I-0.25 J0.0
G2 Y26.315 Z-3.0667 I0.125 J0.2165
G2 X50.7864 Y26.0985 Z-3.2 I0.125 J-0.2165
G2 X50.4114 Y25.882 Z-3.3333 I-0.25 J0.0
G2 Y26.315 Z-3.4667 I0.125 J0.2165
G2 X50.7864 Y26.0985 Z-3.6 I0.125 J-0.2165
G2 X50.4114 Y25.882 Z-3.7333 I-0.25 J0.0
G2 Y26.315 Z-3.8667 I0.125 J0.2165
G2 X50.7864 Y26.0985 Z-4.0 I0.125 J-0.2165
G2 X50.4114 Y25.882 Z-4.1333 I-0.25 J0.0
G2 X50.2864 Y26.0985 Z-4.2 I0.125 J0.2165
G2 X50.6614 Y26.315 I0.25 J0.0
G2 Y25.882 I-0.125 J-0.2165
G2 X50.2864 Y26.0985 I-0.125 J0.2165
G0 Z3.0
G0 X49.2556 Y29.794
G1 F300.0 Z0.0
G2 F800.0 X48.8806 Y29.5775 Z-0.1333 I-0.25 J0.0
G2 Y30.0106 Z-0.2667 I0.125 J0.2165
G2 X49.2556 Y29.794 Z-0.4 I0.125 J-0.2165
G2 X48.8806 Y29.5775 Z-0.5333 I-0.25 J0.0
G2 Y30.0106 Z-0.6667 I0.125 J0.2165
G2 X49.2556 Y29.794 Z-0.8 I0.125 J-0.2165
G2 X48.8806 Y29.5775 Z-0.9333 I-0.25 J0.0
G2 Y30.0106 Z-1.0667 I0.125 J0.2165
G2 X49.2556 Y29.794 Z-1.2 I0.125 J-0.2165
G2 X48.8806 Y29.5775 Z-1.3333 I-0.25 J0.0
G2 Y30.0106 Z-1.4667 I0.125 J0.2165
G2 X49.2556 Y29.794 Z-1.6 I0.125 J-0.2165
G2 X48.8806 Y29.5775 Z-1.7333 I-0.25 J0.0
G2 Y30.0106 Z-1.8667 I0.125 J0.2165
G2 X49.2556 Y29.794 Z-2.0 I0.125 J-0.2165
G2 X48.8806 Y29.5775 Z-2.1333 I-0.25 J0.0
G2 Y30.0106 Z-2.2667 I0.125 J0.2165
G2 X49.2556 Y29.794 Z-2.4 I0.125 J-0.2165
G2 X48.8806 Y29.5775 Z-2.5333 I-0.25 J0.0
G2 Y30.0106 Z-2.6667 I0.125 J0.2165
G2 X49.2556 Y29.794 Z-2.8 I0.125 J-0.2165
G2 X48.8806 Y29.5775 Z-2.9333 I-0.25 J0.0
G2 Y30.0106 Z-3.0667 I0.125 J0.2165
G2 X49.2556 Y29.794 Z-3.2 I0.125 J-0.2165
G2 X48.8806 Y29.5775 Z-3.3333 I-0.25 J0.0
G2 Y30.0106 Z-3.4667 I0.125 J0.2165
G2 X49.2556 Y29.794 Z-3.6 I0.125 J-0.2165
G2 X48.8806 Y29.5775 Z-3.7333 I-0.25 J0.0
G2 Y30.0106 Z-3.8667 I0.125 J0.2165
G2 X49.2556 Y29.794 Z-4.0 I0.125 J-0.2165
G2 X48.8806 Y29.5775 Z-4.1333 I-0.25 J0.0
G2 X48.7556 Y29.794 Z-4.2 I0.125 J0.2165
G2 X49.1306 Y30.0106 I0.25 J0.0
G2 Y29.5775 I-0.125 J-0.2165
G2 X48.7556 Y29.794 I-0.125 J0.2165
G0 Z3.0
G0 X47.7249 Y33.4896
G1 F300.0 Z0.0
G2 F800.0 X47.3499 Y33.2731 Z-0.1333 I-0.25 J0.0
G2 Y33.7061 Z-0.2667 I0.125 J0.2165
G2 X47.7249 Y33.4896 Z-0.4 I0.125 J-0.2165
G2 X47.3499 Y33.2731 Z-0.5333 I-0.25 J0.0
G2 Y33.7061 Z-0.6667 I0.125 J0.2165
G2 X47.7249 Y33.4896 Z-0.8 I0.125 J-0.2165
G2 X47.3499 Y33.2731 Z-0.9333 I-0.25 J0.0
G2 Y33.7061 Z-1.0667 I0.125 J0.2165
G2 X47.7249 Y33.4896 Z-1.2 I0.125 J-0.2165
G2 X47.3499 Y33.2731 Z-1.3333 I-0.25 J0.0
G2 Y33.7061 Z-1.4667 I0.125 J0.2165
G2 X47.7249 Y33.4896 Z-1.6 I0.125 J-0.2165
G2 X47.3499 Y33.2731 Z-1.7333 I-0.25 J0.0
G2 Y33.7061 Z-1.8667 I0.125 J0.2165
G2 X47.7249 Y33.4896 Z-2.0 I0.125 J-0.2165
G2 X47.3499 Y33.2731 Z-2.1333 I-0.25 J0.0
G2 Y33.7061 Z-2.2667 I0.125 J0.2165
G2 X47.7249 Y33.4896 Z-2.4 I0.125 J-0.2165
G2 X47.3499 Y33.2731 Z-2.5333 I-0.25 J0.0
G2 Y33.7061 Z-2.6667 I0.125 J0.2165
G2 X47.7249 Y33.4896 Z-2.8 I0.125 J-0.2165
G2 X47.3499 Y33.2731 Z-2.9333 I-0.25 J0.0
G2 Y33.7061 Z-3.0667 I0.125 J0.2165
G2 X47.7249 Y33.4896 Z-3.2 I0.125 J-0.2165
G2 X47.3499 Y33.2731 Z-3.3333 I-0.25 J0.0
G2 Y33.7061 Z-3.4667 I0.125 J0.2165
G2 X47.7249 Y33.4896 Z-3.6 I0.125 J-0.2165
G2 X47.3499 Y33.2731 Z-3.7333 I-0.25 J0.0
G2 Y33.7061 Z-3.8667 I0.125 J0.2165
G2 X47.7249 Y33.4896 Z-4.0 I0.125 J-0.2165
G2 X47.3499 Y33.2731 Z-4.1333 I-0.25 J0.0
G2 X47.2249 Y33.4896 Z-4.2 I0.125 J0.2165
G2 X47.5999 Y33.7061 I0.25 J0.0
G2 Y33.2731 I-0.125 J-0.2165
G2 X47.2249 Y33.4896 I-0.125 J0.2165
G0 Z3.0
G0 X51.9424 Y36.3076
G1 F300.0 Z0.0
G2 F800.0 X51.5674 Y36.0911 Z-0.1333 I-0.25 J0.0
G2 Y36.5241 Z-0.2667 I0.125 J0.2165
G2 X51.9424 Y36.3076 Z-0.4 I0.125 J-0.2165
G2 X51.5674 Y36.0911 Z-0.5333 I-0.25 J0.0
G2 Y36.5241 Z-0.6667 I0.125 J0.2165
G2 X51.9424 Y36.3076 Z-0.8 I0.125 J-0.2165
G2 X51.5674 Y36.0911 Z-0.9333 I-0.25 J0.0
G2 Y36.5241 Z-1.0667 I0.125 J0.2165
G2 X51.9424 Y36.3076 Z-1.2 I0.125 J-0.2165
G2 X51.5674 Y36.0911 Z-1.3333 I-0.25 J0.0
G2 Y36.5241 Z-1.4667 I0.125 J0.2165
G2 X51.9424 Y36.3076 Z-1.6 I0.125 J-0.2165
G2 X51.5674 Y36.0911 Z-1.7333 I-0.25 J0.0
G2 Y36.5241 Z-1.8667 I0.125 J0.2165
G2 X51.9424 Y36.3076 Z-2.0 I0.125 J-0.2165
G2 X51.5674 Y36.0911 Z-2.1333 I-0.25 J0.0
G2 Y36.5241 Z-2.2667 I0.125 J0.2165
G2 X51.9424 Y36.3076 Z-2.4 I0.125 J-0.2165
G2 X51.5674 Y36.0911 Z-2.5333 I-0.25 J0.0
G2 Y36.5241 Z-2.6667 I0.125 J0.2165
G2 X51.9424 Y36.3076 Z-2.8 I0.125 J-0.2165
G2 X51.5674 Y36.0911 Z-2.9333 I-0.25 J0.0
G2 Y36.5241 Z-3.0667 I0.125 J0.2165
G2 X51.9424 Y36.3076 Z-3.2 I0.125 J-0.2165
G2 X51.5674 Y36.0911 Z-3.3333 I-0.25 J0.0
G2 Y36.5241 Z-3.4667 I0.125 J0.2165
G2 X51.9424 Y36.3076 Z-3.6 I0.125 J-0.2165
G2 X51.5674 Y36.0911 Z-3.7333 I-0.25 J0.0
G2 Y36.5241 Z-3.8667 I0.125 J0.2165
G2 X51.9424 Y36.3076 Z-4.0 I0.125 J-0.2165
G2 X51.5674 Y36.0911 Z-4.1333 I-0.25 J0.0
G2 X51.4424 Y36.3076 Z-4.2 I0.125 J0.2165
G2 X51.8174 Y36.5241 I0.25 J0.0
G2 Y36.0911 I-0.125 J-0.2165
G2 X51.4424 Y36.3076 I-0.125 J0.2165
G0 Z3.0
G0 X54.7708 Y33.4792
G1 F300.0 Z0.0
G2 F800.0 X54.3958 Y33.2627 Z-0.1333 I-0.25 J0.0
G2 Y33.6957 Z-0.2667 I0.125 J0.2165
G2 X54.7708 Y33.4792 Z-0.4 I0.125 J-0.2165
G2 X54.3958 Y33.2627 Z-0.5333 I-0.25 J0.0
G2 Y33.6957 Z-0.6667 I0.125 J0.2165
G2 X54.7708 Y33.4792 Z-0.8 I0.125 J-0.2165
G2 X54.3958 Y33.2627 Z-0.9333 I-0.25 J0.0
G2 Y33.6957 Z-1.0667 I0.125 J0.2165
G2 X54.7708 Y33.4792 Z-1.2 I0.125 J-0.2165
G2 X54.3958 Y33.2627 Z-1.3333 I-0.25 J0.0
G2 Y33.6957 Z-1.4667 I0.125 J0.2165
G2 X54.7708 Y33.4792 Z-1.6 I0.125 J-0.2165
G2 X54.3958 Y33.2627 Z-1.7333 I-0.25 J0.0
G2 Y33.6957 Z-1.8667 I0.125 J0.2165
G2 X54.7708 Y33.4792 Z-2.0 I0.125 J-0.2165
G2 X54.3958 Y33.2627 Z-2.1333 I-0.25 J0.0
G2 Y33.6957 Z-2.2667 I0.125 J0.2165
G2 X54.7708 Y33.4792 Z-2.4 I0.125 J-0.2165
G2 X54.3958 Y33.2627 Z-2.5333 I-0.25 J0.0
G2 Y33.6957 Z-2.6667 I0.125 J0.2165
G2 X54.7708 Y33.4792 Z-2.8 I0.125 J-0.2165
G2 X54.3958 Y33.2627 Z-2.9333 I-0.25 J0.0
G2 Y33.6957 Z-3.0667 I0.125 J0.2165
G2 X54.7708 Y33.4792 Z-3.2 I0.125 J-0.2165
G2 X54.3958 Y33.2627 Z-3.3333 I-0.25 J0.0
G2 Y33.6957 Z-3.4667 I0.125 J0.2165
G2 X54.7708 Y33.4792 Z-3.6 I0.125 J-0.2165
G2 X54.3958 Y33.2627 Z-3.7333 I-0.25 J0.0
G2 Y33.6957 Z-3.8667 I0.125 J0.2165
G2 X54.7708 Y33.4792 Z-4.0 I0.125 J-0.2165
G2 X54.3958 Y33.2627 Z-4.1333 I-0.25 J0.0
G2 X54.2708 Y33.4792 Z-4.2 I0.125 J0.2165
G2 X54.6458 Y33.6957 I0.25 J0.0
G2 Y33.2627 I-0.125 J-0.2165
G2 X54.2708 Y33.4792 I-0.125 J0.2165
G0 Z3.0
G0 X57.5992 Y30.6508
G1 F300.0 Z0.0
G2 F800.0 X57.2242 Y30.4343 Z-0.1333 I-0.25 J0.0
G2 Y30.8673 Z-0.2667 I0.125 J0.2165
G2 X57.5992 Y30.6508 Z-0.4 I0.125 J-0.2165
G2 X57.2242 Y30.4343 Z-0.5333 I-0.25 J0.0
G2 Y30.8673 Z-0.6667 I0.125 J0.2165
G2 X57.5992 Y30.6508 Z-0.8 I0.125 J-0.2165
G2 X57.2242 Y30.4343 Z-0.9333 I-0.25 J0.0
G2 Y30.8673 Z-1.0667 I0.125 J0.2165
G2 X57.5992 Y30.6508 Z-1.2 I0.125 J-0.2165
G2 X57.2242 Y30.4343 Z-1.3333 I-0.25 J0.0
G2 Y30.8673 Z-1.4667 I0.125 J0.2165
G2 X57.5992 Y30.6508 Z-1.6 I0.125 J-0.2165
G2 X57.2242 Y30.4343 Z-1.7333 I-0.25 J0.0
G2 Y30.8673 Z-1.8667 I0.125 J0.2165
G2 X57.5992 Y30.6508 Z-2.0 I0.125 J-0.2165
G2 X57.2242 Y30.4343 Z-2.1333 I-0.25 J0.0
G2 Y30.8673 Z-2.2667 I0.125 J0.2165
G2 X57.5992 Y30.6508 Z-2.4 I0.125 J-0.2165
G2 X57.2242 Y30.4343 Z-2.5333 I-0.25 J0.0
G2 Y30.8673 Z-2.6667 I0.125 J0.2165
G2 X57.5992 Y30.6508 Z-2.8 I0.125 J-0.2165
G2 X57.2242 Y30.4343 Z-2.9333 I-0.25 J0.0
G2 Y30.8673 Z-3.0667 I0.125 J0.2165
G2 X57.5992 Y30.6508 Z-3.2 I0.125 J-0.2165
G2 X57.2242 Y30.4343 Z-3.3333 I-0.25 J0.0
G2 Y30.8673 Z-3.4667 I0.125 J0.2165
G2 X57.5992 Y30.6508 Z-3.6 I0.125 J-0.2165
G2 X57.2242 Y30.4343 Z-3.7333 I-0.25 J0.0
G2 Y30.8673 Z-3.8667 I0.125 J0.2165
G2 X57.5992 Y30.6508 Z-4.0 I0.125 J-0.2165
G2 X57.2242 Y30.4343 Z-4.1333 I-0.25 J0.0
G2 X57.0992 Y30.6508 Z-4.2 I0.125 J0.2165
G2 X57.4742 Y30.8673 I0.25 J0.0
G2 Y30.4343 I-0.125 J-0.2165
G2 X57.0992 Y30.6508 I-0.125 J0.2165
G0 Z3.0
G0 X60.4277 Y27.8223
G1 F300.0 Z0.0
G2 F800.0 X60.0527 Y27.6058 Z-0.1333 I-0.25 J0.0
G2 Y28.0388 Z-0.2667 I0.125 J0.2165
G2 X60.4277 Y27.8223 Z-0.4 I0.125 J-0.2165
G2 X60.0527 Y27.6058 Z-0.5333 I-0.25 J0.0
G2 Y28.0388 Z-0.6667 I0.125 J0.2165
G2 X60.4277 Y27.8223 Z-0.8 I0.125 J-0.2165
G2 X60.0527 Y27.6058 Z-0.9333 I-0.25 J0.0
G2 Y28.0388 Z-1.0667 I0.125 J0.2165
G2 X60.4277 Y27.8223 Z-1.2 I0.125 J-0.2165
G2 X60.0527 Y27.6058 Z-1.3333 I-0.25 J0.0
G2 Y28.0388 Z-1.4667 I0.125 J0.2165
G2 X60.4277 Y27.8223 Z-1.6 I0.125 J-0.2165
G2 X60.0527 Y27.6058 Z-1.7333 I-0.25 J0.0
G2 Y28.0388 Z-1.8667 I0.125 J0.2165
G2 X60.4277 Y27.8223 Z-2.0 I0.125 J-0.2165
G2 X60.0527 Y27.6058 Z-2.1333 I-0.25 J0.0
G2 Y28.0388 Z-2.2667 I0.125 J0.2165
G2 X60.4277 Y27.8223 Z-2.4 I0.125 J-0.2165
G2 X60.0527 Y27.6058 Z-2.5333 I-0.25 J0.0
G2 Y28.0388 Z-2.6667 I0.125 J0.2165
G2 X60.4277 Y27.8223 Z-2.8 I0.125 J-0.2165
G2 X60.0527 Y27.6058 Z-2.9333 I-0.25 J0.0
G2 Y28.0388 Z-3.0667 I0.125 J0.2165
G2 X60.4277 Y27.8223 Z-3.2 I0.125 J-0.2165
G2 X60.0527 Y27.6058 Z-3.3333 I-0.25 J0.0
G2 Y28.0388 Z-3.4667 I0.125 J0.2165
G2 X60.4277 Y27.8223 Z-3.6 I0.125 J-0.2165
G2 X60.0527 Y27.6058 Z-3.7333 I-0.25 J0.0
G2 Y28.0388 Z-3.8667 I0.125 J0.2165
G2 X60.4277 Y27.8223 Z-4.0 I0.125 J-0.2165
G2 X60.0527 Y27.6058 Z-4.1333 I-0.25 J0.0
G2 X59.9277 Y27.8223 Z-4.2 I0.125 J0.2165
G2 X60.3027 Y28.0388 I0.25 J0.0
G2 Y27.6058 I-0.125 J-0.2165
G2 X59.9277 Y27.8223 I-0.125 J0.2165
G0 Z3.0
G0 X63.2561 Y24.9939
G1 F300.0 Z0.0
G2 F800.0 X62.8811 Y24.7774 Z-0.1333 I-0.25 J0.0
G2 Y25.2104 Z-0.2667 I0.125 J0.2165
G2 X63.2561 Y24.9939 Z-0.4 I0.125 J-0.2165
G2 X62.8811 Y24.7774 Z-0.5333 I-0.25 J0.0
G2 Y25.2104 Z-0.6667 I0.125 J0.2165
G2 X63.2561 Y24.9939 Z-0.8 I0.125 J-0.2165
G2 X62.8811 Y24.7774 Z-0.9333 I-0.25 J0.0
G2 Y25.2104 Z-1.0667 I0.125 J0.2165
G2 X63.2561 Y24.9939 Z-1.2 I0.125 J-0.2165
G2 X62.8811 Y24.7774 Z-1.3333 I-0.25 J0.0
G2 Y25.2104 Z-1.4667 I0.125 J0.2165
G2 X63.2561 Y24.9939 Z-1.6 I0.125 J-0.2165
G2 X62.8811 Y24.7774 Z-1.7333 I-0.25 J0.0
G2 Y25.2104 Z-1.8667 I0.125 J0.2165
G2 X63.2561 Y24.9939 Z-2.0 I0.125 J-0.2165
G2 X62.8811 Y24.7774 Z-2.1333 I-0.25 J0.0
G2 Y25.2104 Z-2.2667 I0.125 J0.2165
G2 X63.2561 Y24.9939 Z-2.4 I0.125 J-0.2165
G2 X62.8811 Y24.7774 Z-2.5333 I-0.25 J0.0
G2 Y25.2104 Z-2.6667 I0.125 J0.2165
G2 X63.2561 Y24.9939 Z-2.8 I0.125 J-0.2165
G2 X62.8811 Y24.7774 Z-2.9333 I-0.25 J0.0
G2 Y25.2104 Z-3.0667 I0.125 J0.2165
G2 X63.2561 Y24.9939 Z-3.2 I0.125 J-0.2165
G2 X62.8811 Y24.7774 Z-3.3333 I-0.25 J0.0
G2 Y25.2104 Z-3.4667 I0.125 J0.2165
G2 X63.2561 Y24.9939 Z-3.6 I0.125 J-0.2165
G2 X62.8811 Y24.7774 Z-3.7333 I-0.25 J0.0
G2 Y25.2104 Z-3.8667 I0.125 J0.2165
G2 X63.2561 Y24.9939 Z-4.0 I0.125 J-0.2165
G2 X62.8811 Y24.7774 Z-4.1333 I-0.25 J0.0
G2 X62.7561 Y24.9939 Z-4.2 I0.125 J0.2165
G2 X63.1311 Y25.2104 I0.25 J0.0
G2 Y24.7774 I-0.125 J-0.2165
G2 X62.7561 Y24.9939 I-0.125 J0.2165
G0 Z3.0
G0 X65.847 Y35.9329
G1 F300.0 Z0.0
G2 F800.0 X65.472 Y35.7164 Z-0.1333 I-0.25 J0.0
G2 Y36.1494 Z-0.2667 I0.125 J0.2165
G2 X65.847 Y35.9329 Z-0.4 I0.125 J-0.2165
G2 X65.472 Y35.7164 Z-0.5333 I-0.25 J0.0
G2 Y36.1494 Z-0.6667 I0.125 J0.2165
G2 X65.847 Y35.9329 Z-0.8 I0.125 J-0.2165
G2 X65.472 Y35.7164 Z-0.9333 I-0.25 J0.0
G2 Y36.1494 Z-1.0667 I0.125 J0.2165
G2 X65.847 Y35.9329 Z-1.2 I0.125 J-0.2165
G2 X65.472 Y35.7164 Z-1.3333 I-0.25 J0.0
G2 Y36.1494 Z-1.4667 I0.125 J0.2165
G2 X65.847 Y35.9329 Z-1.6 I0.125 J-0.2165
