( Made using CamBam - http://www.cambam.co.uk )
( ssc_plexi_RightPanel 2/22/2021 1:52:19 PM )
( T2 : 2.0 )
( CUTVIEWER )
( FROM/0,0,5 )
( Select dummy tool to avoid warnings )
( TOOL/MILL,1,0,20.0,0 )
( STOCK/BLOCK,85.0,90.0,4.0,0.0,0.0,4.0 )
G21 G90 G91.1 G64 G40
G0 Z3.0
( T2 : 2.0 )
( Tool Taper coming soon )
( TOOL/MILL,2.0,0.0,0.0,0 )
T2 M6
( Drill1 )
G17
M3 S1000
G0 X33.4636 Y26.0985
G0 Z3.0
G0 X33.7136 Y26.0985
G0 Z1.0
G1 F300.0 Z0.0
G2 F800.0 X33.3386 Y25.882 Z-0.1333 I-0.25 J0.0
G2 Y26.315 Z-0.2667 I0.125 J0.2165
G2 X33.7136 Y26.0985 Z-0.4 I0.125 J-0.2165
G2 X33.3386 Y25.882 Z-0.5333 I-0.25 J0.0
G2 Y26.315 Z-0.6667 I0.125 J0.2165
G2 X33.7136 Y26.0985 Z-0.8 I0.125 J-0.2165
G2 X33.3386 Y25.882 Z-0.9333 I-0.25 J0.0
G2 Y26.315 Z-1.0667 I0.125 J0.2165
G2 X33.7136 Y26.0985 Z-1.2 I0.125 J-0.2165
G2 X33.3386 Y25.882 Z-1.3333 I-0.25 J0.0
G2 Y26.315 Z-1.4667 I0.125 J0.2165
G2 X33.7136 Y26.0985 Z-1.6 I0.125 J-0.2165
G2 X33.3386 Y25.882 Z-1.7333 I-0.25 J0.0
G2 Y26.315 Z-1.8667 I0.125 J0.2165
G2 X33.7136 Y26.0985 Z-2.0 I0.125 J-0.2165
G2 X33.3386 Y25.882 Z-2.1333 I-0.25 J0.0
G2 Y26.315 Z-2.2667 I0.125 J0.2165
G2 X33.7136 Y26.0985 Z-2.4 I0.125 J-0.2165
G2 X33.3386 Y25.882 Z-2.5333 I-0.25 J0.0
G2 Y26.315 Z-2.6667 I0.125 J0.2165
G2 X33.7136 Y26.0985 Z-2.8 I0.125 J-0.2165
G2 X33.3386 Y25.882 Z-2.9333 I-0.25 J0.0
G2 Y26.315 Z-3.0667 I0.125 J0.2165
G2 X33.7136 Y26.0985 Z-3.2 I0.125 J-0.2165
G2 X33.3386 Y25.882 Z-3.3333 I-0.25 J0.0
G2 Y26.315 Z-3.4667 I0.125 J0.2165
G2 X33.7136 Y26.0985 Z-3.6 I0.125 J-0.2165
G2 X33.3386 Y25.882 Z-3.7333 I-0.25 J0.0
G2 Y26.315 Z-3.8667 I0.125 J0.2165
G2 X33.7136 Y26.0985 Z-4.0 I0.125 J-0.2165
G2 X33.3386 Y25.882 Z-4.1333 I-0.25 J0.0
G2 X33.2136 Y26.0985 Z-4.2 I0.125 J0.2165
G2 X33.5886 Y26.315 I0.25 J0.0
G2 Y25.882 I-0.125 J-0.2165
G2 X33.2136 Y26.0985 I-0.125 J0.2165
G0 Z3.0
G0 X32.1829 Y22.403
G0 Z1.0
G1 F300.0 Z0.0
G2 F800.0 X31.8079 Y22.1865 Z-0.1333 I-0.25 J0.0
G2 Y22.6195 Z-0.2667 I0.125 J0.2165
G2 X32.1829 Y22.403 Z-0.4 I0.125 J-0.2165
G2 X31.8079 Y22.1865 Z-0.5333 I-0.25 J0.0
G2 Y22.6195 Z-0.6667 I0.125 J0.2165
G2 X32.1829 Y22.403 Z-0.8 I0.125 J-0.2165
G2 X31.8079 Y22.1865 Z-0.9333 I-0.25 J0.0
G2 Y22.6195 Z-1.0667 I0.125 J0.2165
G2 X32.1829 Y22.403 Z-1.2 I0.125 J-0.2165
G2 X31.8079 Y22.1865 Z-1.3333 I-0.25 J0.0
G2 Y22.6195 Z-1.4667 I0.125 J0.2165
G2 X32.1829 Y22.403 Z-1.6 I0.125 J-0.2165
G2 X31.8079 Y22.1865 Z-1.7333 I-0.25 J0.0
G2 Y22.6195 Z-1.8667 I0.125 J0.2165
G2 X32.1829 Y22.403 Z-2.0 I0.125 J-0.2165
G2 X31.8079 Y22.1865 Z-2.1333 I-0.25 J0.0
G2 Y22.6195 Z-2.2667 I0.125 J0.2165
G2 X32.1829 Y22.403 Z-2.4 I0.125 J-0.2165
G2 X31.8079 Y22.1865 Z-2.5333 I-0.25 J0.0
G2 Y22.6195 Z-2.6667 I0.125 J0.2165
G2 X32.1829 Y22.403 Z-2.8 I0.125 J-0.2165
G2 X31.8079 Y22.1865 Z-2.9333 I-0.25 J0.0
G2 Y22.6195 Z-3.0667 I0.125 J0.2165
G2 X32.1829 Y22.403 Z-3.2 I0.125 J-0.2165
G2 X31.8079 Y22.1865 Z-3.3333 I-0.25 J0.0
G2 Y22.6195 Z-3.4667 I0.125 J0.2165
G2 X32.1829 Y22.403 Z-3.6 I0.125 J-0.2165
G2 X31.8079 Y22.1865 Z-3.7333 I-0.25 J0.0
G2 Y22.6195 Z-3.8667 I0.125 J0.2165
G2 X32.1829 Y22.403 Z-4.0 I0.125 J-0.2165
G2 X31.8079 Y22.1865 Z-4.1333 I-0.25 J0.0
G2 X31.6829 Y22.403 Z-4.2 I0.125 J0.2165
G2 X32.0579 Y22.6195 I0.25 J0.0
G2 Y22.1865 I-0.125 J-0.2165
G2 X31.6829 Y22.403 I-0.125 J0.2165
G0 Z3.0
G0 X30.6522 Y18.7075
G0 Z1.0
G1 F300.0 Z0.0
G2 F800.0 X30.2772 Y18.491 Z-0.1333 I-0.25 J0.0
G2 Y18.924 Z-0.2667 I0.125 J0.2165
G2 X30.6522 Y18.7075 Z-0.4 I0.125 J-0.2165
G2 X30.2772 Y18.491 Z-0.5333 I-0.25 J0.0
G2 Y18.924 Z-0.6667 I0.125 J0.2165
G2 X30.6522 Y18.7075 Z-0.8 I0.125 J-0.2165
G2 X30.2772 Y18.491 Z-0.9333 I-0.25 J0.0
G2 Y18.924 Z-1.0667 I0.125 J0.2165
G2 X30.6522 Y18.7075 Z-1.2 I0.125 J-0.2165
G2 X30.2772 Y18.491 Z-1.3333 I-0.25 J0.0
G2 Y18.924 Z-1.4667 I0.125 J0.2165
G2 X30.6522 Y18.7075 Z-1.6 I0.125 J-0.2165
G2 X30.2772 Y18.491 Z-1.7333 I-0.25 J0.0
G2 Y18.924 Z-1.8667 I0.125 J0.2165
G2 X30.6522 Y18.7075 Z-2.0 I0.125 J-0.2165
G2 X30.2772 Y18.491 Z-2.1333 I-0.25 J0.0
G2 Y18.924 Z-2.2667 I0.125 J0.2165
G2 X30.6522 Y18.7075 Z-2.4 I0.125 J-0.2165
G2 X30.2772 Y18.491 Z-2.5333 I-0.25 J0.0
G2 Y18.924 Z-2.6667 I0.125 J0.2165
G2 X30.6522 Y18.7075 Z-2.8 I0.125 J-0.2165
G2 X30.2772 Y18.491 Z-2.9333 I-0.25 J0.0
G2 Y18.924 Z-3.0667 I0.125 J0.2165
G2 X30.6522 Y18.7075 Z-3.2 I0.125 J-0.2165
G2 X30.2772 Y18.491 Z-3.3333 I-0.25 J0.0
G2 Y18.924 Z-3.4667 I0.125 J0.2165
G2 X30.6522 Y18.7075 Z-3.6 I0.125 J-0.2165
G2 X30.2772 Y18.491 Z-3.7333 I-0.25 J0.0
G2 Y18.924 Z-3.8667 I0.125 J0.2165
G2 X30.6522 Y18.7075 Z-4.0 I0.125 J-0.2165
G2 X30.2772 Y18.491 Z-4.1333 I-0.25 J0.0
G2 X30.1522 Y18.7075 Z-4.2 I0.125 J0.2165
G2 X30.5272 Y18.924 I0.25 J0.0
G2 Y18.491 I-0.125 J-0.2165
G2 X30.1522 Y18.7075 I-0.125 J0.2165
G0 Z3.0
G0 X24.0723 Y27.8223
G0 Z1.0
G1 F300.0 Z0.0
G2 F800.0 X23.6973 Y27.6058 Z-0.1333 I-0.25 J0.0
G2 Y28.0388 Z-0.2667 I0.125 J0.2165
G2 X24.0723 Y27.8223 Z-0.4 I0.125 J-0.2165
G2 X23.6973 Y27.6058 Z-0.5333 I-0.25 J0.0
G2 Y28.0388 Z-0.6667 I0.125 J0.2165
G2 X24.0723 Y27.8223 Z-0.8 I0.125 J-0.2165
G2 X23.6973 Y27.6058 Z-0.9333 I-0.25 J0.0
G2 Y28.0388 Z-1.0667 I0.125 J0.2165
G2 X24.0723 Y27.8223 Z-1.2 I0.125 J-0.2165
G2 X23.6973 Y27.6058 Z-1.3333 I-0.25 J0.0
G2 Y28.0388 Z-1.4667 I0.125 J0.2165
G2 X24.0723 Y27.8223 Z-1.6 I0.125 J-0.2165
G2 X23.6973 Y27.6058 Z-1.7333 I-0.25 J0.0
G2 Y28.0388 Z-1.8667 I0.125 J0.2165
G2 X24.0723 Y27.8223 Z-2.0 I0.125 J-0.2165
G2 X23.6973 Y27.6058 Z-2.1333 I-0.25 J0.0
G2 Y28.0388 Z-2.2667 I0.125 J0.2165
G2 X24.0723 Y27.8223 Z-2.4 I0.125 J-0.2165
G2 X23.6973 Y27.6058 Z-2.5333 I-0.25 J0.0
G2 Y28.0388 Z-2.6667 I0.125 J0.2165
G2 X24.0723 Y27.8223 Z-2.8 I0.125 J-0.2165
G2 X23.6973 Y27.6058 Z-2.9333 I-0.25 J0.0
G2 Y28.0388 Z-3.0667 I0.125 J0.2165
G2 X24.0723 Y27.8223 Z-3.2 I0.125 J-0.2165
G2 X23.6973 Y27.6058 Z-3.3333 I-0.25 J0.0
G2 Y28.0388 Z-3.4667 I0.125 J0.2165
G2 X24.0723 Y27.8223 Z-3.6 I0.125 J-0.2165
G2 X23.6973 Y27.6058 Z-3.7333 I-0.25 J0.0
G2 Y28.0388 Z-3.8667 I0.125 J0.2165
G2 X24.0723 Y27.8223 Z-4.0 I0.125 J-0.2165
G2 X23.6973 Y27.6058 Z-4.1333 I-0.25 J0.0
G2 X23.5723 Y27.8223 Z-4.2 I0.125 J0.2165
G2 X23.9473 Y28.0388 I0.25 J0.0
G2 Y27.6058 I-0.125 J-0.2165
G2 X23.5723 Y27.8223 I-0.125 J0.2165
G0 Z3.0
G0 X21.2439 Y24.9939
G0 Z1.0
G1 F300.0 Z0.0
G2 F800.0 X20.8689 Y24.7774 Z-0.1333 I-0.25 J0.0
G2 Y25.2104 Z-0.2667 I0.125 J0.2165
G2 X21.2439 Y24.9939 Z-0.4 I0.125 J-0.2165
G2 X20.8689 Y24.7774 Z-0.5333 I-0.25 J0.0
G2 Y25.2104 Z-0.6667 I0.125 J0.2165
G2 X21.2439 Y24.9939 Z-0.8 I0.125 J-0.2165
G2 X20.8689 Y24.7774 Z-0.9333 I-0.25 J0.0
G2 Y25.2104 Z-1.0667 I0.125 J0.2165
G2 X21.2439 Y24.9939 Z-1.2 I0.125 J-0.2165
G2 X20.8689 Y24.7774 Z-1.3333 I-0.25 J0.0
G2 Y25.2104 Z-1.4667 I0.125 J0.2165
G2 X21.2439 Y24.9939 Z-1.6 I0.125 J-0.2165
G2 X20.8689 Y24.7774 Z-1.7333 I-0.25 J0.0
G2 Y25.2104 Z-1.8667 I0.125 J0.2165
G2 X21.2439 Y24.9939 Z-2.0 I0.125 J-0.2165
G2 X20.8689 Y24.7774 Z-2.1333 I-0.25 J0.0
G2 Y25.2104 Z-2.2667 I0.125 J0.2165
G2 X21.2439 Y24.9939 Z-2.4 I0.125 J-0.2165
G2 X20.8689 Y24.7774 Z-2.5333 I-0.25 J0.0
G2 Y25.2104 Z-2.6667 I0.125 J0.2165
G2 X21.2439 Y24.9939 Z-2.8 I0.125 J-0.2165
G2 X20.8689 Y24.7774 Z-2.9333 I-0.25 J0.0
G2 Y25.2104 Z-3.0667 I0.125 J0.2165
G2 X21.2439 Y24.9939 Z-3.2 I0.125 J-0.2165
G2 X20.8689 Y24.7774 Z-3.3333 I-0.25 J0.0
G2 Y25.2104 Z-3.4667 I0.125 J0.2165
G2 X21.2439 Y24.9939 Z-3.6 I0.125 J-0.2165
G2 X20.8689 Y24.7774 Z-3.7333 I-0.25 J0.0
G2 Y25.2104 Z-3.8667 I0.125 J0.2165
G2 X21.2439 Y24.9939 Z-4.0 I0.125 J-0.2165
G2 X20.8689 Y24.7774 Z-4.1333 I-0.25 J0.0
G2 X20.7439 Y24.9939 Z-4.2 I0.125 J0.2165
G2 X21.1189 Y25.2104 I0.25 J0.0
G2 Y24.7774 I-0.125 J-0.2165
G2 X20.7439 Y24.9939 I-0.125 J0.2165
G0 Z3.0
G0 X26.9008 Y30.6508
G0 Z1.0
G1 F300.0 Z0.0
G2 F800.0 X26.5258 Y30.4343 Z-0.1333 I-0.25 J0.0
G2 Y30.8673 Z-0.2667 I0.125 J0.2165
G2 X26.9008 Y30.6508 Z-0.4 I0.125 J-0.2165
G2 X26.5258 Y30.4343 Z-0.5333 I-0.25 J0.0
G2 Y30.8673 Z-0.6667 I0.125 J0.2165
G2 X26.9008 Y30.6508 Z-0.8 I0.125 J-0.2165
G2 X26.5258 Y30.4343 Z-0.9333 I-0.25 J0.0
G2 Y30.8673 Z-1.0667 I0.125 J0.2165
G2 X26.9008 Y30.6508 Z-1.2 I0.125 J-0.2165
G2 X26.5258 Y30.4343 Z-1.3333 I-0.25 J0.0
G2 Y30.8673 Z-1.4667 I0.125 J0.2165
G2 X26.9008 Y30.6508 Z-1.6 I0.125 J-0.2165
G2 X26.5258 Y30.4343 Z-1.7333 I-0.25 J0.0
G2 Y30.8673 Z-1.8667 I0.125 J0.2165
G2 X26.9008 Y30.6508 Z-2.0 I0.125 J-0.2165
G2 X26.5258 Y30.4343 Z-2.1333 I-0.25 J0.0
G2 Y30.8673 Z-2.2667 I0.125 J0.2165
G2 X26.9008 Y30.6508 Z-2.4 I0.125 J-0.2165
G2 X26.5258 Y30.4343 Z-2.5333 I-0.25 J0.0
G2 Y30.8673 Z-2.6667 I0.125 J0.2165
G2 X26.9008 Y30.6508 Z-2.8 I0.125 J-0.2165
G2 X26.5258 Y30.4343 Z-2.9333 I-0.25 J0.0
G2 Y30.8673 Z-3.0667 I0.125 J0.2165
G2 X26.9008 Y30.6508 Z-3.2 I0.125 J-0.2165
G2 X26.5258 Y30.4343 Z-3.3333 I-0.25 J0.0
G2 Y30.8673 Z-3.4667 I0.125 J0.2165
G2 X26.9008 Y30.6508 Z-3.6 I0.125 J-0.2165
G2 X26.5258 Y30.4343 Z-3.7333 I-0.25 J0.0
G2 Y30.8673 Z-3.8667 I0.125 J0.2165
G2 X26.9008 Y30.6508 Z-4.0 I0.125 J-0.2165
G2 X26.5258 Y30.4343 Z-4.1333 I-0.25 J0.0
G2 X26.4008 Y30.6508 Z-4.2 I0.125 J0.2165
G2 X26.7758 Y30.8673 I0.25 J0.0
G2 Y30.4343 I-0.125 J-0.2165
G2 X26.4008 Y30.6508 I-0.125 J0.2165
G0 Z3.0
G0 X29.7292 Y33.4792
G0 Z1.0
G1 F300.0 Z0.0
G2 F800.0 X29.3542 Y33.2627 Z-0.1333 I-0.25 J0.0
G2 Y33.6957 Z-0.2667 I0.125 J0.2165
G2 X29.7292 Y33.4792 Z-0.4 I0.125 J-0.2165
G2 X29.3542 Y33.2627 Z-0.5333 I-0.25 J0.0
G2 Y33.6957 Z-0.6667 I0.125 J0.2165
G2 X29.7292 Y33.4792 Z-0.8 I0.125 J-0.2165
G2 X29.3542 Y33.2627 Z-0.9333 I-0.25 J0.0
G2 Y33.6957 Z-1.0667 I0.125 J0.2165
G2 X29.7292 Y33.4792 Z-1.2 I0.125 J-0.2165
G2 X29.3542 Y33.2627 Z-1.3333 I-0.25 J0.0
G2 Y33.6957 Z-1.4667 I0.125 J0.2165
G2 X29.7292 Y33.4792 Z-1.6 I0.125 J-0.2165
G2 X29.3542 Y33.2627 Z-1.7333 I-0.25 J0.0
G2 Y33.6957 Z-1.8667 I0.125 J0.2165
G2 X29.7292 Y33.4792 Z-2.0 I0.125 J-0.2165
G2 X29.3542 Y33.2627 Z-2.1333 I-0.25 J0.0
G2 Y33.6957 Z-2.2667 I0.125 J0.2165
G2 X29.7292 Y33.4792 Z-2.4 I0.125 J-0.2165
G2 X29.3542 Y33.2627 Z-2.5333 I-0.25 J0.0
G2 Y33.6957 Z-2.6667 I0.125 J0.2165
G2 X29.7292 Y33.4792 Z-2.8 I0.125 J-0.2165
G2 X29.3542 Y33.2627 Z-2.9333 I-0.25 J0.0
G2 Y33.6957 Z-3.0667 I0.125 J0.2165
G2 X29.7292 Y33.4792 Z-3.2 I0.125 J-0.2165
G2 X29.3542 Y33.2627 Z-3.3333 I-0.25 J0.0
G2 Y33.6957 Z-3.4667 I0.125 J0.2165
G2 X29.7292 Y33.4792 Z-3.6 I0.125 J-0.2165
G2 X29.3542 Y33.2627 Z-3.7333 I-0.25 J0.0
G2 Y33.6957 Z-3.8667 I0.125 J0.2165
G2 X29.7292 Y33.4792 Z-4.0 I0.125 J-0.2165
G2 X29.3542 Y33.2627 Z-4.1333 I-0.25 J0.0
G2 X29.2292 Y33.4792 Z-4.2 I0.125 J0.2165
G2 X29.6042 Y33.6957 I0.25 J0.0
G2 Y33.2627 I-0.125 J-0.2165
G2 X29.2292 Y33.4792 I-0.125 J0.2165
G0 Z3.0
G0 X32.5576 Y36.3076
G0 Z1.0
G1 F300.0 Z0.0
G2 F800.0 X32.1826 Y36.0911 Z-0.1333 I-0.25 J0.0
G2 Y36.5241 Z-0.2667 I0.125 J0.2165
G2 X32.5576 Y36.3076 Z-0.4 I0.125 J-0.2165
G2 X32.1826 Y36.0911 Z-0.5333 I-0.25 J0.0
G2 Y36.5241 Z-0.6667 I0.125 J0.2165
G2 X32.5576 Y36.3076 Z-0.8 I0.125 J-0.2165
G2 X32.1826 Y36.0911 Z-0.9333 I-0.25 J0.0
G2 Y36.5241 Z-1.0667 I0.125 J0.2165
G2 X32.5576 Y36.3076 Z-1.2 I0.125 J-0.2165
G2 X32.1826 Y36.0911 Z-1.3333 I-0.25 J0.0
G2 Y36.5241 Z-1.4667 I0.125 J0.2165
G2 X32.5576 Y36.3076 Z-1.6 I0.125 J-0.2165
G2 X32.1826 Y36.0911 Z-1.7333 I-0.25 J0.0
G2 Y36.5241 Z-1.8667 I0.125 J0.2165
G2 X32.5576 Y36.3076 Z-2.0 I0.125 J-0.2165
G2 X32.1826 Y36.0911 Z-2.1333 I-0.25 J0.0
G2 Y36.5241 Z-2.2667 I0.125 J0.2165
G2 X32.5576 Y36.3076 Z-2.4 I0.125 J-0.2165
G2 X32.1826 Y36.0911 Z-2.5333 I-0.25 J0.0
G2 Y36.5241 Z-2.6667 I0.125 J0.2165
G2 X32.5576 Y36.3076 Z-2.8 I0.125 J-0.2165
G2 X32.1826 Y36.0911 Z-2.9333 I-0.25 J0.0
G2 Y36.5241 Z-3.0667 I0.125 J0.2165
G2 X32.5576 Y36.3076 Z-3.2 I0.125 J-0.2165
G2 X32.1826 Y36.0911 Z-3.3333 I-0.25 J0.0
G2 Y36.5241 Z-3.4667 I0.125 J0.2165
G2 X32.5576 Y36.3076 Z-3.6 I0.125 J-0.2165
G2 X32.1826 Y36.0911 Z-3.7333 I-0.25 J0.0
G2 Y36.5241 Z-3.8667 I0.125 J0.2165
G2 X32.5576 Y36.3076 Z-4.0 I0.125 J-0.2165
G2 X32.1826 Y36.0911 Z-4.1333 I-0.25 J0.0
G2 X32.0576 Y36.3076 Z-4.2 I0.125 J0.2165
G2 X32.4326 Y36.5241 I0.25 J0.0
G2 Y36.0911 I-0.125 J-0.2165
G2 X32.0576 Y36.3076 I-0.125 J0.2165
G0 Z3.0
G0 X36.7751 Y33.4896
G0 Z1.0
G1 F300.0 Z0.0
G2 F800.0 X36.4001 Y33.2731 Z-0.1333 I-0.25 J0.0
G2 Y33.7061 Z-0.2667 I0.125 J0.2165
G2 X36.7751 Y33.4896 Z-0.4 I0.125 J-0.2165
G2 X36.4001 Y33.2731 Z-0.5333 I-0.25 J0.0
G2 Y33.7061 Z-0.6667 I0.125 J0.2165
G2 X36.7751 Y33.4896 Z-0.8 I0.125 J-0.2165
G2 X36.4001 Y33.2731 Z-0.9333 I-0.25 J0.0
G2 Y33.7061 Z-1.0667 I0.125 J0.2165
G2 X36.7751 Y33.4896 Z-1.2 I0.125 J-0.2165
G2 X36.4001 Y33.2731 Z-1.3333 I-0.25 J0.0
G2 Y33.7061 Z-1.4667 I0.125 J0.2165
G2 X36.7751 Y33.4896 Z-1.6 I0.125 J-0.2165
G2 X36.4001 Y33.2731 Z-1.7333 I-0.25 J0.0
G2 Y33.7061 Z-1.8667 I0.125 J0.2165
G2 X36.7751 Y33.4896 Z-2.0 I0.125 J-0.2165
G2 X36.4001 Y33.2731 Z-2.1333 I-0.25 J0.0
G2 Y33.7061 Z-2.2667 I0.125 J0.2165
G2 X36.7751 Y33.4896 Z-2.4 I0.125 J-0.2165
G2 X36.4001 Y33.2731 Z-2.5333 I-0.25 J0.0
G2 Y33.7061 Z-2.6667 I0.125 J0.2165
G2 X36.7751 Y33.4896 Z-2.8 I0.125 J-0.2165
G2 X36.4001 Y33.2731 Z-2.9333 I-0.25 J0.0
G2 Y33.7061 Z-3.0667 I0.125 J0.2165
G2 X36.7751 Y33.4896 Z-3.2 I0.125 J-0.2165
G2 X36.4001 Y33.2731 Z-3.3333 I-0.25 J0.0
G2 Y33.7061 Z-3.4667 I0.125 J0.2165
G2 X36.7751 Y33.4896 Z-3.6 I0.125 J-0.2165
G2 X36.4001 Y33.2731 Z-3.7333 I-0.25 J0.0
G2 Y33.7061 Z-3.8667 I0.125 J0.2165
G2 X36.7751 Y33.4896 Z-4.0 I0.125 J-0.2165
G2 X36.4001 Y33.2731 Z-4.1333 I-0.25 J0.0
G2 X36.2751 Y33.4896 Z-4.2 I0.125 J0.2165
G2 X36.6501 Y33.7061 I0.25 J0.0
G2 Y33.2731 I-0.125 J-0.2165
G2 X36.2751 Y33.4896 I-0.125 J0.2165
G0 Z3.0
G0 X35.2444 Y29.794
G0 Z1.0
G1 F300.0 Z0.0
G2 F800.0 X34.8694 Y29.5775 Z-0.1333 I-0.25 J0.0
G2 Y30.0106 Z-0.2667 I0.125 J0.2165
G2 X35.2444 Y29.794 Z-0.4 I0.125 J-0.2165
G2 X34.8694 Y29.5775 Z-0.5333 I-0.25 J0.0
G2 Y30.0106 Z-0.6667 I0.125 J0.2165
G2 X35.2444 Y29.794 Z-0.8 I0.125 J-0.2165
G2 X34.8694 Y29.5775 Z-0.9333 I-0.25 J0.0
G2 Y30.0106 Z-1.0667 I0.125 J0.2165
G2 X35.2444 Y29.794 Z-1.2 I0.125 J-0.2165
G2 X34.8694 Y29.5775 Z-1.3333 I-0.25 J0.0
G2 Y30.0106 Z-1.4667 I0.125 J0.2165
G2 X35.2444 Y29.794 Z-1.6 I0.125 J-0.2165
G2 X34.8694 Y29.5775 Z-1.7333 I-0.25 J0.0
G2 Y30.0106 Z-1.8667 I0.125 J0.2165
G2 X35.2444 Y29.794 Z-2.0 I0.125 J-0.2165
G2 X34.8694 Y29.5775 Z-2.1333 I-0.25 J0.0
G2 Y30.0106 Z-2.2667 I0.125 J0.2165
G2 X35.2444 Y29.794 Z-2.4 I0.125 J-0.2165
G2 X34.8694 Y29.5775 Z-2.5333 I-0.25 J0.0
G2 Y30.0106 Z-2.6667 I0.125 J0.2165
G2 X35.2444 Y29.794 Z-2.8 I0.125 J-0.2165
G2 X34.8694 Y29.5775 Z-2.9333 I-0.25 J0.0
G2 Y30.0106 Z-3.0667 I0.125 J0.2165
G2 X35.2444 Y29.794 Z-3.2 I0.125 J-0.2165
G2 X34.8694 Y29.5775 Z-3.3333 I-0.25 J0.0
G2 Y30.0106 Z-3.4667 I0.125 J0.2165
G2 X35.2444 Y29.794 Z-3.6 I0.125 J-0.2165
G2 X34.8694 Y29.5775 Z-3.7333 I-0.25 J0.0
G2 Y30.0106 Z-3.8667 I0.125 J0.2165
G2 X35.2444 Y29.794 Z-4.0 I0.125 J-0.2165
G2 X34.8694 Y29.5775 Z-4.1333 I-0.25 J0.0
G2 X34.7444 Y29.794 Z-4.2 I0.125 J0.2165
G2 X35.1194 Y30.0106 I0.25 J0.0
G2 Y29.5775 I-0.125 J-0.2165
G2 X34.7444 Y29.794 I-0.125 J0.2165
G0 Z3.0
G0 X41.75 Y28.5
G0 Z1.0
G1 F300.0 Z0.0
G2 F800.0 X41.375 Y28.2835 Z-0.1333 I-0.25 J0.0
G2 Y28.7165 Z-0.2667 I0.125 J0.2165
G2 X41.75 Y28.5 Z-0.4 I0.125 J-0.2165
G2 X41.375 Y28.2835 Z-0.5333 I-0.25 J0.0
G2 Y28.7165 Z-0.6667 I0.125 J0.2165
G2 X41.75 Y28.5 Z-0.8 I0.125 J-0.2165
G2 X41.375 Y28.2835 Z-0.9333 I-0.25 J0.0
G2 Y28.7165 Z-1.0667 I0.125 J0.2165
G2 X41.75 Y28.5 Z-1.2 I0.125 J-0.2165
G2 X41.375 Y28.2835 Z-1.3333 I-0.25 J0.0
G2 Y28.7165 Z-1.4667 I0.125 J0.2165
G2 X41.75 Y28.5 Z-1.6 I0.125 J-0.2165
G2 X41.375 Y28.2835 Z-1.7333 I-0.25 J0.0
G2 Y28.7165 Z-1.8667 I0.125 J0.2165
G2 X41.75 Y28.5 Z-2.0 I0.125 J-0.2165
G2 X41.375 Y28.2835 Z-2.1333 I-0.25 J0.0
G2 Y28.7165 Z-2.2667 I0.125 J0.2165
G2 X41.75 Y28.5 Z-2.4 I0.125 J-0.2165
G2 X41.375 Y28.2835 Z-2.5333 I-0.25 J0.0
G2 Y28.7165 Z-2.6667 I0.125 J0.2165
G2 X41.75 Y28.5 Z-2.8 I0.125 J-0.2165
G2 X41.375 Y28.2835 Z-2.9333 I-0.25 J0.0
G2 Y28.7165 Z-3.0667 I0.125 J0.2165
G2 X41.75 Y28.5 Z-3.2 I0.125 J-0.2165
G2 X41.375 Y28.2835 Z-3.3333 I-0.25 J0.0
G2 Y28.7165 Z-3.4667 I0.125 J0.2165
G2 X41.75 Y28.5 Z-3.6 I0.125 J-0.2165
G2 X41.375 Y28.2835 Z-3.7333 I-0.25 J0.0
G2 Y28.7165 Z-3.8667 I0.125 J0.2165
G2 X41.75 Y28.5 Z-4.0 I0.125 J-0.2165
G2 X41.375 Y28.2835 Z-4.1333 I-0.25 J0.0
G2 X41.25 Y28.5 Z-4.2 I0.125 J0.2165
G2 X41.625 Y28.7165 I0.25 J0.0
G2 Y28.2835 I-0.125 J-0.2165
G2 X41.25 Y28.5 I-0.125 J0.2165
G0 Z3.0
G0 X41.75 Y24.5
G0 Z1.0
G1 F300.0 Z0.0
G2 F800.0 X41.375 Y24.2835 Z-0.1333 I-0.25 J0.0
G2 Y24.7165 Z-0.2667 I0.125 J0.2165
G2 X41.75 Y24.5 Z-0.4 I0.125 J-0.2165
G2 X41.375 Y24.2835 Z-0.5333 I-0.25 J0.0
G2 Y24.7165 Z-0.6667 I0.125 J0.2165
G2 X41.75 Y24.5 Z-0.8 I0.125 J-0.2165
G2 X41.375 Y24.2835 Z-0.9333 I-0.25 J0.0
G2 Y24.7165 Z-1.0667 I0.125 J0.2165
G2 X41.75 Y24.5 Z-1.2 I0.125 J-0.2165
G2 X41.375 Y24.2835 Z-1.3333 I-0.25 J0.0
G2 Y24.7165 Z-1.4667 I0.125 J0.2165
G2 X41.75 Y24.5 Z-1.6 I0.125 J-0.2165
G2 X41.375 Y24.2835 Z-1.7333 I-0.25 J0.0
G2 Y24.7165 Z-1.8667 I0.125 J0.2165
G2 X41.75 Y24.5 Z-2.0 I0.125 J-0.2165
G2 X41.375 Y24.2835 Z-2.1333 I-0.25 J0.0
G2 Y24.7165 Z-2.2667 I0.125 J0.2165
G2 X41.75 Y24.5 Z-2.4 I0.125 J-0.2165
G2 X41.375 Y24.2835 Z-2.5333 I-0.25 J0.0
G2 Y24.7165 Z-2.6667 I0.125 J0.2165
G2 X41.75 Y24.5 Z-2.8 I0.125 J-0.2165
G2 X41.375 Y24.2835 Z-2.9333 I-0.25 J0.0
G2 Y24.7165 Z-3.0667 I0.125 J0.2165
G2 X41.75 Y24.5 Z-3.2 I0.125 J-0.2165
G2 X41.375 Y24.2835 Z-3.3333 I-0.25 J0.0
G2 Y24.7165 Z-3.4667 I0.125 J0.2165
G2 X41.75 Y24.5 Z-3.6 I0.125 J-0.2165
G2 X41.375 Y24.2835 Z-3.7333 I-0.25 J0.0
G2 Y24.7165 Z-3.8667 I0.125 J0.2165
G2 X41.75 Y24.5 Z-4.0 I0.125 J-0.2165
G2 X41.375 Y24.2835 Z-4.1333 I-0.25 J0.0
G2 X41.25 Y24.5 Z-4.2 I0.125 J0.2165
G2 X41.625 Y24.7165 I0.25 J0.0
G2 Y24.2835 I-0.125 J-0.2165
G2 X41.25 Y24.5 I-0.125 J0.2165
G0 Z3.0
G0 X41.75 Y20.5
G0 Z1.0
G1 F300.0 Z0.0
G2 F800.0 X41.375 Y20.2835 Z-0.1333 I-0.25 J0.0
G2 Y20.7165 Z-0.2667 I0.125 J0.2165
G2 X41.75 Y20.5 Z-0.4 I0.125 J-0.2165
G2 X41.375 Y20.2835 Z-0.5333 I-0.25 J0.0
G2 Y20.7165 Z-0.6667 I0.125 J0.2165
G2 X41.75 Y20.5 Z-0.8 I0.125 J-0.2165
G2 X41.375 Y20.2835 Z-0.9333 I-0.25 J0.0
G2 Y20.7165 Z-1.0667 I0.125 J0.2165
G2 X41.75 Y20.5 Z-1.2 I0.125 J-0.2165
G2 X41.375 Y20.2835 Z-1.3333 I-0.25 J0.0
G2 Y20.7165 Z-1.4667 I0.125 J0.2165
G2 X41.75 Y20.5 Z-1.6 I0.125 J-0.2165
G2 X41.375 Y20.2835 Z-1.7333 I-0.25 J0.0
G2 Y20.7165 Z-1.8667 I0.125 J0.2165
G2 X41.75 Y20.5 Z-2.0 I0.125 J-0.2165
G2 X41.375 Y20.2835 Z-2.1333 I-0.25 J0.0
G2 Y20.7165 Z-2.2667 I0.125 J0.2165
G2 X41.75 Y20.5 Z-2.4 I0.125 J-0.2165
G2 X41.375 Y20.2835 Z-2.5333 I-0.25 J0.0
G2 Y20.7165 Z-2.6667 I0.125 J0.2165
G2 X41.75 Y20.5 Z-2.8 I0.125 J-0.2165
G2 X41.375 Y20.2835 Z-2.9333 I-0.25 J0.0
G2 Y20.7165 Z-3.0667 I0.125 J0.2165
G2 X41.75 Y20.5 Z-3.2 I0.125 J-0.2165
G2 X41.375 Y20.2835 Z-3.3333 I-0.25 J0.0
G2 Y20.7165 Z-3.4667 I0.125 J0.2165
G2 X41.75 Y20.5 Z-3.6 I0.125 J-0.2165
G2 X41.375 Y20.2835 Z-3.7333 I-0.25 J0.0
G2 Y20.7165 Z-3.8667 I0.125 J0.2165
G2 X41.75 Y20.5 Z-4.0 I0.125 J-0.2165
G2 X41.375 Y20.2835 Z-4.1333 I-0.25 J0.0
G2 X41.25 Y20.5 Z-4.2 I0.125 J0.2165
G2 X41.625 Y20.7165 I0.25 J0.0
G2 Y20.2835 I-0.125 J-0.2165
G2 X41.25 Y20.5 I-0.125 J0.2165
G0 Z3.0
G0 X41.75 Y16.5
G0 Z1.0
G1 F300.0 Z0.0
G2 F800.0 X41.375 Y16.2835 Z-0.1333 I-0.25 J0.0
G2 Y16.7165 Z-0.2667 I0.125 J0.2165
G2 X41.75 Y16.5 Z-0.4 I0.125 J-0.2165
G2 X41.375 Y16.2835 Z-0.5333 I-0.25 J0.0
G2 Y16.7165 Z-0.6667 I0.125 J0.2165
G2 X41.75 Y16.5 Z-0.8 I0.125 J-0.2165
G2 X41.375 Y16.2835 Z-0.9333 I-0.25 J0.0
G2 Y16.7165 Z-1.0667 I0.125 J0.2165
G2 X41.75 Y16.5 Z-1.2 I0.125 J-0.2165
G2 X41.375 Y16.2835 Z-1.3333 I-0.25 J0.0
G2 Y16.7165 Z-1.4667 I0.125 J0.2165
G2 X41.75 Y16.5 Z-1.6 I0.125 J-0.2165
G2 X41.375 Y16.2835 Z-1.7333 I-0.25 J0.0
G2 Y16.7165 Z-1.8667 I0.125 J0.2165
G2 X41.75 Y16.5 Z-2.0 I0.125 J-0.2165
G2 X41.375 Y16.2835 Z-2.1333 I-0.25 J0.0
G2 Y16.7165 Z-2.2667 I0.125 J0.2165
G2 X41.75 Y16.5 Z-2.4 I0.125 J-0.2165
G2 X41.375 Y16.2835 Z-2.5333 I-0.25 J0.0
G2 Y16.7165 Z-2.6667 I0.125 J0.2165
G2 X41.75 Y16.5 Z-2.8 I0.125 J-0.2165
G2 X41.375 Y16.2835 Z-2.9333 I-0.25 J0.0
G2 Y16.7165 Z-3.0667 I0.125 J0.2165
G2 X41.75 Y16.5 Z-3.2 I0.125 J-0.2165
G2 X41.375 Y16.2835 Z-3.3333 I-0.25 J0.0
G2 Y16.7165 Z-3.4667 I0.125 J0.2165
G2 X41.75 Y16.5 Z-3.6 I0.125 J-0.2165
G2 X41.375 Y16.2835 Z-3.7333 I-0.25 J0.0
G2 Y16.7165 Z-3.8667 I0.125 J0.2165
G2 X41.75 Y16.5 Z-4.0 I0.125 J-0.2165
G2 X41.375 Y16.2835 Z-4.1333 I-0.25 J0.0
G2 X41.25 Y16.5 Z-4.2 I0.125 J0.2165
G2 X41.625 Y16.7165 I0.25 J0.0
G2 Y16.2835 I-0.125 J-0.2165
G2 X41.25 Y16.5 I-0.125 J0.2165
G0 Z3.0
G0 X51.3171 Y22.403
G0 Z1.0
G1 F300.0 Z0.0
G2 F800.0 X50.9421 Y22.1865 Z-0.1333 I-0.25 J0.0
G2 Y22.6195 Z-0.2667 I0.125 J0.2165
G2 X51.3171 Y22.403 Z-0.4 I0.125 J-0.2165
G2 X50.9421 Y22.1865 Z-0.5333 I-0.25 J0.0
G2 Y22.6195 Z-0.6667 I0.125 J0.2165
G2 X51.3171 Y22.403 Z-0.8 I0.125 J-0.2165
G2 X50.9421 Y22.1865 Z-0.9333 I-0.25 J0.0
G2 Y22.6195 Z-1.0667 I0.125 J0.2165
G2 X51.3171 Y22.403 Z-1.2 I0.125 J-0.2165
G2 X50.9421 Y22.1865 Z-1.3333 I-0.25 J0.0
G2 Y22.6195 Z-1.4667 I0.125 J0.2165
G2 X51.3171 Y22.403 Z-1.6 I0.125 J-0.2165
G2 X50.9421 Y22.1865 Z-1.7333 I-0.25 J0.0
G2 Y22.6195 Z-1.8667 I0.125 J0.2165
G2 X51.3171 Y22.403 Z-2.0 I0.125 J-0.2165
G2 X50.9421 Y22.1865 Z-2.1333 I-0.25 J0.0
G2 Y22.6195 Z-2.2667 I0.125 J0.2165
G2 X51.3171 Y22.403 Z-2.4 I0.125 J-0.2165
G2 X50.9421 Y22.1865 Z-2.5333 I-0.25 J0.0
G2 Y22.6195 Z-2.6667 I0.125 J0.2165
G2 X51.3171 Y22.403 Z-2.8 I0.125 J-0.2165
G2 X50.9421 Y22.1865 Z-2.9333 I-0.25 J0.0
G2 Y22.6195 Z-3.0667 I0.125 J0.2165
G2 X51.3171 Y22.403 Z-3.2 I0.125 J-0.2165
G2 X50.9421 Y22.1865 Z-3.3333 I-0.25 J0.0
G2 Y22.6195 Z-3.4667 I0.125 J0.2165
G2 X51.3171 Y22.403 Z-3.6 I0.125 J-0.2165
G2 X50.9421 Y22.1865 Z-3.7333 I-0.25 J0.0
G2 Y22.6195 Z-3.8667 I0.125 J0.2165
G2 X51.3171 Y22.403 Z-4.0 I0.125 J-0.2165
G2 X50.9421 Y22.1865 Z-4.1333 I-0.25 J0.0
G2 X50.8171 Y22.403 Z-4.2 I0.125 J0.2165
G2 X51.1921 Y22.6195 I0.25 J0.0
G2 Y22.1865 I-0.125 J-0.2165
G2 X50.8171 Y22.403 I-0.125 J0.2165
G0 Z3.0
G0 X49.7864 Y26.0985
G0 Z1.0
G1 F300.0 Z0.0
G2 F800.0 X49.4114 Y25.882 Z-0.1333 I-0.25 J0.0
G2 Y26.315 Z-0.2667 I0.125 J0.2165
G2 X49.7864 Y26.0985 Z-0.4 I0.125 J-0.2165
G2 X49.4114 Y25.882 Z-0.5333 I-0.25 J0.0
G2 Y26.315 Z-0.6667 I0.125 J0.2165
G2 X49.7864 Y26.0985 Z-0.8 I0.125 J-0.2165
G2 X49.4114 Y25.882 Z-0.9333 I-0.25 J0.0
G2 Y26.315 Z-1.0667 I0.125 J0.2165
G2 X49.7864 Y26.0985 Z-1.2 I0.125 J-0.2165
G2 X49.4114 Y25.882 Z-1.3333 I-0.25 J0.0
G2 Y26.315 Z-1.4667 I0.125 J0.2165
G2 X49.7864 Y26.0985 Z-1.6 I0.125 J-0.2165
G2 X49.4114 Y25.882 Z-1.7333 I-0.25 J0.0
G2 Y26.315 Z-1.8667 I0.125 J0.2165
G2 X49.7864 Y26.0985 Z-2.0 I0.125 J-0.2165
G2 X49.4114 Y25.882 Z-2.1333 I-0.25 J0.0
G2 Y26.315 Z-2.2667 I0.125 J0.2165
G2 X49.7864 Y26.0985 Z-2.4 I0.125 J-0.2165
G2 X49.4114 Y25.882 Z-2.5333 I-0.25 J0.0
G2 Y26.315 Z-2.6667 I0.125 J0.2165
G2 X49.7864 Y26.0985 Z-2.8 I0.125 J-0.2165
G2 X49.4114 Y25.882 Z-2.9333 I-0.25 J0.0
G2 Y26.315 Z-3.0667 I0.125 J0.2165
G2 X49.7864 Y26.0985 Z-3.2 I0.125 J-0.2165
G2 X49.4114 Y25.882 Z-3.3333 I-0.25 J0.0
G2 Y26.315 Z-3.4667 I0.125 J0.2165
G2 X49.7864 Y26.0985 Z-3.6 I0.125 J-0.2165
G2 X49.4114 Y25.882 Z-3.7333 I-0.25 J0.0
G2 Y26.315 Z-3.8667 I0.125 J0.2165
G2 X49.7864 Y26.0985 Z-4.0 I0.125 J-0.2165
G2 X49.4114 Y25.882 Z-4.1333 I-0.25 J0.0
G2 X49.2864 Y26.0985 Z-4.2 I0.125 J0.2165
G2 X49.6614 Y26.315 I0.25 J0.0
G2 Y25.882 I-0.125 J-0.2165
G2 X49.2864 Y26.0985 I-0.125 J0.2165
G0 Z3.0
G0 X48.2556 Y29.794
G0 Z1.0
G1 F300.0 Z0.0
G2 F800.0 X47.8806 Y29.5775 Z-0.1333 I-0.25 J0.0
G2 Y30.0106 Z-0.2667 I0.125 J0.2165
G2 X48.2556 Y29.794 Z-0.4 I0.125 J-0.2165
G2 X47.8806 Y29.5775 Z-0.5333 I-0.25 J0.0
G2 Y30.0106 Z-0.6667 I0.125 J0.2165
G2 X48.2556 Y29.794 Z-0.8 I0.125 J-0.2165
G2 X47.8806 Y29.5775 Z-0.9333 I-0.25 J0.0
G2 Y30.0106 Z-1.0667 I0.125 J0.2165
G2 X48.2556 Y29.794 Z-1.2 I0.125 J-0.2165
G2 X47.8806 Y29.5775 Z-1.3333 I-0.25 J0.0
G2 Y30.0106 Z-1.4667 I0.125 J0.2165
G2 X48.2556 Y29.794 Z-1.6 I0.125 J-0.2165
G2 X47.8806 Y29.5775 Z-1.7333 I-0.25 J0.0
G2 Y30.0106 Z-1.8667 I0.125 J0.2165
G2 X48.2556 Y29.794 Z-2.0 I0.125 J-0.2165
G2 X47.8806 Y29.5775 Z-2.1333 I-0.25 J0.0
G2 Y30.0106 Z-2.2667 I0.125 J0.2165
G2 X48.2556 Y29.794 Z-2.4 I0.125 J-0.2165
G2 X47.8806 Y29.5775 Z-2.5333 I-0.25 J0.0
G2 Y30.0106 Z-2.6667 I0.125 J0.2165
G2 X48.2556 Y29.794 Z-2.8 I0.125 J-0.2165
G2 X47.8806 Y29.5775 Z-2.9333 I-0.25 J0.0
G2 Y30.0106 Z-3.0667 I0.125 J0.2165
G2 X48.2556 Y29.794 Z-3.2 I0.125 J-0.2165
G2 X47.8806 Y29.5775 Z-3.3333 I-0.25 J0.0
G2 Y30.0106 Z-3.4667 I0.125 J0.2165
G2 X48.2556 Y29.794 Z-3.6 I0.125 J-0.2165
G2 X47.8806 Y29.5775 Z-3.7333 I-0.25 J0.0
G2 Y30.0106 Z-3.8667 I0.125 J0.2165
G2 X48.2556 Y29.794 Z-4.0 I0.125 J-0.2165
G2 X47.8806 Y29.5775 Z-4.1333 I-0.25 J0.0
G2 X47.7556 Y29.794 Z-4.2 I0.125 J0.2165
G2 X48.1306 Y30.0106 I0.25 J0.0
G2 Y29.5775 I-0.125 J-0.2165
G2 X47.7556 Y29.794 I-0.125 J0.2165
G0 Z3.0
G0 X46.7249 Y33.4896
G0 Z1.0
G1 F300.0 Z0.0
G2 F800.0 X46.3499 Y33.2731 Z-0.1333 I-0.25 J0.0
G2 Y33.7061 Z-0.2667 I0.125 J0.2165
G2 X46.7249 Y33.4896 Z-0.4 I0.125 J-0.2165
G2 X46.3499 Y33.2731 Z-0.5333 I-0.25 J0.0
G2 Y33.7061 Z-0.6667 I0.125 J0.2165
G2 X46.7249 Y33.4896 Z-0.8 I0.125 J-0.2165
G2 X46.3499 Y33.2731 Z-0.9333 I-0.25 J0.0
G2 Y33.7061 Z-1.0667 I0.125 J0.2165
G2 X46.7249 Y33.4896 Z-1.2 I0.125 J-0.2165
G2 X46.3499 Y33.2731 Z-1.3333 I-0.25 J0.0
G2 Y33.7061 Z-1.4667 I0.125 J0.2165
G2 X46.7249 Y33.4896 Z-1.6 I0.125 J-0.2165
G2 X46.3499 Y33.2731 Z-1.7333 I-0.25 J0.0
G2 Y33.7061 Z-1.8667 I0.125 J0.2165
G2 X46.7249 Y33.4896 Z-2.0 I0.125 J-0.2165
G2 X46.3499 Y33.2731 Z-2.1333 I-0.25 J0.0
G2 Y33.7061 Z-2.2667 I0.125 J0.2165
G2 X46.7249 Y33.4896 Z-2.4 I0.125 J-0.2165
G2 X46.3499 Y33.2731 Z-2.5333 I-0.25 J0.0
G2 Y33.7061 Z-2.6667 I0.125 J0.2165
G2 X46.7249 Y33.4896 Z-2.8 I0.125 J-0.2165
G2 X46.3499 Y33.2731 Z-2.9333 I-0.25 J0.0
G2 Y33.7061 Z-3.0667 I0.125 J0.2165
G2 X46.7249 Y33.4896 Z-3.2 I0.125 J-0.2165
G2 X46.3499 Y33.2731 Z-3.3333 I-0.25 J0.0
G2 Y33.7061 Z-3.4667 I0.125 J0.2165
G2 X46.7249 Y33.4896 Z-3.6 I0.125 J-0.2165
G2 X46.3499 Y33.2731 Z-3.7333 I-0.25 J0.0
G2 Y33.7061 Z-3.8667 I0.125 J0.2165
G2 X46.7249 Y33.4896 Z-4.0 I0.125 J-0.2165
G2 X46.3499 Y33.2731 Z-4.1333 I-0.25 J0.0
G2 X46.2249 Y33.4896 Z-4.2 I0.125 J0.2165
G2 X46.5999 Y33.7061 I0.25 J0.0
G2 Y33.2731 I-0.125 J-0.2165
G2 X46.2249 Y33.4896 I-0.125 J0.2165
G0 Z3.0
G0 X50.9424 Y36.3076
G0 Z1.0
G1 F300.0 Z0.0
G2 F800.0 X50.5674 Y36.0911 Z-0.1333 I-0.25 J0.0
G2 Y36.5241 Z-0.2667 I0.125 J0.2165
G2 X50.9424 Y36.3076 Z-0.4 I0.125 J-0.2165
G2 X50.5674 Y36.0911 Z-0.5333 I-0.25 J0.0
G2 Y36.5241 Z-0.6667 I0.125 J0.2165
G2 X50.9424 Y36.3076 Z-0.8 I0.125 J-0.2165
G2 X50.5674 Y36.0911 Z-0.9333 I-0.25 J0.0
G2 Y36.5241 Z-1.0667 I0.125 J0.2165
G2 X50.9424 Y36.3076 Z-1.2 I0.125 J-0.2165
G2 X50.5674 Y36.0911 Z-1.3333 I-0.25 J0.0
G2 Y36.5241 Z-1.4667 I0.125 J0.2165
G2 X50.9424 Y36.3076 Z-1.6 I0.125 J-0.2165
G2 X50.5674 Y36.0911 Z-1.7333 I-0.25 J0.0
G2 Y36.5241 Z-1.8667 I0.125 J0.2165
G2 X50.9424 Y36.3076 Z-2.0 I0.125 J-0.2165
G2 X50.5674 Y36.0911 Z-2.1333 I-0.25 J0.0
G2 Y36.5241 Z-2.2667 I0.125 J0.2165
G2 X50.9424 Y36.3076 Z-2.4 I0.125 J-0.2165
G2 X50.5674 Y36.0911 Z-2.5333 I-0.25 J0.0
G2 Y36.5241 Z-2.6667 I0.125 J0.2165
G2 X50.9424 Y36.3076 Z-2.8 I0.125 J-0.2165
G2 X50.5674 Y36.0911 Z-2.9333 I-0.25 J0.0
G2 Y36.5241 Z-3.0667 I0.125 J0.2165
G2 X50.9424 Y36.3076 Z-3.2 I0.125 J-0.2165
G2 X50.5674 Y36.0911 Z-3.3333 I-0.25 J0.0
G2 Y36.5241 Z-3.4667 I0.125 J0.2165
G2 X50.9424 Y36.3076 Z-3.6 I0.125 J-0.2165
G2 X50.5674 Y36.0911 Z-3.7333 I-0.25 J0.0
G2 Y36.5241 Z-3.8667 I0.125 J0.2165
G2 X50.9424 Y36.3076 Z-4.0 I0.125 J-0.2165
G2 X50.5674 Y36.0911 Z-4.1333 I-0.25 J0.0
G2 X50.4424 Y36.3076 Z-4.2 I0.125 J0.2165
G2 X50.8174 Y36.5241 I0.25 J0.0
G2 Y36.0911 I-0.125 J-0.2165
G2 X50.4424 Y36.3076 I-0.125 J0.2165
G0 Z3.0
G0 X53.7708 Y33.4792
G0 Z1.0
G1 F300.0 Z0.0
G2 F800.0 X53.3958 Y33.2627 Z-0.1333 I-0.25 J0.0
G2 Y33.6957 Z-0.2667 I0.125 J0.2165
G2 X53.7708 Y33.4792 Z-0.4 I0.125 J-0.2165
G2 X53.3958 Y33.2627 Z-0.5333 I-0.25 J0.0
G2 Y33.6957 Z-0.6667 I0.125 J0.2165
G2 X53.7708 Y33.4792 Z-0.8 I0.125 J-0.2165
G2 X53.3958 Y33.2627 Z-0.9333 I-0.25 J0.0
G2 Y33.6957 Z-1.0667 I0.125 J0.2165
G2 X53.7708 Y33.4792 Z-1.2 I0.125 J-0.2165
G2 X53.3958 Y33.2627 Z-1.3333 I-0.25 J0.0
G2 Y33.6957 Z-1.4667 I0.125 J0.2165
G2 X53.7708 Y33.4792 Z-1.6 I0.125 J-0.2165
G2 X53.3958 Y33.2627 Z-1.7333 I-0.25 J0.0
G2 Y33.6957 Z-1.8667 I0.125 J0.2165
G2 X53.7708 Y33.4792 Z-2.0 I0.125 J-0.2165
G2 X53.3958 Y33.2627 Z-2.1333 I-0.25 J0.0
G2 Y33.6957 Z-2.2667 I0.125 J0.2165
G2 X53.7708 Y33.4792 Z-2.4 I0.125 J-0.2165
G2 X53.3958 Y33.2627 Z-2.5333 I-0.25 J0.0
G2 Y33.6957 Z-2.6667 I0.125 J0.2165
G2 X53.7708 Y33.4792 Z-2.8 I0.125 J-0.2165
G2 X53.3958 Y33.2627 Z-2.9333 I-0.25 J0.0
G2 Y33.6957 Z-3.0667 I0.125 J0.2165
G2 X53.7708 Y33.4792 Z-3.2 I0.125 J-0.2165
G2 X53.3958 Y33.2627 Z-3.3333 I-0.25 J0.0
G2 Y33.6957 Z-3.4667 I0.125 J0.2165
G2 X53.7708 Y33.4792 Z-3.6 I0.125 J-0.2165
G2 X53.3958 Y33.2627 Z-3.7333 I-0.25 J0.0
G2 Y33.6957 Z-3.8667 I0.125 J0.2165
G2 X53.7708 Y33.4792 Z-4.0 I0.125 J-0.2165
G2 X53.3958 Y33.2627 Z-4.1333 I-0.25 J0.0
G2 X53.2708 Y33.4792 Z-4.2 I0.125 J0.2165
G2 X53.6458 Y33.6957 I0.25 J0.0
G2 Y33.2627 I-0.125 J-0.2165
G2 X53.2708 Y33.4792 I-0.125 J0.2165
G0 Z3.0
G0 X56.5992 Y30.6508
G0 Z1.0
G1 F300.0 Z0.0
G2 F800.0 X56.2242 Y30.4343 Z-0.1333 I-0.25 J0.0
G2 Y30.8673 Z-0.2667 I0.125 J0.2165
G2 X56.5992 Y30.6508 Z-0.4 I0.125 J-0.2165
G2 X56.2242 Y30.4343 Z-0.5333 I-0.25 J0.0
G2 Y30.8673 Z-0.6667 I0.125 J0.2165
G2 X56.5992 Y30.6508 Z-0.8 I0.125 J-0.2165
G2 X56.2242 Y30.4343 Z-0.9333 I-0.25 J0.0
G2 Y30.8673 Z-1.0667 I0.125 J0.2165
G2 X56.5992 Y30.6508 Z-1.2 I0.125 J-0.2165
G2 X56.2242 Y30.4343 Z-1.3333 I-0.25 J0.0
G2 Y30.8673 Z-1.4667 I0.125 J0.2165
G2 X56.5992 Y30.6508 Z-1.6 I0.125 J-0.2165
G2 X56.2242 Y30.4343 Z-1.7333 I-0.25 J0.0
G2 Y30.8673 Z-1.8667 I0.125 J0.2165
G2 X56.5992 Y30.6508 Z-2.0 I0.125 J-0.2165
G2 X56.2242 Y30.4343 Z-2.1333 I-0.25 J0.0
G2 Y30.8673 Z-2.2667 I0.125 J0.2165
G2 X56.5992 Y30.6508 Z-2.4 I0.125 J-0.2165
G2 X56.2242 Y30.4343 Z-2.5333 I-0.25 J0.0
G2 Y30.8673 Z-2.6667 I0.125 J0.2165
G2 X56.5992 Y30.6508 Z-2.8 I0.125 J-0.2165
G2 X56.2242 Y30.4343 Z-2.9333 I-0.25 J0.0
G2 Y30.8673 Z-3.0667 I0.125 J0.2165
G2 X56.5992 Y30.6508 Z-3.2 I0.125 J-0.2165
G2 X56.2242 Y30.4343 Z-3.3333 I-0.25 J0.0
G2 Y30.8673 Z-3.4667 I0.125 J0.2165
G2 X56.5992 Y30.6508 Z-3.6 I0.125 J-0.2165
G2 X56.2242 Y30.4343 Z-3.7333 I-0.25 J0.0
G2 Y30.8673 Z-3.8667 I0.125 J0.2165
G2 X56.5992 Y30.6508 Z-4.0 I0.125 J-0.2165
G2 X56.2242 Y30.4343 Z-4.1333 I-0.25 J0.0
G2 X56.0992 Y30.6508 Z-4.2 I0.125 J0.2165
G2 X56.4742 Y30.8673 I0.25 J0.0
G2 Y30.4343 I-0.125 J-0.2165
G2 X56.0992 Y30.6508 I-0.125 J0.2165
G0 Z3.0
G0 X59.4277 Y27.8223
G0 Z1.0
G1 F300.0 Z0.0
G2 F800.0 X59.0527 Y27.6058 Z-0.1333 I-0.25 J0.0
G2 Y28.0388 Z-0.2667 I0.125 J0.2165
G2 X59.4277 Y27.8223 Z-0.4 I0.125 J-0.2165
G2 X59.0527 Y27.6058 Z-0.5333 I-0.25 J0.0
G2 Y28.0388 Z-0.6667 I0.125 J0.2165
G2 X59.4277 Y27.8223 Z-0.8 I0.125 J-0.2165
G2 X59.0527 Y27.6058 Z-0.9333 I-0.25 J0.0
G2 Y28.0388 Z-1.0667 I0.125 J0.2165
G2 X59.4277 Y27.8223 Z-1.2 I0.125 J-0.2165
G2 X59.0527 Y27.6058 Z-1.3333 I-0.25 J0.0
G2 Y28.0388 Z-1.4667 I0.125 J0.2165
G2 X59.4277 Y27.8223 Z-1.6 I0.125 J-0.2165
G2 X59.0527 Y27.6058 Z-1.7333 I-0.25 J0.0
G2 Y28.0388 Z-1.8667 I0.125 J0.2165
G2 X59.4277 Y27.8223 Z-2.0 I0.125 J-0.2165
G2 X59.0527 Y27.6058 Z-2.1333 I-0.25 J0.0
G2 Y28.0388 Z-2.2667 I0.125 J0.2165
G2 X59.4277 Y27.8223 Z-2.4 I0.125 J-0.2165
G2 X59.0527 Y27.6058 Z-2.5333 I-0.25 J0.0
G2 Y28.0388 Z-2.6667 I0.125 J0.2165
G2 X59.4277 Y27.8223 Z-2.8 I0.125 J-0.2165
G2 X59.0527 Y27.6058 Z-2.9333 I-0.25 J0.0
G2 Y28.0388 Z-3.0667 I0.125 J0.2165
G2 X59.4277 Y27.8223 Z-3.2 I0.125 J-0.2165
G2 X59.0527 Y27.6058 Z-3.3333 I-0.25 J0.0
G2 Y28.0388 Z-3.4667 I0.125 J0.2165
G2 X59.4277 Y27.8223 Z-3.6 I0.125 J-0.2165
G2 X59.0527 Y27.6058 Z-3.7333 I-0.25 J0.0
G2 Y28.0388 Z-3.8667 I0.125 J0.2165
G2 X59.4277 Y27.8223 Z-4.0 I0.125 J-0.2165
G2 X59.0527 Y27.6058 Z-4.1333 I-0.25 J0.0
G2 X58.9277 Y27.8223 Z-4.2 I0.125 J0.2165
G2 X59.3027 Y28.0388 I0.25 J0.0
G2 Y27.6058 I-0.125 J-0.2165
G2 X58.9277 Y27.8223 I-0.125 J0.2165
G0 Z3.0
G0 X62.2561 Y24.9939
G0 Z1.0
G1 F300.0 Z0.0
G2 F800.0 X61.8811 Y24.7774 Z-0.1333 I-0.25 J0.0
G2 Y25.2104 Z-0.2667 I0.125 J0.2165
G2 X62.2561 Y24.9939 Z-0.4 I0.125 J-0.2165
G2 X61.8811 Y24.7774 Z-0.5333 I-0.25 J0.0
G2 Y25.2104 Z-0.6667 I0.125 J0.2165
G2 X62.2561 Y24.9939 Z-0.8 I0.125 J-0.2165
G2 X61.8811 Y24.7774 Z-0.9333 I-0.25 J0.0
G2 Y25.2104 Z-1.0667 I0.125 J0.2165
G2 X62.2561 Y24.9939 Z-1.2 I0.125 J-0.2165
G2 X61.8811 Y24.7774 Z-1.3333 I-0.25 J0.0
G2 Y25.2104 Z-1.4667 I0.125 J0.2165
G2 X62.2561 Y24.9939 Z-1.6 I0.125 J-0.2165
G2 X61.8811 Y24.7774 Z-1.7333 I-0.25 J0.0
G2 Y25.2104 Z-1.8667 I0.125 J0.2165
G2 X62.2561 Y24.9939 Z-2.0 I0.125 J-0.2165
G2 X61.8811 Y24.7774 Z-2.1333 I-0.25 J0.0
G2 Y25.2104 Z-2.2667 I0.125 J0.2165
G2 X62.2561 Y24.9939 Z-2.4 I0.125 J-0.2165
G2 X61.8811 Y24.7774 Z-2.5333 I-0.25 J0.0
G2 Y25.2104 Z-2.6667 I0.125 J0.2165
G2 X62.2561 Y24.9939 Z-2.8 I0.125 J-0.2165
G2 X61.8811 Y24.7774 Z-2.9333 I-0.25 J0.0
G2 Y25.2104 Z-3.0667 I0.125 J0.2165
G2 X62.2561 Y24.9939 Z-3.2 I0.125 J-0.2165
G2 X61.8811 Y24.7774 Z-3.3333 I-0.25 J0.0
G2 Y25.2104 Z-3.4667 I0.125 J0.2165
G2 X62.2561 Y24.9939 Z-3.6 I0.125 J-0.2165
G2 X61.8811 Y24.7774 Z-3.7333 I-0.25 J0.0
G2 Y25.2104 Z-3.8667 I0.125 J0.2165
G2 X62.2561 Y24.9939 Z-4.0 I0.125 J-0.2165
G2 X61.8811 Y24.7774 Z-4.1333 I-0.25 J0.0
G2 X61.7561 Y24.9939 Z-4.2 I0.125 J0.2165
G2 X62.1311 Y25.2104 I0.25 J0.0
G2 Y24.7774 I-0.125 J-0.2165
G2 X61.7561 Y24.9939 I-0.125 J0.2165
G0 Z3.0
G0 X64.847 Y35.9329
G0 Z1.0
G1 F300.0 Z0.0
G2 F800.0 X64.472 Y35.7164 Z-0.1333 I-0.25 J0.0
G2 Y36.1494 Z-0.2667 I0.125 J0.2165
G2 X64.847 Y35.9329 Z-0.4 I0.125 J-0.2165
G2 X64.472 Y35.7164 Z-0.5333 I-0.25 J0.0
G2 Y36.1494 Z-0.6667 I0.125 J0.2165
G2 X64.847 Y35.9329 Z-0.8 I0.125 J-0.2165
G2 X64.472 Y35.7164 Z-0.9333 I-0.25 J0.0
G2 Y36.1494 Z-1.0667 I0.125 J0.2165
G2 X64.847 Y35.9329 Z-1.2 I0.125 J-0.2165
G2 X64.472 Y35.7164 Z-1.3333 I-0.25 J0.0
G2 Y36.1494 Z-1.4667 I0.125 J0.2165
G2 X64.847 Y35.9329 Z-1.6 I0.125 J-0.2165
G2 X64.472 Y35.7164 Z-1.7333 I-0.25 J0.0
G2 Y36.1494 Z-1.8667 I0.125 J0.2165
G2 X64.847 Y35.9329 Z-2.0 I0.125 J-0.2165
G2 X64.472 Y35.7164 Z-2.1333 I-0.25 J0.0
G2 Y36.1494 Z-2.2667 I0.125 J0.2165
G2 X64.847 Y35.9329 Z-2.4 I0.125 J-0.2165
G2 X64.472 Y35.7164 Z-2.5333 I-0.25 J0.0
G2 Y36.1494 Z-2.6667 I0.125 J0.2165
G2 X64.847 Y35.9329 Z-2.8 I0.125 J-0.2165
G2 X64.472 Y35.7164 Z-2.9333 I-0.25 J0.0
G2 Y36.1494 Z-3.0667 I0.125 J0.2165
G2 X64.847 Y35.9329 Z-3.2 I0.125 J-0.2165
G2 X64.472 Y35.7164 Z-3.3333 I-0.25 J0.0
G2 Y36.1494 Z-3.4667 I0.125 J0.2165
G2 X64.847 Y35.9329 Z-3.6 I0.125 J-0.2165
G2 X64.472 Y35.7164 Z-3.7333 I-0.25 J0.0
G2 Y36.1494 Z-3.8667 I0.125 J0.2165
G2 X64.847 Y35.9329 Z-4.0 I0.125 J-0.2165
G2 X64.472 Y35.7164 Z-4.1333 I-0.25 J0.0
G2 X64.347 Y35.9329 Z-4.2 I0.125 J0.2165
G2 X64.722 Y36.1494 I0.25 J0.0
G2 Y35.7164 I-0.125 J-0.2165
G2 X64.347 Y35.9329 I-0.125 J0.2165
G0 Z3.0
G0 X68.5425 Y34.4022
G0 Z1.0
G1 F300.0 Z0.0
G2 F800.0 X68.1675 Y34.1857 Z-0.1333 I-0.25 J0.0
G2 Y34.6187 Z-0.2667 I0.125 J0.2165
G2 X68.5425 Y34.4022 Z-0.4 I0.125 J-0.2165
G2 X68.1675 Y34.1857 Z-0.5333 I-0.25 J0.0
G2 Y34.6187 Z-0.6667 I0.125 J0.2165
G2 X68.5425 Y34.4022 Z-0.8 I0.125 J-0.2165
G2 X68.1675 Y34.1857 Z-0.9333 I-0.25 J0.0
G2 Y34.6187 Z-1.0667 I0.125 J0.2165
G2 X68.5425 Y34.4022 Z-1.2 I0.125 J-0.2165
G2 X68.1675 Y34.1857 Z-1.3333 I-0.25 J0.0
G2 Y34.6187 Z-1.4667 I0.125 J0.2165
G2 X68.5425 Y34.4022 Z-1.6 I0.125 J-0.2165
G2 X68.1675 Y34.1857 Z-1.7333 I-0.25 J0.0
G2 Y34.6187 Z-1.8667 I0.125 J0.2165
G2 X68.5425 Y34.4022 Z-2.0 I0.125 J-0.2165
G2 X68.1675 Y34.1857 Z-2.1333 I-0.25 J0.0
G2 Y34.6187 Z-2.2667 I0.125 J0.2165
G2 X68.5425 Y34.4022 Z-2.4 I0.125 J-0.2165
G2 X68.1675 Y34.1857 Z-2.5333 I-0.25 J0.0
G2 Y34.6187 Z-2.6667 I0.125 J0.2165
G2 X68.5425 Y34.4022 Z-2.8 I0.125 J-0.2165
G2 X68.1675 Y34.1857 Z-2.9333 I-0.25 J0.0
G2 Y34.6187 Z-3.0667 I0.125 J0.2165
G2 X68.5425 Y34.4022 Z-3.2 I0.125 J-0.2165
G2 X68.1675 Y34.1857 Z-3.3333 I-0.25 J0.0
G2 Y34.6187 Z-3.4667 I0.125 J0.2165
G2 X68.5425 Y34.4022 Z-3.6 I0.125 J-0.2165
G2 X68.1675 Y34.1857 Z-3.7333 I-0.25 J0.0
G2 Y34.6187 Z-3.8667 I0.125 J0.2165
G2 X68.5425 Y34.4022 Z-4.0 I0.125 J-0.2165
G2 X68.1675 Y34.1857 Z-4.1333 I-0.25 J0.0
G2 X68.0425 Y34.4022 Z-4.2 I0.125 J0.2165
G2 X68.4175 Y34.6187 I0.25 J0.0
G2 Y34.1857 I-0.125 J-0.2165
G2 X68.0425 Y34.4022 I-0.125 J0.2165
G0 Z3.0
G0 X61.1515 Y37.4636
G0 Z1.0
G1 F300.0 Z0.0
G2 F800.0 X60.7765 Y37.2471 Z-0.1333 I-0.25 J0.0
G2 Y37.6802 Z-0.2667 I0.125 J0.2165
G2 X61.1515 Y37.4636 Z-0.4 I0.125 J-0.2165
G2 X60.7765 Y37.2471 Z-0.5333 I-0.25 J0.0
G2 Y37.6802 Z-0.6667 I0.125 J0.2165
G2 X61.1515 Y37.4636 Z-0.8 I0.125 J-0.2165
G2 X60.7765 Y37.2471 Z-0.9333 I-0.25 J0.0
G2 Y37.6802 Z-1.0667 I0.125 J0.2165
G2 X61.1515 Y37.4636 Z-1.2 I0.125 J-0.2165
G2 X60.7765 Y37.2471 Z-1.3333 I-0.25 J0.0
G2 Y37.6802 Z-1.4667 I0.125 J0.2165
G2 X61.1515 Y37.4636 Z-1.6 I0.125 J-0.2165
G2 X60.7765 Y37.2471 Z-1.7333 I-0.25 J0.0
G2 Y37.6802 Z-1.8667 I0.125 J0.2165
G2 X61.1515 Y37.4636 Z-2.0 I0.125 J-0.2165
G2 X60.7765 Y37.2471 Z-2.1333 I-0.25 J0.0
G2 Y37.6802 Z-2.2667 I0.125 J0.2165
G2 X61.1515 Y37.4636 Z-2.4 I0.125 J-0.2165
G2 X60.7765 Y37.2471 Z-2.5333 I-0.25 J0.0
G2 Y37.6802 Z-2.6667 I0.125 J0.2165
G2 X61.1515 Y37.4636 Z-2.8 I0.125 J-0.2165
G2 X60.7765 Y37.2471 Z-2.9333 I-0.25 J0.0
G2 Y37.6802 Z-3.0667 I0.125 J0.2165
G2 X61.1515 Y37.4636 Z-3.2 I0.125 J-0.2165
G2 X60.7765 Y37.2471 Z-3.3333 I-0.25 J0.0
G2 Y37.6802 Z-3.4667 I0.125 J0.2165
G2 X61.1515 Y37.4636 Z-3.6 I0.125 J-0.2165
G2 X60.7765 Y37.2471 Z-3.7333 I-0.25 J0.0
G2 Y37.6802 Z-3.8667 I0.125 J0.2165
G2 X61.1515 Y37.4636 Z-4.0 I0.125 J-0.2165
G2 X60.7765 Y37.2471 Z-4.1333 I-0.25 J0.0
G2 X60.6515 Y37.4636 Z-4.2 I0.125 J0.2165
G2 X61.0265 Y37.6802 I0.25 J0.0
G2 Y37.2471 I-0.125 J-0.2165
G2 X60.6515 Y37.4636 I-0.125 J0.2165
G0 Z3.0
G0 X57.456 Y38.9944
G0 Z1.0
G1 F300.0 Z0.0
G2 F800.0 X57.081 Y38.7779 Z-0.1333 I-0.25 J0.0
G2 Y39.2109 Z-0.2667 I0.125 J0.2165
G2 X57.456 Y38.9944 Z-0.4 I0.125 J-0.2165
G2 X57.081 Y38.7779 Z-0.5333 I-0.25 J0.0
G2 Y39.2109 Z-0.6667 I0.125 J0.2165
G2 X57.456 Y38.9944 Z-0.8 I0.125 J-0.2165
G2 X57.081 Y38.7779 Z-0.9333 I-0.25 J0.0
G2 Y39.2109 Z-1.0667 I0.125 J0.2165
G2 X57.456 Y38.9944 Z-1.2 I0.125 J-0.2165
G2 X57.081 Y38.7779 Z-1.3333 I-0.25 J0.0
G2 Y39.2109 Z-1.4667 I0.125 J0.2165
G2 X57.456 Y38.9944 Z-1.6 I0.125 J-0.2165
G2 X57.081 Y38.7779 Z-1.7333 I-0.25 J0.0
G2 Y39.2109 Z-1.8667 I0.125 J0.2165
G2 X57.456 Y38.9944 Z-2.0 I0.125 J-0.2165
G2 X57.081 Y38.7779 Z-2.1333 I-0.25 J0.0
G2 Y39.2109 Z-2.2667 I0.125 J0.2165
G2 X57.456 Y38.9944 Z-2.4 I0.125 J-0.2165
G2 X57.081 Y38.7779 Z-2.5333 I-0.25 J0.0
G2 Y39.2109 Z-2.6667 I0.125 J0.2165
G2 X57.456 Y38.9944 Z-2.8 I0.125 J-0.2165
G2 X57.081 Y38.7779 Z-2.9333 I-0.25 J0.0
G2 Y39.2109 Z-3.0667 I0.125 J0.2165
G2 X57.456 Y38.9944 Z-3.2 I0.125 J-0.2165
G2 X57.081 Y38.7779 Z-3.3333 I-0.25 J0.0
G2 Y39.2109 Z-3.4667 I0.125 J0.2165
G2 X57.456 Y38.9944 Z-3.6 I0.125 J-0.2165
G2 X57.081 Y38.7779 Z-3.7333 I-0.25 J0.0
G2 Y39.2109 Z-3.8667 I0.125 J0.2165
G2 X57.456 Y38.9944 Z-4.0 I0.125 J-0.2165
G2 X57.081 Y38.7779 Z-4.1333 I-0.25 J0.0
G2 X56.956 Y38.9944 Z-4.2 I0.125 J0.2165
G2 X57.331 Y39.2109 I0.25 J0.0
G2 Y38.7779 I-0.125 J-0.2165
G2 X56.956 Y38.9944 I-0.125 J0.2165
G0 Z3.0
G0 X53.7604 Y40.5251
G0 Z1.0
G1 F300.0 Z0.0
G2 F800.0 X53.3854 Y40.3086 Z-0.1333 I-0.25 J0.0
G2 Y40.7416 Z-0.2667 I0.125 J0.2165
G2 X53.7604 Y40.5251 Z-0.4 I0.125 J-0.2165
G2 X53.3854 Y40.3086 Z-0.5333 I-0.25 J0.0
G2 Y40.7416 Z-0.6667 I0.125 J0.2165
G2 X53.7604 Y40.5251 Z-0.8 I0.125 J-0.2165
G2 X53.3854 Y40.3086 Z-0.9333 I-0.25 J0.0
G2 Y40.7416 Z-1.0667 I0.125 J0.2165
G2 X53.7604 Y40.5251 Z-1.2 I0.125 J-0.2165
G2 X53.3854 Y40.3086 Z-1.3333 I-0.25 J0.0
G2 Y40.7416 Z-1.4667 I0.125 J0.2165
G2 X53.7604 Y40.5251 Z-1.6 I0.125 J-0.2165
G2 X53.3854 Y40.3086 Z-1.7333 I-0.25 J0.0
G2 Y40.7416 Z-1.8667 I0.125 J0.2165
G2 X53.7604 Y40.5251 Z-2.0 I0.125 J-0.2165
G2 X53.3854 Y40.3086 Z-2.1333 I-0.25 J0.0
G2 Y40.7416 Z-2.2667 I0.125 J0.2165
G2 X53.7604 Y40.5251 Z-2.4 I0.125 J-0.2165
G2 X53.3854 Y40.3086 Z-2.5333 I-0.25 J0.0
G2 Y40.7416 Z-2.6667 I0.125 J0.2165
G2 X53.7604 Y40.5251 Z-2.8 I0.125 J-0.2165
G2 X53.3854 Y40.3086 Z-2.9333 I-0.25 J0.0
G2 Y40.7416 Z-3.0667 I0.125 J0.2165
G2 X53.7604 Y40.5251 Z-3.2 I0.125 J-0.2165
G2 X53.3854 Y40.3086 Z-3.3333 I-0.25 J0.0
G2 Y40.7416 Z-3.4667 I0.125 J0.2165
G2 X53.7604 Y40.5251 Z-3.6 I0.125 J-0.2165
G2 X53.3854 Y40.3086 Z-3.7333 I-0.25 J0.0
G2 Y40.7416 Z-3.8667 I0.125 J0.2165
G2 X53.7604 Y40.5251 Z-4.0 I0.125 J-0.2165
G2 X53.3854 Y40.3086 Z-4.1333 I-0.25 J0.0
G2 X53.2604 Y40.5251 Z-4.2 I0.125 J0.2165
G2 X53.6354 Y40.7416 I0.25 J0.0
G2 Y40.3086 I-0.125 J-0.2165
G2 X53.2604 Y40.5251 I-0.125 J0.2165
G0 Z3.0
G0 X54.75 Y45.5
G0 Z1.0
G1 F300.0 Z0.0
G2 F800.0 X54.375 Y45.2835 Z-0.1333 I-0.25 J0.0
G2 Y45.7165 Z-0.2667 I0.125 J0.2165
G2 X54.75 Y45.5 Z-0.4 I0.125 J-0.2165
G2 X54.375 Y45.2835 Z-0.5333 I-0.25 J0.0
G2 Y45.7165 Z-0.6667 I0.125 J0.2165
G2 X54.75 Y45.5 Z-0.8 I0.125 J-0.2165
G2 X54.375 Y45.2835 Z-0.9333 I-0.25 J0.0
G2 Y45.7165 Z-1.0667 I0.125 J0.2165
G2 X54.75 Y45.5 Z-1.2 I0.125 J-0.2165
G2 X54.375 Y45.2835 Z-1.3333 I-0.25 J0.0
G2 Y45.7165 Z-1.4667 I0.125 J0.2165
G2 X54.75 Y45.5 Z-1.6 I0.125 J-0.2165
G2 X54.375 Y45.2835 Z-1.7333 I-0.25 J0.0
G2 Y45.7165 Z-1.8667 I0.125 J0.2165
G2 X54.75 Y45.5 Z-2.0 I0.125 J-0.2165
G2 X54.375 Y45.2835 Z-2.1333 I-0.25 J0.0
G2 Y45.7165 Z-2.2667 I0.125 J0.2165
G2 X54.75 Y45.5 Z-2.4 I0.125 J-0.2165
G2 X54.375 Y45.2835 Z-2.5333 I-0.25 J0.0
G2 Y45.7165 Z-2.6667 I0.125 J0.2165
G2 X54.75 Y45.5 Z-2.8 I0.125 J-0.2165
G2 X54.375 Y45.2835 Z-2.9333 I-0.25 J0.0
G2 Y45.7165 Z-3.0667 I0.125 J0.2165
G2 X54.75 Y45.5 Z-3.2 I0.125 J-0.2165
G2 X54.375 Y45.2835 Z-3.3333 I-0.25 J0.0
G2 Y45.7165 Z-3.4667 I0.125 J0.2165
G2 X54.75 Y45.5 Z-3.6 I0.125 J-0.2165
G2 X54.375 Y45.2835 Z-3.7333 I-0.25 J0.0
G2 Y45.7165 Z-3.8667 I0.125 J0.2165
G2 X54.75 Y45.5 Z-4.0 I0.125 J-0.2165
G2 X54.375 Y45.2835 Z-4.1333 I-0.25 J0.0
G2 X54.25 Y45.5 Z-4.2 I0.125 J0.2165
G2 X54.625 Y45.7165 I0.25 J0.0
G2 Y45.2835 I-0.125 J-0.2165
G2 X54.25 Y45.5 I-0.125 J0.2165
G0 Z3.0
G0 X58.75
G0 Z1.0
G1 F300.0 Z0.0
G2 F800.0 X58.375 Y45.2835 Z-0.1333 I-0.25 J0.0
G2 Y45.7165 Z-0.2667 I0.125 J0.2165
G2 X58.75 Y45.5 Z-0.4 I0.125 J-0.2165
G2 X58.375 Y45.2835 Z-0.5333 I-0.25 J0.0
G2 Y45.7165 Z-0.6667 I0.125 J0.2165
G2 X58.75 Y45.5 Z-0.8 I0.125 J-0.2165
G2 X58.375 Y45.2835 Z-0.9333 I-0.25 J0.0
G2 Y45.7165 Z-1.0667 I0.125 J0.2165
G2 X58.75 Y45.5 Z-1.2 I0.125 J-0.2165
G2 X58.375 Y45.2835 Z-1.3333 I-0.25 J0.0
G2 Y45.7165 Z-1.4667 I0.125 J0.2165
G2 X58.75 Y45.5 Z-1.6 I0.125 J-0.2165
G2 X58.375 Y45.2835 Z-1.7333 I-0.25 J0.0
G2 Y45.7165 Z-1.8667 I0.125 J0.2165
G2 X58.75 Y45.5 Z-2.0 I0.125 J-0.2165
G2 X58.375 Y45.2835 Z-2.1333 I-0.25 J0.0
G2 Y45.7165 Z-2.2667 I0.125 J0.2165
G2 X58.75 Y45.5 Z-2.4 I0.125 J-0.2165
G2 X58.375 Y45.2835 Z-2.5333 I-0.25 J0.0
G2 Y45.7165 Z-2.6667 I0.125 J0.2165
G2 X58.75 Y45.5 Z-2.8 I0.125 J-0.2165
G2 X58.375 Y45.2835 Z-2.9333 I-0.25 J0.0
G2 Y45.7165 Z-3.0667 I0.125 J0.2165
G2 X58.75 Y45.5 Z-3.2 I0.125 J-0.2165
G2 X58.375 Y45.2835 Z-3.3333 I-0.25 J0.0
G2 Y45.7165 Z-3.4667 I0.125 J0.2165
G2 X58.75 Y45.5 Z-3.6 I0.125 J-0.2165
G2 X58.375 Y45.2835 Z-3.7333 I-0.25 J0.0
G2 Y45.7165 Z-3.8667 I0.125 J0.2165
G2 X58.75 Y45.5 Z-4.0 I0.125 J-0.2165
G2 X58.375 Y45.2835 Z-4.1333 I-0.25 J0.0
G2 X58.25 Y45.5 Z-4.2 I0.125 J0.2165
G2 X58.625 Y45.7165 I0.25 J0.0
G2 Y45.2835 I-0.125 J-0.2165
G2 X58.25 Y45.5 I-0.125 J0.2165
G0 Z3.0
G0 X62.75
G0 Z1.0
G1 F300.0 Z0.0
G2 F800.0 X62.375 Y45.2835 Z-0.1333 I-0.25 J0.0
G2 Y45.7165 Z-0.2667 I0.125 J0.2165
G2 X62.75 Y45.5 Z-0.4 I0.125 J-0.2165
G2 X62.375 Y45.2835 Z-0.5333 I-0.25 J0.0
G2 Y45.7165 Z-0.6667 I0.125 J0.2165
G2 X62.75 Y45.5 Z-0.8 I0.125 J-0.2165
G2 X62.375 Y45.2835 Z-0.9333 I-0.25 J0.0
G2 Y45.7165 Z-1.0667 I0.125 J0.2165
G2 X62.75 Y45.5 Z-1.2 I0.125 J-0.2165
G2 X62.375 Y45.2835 Z-1.3333 I-0.25 J0.0
G2 Y45.7165 Z-1.4667 I0.125 J0.2165
G2 X62.75 Y45.5 Z-1.6 I0.125 J-0.2165
G2 X62.375 Y45.2835 Z-1.7333 I-0.25 J0.0
G2 Y45.7165 Z-1.8667 I0.125 J0.2165
G2 X62.75 Y45.5 Z-2.0 I0.125 J-0.2165
G2 X62.375 Y45.2835 Z-2.1333 I-0.25 J0.0
G2 Y45.7165 Z-2.2667 I0.125 J0.2165
G2 X62.75 Y45.5 Z-2.4 I0.125 J-0.2165
G2 X62.375 Y45.2835 Z-2.5333 I-0.25 J0.0
G2 Y45.7165 Z-2.6667 I0.125 J0.2165
G2 X62.75 Y45.5 Z-2.8 I0.125 J-0.2165
G2 X62.375 Y45.2835 Z-2.9333 I-0.25 J0.0
G2 Y45.7165 Z-3.0667 I0.125 J0.2165
G2 X62.75 Y45.5 Z-3.2 I0.125 J-0.2165
G2 X62.375 Y45.2835 Z-3.3333 I-0.25 J0.0
G2 Y45.7165 Z-3.4667 I0.125 J0.2165
G2 X62.75 Y45.5 Z-3.6 I0.125 J-0.2165
G2 X62.375 Y45.2835 Z-3.7333 I-0.25 J0.0
G2 Y45.7165 Z-3.8667 I0.125 J0.2165
G2 X62.75 Y45.5 Z-4.0 I0.125 J-0.2165
G2 X62.375 Y45.2835 Z-4.1333 I-0.25 J0.0
G2 X62.25 Y45.5 Z-4.2 I0.125 J0.2165
G2 X62.625 Y45.7165 I0.25 J0.0
G2 Y45.2835 I-0.125 J-0.2165
G2 X62.25 Y45.5 I-0.125 J0.2165
G0 Z3.0
G0 X66.75
G0 Z1.0
G1 F300.0 Z0.0
G2 F800.0 X66.375 Y45.2835 Z-0.1333 I-0.25 J0.0
G2 Y45.7165 Z-0.2667 I0.125 J0.2165
G2 X66.75 Y45.5 Z-0.4 I0.125 J-0.2165
G2 X66.375 Y45.2835 Z-0.5333 I-0.25 J0.0
G2 Y45.7165 Z-0.6667 I0.125 J0.2165
G2 X66.75 Y45.5 Z-0.8 I0.125 J-0.2165
G2 X66.375 Y45.2835 Z-0.9333 I-0.25 J0.0
G2 Y45.7165 Z-1.0667 I0.125 J0.2165
G2 X66.75 Y45.5 Z-1.2 I0.125 J-0.2165
G2 X66.375 Y45.2835 Z-1.3333 I-0.25 J0.0
G2 Y45.7165 Z-1.4667 I0.125 J0.2165
G2 X66.75 Y45.5 Z-1.6 I0.125 J-0.2165
G2 X66.375 Y45.2835 Z-1.7333 I-0.25 J0.0
G2 Y45.7165 Z-1.8667 I0.125 J0.2165
G2 X66.75 Y45.5 Z-2.0 I0.125 J-0.2165
G2 X66.375 Y45.2835 Z-2.1333 I-0.25 J0.0
G2 Y45.7165 Z-2.2667 I0.125 J0.2165
G2 X66.75 Y45.5 Z-2.4 I0.125 J-0.2165
G2 X66.375 Y45.2835 Z-2.5333 I-0.25 J0.0
G2 Y45.7165 Z-2.6667 I0.125 J0.2165
G2 X66.75 Y45.5 Z-2.8 I0.125 J-0.2165
G2 X66.375 Y45.2835 Z-2.9333 I-0.25 J0.0
G2 Y45.7165 Z-3.0667 I0.125 J0.2165
G2 X66.75 Y45.5 Z-3.2 I0.125 J-0.2165
G2 X66.375 Y45.2835 Z-3.3333 I-0.25 J0.0
G2 Y45.7165 Z-3.4667 I0.125 J0.2165
G2 X66.75 Y45.5 Z-3.6 I0.125 J-0.2165
G2 X66.375 Y45.2835 Z-3.7333 I-0.25 J0.0
G2 Y45.7165 Z-3.8667 I0.125 J0.2165
G2 X66.75 Y45.5 Z-4.0 I0.125 J-0.2165
G2 X66.375 Y45.2835 Z-4.1333 I-0.25 J0.0
G2 X66.25 Y45.5 Z-4.2 I0.125 J0.2165
G2 X66.625 Y45.7165 I0.25 J0.0
G2 Y45.2835 I-0.125 J-0.2165
G2 X66.25 Y45.5 I-0.125 J0.2165
G0 Z3.0
G0 X70.75
G0 Z1.0
G1 F300.0 Z0.0
G2 F800.0 X70.375 Y45.2835 Z-0.1333 I-0.25 J0.0
G2 Y45.7165 Z-0.2667 I0.125 J0.2165
G2 X70.75 Y45.5 Z-0.4 I0.125 J-0.2165
G2 X70.375 Y45.2835 Z-0.5333 I-0.25 J0.0
G2 Y45.7165 Z-0.6667 I0.125 J0.2165
G2 X70.75 Y45.5 Z-0.8 I0.125 J-0.2165
G2 X70.375 Y45.2835 Z-0.9333 I-0.25 J0.0
G2 Y45.7165 Z-1.0667 I0.125 J0.2165
G2 X70.75 Y45.5 Z-1.2 I0.125 J-0.2165
G2 X70.375 Y45.2835 Z-1.3333 I-0.25 J0.0
G2 Y45.7165 Z-1.4667 I0.125 J0.2165
G2 X70.75 Y45.5 Z-1.6 I0.125 J-0.2165
G2 X70.375 Y45.2835 Z-1.7333 I-0.25 J0.0
G2 Y45.7165 Z-1.8667 I0.125 J0.2165
G2 X70.75 Y45.5 Z-2.0 I0.125 J-0.2165
G2 X70.375 Y45.2835 Z-2.1333 I-0.25 J0.0
G2 Y45.7165 Z-2.2667 I0.125 J0.2165
G2 X70.75 Y45.5 Z-2.4 I0.125 J-0.2165
G2 X70.375 Y45.2835 Z-2.5333 I-0.25 J0.0
G2 Y45.7165 Z-2.6667 I0.125 J0.2165
G2 X70.75 Y45.5 Z-2.8 I0.125 J-0.2165
G2 X70.375 Y45.2835 Z-2.9333 I-0.25 J0.0
G2 Y45.7165 Z-3.0667 I0.125 J0.2165
G2 X70.75 Y45.5 Z-3.2 I0.125 J-0.2165
G2 X70.375 Y45.2835 Z-3.3333 I-0.25 J0.0
G2 Y45.7165 Z-3.4667 I0.125 J0.2165
G2 X70.75 Y45.5 Z-3.6 I0.125 J-0.2165
G2 X70.375 Y45.2835 Z-3.7333 I-0.25 J0.0
G2 Y45.7165 Z-3.8667 I0.125 J0.2165
G2 X70.75 Y45.5 Z-4.0 I0.125 J-0.2165
G2 X70.375 Y45.2835 Z-4.1333 I-0.25 J0.0
G2 X70.25 Y45.5 Z-4.2 I0.125 J0.2165
G2 X70.625 Y45.7165 I0.25 J0.0
G2 Y45.2835 I-0.125 J-0.2165
G2 X70.25 Y45.5 I-0.125 J0.2165
G0 Z3.0
G0 X64.847 Y55.0671
G0 Z1.0
G1 F300.0 Z0.0
G2 F800.0 X64.472 Y54.8506 Z-0.1333 I-0.25 J0.0
G2 Y55.2836 Z-0.2667 I0.125 J0.2165
G2 X64.847 Y55.0671 Z-0.4 I0.125 J-0.2165
G2 X64.472 Y54.8506 Z-0.5333 I-0.25 J0.0
G2 Y55.2836 Z-0.6667 I0.125 J0.2165
G2 X64.847 Y55.0671 Z-0.8 I0.125 J-0.2165
G2 X64.472 Y54.8506 Z-0.9333 I-0.25 J0.0
G2 Y55.2836 Z-1.0667 I0.125 J0.2165
G2 X64.847 Y55.0671 Z-1.2 I0.125 J-0.2165
G2 X64.472 Y54.8506 Z-1.3333 I-0.25 J0.0
G2 Y55.2836 Z-1.4667 I0.125 J0.2165
G2 X64.847 Y55.0671 Z-1.6 I0.125 J-0.2165
G2 X64.472 Y54.8506 Z-1.7333 I-0.25 J0.0
G2 Y55.2836 Z-1.8667 I0.125 J0.2165
G2 X64.847 Y55.0671 Z-2.0 I0.125 J-0.2165
G2 X64.472 Y54.8506 Z-2.1333 I-0.25 J0.0
G2 Y55.2836 Z-2.2667 I0.125 J0.2165
G2 X64.847 Y55.0671 Z-2.4 I0.125 J-0.2165
G2 X64.472 Y54.8506 Z-2.5333 I-0.25 J0.0
G2 Y55.2836 Z-2.6667 I0.125 J0.2165
G2 X64.847 Y55.0671 Z-2.8 I0.125 J-0.2165
G2 X64.472 Y54.8506 Z-2.9333 I-0.25 J0.0
G2 Y55.2836 Z-3.0667 I0.125 J0.2165
G2 X64.847 Y55.0671 Z-3.2 I0.125 J-0.2165
G2 X64.472 Y54.8506 Z-3.3333 I-0.25 J0.0
G2 Y55.2836 Z-3.4667 I0.125 J0.2165
G2 X64.847 Y55.0671 Z-3.6 I0.125 J-0.2165
G2 X64.472 Y54.8506 Z-3.7333 I-0.25 J0.0
G2 Y55.2836 Z-3.8667 I0.125 J0.2165
G2 X64.847 Y55.0671 Z-4.0 I0.125 J-0.2165
G2 X64.472 Y54.8506 Z-4.1333 I-0.25 J0.0
G2 X64.347 Y55.0671 Z-4.2 I0.125 J0.2165
G2 X64.722 Y55.2836 I0.25 J0.0
G2 Y54.8506 I-0.125 J-0.2165
G2 X64.347 Y55.0671 I-0.125 J0.2165
G0 Z3.0
G0 X68.5425 Y56.5978
G0 Z1.0
G1 F300.0 Z0.0
G2 F800.0 X68.1675 Y56.3813 Z-0.1333 I-0.25 J0.0
G2 Y56.8143 Z-0.2667 I0.125 J0.2165
G2 X68.5425 Y56.5978 Z-0.4 I0.125 J-0.2165
G2 X68.1675 Y56.3813 Z-0.5333 I-0.25 J0.0
G2 Y56.8143 Z-0.6667 I0.125 J0.2165
G2 X68.5425 Y56.5978 Z-0.8 I0.125 J-0.2165
G2 X68.1675 Y56.3813 Z-0.9333 I-0.25 J0.0
G2 Y56.8143 Z-1.0667 I0.125 J0.2165
G2 X68.5425 Y56.5978 Z-1.2 I0.125 J-0.2165
G2 X68.1675 Y56.3813 Z-1.3333 I-0.25 J0.0
G2 Y56.8143 Z-1.4667 I0.125 J0.2165
G2 X68.5425 Y56.5978 Z-1.6 I0.125 J-0.2165
G2 X68.1675 Y56.3813 Z-1.7333 I-0.25 J0.0
G2 Y56.8143 Z-1.8667 I0.125 J0.2165
G2 X68.5425 Y56.5978 Z-2.0 I0.125 J-0.2165
G2 X68.1675 Y56.3813 Z-2.1333 I-0.25 J0.0
G2 Y56.8143 Z-2.2667 I0.125 J0.2165
G2 X68.5425 Y56.5978 Z-2.4 I0.125 J-0.2165
G2 X68.1675 Y56.3813 Z-2.5333 I-0.25 J0.0
G2 Y56.8143 Z-2.6667 I0.125 J0.2165
G2 X68.5425 Y56.5978 Z-2.8 I0.125 J-0.2165
G2 X68.1675 Y56.3813 Z-2.9333 I-0.25 J0.0
G2 Y56.8143 Z-3.0667 I0.125 J0.2165
G2 X68.5425 Y56.5978 Z-3.2 I0.125 J-0.2165
G2 X68.1675 Y56.3813 Z-3.3333 I-0.25 J0.0
G2 Y56.8143 Z-3.4667 I0.125 J0.2165
G2 X68.5425 Y56.5978 Z-3.6 I0.125 J-0.2165
G2 X68.1675 Y56.3813 Z-3.7333 I-0.25 J0.0
G2 Y56.8143 Z-3.8667 I0.125 J0.2165
G2 X68.5425 Y56.5978 Z-4.0 I0.125 J-0.2165
G2 X68.1675 Y56.3813 Z-4.1333 I-0.25 J0.0
G2 X68.0425 Y56.5978 Z-4.2 I0.125 J0.2165
G2 X68.4175 Y56.8143 I0.25 J0.0
G2 Y56.3813 I-0.125 J-0.2165
G2 X68.0425 Y56.5978 I-0.125 J0.2165
G0 Z3.0
G0 X61.1515 Y53.5364
G0 Z1.0
G1 F300.0 Z0.0
G2 F800.0 X60.7765 Y53.3198 Z-0.1333 I-0.25 J0.0
G2 Y53.7529 Z-0.2667 I0.125 J0.2165
G2 X61.1515 Y53.5364 Z-0.4 I0.125 J-0.2165
G2 X60.7765 Y53.3198 Z-0.5333 I-0.25 J0.0
G2 Y53.7529 Z-0.6667 I0.125 J0.2165
G2 X61.1515 Y53.5364 Z-0.8 I0.125 J-0.2165
G2 X60.7765 Y53.3198 Z-0.9333 I-0.25 J0.0
G2 Y53.7529 Z-1.0667 I0.125 J0.2165
G2 X61.1515 Y53.5364 Z-1.2 I0.125 J-0.2165
G2 X60.7765 Y53.3198 Z-1.3333 I-0.25 J0.0
G2 Y53.7529 Z-1.4667 I0.125 J0.2165
G2 X61.1515 Y53.5364 Z-1.6 I0.125 J-0.2165
G2 X60.7765 Y53.3198 Z-1.7333 I-0.25 J0.0
G2 Y53.7529 Z-1.8667 I0.125 J0.2165
G2 X61.1515 Y53.5364 Z-2.0 I0.125 J-0.2165
G2 X60.7765 Y53.3198 Z-2.1333 I-0.25 J0.0
G2 Y53.7529 Z-2.2667 I0.125 J0.2165
G2 X61.1515 Y53.5364 Z-2.4 I0.125 J-0.2165
G2 X60.7765 Y53.3198 Z-2.5333 I-0.25 J0.0
G2 Y53.7529 Z-2.6667 I0.125 J0.2165
G2 X61.1515 Y53.5364 Z-2.8 I0.125 J-0.2165
G2 X60.7765 Y53.3198 Z-2.9333 I-0.25 J0.0
G2 Y53.7529 Z-3.0667 I0.125 J0.2165
G2 X61.1515 Y53.5364 Z-3.2 I0.125 J-0.2165
G2 X60.7765 Y53.3198 Z-3.3333 I-0.25 J0.0
G2 Y53.7529 Z-3.4667 I0.125 J0.2165
G2 X61.1515 Y53.5364 Z-3.6 I0.125 J-0.2165
G2 X60.7765 Y53.3198 Z-3.7333 I-0.25 J0.0
G2 Y53.7529 Z-3.8667 I0.125 J0.2165
G2 X61.1515 Y53.5364 Z-4.0 I0.125 J-0.2165
G2 X60.7765 Y53.3198 Z-4.1333 I-0.25 J0.0
G2 X60.6515 Y53.5364 Z-4.2 I0.125 J0.2165
G2 X61.0265 Y53.7529 I0.25 J0.0
G2 Y53.3198 I-0.125 J-0.2165
G2 X60.6515 Y53.5364 I-0.125 J0.2165
G0 Z3.0
G0 X57.456 Y52.0056
G0 Z1.0
G1 F300.0 Z0.0
G2 F800.0 X57.081 Y51.7891 Z-0.1333 I-0.25 J0.0
G2 Y52.2221 Z-0.2667 I0.125 J0.2165
G2 X57.456 Y52.0056 Z-0.4 I0.125 J-0.2165
G2 X57.081 Y51.7891 Z-0.5333 I-0.25 J0.0
G2 Y52.2221 Z-0.6667 I0.125 J0.2165
G2 X57.456 Y52.0056 Z-0.8 I0.125 J-0.2165
G2 X57.081 Y51.7891 Z-0.9333 I-0.25 J0.0
G2 Y52.2221 Z-1.0667 I0.125 J0.2165
G2 X57.456 Y52.0056 Z-1.2 I0.125 J-0.2165
G2 X57.081 Y51.7891 Z-1.3333 I-0.25 J0.0
G2 Y52.2221 Z-1.4667 I0.125 J0.2165
G2 X57.456 Y52.0056 Z-1.6 I0.125 J-0.2165
G2 X57.081 Y51.7891 Z-1.7333 I-0.25 J0.0
G2 Y52.2221 Z-1.8667 I0.125 J0.2165
G2 X57.456 Y52.0056 Z-2.0 I0.125 J-0.2165
G2 X57.081 Y51.7891 Z-2.1333 I-0.25 J0.0
G2 Y52.2221 Z-2.2667 I0.125 J0.2165
G2 X57.456 Y52.0056 Z-2.4 I0.125 J-0.2165
G2 X57.081 Y51.7891 Z-2.5333 I-0.25 J0.0
G2 Y52.2221 Z-2.6667 I0.125 J0.2165
G2 X57.456 Y52.0056 Z-2.8 I0.125 J-0.2165
G2 X57.081 Y51.7891 Z-2.9333 I-0.25 J0.0
G2 Y52.2221 Z-3.0667 I0.125 J0.2165
G2 X57.456 Y52.0056 Z-3.2 I0.125 J-0.2165
G2 X57.081 Y51.7891 Z-3.3333 I-0.25 J0.0
G2 Y52.2221 Z-3.4667 I0.125 J0.2165
G2 X57.456 Y52.0056 Z-3.6 I0.125 J-0.2165
G2 X57.081 Y51.7891 Z-3.7333 I-0.25 J0.0
G2 Y52.2221 Z-3.8667 I0.125 J0.2165
G2 X57.456 Y52.0056 Z-4.0 I0.125 J-0.2165
G2 X57.081 Y51.7891 Z-4.1333 I-0.25 J0.0
G2 X56.956 Y52.0056 Z-4.2 I0.125 J0.2165
G2 X57.331 Y52.2221 I0.25 J0.0
G2 Y51.7891 I-0.125 J-0.2165
G2 X56.956 Y52.0056 I-0.125 J0.2165
G0 Z3.0
G0 X53.7604 Y50.4749
G0 Z1.0
G1 F300.0 Z0.0
G2 F800.0 X53.3854 Y50.2584 Z-0.1333 I-0.25 J0.0
G2 Y50.6914 Z-0.2667 I0.125 J0.2165
G2 X53.7604 Y50.4749 Z-0.4 I0.125 J-0.2165
G2 X53.3854 Y50.2584 Z-0.5333 I-0.25 J0.0
G2 Y50.6914 Z-0.6667 I0.125 J0.2165
G2 X53.7604 Y50.4749 Z-0.8 I0.125 J-0.2165
G2 X53.3854 Y50.2584 Z-0.9333 I-0.25 J0.0
G2 Y50.6914 Z-1.0667 I0.125 J0.2165
G2 X53.7604 Y50.4749 Z-1.2 I0.125 J-0.2165
G2 X53.3854 Y50.2584 Z-1.3333 I-0.25 J0.0
G2 Y50.6914 Z-1.4667 I0.125 J0.2165
G2 X53.7604 Y50.4749 Z-1.6 I0.125 J-0.2165
G2 X53.3854 Y50.2584 Z-1.7333 I-0.25 J0.0
G2 Y50.6914 Z-1.8667 I0.125 J0.2165
G2 X53.7604 Y50.4749 Z-2.0 I0.125 J-0.2165
G2 X53.3854 Y50.2584 Z-2.1333 I-0.25 J0.0
G2 Y50.6914 Z-2.2667 I0.125 J0.2165
G2 X53.7604 Y50.4749 Z-2.4 I0.125 J-0.2165
G2 X53.3854 Y50.2584 Z-2.5333 I-0.25 J0.0
G2 Y50.6914 Z-2.6667 I0.125 J0.2165
G2 X53.7604 Y50.4749 Z-2.8 I0.125 J-0.2165
G2 X53.3854 Y50.2584 Z-2.9333 I-0.25 J0.0
G2 Y50.6914 Z-3.0667 I0.125 J0.2165
G2 X53.7604 Y50.4749 Z-3.2 I0.125 J-0.2165
G2 X53.3854 Y50.2584 Z-3.3333 I-0.25 J0.0
G2 Y50.6914 Z-3.4667 I0.125 J0.2165
G2 X53.7604 Y50.4749 Z-3.6 I0.125 J-0.2165
G2 X53.3854 Y50.2584 Z-3.7333 I-0.25 J0.0
G2 Y50.6914 Z-3.8667 I0.125 J0.2165
G2 X53.7604 Y50.4749 Z-4.0 I0.125 J-0.2165
G2 X53.3854 Y50.2584 Z-4.1333 I-0.25 J0.0
G2 X53.2604 Y50.4749 Z-4.2 I0.125 J0.2165
G2 X53.6354 Y50.6914 I0.25 J0.0
G2 Y50.2584 I-0.125 J-0.2165
G2 X53.2604 Y50.4749 I-0.125 J0.2165
G0 Z3.0
G0 X50.9424 Y54.6924
G0 Z1.0
G1 F300.0 Z0.0
G2 F800.0 X50.5674 Y54.4759 Z-0.1333 I-0.25 J0.0
G2 Y54.9089 Z-0.2667 I0.125 J0.2165
G2 X50.9424 Y54.6924 Z-0.4 I0.125 J-0.2165
G2 X50.5674 Y54.4759 Z-0.5333 I-0.25 J0.0
G2 Y54.9089 Z-0.6667 I0.125 J0.2165
G2 X50.9424 Y54.6924 Z-0.8 I0.125 J-0.2165
G2 X50.5674 Y54.4759 Z-0.9333 I-0.25 J0.0
G2 Y54.9089 Z-1.0667 I0.125 J0.2165
G2 X50.9424 Y54.6924 Z-1.2 I0.125 J-0.2165
G2 X50.5674 Y54.4759 Z-1.3333 I-0.25 J0.0
G2 Y54.9089 Z-1.4667 I0.125 J0.2165
G2 X50.9424 Y54.6924 Z-1.6 I0.125 J-0.2165
G2 X50.5674 Y54.4759 Z-1.7333 I-0.25 J0.0
G2 Y54.9089 Z-1.8667 I0.125 J0.2165
G2 X50.9424 Y54.6924 Z-2.0 I0.125 J-0.2165
G2 X50.5674 Y54.4759 Z-2.1333 I-0.25 J0.0
G2 Y54.9089 Z-2.2667 I0.125 J0.2165
G2 X50.9424 Y54.6924 Z-2.4 I0.125 J-0.2165
G2 X50.5674 Y54.4759 Z-2.5333 I-0.25 J0.0
G2 Y54.9089 Z-2.6667 I0.125 J0.2165
G2 X50.9424 Y54.6924 Z-2.8 I0.125 J-0.2165
G2 X50.5674 Y54.4759 Z-2.9333 I-0.25 J0.0
G2 Y54.9089 Z-3.0667 I0.125 J0.2165
G2 X50.9424 Y54.6924 Z-3.2 I0.125 J-0.2165
G2 X50.5674 Y54.4759 Z-3.3333 I-0.25 J0.0
G2 Y54.9089 Z-3.4667 I0.125 J0.2165
G2 X50.9424 Y54.6924 Z-3.6 I0.125 J-0.2165
G2 X50.5674 Y54.4759 Z-3.7333 I-0.25 J0.0
G2 Y54.9089 Z-3.8667 I0.125 J0.2165
G2 X50.9424 Y54.6924 Z-4.0 I0.125 J-0.2165
G2 X50.5674 Y54.4759 Z-4.1333 I-0.25 J0.0
G2 X50.4424 Y54.6924 Z-4.2 I0.125 J0.2165
G2 X50.8174 Y54.9089 I0.25 J0.0
G2 Y54.4759 I-0.125 J-0.2165
G2 X50.4424 Y54.6924 I-0.125 J0.2165
G0 Z3.0
G0 X53.7708 Y57.5208
G0 Z1.0
G1 F300.0 Z0.0
G2 F800.0 X53.3958 Y57.3043 Z-0.1333 I-0.25 J0.0
G2 Y57.7373 Z-0.2667 I0.125 J0.2165
G2 X53.7708 Y57.5208 Z-0.4 I0.125 J-0.2165
G2 X53.3958 Y57.3043 Z-0.5333 I-0.25 J0.0
G2 Y57.7373 Z-0.6667 I0.125 J0.2165
G2 X53.7708 Y57.5208 Z-0.8 I0.125 J-0.2165
G2 X53.3958 Y57.3043 Z-0.9333 I-0.25 J0.0
G2 Y57.7373 Z-1.0667 I0.125 J0.2165
G2 X53.7708 Y57.5208 Z-1.2 I0.125 J-0.2165
G2 X53.3958 Y57.3043 Z-1.3333 I-0.25 J0.0
G2 Y57.7373 Z-1.4667 I0.125 J0.2165
G2 X53.7708 Y57.5208 Z-1.6 I0.125 J-0.2165
G2 X53.3958 Y57.3043 Z-1.7333 I-0.25 J0.0
G2 Y57.7373 Z-1.8667 I0.125 J0.2165
G2 X53.7708 Y57.5208 Z-2.0 I0.125 J-0.2165
G2 X53.3958 Y57.3043 Z-2.1333 I-0.25 J0.0
G2 Y57.7373 Z-2.2667 I0.125 J0.2165
G2 X53.7708 Y57.5208 Z-2.4 I0.125 J-0.2165
G2 X53.3958 Y57.3043 Z-2.5333 I-0.25 J0.0
G2 Y57.7373 Z-2.6667 I0.125 J0.2165
G2 X53.7708 Y57.5208 Z-2.8 I0.125 J-0.2165
G2 X53.3958 Y57.3043 Z-2.9333 I-0.25 J0.0
G2 Y57.7373 Z-3.0667 I0.125 J0.2165
G2 X53.7708 Y57.5208 Z-3.2 I0.125 J-0.2165
G2 X53.3958 Y57.3043 Z-3.3333 I-0.25 J0.0
G2 Y57.7373 Z-3.4667 I0.125 J0.2165
G2 X53.7708 Y57.5208 Z-3.6 I0.125 J-0.2165
G2 X53.3958 Y57.3043 Z-3.7333 I-0.25 J0.0
G2 Y57.7373 Z-3.8667 I0.125 J0.2165
G2 X53.7708 Y57.5208 Z-4.0 I0.125 J-0.2165
G2 X53.3958 Y57.3043 Z-4.1333 I-0.25 J0.0
G2 X53.2708 Y57.5208 Z-4.2 I0.125 J0.2165
G2 X53.6458 Y57.7373 I0.25 J0.0
G2 Y57.3043 I-0.125 J-0.2165
G2 X53.2708 Y57.5208 I-0.125 J0.2165
G0 Z3.0
G0 X56.5992 Y60.3492
G0 Z1.0
G1 F300.0 Z0.0
G2 F800.0 X56.2242 Y60.1327 Z-0.1333 I-0.25 J0.0
G2 Y60.5657 Z-0.2667 I0.125 J0.2165
G2 X56.5992 Y60.3492 Z-0.4 I0.125 J-0.2165
G2 X56.2242 Y60.1327 Z-0.5333 I-0.25 J0.0
G2 Y60.5657 Z-0.6667 I0.125 J0.2165
G2 X56.5992 Y60.3492 Z-0.8 I0.125 J-0.2165
G2 X56.2242 Y60.1327 Z-0.9333 I-0.25 J0.0
G2 Y60.5657 Z-1.0667 I0.125 J0.2165
G2 X56.5992 Y60.3492 Z-1.2 I0.125 J-0.2165
G2 X56.2242 Y60.1327 Z-1.3333 I-0.25 J0.0
G2 Y60.5657 Z-1.4667 I0.125 J0.2165
G2 X56.5992 Y60.3492 Z-1.6 I0.125 J-0.2165
G2 X56.2242 Y60.1327 Z-1.7333 I-0.25 J0.0
G2 Y60.5657 Z-1.8667 I0.125 J0.2165
G2 X56.5992 Y60.3492 Z-2.0 I0.125 J-0.2165
G2 X56.2242 Y60.1327 Z-2.1333 I-0.25 J0.0
G2 Y60.5657 Z-2.2667 I0.125 J0.2165
G2 X56.5992 Y60.3492 Z-2.4 I0.125 J-0.2165
G2 X56.2242 Y60.1327 Z-2.5333 I-0.25 J0.0
G2 Y60.5657 Z-2.6667 I0.125 J0.2165
G2 X56.5992 Y60.3492 Z-2.8 I0.125 J-0.2165
G2 X56.2242 Y60.1327 Z-2.9333 I-0.25 J0.0
G2 Y60.5657 Z-3.0667 I0.125 J0.2165
G2 X56.5992 Y60.3492 Z-3.2 I0.125 J-0.2165
G2 X56.2242 Y60.1327 Z-3.3333 I-0.25 J0.0
G2 Y60.5657 Z-3.4667 I0.125 J0.2165
G2 X56.5992 Y60.3492 Z-3.6 I0.125 J-0.2165
G2 X56.2242 Y60.1327 Z-3.7333 I-0.25 J0.0
G2 Y60.5657 Z-3.8667 I0.125 J0.2165
G2 X56.5992 Y60.3492 Z-4.0 I0.125 J-0.2165
G2 X56.2242 Y60.1327 Z-4.1333 I-0.25 J0.0
G2 X56.0992 Y60.3492 Z-4.2 I0.125 J0.2165
G2 X56.4742 Y60.5657 I0.25 J0.0
G2 Y60.1327 I-0.125 J-0.2165
G2 X56.0992 Y60.3492 I-0.125 J0.2165
G0 Z3.0
G0 X59.4277 Y63.1777
G0 Z1.0
G1 F300.0 Z0.0
G2 F800.0 X59.0527 Y62.9612 Z-0.1333 I-0.25 J0.0
G2 Y63.3942 Z-0.2667 I0.125 J0.2165
G2 X59.4277 Y63.1777 Z-0.4 I0.125 J-0.2165
G2 X59.0527 Y62.9612 Z-0.5333 I-0.25 J0.0
G2 Y63.3942 Z-0.6667 I0.125 J0.2165
G2 X59.4277 Y63.1777 Z-0.8 I0.125 J-0.2165
G2 X59.0527 Y62.9612 Z-0.9333 I-0.25 J0.0
G2 Y63.3942 Z-1.0667 I0.125 J0.2165
G2 X59.4277 Y63.1777 Z-1.2 I0.125 J-0.2165
G2 X59.0527 Y62.9612 Z-1.3333 I-0.25 J0.0
G2 Y63.3942 Z-1.4667 I0.125 J0.2165
G2 X59.4277 Y63.1777 Z-1.6 I0.125 J-0.2165
G2 X59.0527 Y62.9612 Z-1.7333 I-0.25 J0.0
G2 Y63.3942 Z-1.8667 I0.125 J0.2165
G2 X59.4277 Y63.1777 Z-2.0 I0.125 J-0.2165
G2 X59.0527 Y62.9612 Z-2.1333 I-0.25 J0.0
G2 Y63.3942 Z-2.2667 I0.125 J0.2165
G2 X59.4277 Y63.1777 Z-2.4 I0.125 J-0.2165
G2 X59.0527 Y62.9612 Z-2.5333 I-0.25 J0.0
G2 Y63.3942 Z-2.6667 I0.125 J0.2165
G2 X59.4277 Y63.1777 Z-2.8 I0.125 J-0.2165
G2 X59.0527 Y62.9612 Z-2.9333 I-0.25 J0.0
G2 Y63.3942 Z-3.0667 I0.125 J0.2165
G2 X59.4277 Y63.1777 Z-3.2 I0.125 J-0.2165
G2 X59.0527 Y62.9612 Z-3.3333 I-0.25 J0.0
G2 Y63.3942 Z-3.4667 I0.125 J0.2165
G2 X59.4277 Y63.1777 Z-3.6 I0.125 J-0.2165
G2 X59.0527 Y62.9612 Z-3.7333 I-0.25 J0.0
G2 Y63.3942 Z-3.8667 I0.125 J0.2165
G2 X59.4277 Y63.1777 Z-4.0 I0.125 J-0.2165
G2 X59.0527 Y62.9612 Z-4.1333 I-0.25 J0.0
G2 X58.9277 Y63.1777 Z-4.2 I0.125 J0.2165
G2 X59.3027 Y63.3942 I0.25 J0.0
G2 Y62.9612 I-0.125 J-0.2165
G2 X58.9277 Y63.1777 I-0.125 J0.2165
G0 Z3.0
G0 X62.2561 Y66.0061
G0 Z1.0
G1 F300.0 Z0.0
G2 F800.0 X61.8811 Y65.7896 Z-0.1333 I-0.25 J0.0
G2 Y66.2226 Z-0.2667 I0.125 J0.2165
G2 X62.2561 Y66.0061 Z-0.4 I0.125 J-0.2165
G2 X61.8811 Y65.7896 Z-0.5333 I-0.25 J0.0
G2 Y66.2226 Z-0.6667 I0.125 J0.2165
G2 X62.2561 Y66.0061 Z-0.8 I0.125 J-0.2165
G2 X61.8811 Y65.7896 Z-0.9333 I-0.25 J0.0
G2 Y66.2226 Z-1.0667 I0.125 J0.2165
G2 X62.2561 Y66.0061 Z-1.2 I0.125 J-0.2165
G2 X61.8811 Y65.7896 Z-1.3333 I-0.25 J0.0
G2 Y66.2226 Z-1.4667 I0.125 J0.2165
G2 X62.2561 Y66.0061 Z-1.6 I0.125 J-0.2165
G2 X61.8811 Y65.7896 Z-1.7333 I-0.25 J0.0
G2 Y66.2226 Z-1.8667 I0.125 J0.2165
G2 X62.2561 Y66.0061 Z-2.0 I0.125 J-0.2165
G2 X61.8811 Y65.7896 Z-2.1333 I-0.25 J0.0
G2 Y66.2226 Z-2.2667 I0.125 J0.2165
G2 X62.2561 Y66.0061 Z-2.4 I0.125 J-0.2165
G2 X61.8811 Y65.7896 Z-2.5333 I-0.25 J0.0
G2 Y66.2226 Z-2.6667 I0.125 J0.2165
G2 X62.2561 Y66.0061 Z-2.8 I0.125 J-0.2165
G2 X61.8811 Y65.7896 Z-2.9333 I-0.25 J0.0
G2 Y66.2226 Z-3.0667 I0.125 J0.2165
G2 X62.2561 Y66.0061 Z-3.2 I0.125 J-0.2165
G2 X61.8811 Y65.7896 Z-3.3333 I-0.25 J0.0
G2 Y66.2226 Z-3.4667 I0.125 J0.2165
G2 X62.2561 Y66.0061 Z-3.6 I0.125 J-0.2165
G2 X61.8811 Y65.7896 Z-3.7333 I-0.25 J0.0
G2 Y66.2226 Z-3.8667 I0.125 J0.2165
G2 X62.2561 Y66.0061 Z-4.0 I0.125 J-0.2165
G2 X61.8811 Y65.7896 Z-4.1333 I-0.25 J0.0
G2 X61.7561 Y66.0061 Z-4.2 I0.125 J0.2165
G2 X62.1311 Y66.2226 I0.25 J0.0
G2 Y65.7896 I-0.125 J-0.2165
G2 X61.7561 Y66.0061 I-0.125 J0.2165
G0 Z3.0
G0 X51.3171 Y68.597
G0 Z1.0
G1 F300.0 Z0.0
G2 F800.0 X50.9421 Y68.3805 Z-0.1333 I-0.25 J0.0
G2 Y68.8135 Z-0.2667 I0.125 J0.2165
G2 X51.3171 Y68.597 Z-0.4 I0.125 J-0.2165
G2 X50.9421 Y68.3805 Z-0.5333 I-0.25 J0.0
G2 Y68.8135 Z-0.6667 I0.125 J0.2165
G2 X51.3171 Y68.597 Z-0.8 I0.125 J-0.2165
G2 X50.9421 Y68.3805 Z-0.9333 I-0.25 J0.0
G2 Y68.8135 Z-1.0667 I0.125 J0.2165
G2 X51.3171 Y68.597 Z-1.2 I0.125 J-0.2165
G2 X50.9421 Y68.3805 Z-1.3333 I-0.25 J0.0
G2 Y68.8135 Z-1.4667 I0.125 J0.2165
G2 X51.3171 Y68.597 Z-1.6 I0.125 J-0.2165
G2 X50.9421 Y68.3805 Z-1.7333 I-0.25 J0.0
G2 Y68.8135 Z-1.8667 I0.125 J0.2165
G2 X51.3171 Y68.597 Z-2.0 I0.125 J-0.2165
G2 X50.9421 Y68.3805 Z-2.1333 I-0.25 J0.0
G2 Y68.8135 Z-2.2667 I0.125 J0.2165
G2 X51.3171 Y68.597 Z-2.4 I0.125 J-0.2165
G2 X50.9421 Y68.3805 Z-2.5333 I-0.25 J0.0
G2 Y68.8135 Z-2.6667 I0.125 J0.2165
G2 X51.3171 Y68.597 Z-2.8 I0.125 J-0.2165
G2 X50.9421 Y68.3805 Z-2.9333 I-0.25 J0.0
G2 Y68.8135 Z-3.0667 I0.125 J0.2165
G2 X51.3171 Y68.597 Z-3.2 I0.125 J-0.2165
G2 X50.9421 Y68.3805 Z-3.3333 I-0.25 J0.0
G2 Y68.8135 Z-3.4667 I0.125 J0.2165
G2 X51.3171 Y68.597 Z-3.6 I0.125 J-0.2165
G2 X50.9421 Y68.3805 Z-3.7333 I-0.25 J0.0
G2 Y68.8135 Z-3.8667 I0.125 J0.2165
G2 X51.3171 Y68.597 Z-4.0 I0.125 J-0.2165
G2 X50.9421 Y68.3805 Z-4.1333 I-0.25 J0.0
G2 X50.8171 Y68.597 Z-4.2 I0.125 J0.2165
G2 X51.1921 Y68.8135 I0.25 J0.0
G2 Y68.3805 I-0.125 J-0.2165
G2 X50.8171 Y68.597 I-0.125 J0.2165
G0 Z3.0
G0 X49.7864 Y64.9015
G0 Z1.0
G1 F300.0 Z0.0
G2 F800.0 X49.4114 Y64.685 Z-0.1333 I-0.25 J0.0
G2 Y65.118 Z-0.2667 I0.125 J0.2165
G2 X49.7864 Y64.9015 Z-0.4 I0.125 J-0.2165
G2 X49.4114 Y64.685 Z-0.5333 I-0.25 J0.0
G2 Y65.118 Z-0.6667 I0.125 J0.2165
G2 X49.7864 Y64.9015 Z-0.8 I0.125 J-0.2165
G2 X49.4114 Y64.685 Z-0.9333 I-0.25 J0.0
G2 Y65.118 Z-1.0667 I0.125 J0.2165
G2 X49.7864 Y64.9015 Z-1.2 I0.125 J-0.2165
G2 X49.4114 Y64.685 Z-1.3333 I-0.25 J0.0
G2 Y65.118 Z-1.4667 I0.125 J0.2165
G2 X49.7864 Y64.9015 Z-1.6 I0.125 J-0.2165
G2 X49.4114 Y64.685 Z-1.7333 I-0.25 J0.0
G2 Y65.118 Z-1.8667 I0.125 J0.2165
G2 X49.7864 Y64.9015 Z-2.0 I0.125 J-0.2165
G2 X49.4114 Y64.685 Z-2.1333 I-0.25 J0.0
G2 Y65.118 Z-2.2667 I0.125 J0.2165
G2 X49.7864 Y64.9015 Z-2.4 I0.125 J-0.2165
G2 X49.4114 Y64.685 Z-2.5333 I-0.25 J0.0
G2 Y65.118 Z-2.6667 I0.125 J0.2165
G2 X49.7864 Y64.9015 Z-2.8 I0.125 J-0.2165
G2 X49.4114 Y64.685 Z-2.9333 I-0.25 J0.0
G2 Y65.118 Z-3.0667 I0.125 J0.2165
G2 X49.7864 Y64.9015 Z-3.2 I0.125 J-0.2165
G2 X49.4114 Y64.685 Z-3.3333 I-0.25 J0.0
G2 Y65.118 Z-3.4667 I0.125 J0.2165
G2 X49.7864 Y64.9015 Z-3.6 I0.125 J-0.2165
G2 X49.4114 Y64.685 Z-3.7333 I-0.25 J0.0
G2 Y65.118 Z-3.8667 I0.125 J0.2165
G2 X49.7864 Y64.9015 Z-4.0 I0.125 J-0.2165
G2 X49.4114 Y64.685 Z-4.1333 I-0.25 J0.0
G2 X49.2864 Y64.9015 Z-4.2 I0.125 J0.2165
G2 X49.6614 Y65.118 I0.25 J0.0
G2 Y64.685 I-0.125 J-0.2165
G2 X49.2864 Y64.9015 I-0.125 J0.2165
G0 Z3.0
G0 X48.2556 Y61.206
G0 Z1.0
G1 F300.0 Z0.0
G2 F800.0 X47.8806 Y60.9894 Z-0.1333 I-0.25 J0.0
G2 Y61.4225 Z-0.2667 I0.125 J0.2165
G2 X48.2556 Y61.206 Z-0.4 I0.125 J-0.2165
G2 X47.8806 Y60.9894 Z-0.5333 I-0.25 J0.0
G2 Y61.4225 Z-0.6667 I0.125 J0.2165
G2 X48.2556 Y61.206 Z-0.8 I0.125 J-0.2165
G2 X47.8806 Y60.9894 Z-0.9333 I-0.25 J0.0
G2 Y61.4225 Z-1.0667 I0.125 J0.2165
G2 X48.2556 Y61.206 Z-1.2 I0.125 J-0.2165
G2 X47.8806 Y60.9894 Z-1.3333 I-0.25 J0.0
G2 Y61.4225 Z-1.4667 I0.125 J0.2165
G2 X48.2556 Y61.206 Z-1.6 I0.125 J-0.2165
G2 X47.8806 Y60.9894 Z-1.7333 I-0.25 J0.0
G2 Y61.4225 Z-1.8667 I0.125 J0.2165
G2 X48.2556 Y61.206 Z-2.0 I0.125 J-0.2165
G2 X47.8806 Y60.9894 Z-2.1333 I-0.25 J0.0
G2 Y61.4225 Z-2.2667 I0.125 J0.2165
G2 X48.2556 Y61.206 Z-2.4 I0.125 J-0.2165
G2 X47.8806 Y60.9894 Z-2.5333 I-0.25 J0.0
G2 Y61.4225 Z-2.6667 I0.125 J0.2165
G2 X48.2556 Y61.206 Z-2.8 I0.125 J-0.2165
G2 X47.8806 Y60.9894 Z-2.9333 I-0.25 J0.0
G2 Y61.4225 Z-3.0667 I0.125 J0.2165
G2 X48.2556 Y61.206 Z-3.2 I0.125 J-0.2165
G2 X47.8806 Y60.9894 Z-3.3333 I-0.25 J0.0
G2 Y61.4225 Z-3.4667 I0.125 J0.2165
G2 X48.2556 Y61.206 Z-3.6 I0.125 J-0.2165
G2 X47.8806 Y60.9894 Z-3.7333 I-0.25 J0.0
G2 Y61.4225 Z-3.8667 I0.125 J0.2165
G2 X48.2556 Y61.206 Z-4.0 I0.125 J-0.2165
G2 X47.8806 Y60.9894 Z-4.1333 I-0.25 J0.0
G2 X47.7556 Y61.206 Z-4.2 I0.125 J0.2165
G2 X48.1306 Y61.4225 I0.25 J0.0
G2 Y60.9894 I-0.125 J-0.2165
G2 X47.7556 Y61.206 I-0.125 J0.2165
G0 Z3.0
G0 X46.7249 Y57.5104
G0 Z1.0
G1 F300.0 Z0.0
G2 F800.0 X46.3499 Y57.2939 Z-0.1333 I-0.25 J0.0
G2 Y57.7269 Z-0.2667 I0.125 J0.2165
G2 X46.7249 Y57.5104 Z-0.4 I0.125 J-0.2165
G2 X46.3499 Y57.2939 Z-0.5333 I-0.25 J0.0
G2 Y57.7269 Z-0.6667 I0.125 J0.2165
G2 X46.7249 Y57.5104 Z-0.8 I0.125 J-0.2165
G2 X46.3499 Y57.2939 Z-0.9333 I-0.25 J0.0
G2 Y57.7269 Z-1.0667 I0.125 J0.2165
G2 X46.7249 Y57.5104 Z-1.2 I0.125 J-0.2165
G2 X46.3499 Y57.2939 Z-1.3333 I-0.25 J0.0
G2 Y57.7269 Z-1.4667 I0.125 J0.2165
G2 X46.7249 Y57.5104 Z-1.6 I0.125 J-0.2165
G2 X46.3499 Y57.2939 Z-1.7333 I-0.25 J0.0
G2 Y57.7269 Z-1.8667 I0.125 J0.2165
G2 X46.7249 Y57.5104 Z-2.0 I0.125 J-0.2165
G2 X46.3499 Y57.2939 Z-2.1333 I-0.25 J0.0
G2 Y57.7269 Z-2.2667 I0.125 J0.2165
G2 X46.7249 Y57.5104 Z-2.4 I0.125 J-0.2165
G2 X46.3499 Y57.2939 Z-2.5333 I-0.25 J0.0
G2 Y57.7269 Z-2.6667 I0.125 J0.2165
G2 X46.7249 Y57.5104 Z-2.8 I0.125 J-0.2165
G2 X46.3499 Y57.2939 Z-2.9333 I-0.25 J0.0
G2 Y57.7269 Z-3.0667 I0.125 J0.2165
G2 X46.7249 Y57.5104 Z-3.2 I0.125 J-0.2165
G2 X46.3499 Y57.2939 Z-3.3333 I-0.25 J0.0
G2 Y57.7269 Z-3.4667 I0.125 J0.2165
G2 X46.7249 Y57.5104 Z-3.6 I0.125 J-0.2165
G2 X46.3499 Y57.2939 Z-3.7333 I-0.25 J0.0
G2 Y57.7269 Z-3.8667 I0.125 J0.2165
G2 X46.7249 Y57.5104 Z-4.0 I0.125 J-0.2165
G2 X46.3499 Y57.2939 Z-4.1333 I-0.25 J0.0
G2 X46.2249 Y57.5104 Z-4.2 I0.125 J0.2165
G2 X46.5999 Y57.7269 I0.25 J0.0
G2 Y57.2939 I-0.125 J-0.2165
G2 X46.2249 Y57.5104 I-0.125 J0.2165
G0 Z3.0
G0 X41.75 Y58.5
G0 Z1.0
G1 F300.0 Z0.0
G2 F800.0 X41.375 Y58.2835 Z-0.1333 I-0.25 J0.0
G2 Y58.7165 Z-0.2667 I0.125 J0.2165
G2 X41.75 Y58.5 Z-0.4 I0.125 J-0.2165
G2 X41.375 Y58.2835 Z-0.5333 I-0.25 J0.0
G2 Y58.7165 Z-0.6667 I0.125 J0.2165
G2 X41.75 Y58.5 Z-0.8 I0.125 J-0.2165
G2 X41.375 Y58.2835 Z-0.9333 I-0.25 J0.0
G2 Y58.7165 Z-1.0667 I0.125 J0.2165
G2 X41.75 Y58.5 Z-1.2 I0.125 J-0.2165
G2 X41.375 Y58.2835 Z-1.3333 I-0.25 J0.0
G2 Y58.7165 Z-1.4667 I0.125 J0.2165
G2 X41.75 Y58.5 Z-1.6 I0.125 J-0.2165
G2 X41.375 Y58.2835 Z-1.7333 I-0.25 J0.0
G2 Y58.7165 Z-1.8667 I0.125 J0.2165
G2 X41.75 Y58.5 Z-2.0 I0.125 J-0.2165
G2 X41.375 Y58.2835 Z-2.1333 I-0.25 J0.0
G2 Y58.7165 Z-2.2667 I0.125 J0.2165
G2 X41.75 Y58.5 Z-2.4 I0.125 J-0.2165
G2 X41.375 Y58.2835 Z-2.5333 I-0.25 J0.0
G2 Y58.7165 Z-2.6667 I0.125 J0.2165
G2 X41.75 Y58.5 Z-2.8 I0.125 J-0.2165
G2 X41.375 Y58.2835 Z-2.9333 I-0.25 J0.0
G2 Y58.7165 Z-3.0667 I0.125 J0.2165
G2 X41.75 Y58.5 Z-3.2 I0.125 J-0.2165
G2 X41.375 Y58.2835 Z-3.3333 I-0.25 J0.0
G2 Y58.7165 Z-3.4667 I0.125 J0.2165
G2 X41.75 Y58.5 Z-3.6 I0.125 J-0.2165
G2 X41.375 Y58.2835 Z-3.7333 I-0.25 J0.0
G2 Y58.7165 Z-3.8667 I0.125 J0.2165
G2 X41.75 Y58.5 Z-4.0 I0.125 J-0.2165
G2 X41.375 Y58.2835 Z-4.1333 I-0.25 J0.0
G2 X41.25 Y58.5 Z-4.2 I0.125 J0.2165
G2 X41.625 Y58.7165 I0.25 J0.0
G2 Y58.2835 I-0.125 J-0.2165
G2 X41.25 Y58.5 I-0.125 J0.2165
G0 Z3.0
G0 X41.75 Y62.5
G0 Z1.0
G1 F300.0 Z0.0
G2 F800.0 X41.375 Y62.2835 Z-0.1333 I-0.25 J0.0
G2 Y62.7165 Z-0.2667 I0.125 J0.2165
G2 X41.75 Y62.5 Z-0.4 I0.125 J-0.2165
G2 X41.375 Y62.2835 Z-0.5333 I-0.25 J0.0
G2 Y62.7165 Z-0.6667 I0.125 J0.2165
G2 X41.75 Y62.5 Z-0.8 I0.125 J-0.2165
G2 X41.375 Y62.2835 Z-0.9333 I-0.25 J0.0
G2 Y62.7165 Z-1.0667 I0.125 J0.2165
G2 X41.75 Y62.5 Z-1.2 I0.125 J-0.2165
G2 X41.375 Y62.2835 Z-1.3333 I-0.25 J0.0
G2 Y62.7165 Z-1.4667 I0.125 J0.2165
G2 X41.75 Y62.5 Z-1.6 I0.125 J-0.2165
G2 X41.375 Y62.2835 Z-1.7333 I-0.25 J0.0
G2 Y62.7165 Z-1.8667 I0.125 J0.2165
G2 X41.75 Y62.5 Z-2.0 I0.125 J-0.2165
G2 X41.375 Y62.2835 Z-2.1333 I-0.25 J0.0
G2 Y62.7165 Z-2.2667 I0.125 J0.2165
G2 X41.75 Y62.5 Z-2.4 I0.125 J-0.2165
G2 X41.375 Y62.2835 Z-2.5333 I-0.25 J0.0
G2 Y62.7165 Z-2.6667 I0.125 J0.2165
G2 X41.75 Y62.5 Z-2.8 I0.125 J-0.2165
G2 X41.375 Y62.2835 Z-2.9333 I-0.25 J0.0
G2 Y62.7165 Z-3.0667 I0.125 J0.2165
G2 X41.75 Y62.5 Z-3.2 I0.125 J-0.2165
G2 X41.375 Y62.2835 Z-3.3333 I-0.25 J0.0
G2 Y62.7165 Z-3.4667 I0.125 J0.2165
G2 X41.75 Y62.5 Z-3.6 I0.125 J-0.2165
G2 X41.375 Y62.2835 Z-3.7333 I-0.25 J0.0
G2 Y62.7165 Z-3.8667 I0.125 J0.2165
G2 X41.75 Y62.5 Z-4.0 I0.125 J-0.2165
G2 X41.375 Y62.2835 Z-4.1333 I-0.25 J0.0
G2 X41.25 Y62.5 Z-4.2 I0.125 J0.2165
G2 X41.625 Y62.7165 I0.25 J0.0
G2 Y62.2835 I-0.125 J-0.2165
G2 X41.25 Y62.5 I-0.125 J0.2165
G0 Z3.0
G0 X41.75 Y66.5
G0 Z1.0
G1 F300.0 Z0.0
G2 F800.0 X41.375 Y66.2835 Z-0.1333 I-0.25 J0.0
G2 Y66.7165 Z-0.2667 I0.125 J0.2165
G2 X41.75 Y66.5 Z-0.4 I0.125 J-0.2165
G2 X41.375 Y66.2835 Z-0.5333 I-0.25 J0.0
G2 Y66.7165 Z-0.6667 I0.125 J0.2165
G2 X41.75 Y66.5 Z-0.8 I0.125 J-0.2165
G2 X41.375 Y66.2835 Z-0.9333 I-0.25 J0.0
G2 Y66.7165 Z-1.0667 I0.125 J0.2165
G2 X41.75 Y66.5 Z-1.2 I0.125 J-0.2165
G2 X41.375 Y66.2835 Z-1.3333 I-0.25 J0.0
G2 Y66.7165 Z-1.4667 I0.125 J0.2165
G2 X41.75 Y66.5 Z-1.6 I0.125 J-0.2165
G2 X41.375 Y66.2835 Z-1.7333 I-0.25 J0.0
G2 Y66.7165 Z-1.8667 I0.125 J0.2165
G2 X41.75 Y66.5 Z-2.0 I0.125 J-0.2165
G2 X41.375 Y66.2835 Z-2.1333 I-0.25 J0.0
G2 Y66.7165 Z-2.2667 I0.125 J0.2165
G2 X41.75 Y66.5 Z-2.4 I0.125 J-0.2165
G2 X41.375 Y66.2835 Z-2.5333 I-0.25 J0.0
G2 Y66.7165 Z-2.6667 I0.125 J0.2165
G2 X41.75 Y66.5 Z-2.8 I0.125 J-0.2165
G2 X41.375 Y66.2835 Z-2.9333 I-0.25 J0.0
G2 Y66.7165 Z-3.0667 I0.125 J0.2165
G2 X41.75 Y66.5 Z-3.2 I0.125 J-0.2165
G2 X41.375 Y66.2835 Z-3.3333 I-0.25 J0.0
G2 Y66.7165 Z-3.4667 I0.125 J0.2165
G2 X41.75 Y66.5 Z-3.6 I0.125 J-0.2165
G2 X41.375 Y66.2835 Z-3.7333 I-0.25 J0.0
G2 Y66.7165 Z-3.8667 I0.125 J0.2165
G2 X41.75 Y66.5 Z-4.0 I0.125 J-0.2165
G2 X41.375 Y66.2835 Z-4.1333 I-0.25 J0.0
G2 X41.25 Y66.5 Z-4.2 I0.125 J0.2165
G2 X41.625 Y66.7165 I0.25 J0.0
G2 Y66.2835 I-0.125 J-0.2165
G2 X41.25 Y66.5 I-0.125 J0.2165
G0 Z3.0
G0 X41.75 Y70.5
G0 Z1.0
G1 F300.0 Z0.0
G2 F800.0 X41.375 Y70.2835 Z-0.1333 I-0.25 J0.0
G2 Y70.7165 Z-0.2667 I0.125 J0.2165
G2 X41.75 Y70.5 Z-0.4 I0.125 J-0.2165
G2 X41.375 Y70.2835 Z-0.5333 I-0.25 J0.0
G2 Y70.7165 Z-0.6667 I0.125 J0.2165
G2 X41.75 Y70.5 Z-0.8 I0.125 J-0.2165
G2 X41.375 Y70.2835 Z-0.9333 I-0.25 J0.0
G2 Y70.7165 Z-1.0667 I0.125 J0.2165
G2 X41.75 Y70.5 Z-1.2 I0.125 J-0.2165
G2 X41.375 Y70.2835 Z-1.3333 I-0.25 J0.0
G2 Y70.7165 Z-1.4667 I0.125 J0.2165
G2 X41.75 Y70.5 Z-1.6 I0.125 J-0.2165
G2 X41.375 Y70.2835 Z-1.7333 I-0.25 J0.0
G2 Y70.7165 Z-1.8667 I0.125 J0.2165
G2 X41.75 Y70.5 Z-2.0 I0.125 J-0.2165
G2 X41.375 Y70.2835 Z-2.1333 I-0.25 J0.0
G2 Y70.7165 Z-2.2667 I0.125 J0.2165
G2 X41.75 Y70.5 Z-2.4 I0.125 J-0.2165
G2 X41.375 Y70.2835 Z-2.5333 I-0.25 J0.0
G2 Y70.7165 Z-2.6667 I0.125 J0.2165
G2 X41.75 Y70.5 Z-2.8 I0.125 J-0.2165
G2 X41.375 Y70.2835 Z-2.9333 I-0.25 J0.0
G2 Y70.7165 Z-3.0667 I0.125 J0.2165
G2 X41.75 Y70.5 Z-3.2 I0.125 J-0.2165
G2 X41.375 Y70.2835 Z-3.3333 I-0.25 J0.0
G2 Y70.7165 Z-3.4667 I0.125 J0.2165
G2 X41.75 Y70.5 Z-3.6 I0.125 J-0.2165
G2 X41.375 Y70.2835 Z-3.7333 I-0.25 J0.0
G2 Y70.7165 Z-3.8667 I0.125 J0.2165
G2 X41.75 Y70.5 Z-4.0 I0.125 J-0.2165
G2 X41.375 Y70.2835 Z-4.1333 I-0.25 J0.0
G2 X41.25 Y70.5 Z-4.2 I0.125 J0.2165
G2 X41.625 Y70.7165 I0.25 J0.0
G2 Y70.2835 I-0.125 J-0.2165
G2 X41.25 Y70.5 I-0.125 J0.2165
G0 Z3.0
G0 X41.75 Y74.5
G0 Z1.0
G1 F300.0 Z0.0
G2 F800.0 X41.375 Y74.2835 Z-0.1333 I-0.25 J0.0
G2 Y74.7165 Z-0.2667 I0.125 J0.2165
G2 X41.75 Y74.5 Z-0.4 I0.125 J-0.2165
G2 X41.375 Y74.2835 Z-0.5333 I-0.25 J0.0
G2 Y74.7165 Z-0.6667 I0.125 J0.2165
G2 X41.75 Y74.5 Z-0.8 I0.125 J-0.2165
G2 X41.375 Y74.2835 Z-0.9333 I-0.25 J0.0
G2 Y74.7165 Z-1.0667 I0.125 J0.2165
G2 X41.75 Y74.5 Z-1.2 I0.125 J-0.2165
G2 X41.375 Y74.2835 Z-1.3333 I-0.25 J0.0
G2 Y74.7165 Z-1.4667 I0.125 J0.2165
G2 X41.75 Y74.5 Z-1.6 I0.125 J-0.2165
G2 X41.375 Y74.2835 Z-1.7333 I-0.25 J0.0
G2 Y74.7165 Z-1.8667 I0.125 J0.2165
G2 X41.75 Y74.5 Z-2.0 I0.125 J-0.2165
G2 X41.375 Y74.2835 Z-2.1333 I-0.25 J0.0
G2 Y74.7165 Z-2.2667 I0.125 J0.2165
G2 X41.75 Y74.5 Z-2.4 I0.125 J-0.2165
G2 X41.375 Y74.2835 Z-2.5333 I-0.25 J0.0
G2 Y74.7165 Z-2.6667 I0.125 J0.2165
G2 X41.75 Y74.5 Z-2.8 I0.125 J-0.2165
G2 X41.375 Y74.2835 Z-2.9333 I-0.25 J0.0
G2 Y74.7165 Z-3.0667 I0.125 J0.2165
G2 X41.75 Y74.5 Z-3.2 I0.125 J-0.2165
G2 X41.375 Y74.2835 Z-3.3333 I-0.25 J0.0
G2 Y74.7165 Z-3.4667 I0.125 J0.2165
G2 X41.75 Y74.5 Z-3.6 I0.125 J-0.2165
G2 X41.375 Y74.2835 Z-3.7333 I-0.25 J0.0
G2 Y74.7165 Z-3.8667 I0.125 J0.2165
G2 X41.75 Y74.5 Z-4.0 I0.125 J-0.2165
G2 X41.375 Y74.2835 Z-4.1333 I-0.25 J0.0
G2 X41.25 Y74.5 Z-4.2 I0.125 J0.2165
G2 X41.625 Y74.7165 I0.25 J0.0
G2 Y74.2835 I-0.125 J-0.2165
G2 X41.25 Y74.5 I-0.125 J0.2165
G0 Z3.0
G0 X32.1829 Y68.597
G0 Z1.0
G1 F300.0 Z0.0
G2 F800.0 X31.8079 Y68.3805 Z-0.1333 I-0.25 J0.0
G2 Y68.8135 Z-0.2667 I0.125 J0.2165
G2 X32.1829 Y68.597 Z-0.4 I0.125 J-0.2165
G2 X31.8079 Y68.3805 Z-0.5333 I-0.25 J0.0
G2 Y68.8135 Z-0.6667 I0.125 J0.2165
G2 X32.1829 Y68.597 Z-0.8 I0.125 J-0.2165
G2 X31.8079 Y68.3805 Z-0.9333 I-0.25 J0.0
G2 Y68.8135 Z-1.0667 I0.125 J0.2165
G2 X32.1829 Y68.597 Z-1.2 I0.125 J-0.2165
G2 X31.8079 Y68.3805 Z-1.3333 I-0.25 J0.0
G2 Y68.8135 Z-1.4667 I0.125 J0.2165
G2 X32.1829 Y68.597 Z-1.6 I0.125 J-0.2165
G2 X31.8079 Y68.3805 Z-1.7333 I-0.25 J0.0
G2 Y68.8135 Z-1.8667 I0.125 J0.2165
G2 X32.1829 Y68.597 Z-2.0 I0.125 J-0.2165
G2 X31.8079 Y68.3805 Z-2.1333 I-0.25 J0.0
G2 Y68.8135 Z-2.2667 I0.125 J0.2165
G2 X32.1829 Y68.597 Z-2.4 I0.125 J-0.2165
G2 X31.8079 Y68.3805 Z-2.5333 I-0.25 J0.0
G2 Y68.8135 Z-2.6667 I0.125 J0.2165
G2 X32.1829 Y68.597 Z-2.8 I0.125 J-0.2165
G2 X31.8079 Y68.3805 Z-2.9333 I-0.25 J0.0
G2 Y68.8135 Z-3.0667 I0.125 J0.2165
G2 X32.1829 Y68.597 Z-3.2 I0.125 J-0.2165
G2 X31.8079 Y68.3805 Z-3.3333 I-0.25 J0.0
G2 Y68.8135 Z-3.4667 I0.125 J0.2165
G2 X32.1829 Y68.597 Z-3.6 I0.125 J-0.2165
G2 X31.8079 Y68.3805 Z-3.7333 I-0.25 J0.0
G2 Y68.8135 Z-3.8667 I0.125 J0.2165
G2 X32.1829 Y68.597 Z-4.0 I0.125 J-0.2165
G2 X31.8079 Y68.3805 Z-4.1333 I-0.25 J0.0
G2 X31.6829 Y68.597 Z-4.2 I0.125 J0.2165
G2 X32.0579 Y68.8135 I0.25 J0.0
G2 Y68.3805 I-0.125 J-0.2165
G2 X31.6829 Y68.597 I-0.125 J0.2165
G0 Z3.0
G0 X33.7136 Y64.9015
G0 Z1.0
G1 F300.0 Z0.0
G2 F800.0 X33.3386 Y64.685 Z-0.1333 I-0.25 J0.0
G2 Y65.118 Z-0.2667 I0.125 J0.2165
G2 X33.7136 Y64.9015 Z-0.4 I0.125 J-0.2165
G2 X33.3386 Y64.685 Z-0.5333 I-0.25 J0.0
G2 Y65.118 Z-0.6667 I0.125 J0.2165
G2 X33.7136 Y64.9015 Z-0.8 I0.125 J-0.2165
G2 X33.3386 Y64.685 Z-0.9333 I-0.25 J0.0
G2 Y65.118 Z-1.0667 I0.125 J0.2165
G2 X33.7136 Y64.9015 Z-1.2 I0.125 J-0.2165
G2 X33.3386 Y64.685 Z-1.3333 I-0.25 J0.0
G2 Y65.118 Z-1.4667 I0.125 J0.2165
G2 X33.7136 Y64.9015 Z-1.6 I0.125 J-0.2165
G2 X33.3386 Y64.685 Z-1.7333 I-0.25 J0.0
G2 Y65.118 Z-1.8667 I0.125 J0.2165
G2 X33.7136 Y64.9015 Z-2.0 I0.125 J-0.2165
G2 X33.3386 Y64.685 Z-2.1333 I-0.25 J0.0
G2 Y65.118 Z-2.2667 I0.125 J0.2165
G2 X33.7136 Y64.9015 Z-2.4 I0.125 J-0.2165
G2 X33.3386 Y64.685 Z-2.5333 I-0.25 J0.0
G2 Y65.118 Z-2.6667 I0.125 J0.2165
G2 X33.7136 Y64.9015 Z-2.8 I0.125 J-0.2165
G2 X33.3386 Y64.685 Z-2.9333 I-0.25 J0.0
G2 Y65.118 Z-3.0667 I0.125 J0.2165
G2 X33.7136 Y64.9015 Z-3.2 I0.125 J-0.2165
G2 X33.3386 Y64.685 Z-3.3333 I-0.25 J0.0
G2 Y65.118 Z-3.4667 I0.125 J0.2165
G2 X33.7136 Y64.9015 Z-3.6 I0.125 J-0.2165
G2 X33.3386 Y64.685 Z-3.7333 I-0.25 J0.0
G2 Y65.118 Z-3.8667 I0.125 J0.2165
G2 X33.7136 Y64.9015 Z-4.0 I0.125 J-0.2165
G2 X33.3386 Y64.685 Z-4.1333 I-0.25 J0.0
G2 X33.2136 Y64.9015 Z-4.2 I0.125 J0.2165
G2 X33.5886 Y65.118 I0.25 J0.0
G2 Y64.685 I-0.125 J-0.2165
G2 X33.2136 Y64.9015 I-0.125 J0.2165
G0 Z3.0
G0 X35.2444 Y61.206
G0 Z1.0
G1 F300.0 Z0.0
G2 F800.0 X34.8694 Y60.9894 Z-0.1333 I-0.25 J0.0
G2 Y61.4225 Z-0.2667 I0.125 J0.2165
G2 X35.2444 Y61.206 Z-0.4 I0.125 J-0.2165
G2 X34.8694 Y60.9894 Z-0.5333 I-0.25 J0.0
G2 Y61.4225 Z-0.6667 I0.125 J0.2165
G2 X35.2444 Y61.206 Z-0.8 I0.125 J-0.2165
G2 X34.8694 Y60.9894 Z-0.9333 I-0.25 J0.0
G2 Y61.4225 Z-1.0667 I0.125 J0.2165
G2 X35.2444 Y61.206 Z-1.2 I0.125 J-0.2165
G2 X34.8694 Y60.9894 Z-1.3333 I-0.25 J0.0
G2 Y61.4225 Z-1.4667 I0.125 J0.2165
G2 X35.2444 Y61.206 Z-1.6 I0.125 J-0.2165
G2 X34.8694 Y60.9894 Z-1.7333 I-0.25 J0.0
G2 Y61.4225 Z-1.8667 I0.125 J0.2165
G2 X35.2444 Y61.206 Z-2.0 I0.125 J-0.2165
G2 X34.8694 Y60.9894 Z-2.1333 I-0.25 J0.0
G2 Y61.4225 Z-2.2667 I0.125 J0.2165
G2 X35.2444 Y61.206 Z-2.4 I0.125 J-0.2165
G2 X34.8694 Y60.9894 Z-2.5333 I-0.25 J0.0
G2 Y61.4225 Z-2.6667 I0.125 J0.2165
G2 X35.2444 Y61.206 Z-2.8 I0.125 J-0.2165
G2 X34.8694 Y60.9894 Z-2.9333 I-0.25 J0.0
G2 Y61.4225 Z-3.0667 I0.125 J0.2165
G2 X35.2444 Y61.206 Z-3.2 I0.125 J-0.2165
G2 X34.8694 Y60.9894 Z-3.3333 I-0.25 J0.0
G2 Y61.4225 Z-3.4667 I0.125 J0.2165
G2 X35.2444 Y61.206 Z-3.6 I0.125 J-0.2165
G2 X34.8694 Y60.9894 Z-3.7333 I-0.25 J0.0
G2 Y61.4225 Z-3.8667 I0.125 J0.2165
G2 X35.2444 Y61.206 Z-4.0 I0.125 J-0.2165
G2 X34.8694 Y60.9894 Z-4.1333 I-0.25 J0.0
G2 X34.7444 Y61.206 Z-4.2 I0.125 J0.2165
G2 X35.1194 Y61.4225 I0.25 J0.0
G2 Y60.9894 I-0.125 J-0.2165
G2 X34.7444 Y61.206 I-0.125 J0.2165
G0 Z3.0
G0 X36.7751 Y57.5104
G0 Z1.0
G1 F300.0 Z0.0
G2 F800.0 X36.4001 Y57.2939 Z-0.1333 I-0.25 J0.0
G2 Y57.7269 Z-0.2667 I0.125 J0.2165
G2 X36.7751 Y57.5104 Z-0.4 I0.125 J-0.2165
G2 X36.4001 Y57.2939 Z-0.5333 I-0.25 J0.0
G2 Y57.7269 Z-0.6667 I0.125 J0.2165
G2 X36.7751 Y57.5104 Z-0.8 I0.125 J-0.2165
G2 X36.4001 Y57.2939 Z-0.9333 I-0.25 J0.0
G2 Y57.7269 Z-1.0667 I0.125 J0.2165
G2 X36.7751 Y57.5104 Z-1.2 I0.125 J-0.2165
G2 X36.4001 Y57.2939 Z-1.3333 I-0.25 J0.0
G2 Y57.7269 Z-1.4667 I0.125 J0.2165
G2 X36.7751 Y57.5104 Z-1.6 I0.125 J-0.2165
G2 X36.4001 Y57.2939 Z-1.7333 I-0.25 J0.0
G2 Y57.7269 Z-1.8667 I0.125 J0.2165
G2 X36.7751 Y57.5104 Z-2.0 I0.125 J-0.2165
G2 X36.4001 Y57.2939 Z-2.1333 I-0.25 J0.0
G2 Y57.7269 Z-2.2667 I0.125 J0.2165
G2 X36.7751 Y57.5104 Z-2.4 I0.125 J-0.2165
G2 X36.4001 Y57.2939 Z-2.5333 I-0.25 J0.0
G2 Y57.7269 Z-2.6667 I0.125 J0.2165
G2 X36.7751 Y57.5104 Z-2.8 I0.125 J-0.2165
G2 X36.4001 Y57.2939 Z-2.9333 I-0.25 J0.0
G2 Y57.7269 Z-3.0667 I0.125 J0.2165
G2 X36.7751 Y57.5104 Z-3.2 I0.125 J-0.2165
G2 X36.4001 Y57.2939 Z-3.3333 I-0.25 J0.0
G2 Y57.7269 Z-3.4667 I0.125 J0.2165
G2 X36.7751 Y57.5104 Z-3.6 I0.125 J-0.2165
G2 X36.4001 Y57.2939 Z-3.7333 I-0.25 J0.0
G2 Y57.7269 Z-3.8667 I0.125 J0.2165
G2 X36.7751 Y57.5104 Z-4.0 I0.125 J-0.2165
G2 X36.4001 Y57.2939 Z-4.1333 I-0.25 J0.0
G2 X36.2751 Y57.5104 Z-4.2 I0.125 J0.2165
G2 X36.6501 Y57.7269 I0.25 J0.0
G2 Y57.2939 I-0.125 J-0.2165
G2 X36.2751 Y57.5104 I-0.125 J0.2165
G0 Z3.0
G0 X32.5576 Y54.6924
G0 Z1.0
G1 F300.0 Z0.0
G2 F800.0 X32.1826 Y54.4759 Z-0.1333 I-0.25 J0.0
G2 Y54.9089 Z-0.2667 I0.125 J0.2165
G2 X32.5576 Y54.6924 Z-0.4 I0.125 J-0.2165
G2 X32.1826 Y54.4759 Z-0.5333 I-0.25 J0.0
G2 Y54.9089 Z-0.6667 I0.125 J0.2165
G2 X32.5576 Y54.6924 Z-0.8 I0.125 J-0.2165
G2 X32.1826 Y54.4759 Z-0.9333 I-0.25 J0.0
G2 Y54.9089 Z-1.0667 I0.125 J0.2165
G2 X32.5576 Y54.6924 Z-1.2 I0.125 J-0.2165
G2 X32.1826 Y54.4759 Z-1.3333 I-0.25 J0.0
G2 Y54.9089 Z-1.4667 I0.125 J0.2165
G2 X32.5576 Y54.6924 Z-1.6 I0.125 J-0.2165
G2 X32.1826 Y54.4759 Z-1.7333 I-0.25 J0.0
G2 Y54.9089 Z-1.8667 I0.125 J0.2165
G2 X32.5576 Y54.6924 Z-2.0 I0.125 J-0.2165
G2 X32.1826 Y54.4759 Z-2.1333 I-0.25 J0.0
G2 Y54.9089 Z-2.2667 I0.125 J0.2165
G2 X32.5576 Y54.6924 Z-2.4 I0.125 J-0.2165
G2 X32.1826 Y54.4759 Z-2.5333 I-0.25 J0.0
G2 Y54.9089 Z-2.6667 I0.125 J0.2165
G2 X32.5576 Y54.6924 Z-2.8 I0.125 J-0.2165
G2 X32.1826 Y54.4759 Z-2.9333 I-0.25 J0.0
G2 Y54.9089 Z-3.0667 I0.125 J0.2165
G2 X32.5576 Y54.6924 Z-3.2 I0.125 J-0.2165
G2 X32.1826 Y54.4759 Z-3.3333 I-0.25 J0.0
G2 Y54.9089 Z-3.4667 I0.125 J0.2165
G2 X32.5576 Y54.6924 Z-3.6 I0.125 J-0.2165
G2 X32.1826 Y54.4759 Z-3.7333 I-0.25 J0.0
G2 Y54.9089 Z-3.8667 I0.125 J0.2165
G2 X32.5576 Y54.6924 Z-4.0 I0.125 J-0.2165
G2 X32.1826 Y54.4759 Z-4.1333 I-0.25 J0.0
G2 X32.0576 Y54.6924 Z-4.2 I0.125 J0.2165
G2 X32.4326 Y54.9089 I0.25 J0.0
G2 Y54.4759 I-0.125 J-0.2165
G2 X32.0576 Y54.6924 I-0.125 J0.2165
G0 Z3.0
G0 X29.7292 Y57.5208
G0 Z1.0
G1 F300.0 Z0.0
G2 F800.0 X29.3542 Y57.3043 Z-0.1333 I-0.25 J0.0
G2 Y57.7373 Z-0.2667 I0.125 J0.2165
G2 X29.7292 Y57.5208 Z-0.4 I0.125 J-0.2165
G2 X29.3542 Y57.3043 Z-0.5333 I-0.25 J0.0
G2 Y57.7373 Z-0.6667 I0.125 J0.2165
G2 X29.7292 Y57.5208 Z-0.8 I0.125 J-0.2165
G2 X29.3542 Y57.3043 Z-0.9333 I-0.25 J0.0
G2 Y57.7373 Z-1.0667 I0.125 J0.2165
G2 X29.7292 Y57.5208 Z-1.2 I0.125 J-0.2165
G2 X29.3542 Y57.3043 Z-1.3333 I-0.25 J0.0
G2 Y57.7373 Z-1.4667 I0.125 J0.2165
G2 X29.7292 Y57.5208 Z-1.6 I0.125 J-0.2165
G2 X29.3542 Y57.3043 Z-1.7333 I-0.25 J0.0
G2 Y57.7373 Z-1.8667 I0.125 J0.2165
G2 X29.7292 Y57.5208 Z-2.0 I0.125 J-0.2165
G2 X29.3542 Y57.3043 Z-2.1333 I-0.25 J0.0
G2 Y57.7373 Z-2.2667 I0.125 J0.2165
G2 X29.7292 Y57.5208 Z-2.4 I0.125 J-0.2165
G2 X29.3542 Y57.3043 Z-2.5333 I-0.25 J0.0
G2 Y57.7373 Z-2.6667 I0.125 J0.2165
G2 X29.7292 Y57.5208 Z-2.8 I0.125 J-0.2165
G2 X29.3542 Y57.3043 Z-2.9333 I-0.25 J0.0
G2 Y57.7373 Z-3.0667 I0.125 J0.2165
G2 X29.7292 Y57.5208 Z-3.2 I0.125 J-0.2165
G2 X29.3542 Y57.3043 Z-3.3333 I-0.25 J0.0
G2 Y57.7373 Z-3.4667 I0.125 J0.2165
G2 X29.7292 Y57.5208 Z-3.6 I0.125 J-0.2165
G2 X29.3542 Y57.3043 Z-3.7333 I-0.25 J0.0
G2 Y57.7373 Z-3.8667 I0.125 J0.2165
G2 X29.7292 Y57.5208 Z-4.0 I0.125 J-0.2165
G2 X29.3542 Y57.3043 Z-4.1333 I-0.25 J0.0
G2 X29.2292 Y57.5208 Z-4.2 I0.125 J0.2165
G2 X29.6042 Y57.7373 I0.25 J0.0
G2 Y57.3043 I-0.125 J-0.2165
G2 X29.2292 Y57.5208 I-0.125 J0.2165
G0 Z3.0
G0 X26.9008 Y60.3492
G0 Z1.0
G1 F300.0 Z0.0
G2 F800.0 X26.5258 Y60.1327 Z-0.1333 I-0.25 J0.0
G2 Y60.5657 Z-0.2667 I0.125 J0.2165
G2 X26.9008 Y60.3492 Z-0.4 I0.125 J-0.2165
G2 X26.5258 Y60.1327 Z-0.5333 I-0.25 J0.0
G2 Y60.5657 Z-0.6667 I0.125 J0.2165
G2 X26.9008 Y60.3492 Z-0.8 I0.125 J-0.2165
G2 X26.5258 Y60.1327 Z-0.9333 I-0.25 J0.0
G2 Y60.5657 Z-1.0667 I0.125 J0.2165
G2 X26.9008 Y60.3492 Z-1.2 I0.125 J-0.2165
G2 X26.5258 Y60.1327 Z-1.3333 I-0.25 J0.0
G2 Y60.5657 Z-1.4667 I0.125 J0.2165
G2 X26.9008 Y60.3492 Z-1.6 I0.125 J-0.2165
G2 X26.5258 Y60.1327 Z-1.7333 I-0.25 J0.0
G2 Y60.5657 Z-1.8667 I0.125 J0.2165
G2 X26.9008 Y60.3492 Z-2.0 I0.125 J-0.2165
G2 X26.5258 Y60.1327 Z-2.1333 I-0.25 J0.0
G2 Y60.5657 Z-2.2667 I0.125 J0.2165
G2 X26.9008 Y60.3492 Z-2.4 I0.125 J-0.2165
G2 X26.5258 Y60.1327 Z-2.5333 I-0.25 J0.0
G2 Y60.5657 Z-2.6667 I0.125 J0.2165
G2 X26.9008 Y60.3492 Z-2.8 I0.125 J-0.2165
G2 X26.5258 Y60.1327 Z-2.9333 I-0.25 J0.0
G2 Y60.5657 Z-3.0667 I0.125 J0.2165
G2 X26.9008 Y60.3492 Z-3.2 I0.125 J-0.2165
G2 X26.5258 Y60.1327 Z-3.3333 I-0.25 J0.0
G2 Y60.5657 Z-3.4667 I0.125 J0.2165
G2 X26.9008 Y60.3492 Z-3.6 I0.125 J-0.2165
G2 X26.5258 Y60.1327 Z-3.7333 I-0.25 J0.0
G2 Y60.5657 Z-3.8667 I0.125 J0.2165
G2 X26.9008 Y60.3492 Z-4.0 I0.125 J-0.2165
G2 X26.5258 Y60.1327 Z-4.1333 I-0.25 J0.0
G2 X26.4008 Y60.3492 Z-4.2 I0.125 J0.2165
G2 X26.7758 Y60.5657 I0.25 J0.0
G2 Y60.1327 I-0.125 J-0.2165
G2 X26.4008 Y60.3492 I-0.125 J0.2165
G0 Z3.0
G0 X24.0723 Y63.1777
G0 Z1.0
G1 F300.0 Z0.0
G2 F800.0 X23.6973 Y62.9612 Z-0.1333 I-0.25 J0.0
G2 Y63.3942 Z-0.2667 I0.125 J0.2165
G2 X24.0723 Y63.1777 Z-0.4 I0.125 J-0.2165
G2 X23.6973 Y62.9612 Z-0.5333 I-0.25 J0.0
G2 Y63.3942 Z-0.6667 I0.125 J0.2165
G2 X24.0723 Y63.1777 Z-0.8 I0.125 J-0.2165
G2 X23.6973 Y62.9612 Z-0.9333 I-0.25 J0.0
G2 Y63.3942 Z-1.0667 I0.125 J0.2165
G2 X24.0723 Y63.1777 Z-1.2 I0.125 J-0.2165
G2 X23.6973 Y62.9612 Z-1.3333 I-0.25 J0.0
G2 Y63.3942 Z-1.4667 I0.125 J0.2165
G2 X24.0723 Y63.1777 Z-1.6 I0.125 J-0.2165
G2 X23.6973 Y62.9612 Z-1.7333 I-0.25 J0.0
G2 Y63.3942 Z-1.8667 I0.125 J0.2165
G2 X24.0723 Y63.1777 Z-2.0 I0.125 J-0.2165
G2 X23.6973 Y62.9612 Z-2.1333 I-0.25 J0.0
G2 Y63.3942 Z-2.2667 I0.125 J0.2165
G2 X24.0723 Y63.1777 Z-2.4 I0.125 J-0.2165
G2 X23.6973 Y62.9612 Z-2.5333 I-0.25 J0.0
G2 Y63.3942 Z-2.6667 I0.125 J0.2165
G2 X24.0723 Y63.1777 Z-2.8 I0.125 J-0.2165
G2 X23.6973 Y62.9612 Z-2.9333 I-0.25 J0.0
G2 Y63.3942 Z-3.0667 I0.125 J0.2165
G2 X24.0723 Y63.1777 Z-3.2 I0.125 J-0.2165
G2 X23.6973 Y62.9612 Z-3.3333 I-0.25 J0.0
G2 Y63.3942 Z-3.4667 I0.125 J0.2165
G2 X24.0723 Y63.1777 Z-3.6 I0.125 J-0.2165
G2 X23.6973 Y62.9612 Z-3.7333 I-0.25 J0.0
G2 Y63.3942 Z-3.8667 I0.125 J0.2165
G2 X24.0723 Y63.1777 Z-4.0 I0.125 J-0.2165
G2 X23.6973 Y62.9612 Z-4.1333 I-0.25 J0.0
G2 X23.5723 Y63.1777 Z-4.2 I0.125 J0.2165
G2 X23.9473 Y63.3942 I0.25 J0.0
G2 Y62.9612 I-0.125 J-0.2165
G2 X23.5723 Y63.1777 I-0.125 J0.2165
G0 Z3.0
G0 X21.2439 Y66.0061
G0 Z1.0
G1 F300.0 Z0.0
G2 F800.0 X20.8689 Y65.7896 Z-0.1333 I-0.25 J0.0
G2 Y66.2226 Z-0.2667 I0.125 J0.2165
G2 X21.2439 Y66.0061 Z-0.4 I0.125 J-0.2165
G2 X20.8689 Y65.7896 Z-0.5333 I-0.25 J0.0
G2 Y66.2226 Z-0.6667 I0.125 J0.2165
G2 X21.2439 Y66.0061 Z-0.8 I0.125 J-0.2165
G2 X20.8689 Y65.7896 Z-0.9333 I-0.25 J0.0
G2 Y66.2226 Z-1.0667 I0.125 J0.2165
G2 X21.2439 Y66.0061 Z-1.2 I0.125 J-0.2165
G2 X20.8689 Y65.7896 Z-1.3333 I-0.25 J0.0
G2 Y66.2226 Z-1.4667 I0.125 J0.2165
G2 X21.2439 Y66.0061 Z-1.6 I0.125 J-0.2165
G2 X20.8689 Y65.7896 Z-1.7333 I-0.25 J0.0
G2 Y66.2226 Z-1.8667 I0.125 J0.2165
G2 X21.2439 Y66.0061 Z-2.0 I0.125 J-0.2165
G2 X20.8689 Y65.7896 Z-2.1333 I-0.25 J0.0
G2 Y66.2226 Z-2.2667 I0.125 J0.2165
G2 X21.2439 Y66.0061 Z-2.4 I0.125 J-0.2165
G2 X20.8689 Y65.7896 Z-2.5333 I-0.25 J0.0
G2 Y66.2226 Z-2.6667 I0.125 J0.2165
G2 X21.2439 Y66.0061 Z-2.8 I0.125 J-0.2165
G2 X20.8689 Y65.7896 Z-2.9333 I-0.25 J0.0
G2 Y66.2226 Z-3.0667 I0.125 J0.2165
G2 X21.2439 Y66.0061 Z-3.2 I0.125 J-0.2165
G2 X20.8689 Y65.7896 Z-3.3333 I-0.25 J0.0
G2 Y66.2226 Z-3.4667 I0.125 J0.2165
G2 X21.2439 Y66.0061 Z-3.6 I0.125 J-0.2165
G2 X20.8689 Y65.7896 Z-3.7333 I-0.25 J0.0
G2 Y66.2226 Z-3.8667 I0.125 J0.2165
G2 X21.2439 Y66.0061 Z-4.0 I0.125 J-0.2165
G2 X20.8689 Y65.7896 Z-4.1333 I-0.25 J0.0
G2 X20.7439 Y66.0061 Z-4.2 I0.125 J0.2165
G2 X21.1189 Y66.2226 I0.25 J0.0
G2 Y65.7896 I-0.125 J-0.2165
G2 X20.7439 Y66.0061 I-0.125 J0.2165
G0 Z3.0
G0 X18.653 Y55.0671
G0 Z1.0
G1 F300.0 Z0.0
G2 F800.0 X18.278 Y54.8506 Z-0.1333 I-0.25 J0.0
G2 Y55.2836 Z-0.2667 I0.125 J0.2165
G2 X18.653 Y55.0671 Z-0.4 I0.125 J-0.2165
G2 X18.278 Y54.8506 Z-0.5333 I-0.25 J0.0
G2 Y55.2836 Z-0.6667 I0.125 J0.2165
G2 X18.653 Y55.0671 Z-0.8 I0.125 J-0.2165
G2 X18.278 Y54.8506 Z-0.9333 I-0.25 J0.0
G2 Y55.2836 Z-1.0667 I0.125 J0.2165
G2 X18.653 Y55.0671 Z-1.2 I0.125 J-0.2165
G2 X18.278 Y54.8506 Z-1.3333 I-0.25 J0.0
G2 Y55.2836 Z-1.4667 I0.125 J0.2165
G2 X18.653 Y55.0671 Z-1.6 I0.125 J-0.2165
G2 X18.278 Y54.8506 Z-1.7333 I-0.25 J0.0
G2 Y55.2836 Z-1.8667 I0.125 J0.2165
G2 X18.653 Y55.0671 Z-2.0 I0.125 J-0.2165
G2 X18.278 Y54.8506 Z-2.1333 I-0.25 J0.0
G2 Y55.2836 Z-2.2667 I0.125 J0.2165
G2 X18.653 Y55.0671 Z-2.4 I0.125 J-0.2165
G2 X18.278 Y54.8506 Z-2.5333 I-0.25 J0.0
G2 Y55.2836 Z-2.6667 I0.125 J0.2165
G2 X18.653 Y55.0671 Z-2.8 I0.125 J-0.2165
G2 X18.278 Y54.8506 Z-2.9333 I-0.25 J0.0
G2 Y55.2836 Z-3.0667 I0.125 J0.2165
G2 X18.653 Y55.0671 Z-3.2 I0.125 J-0.2165
G2 X18.278 Y54.8506 Z-3.3333 I-0.25 J0.0
G2 Y55.2836 Z-3.4667 I0.125 J0.2165
G2 X18.653 Y55.0671 Z-3.6 I0.125 J-0.2165
G2 X18.278 Y54.8506 Z-3.7333 I-0.25 J0.0
G2 Y55.2836 Z-3.8667 I0.125 J0.2165
G2 X18.653 Y55.0671 Z-4.0 I0.125 J-0.2165
G2 X18.278 Y54.8506 Z-4.1333 I-0.25 J0.0
G2 X18.153 Y55.0671 Z-4.2 I0.125 J0.2165
G2 X18.528 Y55.2836 I0.25 J0.0
G2 Y54.8506 I-0.125 J-0.2165
G2 X18.153 Y55.0671 I-0.125 J0.2165
G0 Z3.0
G0 X22.3485 Y53.5364
G0 Z1.0
G1 F300.0 Z0.0
G2 F800.0 X21.9735 Y53.3198 Z-0.1333 I-0.25 J0.0
G2 Y53.7529 Z-0.2667 I0.125 J0.2165
G2 X22.3485 Y53.5364 Z-0.4 I0.125 J-0.2165
G2 X21.9735 Y53.3198 Z-0.5333 I-0.25 J0.0
G2 Y53.7529 Z-0.6667 I0.125 J0.2165
G2 X22.3485 Y53.5364 Z-0.8 I0.125 J-0.2165
G2 X21.9735 Y53.3198 Z-0.9333 I-0.25 J0.0
G2 Y53.7529 Z-1.0667 I0.125 J0.2165
G2 X22.3485 Y53.5364 Z-1.2 I0.125 J-0.2165
G2 X21.9735 Y53.3198 Z-1.3333 I-0.25 J0.0
G2 Y53.7529 Z-1.4667 I0.125 J0.2165
G2 X22.3485 Y53.5364 Z-1.6 I0.125 J-0.2165
G2 X21.9735 Y53.3198 Z-1.7333 I-0.25 J0.0
G2 Y53.7529 Z-1.8667 I0.125 J0.2165
G2 X22.3485 Y53.5364 Z-2.0 I0.125 J-0.2165
G2 X21.9735 Y53.3198 Z-2.1333 I-0.25 J0.0
G2 Y53.7529 Z-2.2667 I0.125 J0.2165
G2 X22.3485 Y53.5364 Z-2.4 I0.125 J-0.2165
G2 X21.9735 Y53.3198 Z-2.5333 I-0.25 J0.0
G2 Y53.7529 Z-2.6667 I0.125 J0.2165
G2 X22.3485 Y53.5364 Z-2.8 I0.125 J-0.2165
G2 X21.9735 Y53.3198 Z-2.9333 I-0.25 J0.0
G2 Y53.7529 Z-3.0667 I0.125 J0.2165
G2 X22.3485 Y53.5364 Z-3.2 I0.125 J-0.2165
G2 X21.9735 Y53.3198 Z-3.3333 I-0.25 J0.0
G2 Y53.7529 Z-3.4667 I0.125 J0.2165
G2 X22.3485 Y53.5364 Z-3.6 I0.125 J-0.2165
G2 X21.9735 Y53.3198 Z-3.7333 I-0.25 J0.0
G2 Y53.7529 Z-3.8667 I0.125 J0.2165
G2 X22.3485 Y53.5364 Z-4.0 I0.125 J-0.2165
G2 X21.9735 Y53.3198 Z-4.1333 I-0.25 J0.0
G2 X21.8485 Y53.5364 Z-4.2 I0.125 J0.2165
G2 X22.2235 Y53.7529 I0.25 J0.0
G2 Y53.3198 I-0.125 J-0.2165
G2 X21.8485 Y53.5364 I-0.125 J0.2165
G0 Z3.0
G0 X26.044 Y52.0056
G0 Z1.0
G1 F300.0 Z0.0
G2 F800.0 X25.669 Y51.7891 Z-0.1333 I-0.25 J0.0
G2 Y52.2221 Z-0.2667 I0.125 J0.2165
G2 X26.044 Y52.0056 Z-0.4 I0.125 J-0.2165
G2 X25.669 Y51.7891 Z-0.5333 I-0.25 J0.0
G2 Y52.2221 Z-0.6667 I0.125 J0.2165
G2 X26.044 Y52.0056 Z-0.8 I0.125 J-0.2165
G2 X25.669 Y51.7891 Z-0.9333 I-0.25 J0.0
G2 Y52.2221 Z-1.0667 I0.125 J0.2165
G2 X26.044 Y52.0056 Z-1.2 I0.125 J-0.2165
G2 X25.669 Y51.7891 Z-1.3333 I-0.25 J0.0
G2 Y52.2221 Z-1.4667 I0.125 J0.2165
G2 X26.044 Y52.0056 Z-1.6 I0.125 J-0.2165
G2 X25.669 Y51.7891 Z-1.7333 I-0.25 J0.0
G2 Y52.2221 Z-1.8667 I0.125 J0.2165
G2 X26.044 Y52.0056 Z-2.0 I0.125 J-0.2165
G2 X25.669 Y51.7891 Z-2.1333 I-0.25 J0.0
G2 Y52.2221 Z-2.2667 I0.125 J0.2165
G2 X26.044 Y52.0056 Z-2.4 I0.125 J-0.2165
G2 X25.669 Y51.7891 Z-2.5333 I-0.25 J0.0
G2 Y52.2221 Z-2.6667 I0.125 J0.2165
G2 X26.044 Y52.0056 Z-2.8 I0.125 J-0.2165
G2 X25.669 Y51.7891 Z-2.9333 I-0.25 J0.0
G2 Y52.2221 Z-3.0667 I0.125 J0.2165
G2 X26.044 Y52.0056 Z-3.2 I0.125 J-0.2165
G2 X25.669 Y51.7891 Z-3.3333 I-0.25 J0.0
G2 Y52.2221 Z-3.4667 I0.125 J0.2165
G2 X26.044 Y52.0056 Z-3.6 I0.125 J-0.2165
G2 X25.669 Y51.7891 Z-3.7333 I-0.25 J0.0
G2 Y52.2221 Z-3.8667 I0.125 J0.2165
G2 X26.044 Y52.0056 Z-4.0 I0.125 J-0.2165
G2 X25.669 Y51.7891 Z-4.1333 I-0.25 J0.0
G2 X25.544 Y52.0056 Z-4.2 I0.125 J0.2165
G2 X25.919 Y52.2221 I0.25 J0.0
G2 Y51.7891 I-0.125 J-0.2165
G2 X25.544 Y52.0056 I-0.125 J0.2165
G0 Z3.0
G0 X29.7396 Y50.4749
G0 Z1.0
G1 F300.0 Z0.0
G2 F800.0 X29.3646 Y50.2584 Z-0.1333 I-0.25 J0.0
G2 Y50.6914 Z-0.2667 I0.125 J0.2165
G2 X29.7396 Y50.4749 Z-0.4 I0.125 J-0.2165
G2 X29.3646 Y50.2584 Z-0.5333 I-0.25 J0.0
G2 Y50.6914 Z-0.6667 I0.125 J0.2165
G2 X29.7396 Y50.4749 Z-0.8 I0.125 J-0.2165
G2 X29.3646 Y50.2584 Z-0.9333 I-0.25 J0.0
G2 Y50.6914 Z-1.0667 I0.125 J0.2165
G2 X29.7396 Y50.4749 Z-1.2 I0.125 J-0.2165
G2 X29.3646 Y50.2584 Z-1.3333 I-0.25 J0.0
G2 Y50.6914 Z-1.4667 I0.125 J0.2165
G2 X29.7396 Y50.4749 Z-1.6 I0.125 J-0.2165
G2 X29.3646 Y50.2584 Z-1.7333 I-0.25 J0.0
G2 Y50.6914 Z-1.8667 I0.125 J0.2165
G2 X29.7396 Y50.4749 Z-2.0 I0.125 J-0.2165
G2 X29.3646 Y50.2584 Z-2.1333 I-0.25 J0.0
G2 Y50.6914 Z-2.2667 I0.125 J0.2165
G2 X29.7396 Y50.4749 Z-2.4 I0.125 J-0.2165
G2 X29.3646 Y50.2584 Z-2.5333 I-0.25 J0.0
G2 Y50.6914 Z-2.6667 I0.125 J0.2165
G2 X29.7396 Y50.4749 Z-2.8 I0.125 J-0.2165
G2 X29.3646 Y50.2584 Z-2.9333 I-0.25 J0.0
G2 Y50.6914 Z-3.0667 I0.125 J0.2165
G2 X29.7396 Y50.4749 Z-3.2 I0.125 J-0.2165
G2 X29.3646 Y50.2584 Z-3.3333 I-0.25 J0.0
G2 Y50.6914 Z-3.4667 I0.125 J0.2165
G2 X29.7396 Y50.4749 Z-3.6 I0.125 J-0.2165
G2 X29.3646 Y50.2584 Z-3.7333 I-0.25 J0.0
G2 Y50.6914 Z-3.8667 I0.125 J0.2165
G2 X29.7396 Y50.4749 Z-4.0 I0.125 J-0.2165
G2 X29.3646 Y50.2584 Z-4.1333 I-0.25 J0.0
G2 X29.2396 Y50.4749 Z-4.2 I0.125 J0.2165
G2 X29.6146 Y50.6914 I0.25 J0.0
G2 Y50.2584 I-0.125 J-0.2165
G2 X29.2396 Y50.4749 I-0.125 J0.2165
G0 Z3.0
G0 X28.75 Y45.5
G0 Z1.0
G1 F300.0 Z0.0
G2 F800.0 X28.375 Y45.2835 Z-0.1333 I-0.25 J0.0
G2 Y45.7165 Z-0.2667 I0.125 J0.2165
G2 X28.75 Y45.5 Z-0.4 I0.125 J-0.2165
G2 X28.375 Y45.2835 Z-0.5333 I-0.25 J0.0
G2 Y45.7165 Z-0.6667 I0.125 J0.2165
G2 X28.75 Y45.5 Z-0.8 I0.125 J-0.2165
G2 X28.375 Y45.2835 Z-0.9333 I-0.25 J0.0
G2 Y45.7165 Z-1.0667 I0.125 J0.2165
G2 X28.75 Y45.5 Z-1.2 I0.125 J-0.2165
G2 X28.375 Y45.2835 Z-1.3333 I-0.25 J0.0
G2 Y45.7165 Z-1.4667 I0.125 J0.2165
G2 X28.75 Y45.5 Z-1.6 I0.125 J-0.2165
G2 X28.375 Y45.2835 Z-1.7333 I-0.25 J0.0
G2 Y45.7165 Z-1.8667 I0.125 J0.2165
G2 X28.75 Y45.5 Z-2.0 I0.125 J-0.2165
G2 X28.375 Y45.2835 Z-2.1333 I-0.25 J0.0
G2 Y45.7165 Z-2.2667 I0.125 J0.2165
G2 X28.75 Y45.5 Z-2.4 I0.125 J-0.2165
G2 X28.375 Y45.2835 Z-2.5333 I-0.25 J0.0
G2 Y45.7165 Z-2.6667 I0.125 J0.2165
G2 X28.75 Y45.5 Z-2.8 I0.125 J-0.2165
G2 X28.375 Y45.2835 Z-2.9333 I-0.25 J0.0
G2 Y45.7165 Z-3.0667 I0.125 J0.2165
G2 X28.75 Y45.5 Z-3.2 I0.125 J-0.2165
G2 X28.375 Y45.2835 Z-3.3333 I-0.25 J0.0
G2 Y45.7165 Z-3.4667 I0.125 J0.2165
G2 X28.75 Y45.5 Z-3.6 I0.125 J-0.2165
G2 X28.375 Y45.2835 Z-3.7333 I-0.25 J0.0
G2 Y45.7165 Z-3.8667 I0.125 J0.2165
G2 X28.75 Y45.5 Z-4.0 I0.125 J-0.2165
G2 X28.375 Y45.2835 Z-4.1333 I-0.25 J0.0
G2 X28.25 Y45.5 Z-4.2 I0.125 J0.2165
G2 X28.625 Y45.7165 I0.25 J0.0
G2 Y45.2835 I-0.125 J-0.2165
G2 X28.25 Y45.5 I-0.125 J0.2165
G0 Z3.0
G0 X24.75
G0 Z1.0
G1 F300.0 Z0.0
G2 F800.0 X24.375 Y45.2835 Z-0.1333 I-0.25 J0.0
G2 Y45.7165 Z-0.2667 I0.125 J0.2165
G2 X24.75 Y45.5 Z-0.4 I0.125 J-0.2165
G2 X24.375 Y45.2835 Z-0.5333 I-0.25 J0.0
G2 Y45.7165 Z-0.6667 I0.125 J0.2165
G2 X24.75 Y45.5 Z-0.8 I0.125 J-0.2165
G2 X24.375 Y45.2835 Z-0.9333 I-0.25 J0.0
G2 Y45.7165 Z-1.0667 I0.125 J0.2165
G2 X24.75 Y45.5 Z-1.2 I0.125 J-0.2165
G2 X24.375 Y45.2835 Z-1.3333 I-0.25 J0.0
G2 Y45.7165 Z-1.4667 I0.125 J0.2165
G2 X24.75 Y45.5 Z-1.6 I0.125 J-0.2165
G2 X24.375 Y45.2835 Z-1.7333 I-0.25 J0.0
G2 Y45.7165 Z-1.8667 I0.125 J0.2165
G2 X24.75 Y45.5 Z-2.0 I0.125 J-0.2165
G2 X24.375 Y45.2835 Z-2.1333 I-0.25 J0.0
G2 Y45.7165 Z-2.2667 I0.125 J0.2165
G2 X24.75 Y45.5 Z-2.4 I0.125 J-0.2165
G2 X24.375 Y45.2835 Z-2.5333 I-0.25 J0.0
G2 Y45.7165 Z-2.6667 I0.125 J0.2165
G2 X24.75 Y45.5 Z-2.8 I0.125 J-0.2165
G2 X24.375 Y45.2835 Z-2.9333 I-0.25 J0.0
G2 Y45.7165 Z-3.0667 I0.125 J0.2165
G2 X24.75 Y45.5 Z-3.2 I0.125 J-0.2165
G2 X24.375 Y45.2835 Z-3.3333 I-0.25 J0.0
G2 Y45.7165 Z-3.4667 I0.125 J0.2165
G2 X24.75 Y45.5 Z-3.6 I0.125 J-0.2165
G2 X24.375 Y45.2835 Z-3.7333 I-0.25 J0.0
G2 Y45.7165 Z-3.8667 I0.125 J0.2165
G2 X24.75 Y45.5 Z-4.0 I0.125 J-0.2165
G2 X24.375 Y45.2835 Z-4.1333 I-0.25 J0.0
G2 X24.25 Y45.5 Z-4.2 I0.125 J0.2165
G2 X24.625 Y45.7165 I0.25 J0.0
G2 Y45.2835 I-0.125 J-0.2165
G2 X24.25 Y45.5 I-0.125 J0.2165
G0 Z3.0
G0 X20.75
G0 Z1.0
G1 F300.0 Z0.0
G2 F800.0 X20.375 Y45.2835 Z-0.1333 I-0.25 J0.0
G2 Y45.7165 Z-0.2667 I0.125 J0.2165
G2 X20.75 Y45.5 Z-0.4 I0.125 J-0.2165
G2 X20.375 Y45.2835 Z-0.5333 I-0.25 J0.0
G2 Y45.7165 Z-0.6667 I0.125 J0.2165
G2 X20.75 Y45.5 Z-0.8 I0.125 J-0.2165
G2 X20.375 Y45.2835 Z-0.9333 I-0.25 J0.0
G2 Y45.7165 Z-1.0667 I0.125 J0.2165
G2 X20.75 Y45.5 Z-1.2 I0.125 J-0.2165
G2 X20.375 Y45.2835 Z-1.3333 I-0.25 J0.0
G2 Y45.7165 Z-1.4667 I0.125 J0.2165
G2 X20.75 Y45.5 Z-1.6 I0.125 J-0.2165
G2 X20.375 Y45.2835 Z-1.7333 I-0.25 J0.0
G2 Y45.7165 Z-1.8667 I0.125 J0.2165
G2 X20.75 Y45.5 Z-2.0 I0.125 J-0.2165
G2 X20.375 Y45.2835 Z-2.1333 I-0.25 J0.0
G2 Y45.7165 Z-2.2667 I0.125 J0.2165
G2 X20.75 Y45.5 Z-2.4 I0.125 J-0.2165
G2 X20.375 Y45.2835 Z-2.5333 I-0.25 J0.0
G2 Y45.7165 Z-2.6667 I0.125 J0.2165
G2 X20.75 Y45.5 Z-2.8 I0.125 J-0.2165
G2 X20.375 Y45.2835 Z-2.9333 I-0.25 J0.0
G2 Y45.7165 Z-3.0667 I0.125 J0.2165
G2 X20.75 Y45.5 Z-3.2 I0.125 J-0.2165
G2 X20.375 Y45.2835 Z-3.3333 I-0.25 J0.0
G2 Y45.7165 Z-3.4667 I0.125 J0.2165
G2 X20.75 Y45.5 Z-3.6 I0.125 J-0.2165
G2 X20.375 Y45.2835 Z-3.7333 I-0.25 J0.0
G2 Y45.7165 Z-3.8667 I0.125 J0.2165
G2 X20.75 Y45.5 Z-4.0 I0.125 J-0.2165
G2 X20.375 Y45.2835 Z-4.1333 I-0.25 J0.0
G2 X20.25 Y45.5 Z-4.2 I0.125 J0.2165
G2 X20.625 Y45.7165 I0.25 J0.0
G2 Y45.2835 I-0.125 J-0.2165
G2 X20.25 Y45.5 I-0.125 J0.2165
G0 Z3.0
G0 X16.75
G0 Z1.0
G1 F300.0 Z0.0
G2 F800.0 X16.375 Y45.2835 Z-0.1333 I-0.25 J0.0
G2 Y45.7165 Z-0.2667 I0.125 J0.2165
G2 X16.75 Y45.5 Z-0.4 I0.125 J-0.2165
G2 X16.375 Y45.2835 Z-0.5333 I-0.25 J0.0
G2 Y45.7165 Z-0.6667 I0.125 J0.2165
G2 X16.75 Y45.5 Z-0.8 I0.125 J-0.2165
G2 X16.375 Y45.2835 Z-0.9333 I-0.25 J0.0
G2 Y45.7165 Z-1.0667 I0.125 J0.2165
G2 X16.75 Y45.5 Z-1.2 I0.125 J-0.2165
G2 X16.375 Y45.2835 Z-1.3333 I-0.25 J0.0
G2 Y45.7165 Z-1.4667 I0.125 J0.2165
G2 X16.75 Y45.5 Z-1.6 I0.125 J-0.2165
G2 X16.375 Y45.2835 Z-1.7333 I-0.25 J0.0
G2 Y45.7165 Z-1.8667 I0.125 J0.2165
G2 X16.75 Y45.5 Z-2.0 I0.125 J-0.2165
G2 X16.375 Y45.2835 Z-2.1333 I-0.25 J0.0
G2 Y45.7165 Z-2.2667 I0.125 J0.2165
G2 X16.75 Y45.5 Z-2.4 I0.125 J-0.2165
G2 X16.375 Y45.2835 Z-2.5333 I-0.25 J0.0
G2 Y45.7165 Z-2.6667 I0.125 J0.2165
G2 X16.75 Y45.5 Z-2.8 I0.125 J-0.2165
G2 X16.375 Y45.2835 Z-2.9333 I-0.25 J0.0
G2 Y45.7165 Z-3.0667 I0.125 J0.2165
G2 X16.75 Y45.5 Z-3.2 I0.125 J-0.2165
G2 X16.375 Y45.2835 Z-3.3333 I-0.25 J0.0
G2 Y45.7165 Z-3.4667 I0.125 J0.2165
G2 X16.75 Y45.5 Z-3.6 I0.125 J-0.2165
G2 X16.375 Y45.2835 Z-3.7333 I-0.25 J0.0
G2 Y45.7165 Z-3.8667 I0.125 J0.2165
G2 X16.75 Y45.5 Z-4.0 I0.125 J-0.2165
G2 X16.375 Y45.2835 Z-4.1333 I-0.25 J0.0
G2 X16.25 Y45.5 Z-4.2 I0.125 J0.2165
G2 X16.625 Y45.7165 I0.25 J0.0
G2 Y45.2835 I-0.125 J-0.2165
G2 X16.25 Y45.5 I-0.125 J0.2165
G0 Z3.0
G0 X12.75
G0 Z1.0
G1 F300.0 Z0.0
G2 F800.0 X12.375 Y45.2835 Z-0.1333 I-0.25 J0.0
G2 Y45.7165 Z-0.2667 I0.125 J0.2165
G2 X12.75 Y45.5 Z-0.4 I0.125 J-0.2165
G2 X12.375 Y45.2835 Z-0.5333 I-0.25 J0.0
G2 Y45.7165 Z-0.6667 I0.125 J0.2165
G2 X12.75 Y45.5 Z-0.8 I0.125 J-0.2165
G2 X12.375 Y45.2835 Z-0.9333 I-0.25 J0.0
G2 Y45.7165 Z-1.0667 I0.125 J0.2165
G2 X12.75 Y45.5 Z-1.2 I0.125 J-0.2165
G2 X12.375 Y45.2835 Z-1.3333 I-0.25 J0.0
G2 Y45.7165 Z-1.4667 I0.125 J0.2165
G2 X12.75 Y45.5 Z-1.6 I0.125 J-0.2165
G2 X12.375 Y45.2835 Z-1.7333 I-0.25 J0.0
G2 Y45.7165 Z-1.8667 I0.125 J0.2165
G2 X12.75 Y45.5 Z-2.0 I0.125 J-0.2165
G2 X12.375 Y45.2835 Z-2.1333 I-0.25 J0.0
G2 Y45.7165 Z-2.2667 I0.125 J0.2165
G2 X12.75 Y45.5 Z-2.4 I0.125 J-0.2165
G2 X12.375 Y45.2835 Z-2.5333 I-0.25 J0.0
G2 Y45.7165 Z-2.6667 I0.125 J0.2165
G2 X12.75 Y45.5 Z-2.8 I0.125 J-0.2165
G2 X12.375 Y45.2835 Z-2.9333 I-0.25 J0.0
G2 Y45.7165 Z-3.0667 I0.125 J0.2165
G2 X12.75 Y45.5 Z-3.2 I0.125 J-0.2165
G2 X12.375 Y45.2835 Z-3.3333 I-0.25 J0.0
G2 Y45.7165 Z-3.4667 I0.125 J0.2165
G2 X12.75 Y45.5 Z-3.6 I0.125 J-0.2165
G2 X12.375 Y45.2835 Z-3.7333 I-0.25 J0.0
G2 Y45.7165 Z-3.8667 I0.125 J0.2165
G2 X12.75 Y45.5 Z-4.0 I0.125 J-0.2165
G2 X12.375 Y45.2835 Z-4.1333 I-0.25 J0.0
G2 X12.25 Y45.5 Z-4.2 I0.125 J0.2165
