( Made using CamBam - http://www.cambam.co.uk )
( ssc_plexi_TopPanel 2/22/2021 1:54:08 PM )
( T2 : 2.0 )
( CUTVIEWER )
( FROM/0,0,5 )
( Select dummy tool to avoid warnings )
( TOOL/MILL,1,0,20.0,0 )
( STOCK/BLOCK,180.0,95.0,4.0,0.0,0.0,4.0 )
G90 G91.1 G64 G40
G0 Z3.0
( T2 : 2.0 )
( Tool Taper coming soon )
( TOOL/MILL,2.0,0.0,0.0,0 )
T2 M6
( connector_Cutout )
G17
M3 S1000
G0 X24.1 Y82.4
G1 F300.0 Z0.0
G1 F800.0 X11.0 Z-0.1985
G1 Y82.5 Z-0.2
G1 X24.1 Z-0.3985
G1 Y82.4 Z-0.4
G1 F300.0 Y81.6
G1 F800.0 X10.2
G1 Y83.3
G1 X24.9
G1 Y81.6
G1 X24.1
G1 F300.0 Y82.4
G1 F800.0 X11.0 Z-0.4496
G1 Y82.5 Z-0.45
G1 X24.1 Z-0.4996
G1 Y82.4 Z-0.5
G1 X11.0
G1 Y82.5
G1 X24.1
G1 Y82.4
G1 F300.0 Y81.6
G1 F800.0 X10.2
G1 Y83.3
G1 X24.9
G1 Y81.6
G1 X24.1
G0 Z3.0
G0 Y11.6
G1 F300.0 Z0.0
G1 F800.0 Y11.5 Z-0.0015
G1 X11.0 Z-0.2
G1 Y11.6 Z-0.2015
G1 X24.1 Z-0.4
G1 F300.0 X24.9
G1 F800.0 Y10.7
G1 X10.2
G1 Y12.4
G1 X24.9
G1 Y11.6
G1 F300.0 X24.1
G1 F800.0 Y11.5 Z-0.4004
G1 X11.0 Z-0.45
G1 Y11.6 Z-0.4504
G1 X24.1 Z-0.5
G1 Y11.5
G1 X11.0
G1 Y11.6
G1 X24.1
G1 F300.0 X24.9
G1 F800.0 Y10.7
G1 X10.2
G1 Y12.4
G1 X24.9
G1 Y11.6
G0 Z3.0
G0 X153.9
G1 F300.0 Z0.0
G1 F800.0 X167.0 Z-0.1985
G1 Y11.5 Z-0.2
G1 X153.9 Z-0.3985
G1 Y11.6 Z-0.4
G1 F300.0 Y12.4
G1 F800.0 X167.8
G1 Y10.7
G1 X153.1
G1 Y12.4
G1 X153.9
G1 F300.0 Y11.6
G1 F800.0 X167.0 Z-0.4496
G1 Y11.5 Z-0.45
G1 X153.9 Z-0.4996
G1 Y11.6 Z-0.5
G1 X167.0
G1 Y11.5
G1 X153.9
G1 Y11.6
G1 F300.0 Y12.4
G1 F800.0 X167.8
G1 Y10.7
G1 X153.1
G1 Y12.4
G1 X153.9
G0 Z3.0
G0 Y82.4
G1 F300.0 Z0.0
G1 F800.0 Y82.5 Z-0.0015
G1 X167.0 Z-0.2
G1 Y82.4 Z-0.2015
G1 X153.9 Z-0.4
G1 F300.0 X153.1
G1 F800.0 Y83.3
G1 X167.8
G1 Y81.6
G1 X153.1
G1 Y82.4
G1 F300.0 X153.9
G1 F800.0 Y82.5 Z-0.4004
G1 X167.0 Z-0.45
G1 Y82.4 Z-0.4504
G1 X153.9 Z-0.5
G1 Y82.5
G1 X167.0
G1 Y82.4
G1 X153.9
G1 F300.0 X153.1
G1 F800.0 Y83.3
G1 X167.8
G1 Y81.6
G1 X153.1
G1 Y82.4
( connector_3D )
S1000
G0 Z3.0
G0 X24.1
G1 F300.0 Z-0.5
G1 F800.0 X11.0
G1 Y82.5
G1 X24.1
G1 Y82.4
G1 F300.0 Y82.2
G1 F800.0 X10.8
G1 Y82.7
G1 X24.3
G1 Y82.2
G1 X24.1
G1 F300.0 Y82.0
G1 F800.0 X10.6
G1 Y82.9
G1 X24.5
G1 Y82.0
G1 X24.1
G1 F300.0 Y81.8
G1 F800.0 X10.4
G1 Y83.1
G1 X24.7
G1 Y81.8
G1 X24.1
G1 F300.0 Y81.6
G1 F800.0 X10.2
G1 Y83.3
G1 X24.9
G1 Y81.6
G1 X24.1
G1 F300.0 Y81.4
G1 F800.0 X10.0
G1 Y83.5
G1 X25.1
G1 Y81.4
G1 X24.1
G0 Z3.0
G0 Y11.6
G1 F300.0 Z-0.5
G1 F800.0 Y11.5
G1 X11.0
G1 Y11.6
G1 X24.1
G1 F300.0 X24.3
G1 F800.0 Y11.3
G1 X10.8
G1 Y11.8
G1 X24.3
G1 Y11.6
G1 F300.0 X24.5
G1 F800.0 Y11.1
G1 X10.6
G1 Y12.0
G1 X24.5
G1 Y11.6
G1 F300.0 X24.7
G1 F800.0 Y10.9
G1 X10.4
G1 Y12.2
G1 X24.7
G1 Y11.6
G1 F300.0 X24.9
G1 F800.0 Y10.7
G1 X10.2
G1 Y12.4
G1 X24.9
G1 Y11.6
G1 F300.0 X25.1
G1 F800.0 Y10.5
G1 X10.0
G1 Y12.6
G1 X25.1
G1 Y11.6
G0 Z3.0
G0 X153.9
G1 F300.0 Z-0.5
G1 F800.0 X167.0
G1 Y11.5
G1 X153.9
G1 Y11.6
G1 F300.0 Y11.8
G1 F800.0 X167.2
G1 Y11.3
G1 X153.7
G1 Y11.8
G1 X153.9
G1 F300.0 Y12.0
G1 F800.0 X167.4
G1 Y11.1
G1 X153.5
G1 Y12.0
G1 X153.9
G1 F300.0 Y12.2
G1 F800.0 X167.6
G1 Y10.9
G1 X153.3
G1 Y12.2
G1 X153.9
G1 F300.0 Y12.4
G1 F800.0 X167.8
G1 Y10.7
G1 X153.1
G1 Y12.4
G1 X153.9
G1 F300.0 Y12.6
G1 F800.0 X168.0
G1 Y10.5
G1 X152.9
G1 Y12.6
G1 X153.9
G0 Z3.0
G0 Y82.4
G1 F300.0 Z-0.5
G1 F800.0 Y82.5
G1 X167.0
G1 Y82.4
G1 X153.9
G1 F300.0 Y82.2
G1 F800.0 X153.7
G1 Y82.7
G1 X167.2
G1 Y82.2
G1 X153.9
G1 F300.0 Y82.0
G1 F800.0 X153.5
G1 Y82.9
G1 X167.4
G1 Y82.0
G1 X153.9
G1 F300.0 Y81.8
G1 F800.0 X153.3
G1 Y83.1
G1 X167.6
G1 Y81.8
G1 X153.9
G1 F300.0 Y81.6
G1 F800.0 X153.1
G1 Y83.3
G1 X167.8
G1 Y81.6
G1 X153.9
G1 F300.0 Y81.4
G1 F800.0 X152.9
G1 Y83.5
G1 X168.0
G1 Y81.4
G1 X153.9
( connector_trim_3D )
S1000
G0 Z3.0
G0 X151.9 Y85.5
G1 F300.0 Z-0.25
G1 F800.0 X26.1
G3 X25.1 Y84.5 I0.0 J-1.0
G1 Y81.4
G1 X9.0
G3 X8.0 Y80.4 I0.0 J-1.0
G1 Y13.6
G3 X9.0 Y12.6 I1.0 J0.0
G1 X25.1
G1 Y9.5
G3 X26.1 Y8.5 I1.0 J0.0
G1 X151.9
G3 X152.9 Y9.5 I0.0 J1.0
G1 Y12.6
G1 X169.0
G3 X170.0 Y13.6 I0.0 J1.0
G1 Y80.4
G3 X169.0 Y81.4 I-1.0 J0.0
G1 X152.9
G1 Y84.5
G3 X151.9 Y85.5 I-1.0 J0.0
G1 F300.0 Z-0.5
G1 F800.0 X26.1
G3 X25.1 Y84.5 I0.0 J-1.0
G1 Y81.4
G1 X9.0
G3 X8.0 Y80.4 I0.0 J-1.0
G1 Y13.6
G3 X9.0 Y12.6 I1.0 J0.0
G1 X25.1
G1 Y9.5
G3 X26.1 Y8.5 I1.0 J0.0
G1 X151.9
G3 X152.9 Y9.5 I0.0 J1.0
G1 Y12.6
G1 X169.0
G3 X170.0 Y13.6 I0.0 J1.0
G1 Y80.4
G3 X169.0 Y81.4 I-1.0 J0.0
G1 X152.9
G1 Y84.5
G3 X151.9 Y85.5 I-1.0 J0.0
( trail_Cutout )
S1000
G0 Z3.0
G0 X170.2 Y6.9719
G1 F300.0 Z0.0
G1 F800.0 Y6.3 Z-0.0008
G1 X7.8 Z-0.2
G1 Y6.9719 Z-0.2008
G3 X9.0 Y6.7016 Z-0.2023 I1.2 J2.5281
G1 X169.0 Z-0.3985
G3 X170.2 Y6.9719 Z-0.4 I0.0 J2.7984
G1 F300.0 X169.8569 Y7.6947
G3 F800.0 X170.9984 Y9.5 I-0.8569 J1.8053
G1 Y84.5
G3 X169.0 Y86.4984 I-1.9984 J0.0
G1 X9.0
G3 X7.0016 Y84.5 I0.0 J-1.9984
G1 Y9.5
G3 X9.0 Y7.5016 I1.9984 J0.0
G1 X169.0
G3 X169.8569 Y7.6947 I0.0 J1.9984
G1 F300.0 X169.5146 Y8.4159
G3 F800.0 X170.2 Y9.5 I-0.5146 J1.0841
G1 Y84.5
G3 X169.0 Y85.7 I-1.2 J0.0
G1 X9.0
G3 X7.8 Y84.5 I0.0 J-1.2
G1 Y9.5
G3 X9.0 Y8.3 I1.2 J0.0
G1 X169.0
G3 X169.5146 Y8.4159 I0.0 J1.2
G0 Z3.0
G0 X171.0
G1 F300.0 Z0.0
G1 F800.0 Y5.5 Z-0.0024
G1 X7.0 Z-0.1363
G1 Y86.5 Z-0.2024
G1 X171.0 Z-0.3363
G1 Y8.4159 Z-0.4
G1 F300.0 X171.8
G1 F800.0 Y4.7
G1 X6.2
G1 Y87.3
G1 X171.8
G1 Y8.4159
G0 Z3.0
G0 X170.2 Y6.9719
G1 F300.0 Z-0.4
G1 F800.0 Y6.3 Z-0.4008
G1 X7.8 Z-0.6
G1 Y6.9719 Z-0.6008
G3 X9.0 Y6.7016 Z-0.6023 I1.2 J2.5281
G1 X169.0 Z-0.7985
G3 X170.2 Y6.9719 Z-0.8 I0.0 J2.7984
G1 F300.0 X169.8569 Y7.6947
G3 F800.0 X170.9984 Y9.5 I-0.8569 J1.8053
G1 Y84.5
G3 X169.0 Y86.4984 I-1.9984 J0.0
G1 X9.0
G3 X7.0016 Y84.5 I0.0 J-1.9984
G1 Y9.5
G3 X9.0 Y7.5016 I1.9984 J0.0
G1 X169.0
G3 X169.8569 Y7.6947 I0.0 J1.9984
G1 F300.0 X169.5146 Y8.4159
G3 F800.0 X170.2 Y9.5 I-0.5146 J1.0841
G1 Y84.5
G3 X169.0 Y85.7 I-1.2 J0.0
G1 X9.0
G3 X7.8 Y84.5 I0.0 J-1.2
G1 Y9.5
G3 X9.0 Y8.3 I1.2 J0.0
G1 X169.0
G3 X169.5146 Y8.4159 I0.0 J1.2
G0 Z3.0
G0 X171.0
G1 F300.0 Z-0.4
G1 F800.0 Y5.5 Z-0.4024
G1 X7.0 Z-0.5363
G1 Y86.5 Z-0.6024
G1 X171.0 Z-0.7363
G1 Y8.4159 Z-0.8
G1 F300.0 X171.8
G1 F800.0 Y4.7
G1 X6.2
G1 Y87.3
G1 X171.8
G1 Y8.4159
G0 Z3.0
G0 X170.2 Y6.9719
G1 F300.0 Z-0.8
G1 F800.0 Y6.3 Z-0.8008
G1 X7.8 Z-1.0
G1 Y6.9719 Z-1.0008
G3 X9.0 Y6.7016 Z-1.0023 I1.2 J2.5281
G1 X169.0 Z-1.1985
G3 X170.2 Y6.9719 Z-1.2 I0.0 J2.7984
G1 F300.0 X169.8569 Y7.6947
G3 F800.0 X170.9984 Y9.5 I-0.8569 J1.8053
G1 Y84.5
G3 X169.0 Y86.4984 I-1.9984 J0.0
G1 X9.0
G3 X7.0016 Y84.5 I0.0 J-1.9984
G1 Y9.5
G3 X9.0 Y7.5016 I1.9984 J0.0
G1 X169.0
G3 X169.8569 Y7.6947 I0.0 J1.9984
G1 F300.0 X169.5146 Y8.4159
G3 F800.0 X170.2 Y9.5 I-0.5146 J1.0841
G1 Y84.5
G3 X169.0 Y85.7 I-1.2 J0.0
G1 X9.0
G3 X7.8 Y84.5 I0.0 J-1.2
G1 Y9.5
G3 X9.0 Y8.3 I1.2 J0.0
G1 X169.0
G3 X169.5146 Y8.4159 I0.0 J1.2
G0 Z3.0
G0 X171.0
G1 F300.0 Z-0.8
G1 F800.0 Y5.5 Z-0.8024
G1 X7.0 Z-0.9363
G1 Y86.5 Z-1.0024
G1 X171.0 Z-1.1363
G1 Y8.4159 Z-1.2
G1 F300.0 X171.8
G1 F800.0 Y4.7
G1 X6.2
G1 Y87.3
G1 X171.8
G1 Y8.4159
G0 Z3.0
G0 X170.2 Y6.9719
G1 F300.0 Z-1.2
G1 F800.0 Y6.3 Z-1.2008
G1 X7.8 Z-1.4
G1 Y6.9719 Z-1.4008
G3 X9.0 Y6.7016 Z-1.4023 I1.2 J2.5281
G1 X169.0 Z-1.5985
G3 X170.2 Y6.9719 Z-1.6 I0.0 J2.7984
G1 F300.0 X169.8569 Y7.6947
G3 F800.0 X170.9984 Y9.5 I-0.8569 J1.8053
G1 Y84.5
G3 X169.0 Y86.4984 I-1.9984 J0.0
G1 X9.0
G3 X7.0016 Y84.5 I0.0 J-1.9984
G1 Y9.5
G3 X9.0 Y7.5016 I1.9984 J0.0
G1 X169.0
G3 X169.8569 Y7.6947 I0.0 J1.9984
G1 F300.0 X169.5146 Y8.4159
G3 F800.0 X170.2 Y9.5 I-0.5146 J1.0841
G1 Y84.5
G3 X169.0 Y85.7 I-1.2 J0.0
G1 X9.0
G3 X7.8 Y84.5 I0.0 J-1.2
G1 Y9.5
G3 X9.0 Y8.3 I1.2 J0.0
G1 X169.0
G3 X169.5146 Y8.4159 I0.0 J1.2
G0 Z3.0
G0 X171.0
G1 F300.0 Z-1.2
G1 F800.0 Y5.5 Z-1.2024
G1 X7.0 Z-1.3363
G1 Y86.5 Z-1.4024
G1 X171.0 Z-1.5363
G1 Y8.4159 Z-1.6
G1 F300.0 X171.8
G1 F800.0 Y4.7
G1 X6.2
G1 Y87.3
G1 X171.8
G1 Y8.4159
G0 Z3.0
G0 X170.2 Y6.9719
G1 F300.0 Z-1.6
G1 F800.0 Y6.3 Z-1.6008
G1 X7.8 Z-1.8
G1 Y6.9719 Z-1.8008
G3 X9.0 Y6.7016 Z-1.8023 I1.2 J2.5281
G1 X169.0 Z-1.9985
G3 X170.2 Y6.9719 Z-2.0 I0.0 J2.7984
G1 Y6.3
G1 X7.8
G1 Y6.9719
G3 X9.0 Y6.7016 I1.2 J2.5281
G1 X169.0
G3 X170.2 Y6.9719 I0.0 J2.7984
G1 F300.0 X169.8569 Y7.6947
G3 F800.0 X170.9984 Y9.5 I-0.8569 J1.8053
G1 Y84.5
G3 X169.0 Y86.4984 I-1.9984 J0.0
G1 X9.0
G3 X7.0016 Y84.5 I0.0 J-1.9984
G1 Y9.5
G3 X9.0 Y7.5016 I1.9984 J0.0
G1 X169.0
G3 X169.8569 Y7.6947 I0.0 J1.9984
G1 F300.0 X169.5146 Y8.4159
G3 F800.0 X170.2 Y9.5 I-0.5146 J1.0841
G1 Y84.5
G3 X169.0 Y85.7 I-1.2 J0.0
G1 X9.0
G3 X7.8 Y84.5 I0.0 J-1.2
G1 Y9.5
G3 X9.0 Y8.3 I1.2 J0.0
G1 X169.0
G3 X169.5146 Y8.4159 I0.0 J1.2
G0 Z3.0
G0 X171.0
G1 F300.0 Z-1.6
G1 F800.0 Y5.5 Z-1.6024
G1 X7.0 Z-1.7363
G1 Y86.5 Z-1.8024
G1 X171.0 Z-1.9363
G1 Y8.4159 Z-2.0
G1 Y5.5
G1 X7.0
G1 Y86.5
G1 X171.0
G1 Y8.4159
G1 F300.0 X171.8
G1 F800.0 Y4.7
G1 X6.2
G1 Y87.3
G1 X171.8
G1 Y8.4159
( trail_3D )
S1000
G0 Z3.0
G0 X170.8 Y86.3
G1 F300.0 Z-2.0
G1 F800.0 Y85.7642
G3 X170.2642 Y86.3 I-1.8 J-1.2642
G1 X170.8
G0 Z3.0
G0 X170.0 Y6.672
G1 F300.0 Z-2.0
G1 F800.0 Y6.5
G1 X8.0
G1 Y6.672
G3 X9.0 Y6.5004 I1.0 J2.828
G1 X169.0
G3 X170.0 Y6.672 I0.0 J2.9996
G1 F300.0 X170.2
G1 F800.0 Y6.3
G1 X7.8
G1 Y6.9706
G3 X9.0 Y6.7004 I1.2 J2.5294
G1 X169.0
G3 X170.2 Y6.9706 I0.0 J2.7996
G1 Y6.672
G1 F300.0 X170.4
G1 F800.0 Y6.1
G1 X7.6
G1 Y7.3096
G3 X9.0 Y6.9004 I1.4 J2.1904
G1 X169.0
G3 X170.4 Y7.3096 I0.0 J2.5996
G1 Y6.672
G1 F300.0 X170.6
G1 F800.0 Y5.9
G1 X7.4
G1 Y7.7117
G3 X9.0 Y7.1004 I1.6 J1.7883
G1 X169.0
G3 X170.6 Y7.7117 I0.0 J2.3996
G1 Y6.672
G1 F300.0 X170.8
G1 F800.0 Y5.7
G1 X7.2
G1 Y8.2358
G3 X9.0 Y7.3004 I1.8 J1.2642
G1 X169.0
G3 X170.8 Y8.2358 I0.0 J2.1996
G1 Y6.672
G0 Z3.0
G0 X7.7358 Y86.3
G1 F300.0 Z-2.0
G3 F800.0 X7.2 Y85.7642 I1.2642 J-1.8
G1 Y86.3
G1 X7.7358
G1 F300.0 X8.3105 Y85.4817
G3 F800.0 X7.8004 Y84.5 I0.6895 J-0.9817
G1 Y9.5
G3 X9.0 Y8.3004 I1.1996 J0.0
G1 X169.0
G3 X170.1996 Y9.5 I0.0 J1.1996
G1 Y84.5
G3 X169.0 Y85.6996 I-1.1996 J0.0
G1 X9.0
G3 X8.3105 Y85.4817 I0.0 J-1.1996
G1 F300.0 X8.4253 Y85.3183
G3 F800.0 X8.0 Y84.5 I0.5747 J-0.8183
G1 Y9.5
G3 X9.0 Y8.5 I1.0 J0.0
G1 X169.0
G3 X170.0 Y9.5 I0.0 J1.0
G1 Y84.5
G3 X169.0 Y85.5 I-1.0 J0.0
G1 X9.0
G3 X8.4253 Y85.3183 I0.0 J-1.0
G1 F300.0 X8.1956 Y85.6453
G2 F800.0 X9.0 Y85.8996 I0.8044 J-1.1453
G1 X169.0
G2 X170.3996 Y84.5 I0.0 J-1.3996
G1 Y9.5
G2 X169.0 Y8.1004 I-1.3996 J0.0
G1 X9.0
G2 X7.6004 Y9.5 I0.0 J1.3996
G1 Y84.5
G2 X8.1956 Y85.6453 I1.3996 J0.0
G1 F300.0 X8.0806 Y85.809
G2 F800.0 X9.0 Y86.0996 I0.9194 J-1.309
G1 X169.0
G2 X170.5996 Y84.5 I0.0 J-1.5996
G1 Y9.5
G2 X169.0 Y7.9004 I-1.5996 J0.0
G1 X9.0
G2 X7.4004 Y9.5 I0.0 J1.5996
G1 Y84.5
G2 X8.0806 Y85.809 I1.5996 J0.0
G1 F300.0 X7.9657 Y85.9727
G2 F800.0 X9.0 Y86.2996 I1.0343 J-1.4727
G1 X169.0
G2 X170.7996 Y84.5 I0.0 J-1.7996
G1 Y9.5
G2 X169.0 Y7.7004 I-1.7996 J0.0
G1 X9.0
G2 X7.2004 Y9.5 I0.0 J1.7996
G1 Y84.5
G2 X7.9657 Y85.9727 I1.7996 J0.0
G1 F300.0 X7.8507 Y86.1363
G2 F800.0 X9.0 Y86.4996 I1.1493 J-1.6363
G1 X169.0
G2 X170.9996 Y84.5 I0.0 J-1.9996
G1 Y9.5
G2 X169.0 Y7.5004 I-1.9996 J0.0
G1 X9.0
G2 X7.0004 Y9.5 I0.0 J1.9996
G1 Y84.5
G2 X7.8507 Y86.1363 I1.9996 J0.0
G1 F300.0 Y86.5
G1 F800.0 X171.0
G1 Y9.5
G1 Y5.5
G1 X7.0
G1 Y9.5
G1 Y86.5
G1 X7.8507
G1 F300.0 Y86.7
G1 F800.0 X171.2
G1 Y5.3
G1 X6.8
G1 Y86.7
G1 X7.8507
G1 F300.0 Y86.9
G1 F800.0 X171.4
G1 Y5.1
G1 X6.6
G1 Y86.9
G1 X7.8507
G1 F300.0 Y87.1
G1 F800.0 X171.6
G1 Y4.9
G1 X6.4
G1 Y87.1
G1 X7.8507
G1 F300.0 Y87.3
G1 F800.0 X171.8
G1 Y4.7
G1 X6.2
G1 Y87.3
G1 X7.8507
G1 F300.0 Y87.5
G1 F800.0 X172.0
G1 Y4.5
G1 X6.0
G1 Y87.5
G1 X7.8507
( panel_Cutout )
S1000
G0 Z3.0
G0 X173.0 Y89.7
G1 F300.0 Z0.0
G1 F800.0 X5.0 Z-0.1309
G3 X3.8 Y88.5 Z-0.1323 I0.0 J-1.2
G1 Y3.5 Z-0.1985
G3 X5.0 Y2.3 Z-0.2 I1.2 J0.0
G1 X173.0 Z-0.3309
G3 X174.2 Y3.5 Z-0.3323 I0.0 J1.2
G1 Y88.5 Z-0.3985
G3 X173.0 Y89.7 Z-0.4 I-1.2 J0.0
G1 X5.0 Z-0.5309
G3 X3.8 Y88.5 Z-0.5323 I0.0 J-1.2
G1 Y3.5 Z-0.5985
G3 X5.0 Y2.3 Z-0.6 I1.2 J0.0
G1 X173.0 Z-0.7309
G3 X174.2 Y3.5 Z-0.7323 I0.0 J1.2
G1 Y88.5 Z-0.7985
G3 X173.0 Y89.7 Z-0.8 I-1.2 J0.0
G1 X5.0 Z-0.9309
G3 X3.8 Y88.5 Z-0.9323 I0.0 J-1.2
G1 Y3.5 Z-0.9985
G3 X5.0 Y2.3 Z-1.0 I1.2 J0.0
G1 X173.0 Z-1.1309
G3 X174.2 Y3.5 Z-1.1323 I0.0 J1.2
G1 Y88.5 Z-1.1985
G3 X173.0 Y89.7 Z-1.2 I-1.2 J0.0
G1 X5.0 Z-1.3309
G3 X3.8 Y88.5 Z-1.3323 I0.0 J-1.2
G1 Y3.5 Z-1.3985
G3 X5.0 Y2.3 Z-1.4 I1.2 J0.0
G1 X173.0 Z-1.5309
G3 X174.2 Y3.5 Z-1.5323 I0.0 J1.2
G1 Y88.5 Z-1.5985
G3 X173.0 Y89.7 Z-1.6 I-1.2 J0.0
G1 X5.0 Z-1.7309
G3 X3.8 Y88.5 Z-1.7323 I0.0 J-1.2
G1 Y3.5 Z-1.7985
G3 X5.0 Y2.3 Z-1.8 I1.2 J0.0
G1 X173.0 Z-1.9309
G3 X174.2 Y3.5 Z-1.9323 I0.0 J1.2
G1 Y88.5 Z-1.9985
G3 X173.0 Y89.7 Z-2.0 I-1.2 J0.0
G1 X5.0 Z-2.1309
G3 X3.8 Y88.5 Z-2.1323 I0.0 J-1.2
G1 Y3.5 Z-2.1985
G3 X5.0 Y2.3 Z-2.2 I1.2 J0.0
G1 X173.0 Z-2.3309
G3 X174.2 Y3.5 Z-2.3323 I0.0 J1.2
G1 Y88.5 Z-2.3985
G3 X173.0 Y89.7 Z-2.4 I-1.2 J0.0
G1 X5.0 Z-2.5309
G3 X3.8 Y88.5 Z-2.5323 I0.0 J-1.2
G1 Y3.5 Z-2.5985
G3 X5.0 Y2.3 Z-2.6 I1.2 J0.0
G1 X173.0 Z-2.7309
G3 X174.2 Y3.5 Z-2.7323 I0.0 J1.2
G1 Y88.5 Z-2.7985
G3 X173.0 Y89.7 Z-2.8 I-1.2 J0.0
G1 X5.0 Z-2.9309
G3 X3.8 Y88.5 Z-2.9323 I0.0 J-1.2
G1 Y3.5 Z-2.9985
G3 X5.0 Y2.3 Z-3.0 I1.2 J0.0
G1 X173.0 Z-3.1309
G3 X174.2 Y3.5 Z-3.1323 I0.0 J1.2
G1 Y88.5 Z-3.1985
G3 X173.0 Y89.7 Z-3.2 I-1.2 J0.0
G1 X5.0 Z-3.3309
G3 X3.8 Y88.5 Z-3.3323 I0.0 J-1.2
G1 Y3.5 Z-3.3985
G3 X5.0 Y2.3 Z-3.4 I1.2 J0.0
G1 X173.0 Z-3.5309
G3 X174.2 Y3.5 Z-3.5323 I0.0 J1.2
G1 Y88.5 Z-3.5985
G3 X173.0 Y89.7 Z-3.6 I-1.2 J0.0
G1 X5.0 Z-3.6327
G3 X3.8 Y88.5 Z-3.6331 I0.0 J-1.2
G1 Y3.5 Z-3.6496
G3 X5.0 Y2.3 Z-3.65 I1.2 J0.0
G1 X173.0 Z-3.6827
G3 X174.2 Y3.5 Z-3.6831 I0.0 J1.2
G1 Y88.5 Z-3.6996
G3 X173.0 Y89.7 Z-3.7 I-1.2 J0.0
G1 X5.0 Z-3.7327
G3 X3.8 Y88.5 Z-3.7331 I0.0 J-1.2
G1 Y3.5 Z-3.7496
G3 X5.0 Y2.3 Z-3.75 I1.2 J0.0
G1 X173.0 Z-3.7827
G3 X174.2 Y3.5 Z-3.7831 I0.0 J1.2
G1 Y88.5 Z-3.7996
G3 X173.0 Y89.7 Z-3.8 I-1.2 J0.0
G1 X5.0
G3 X3.8 Y88.5 I0.0 J-1.2
G1 Y3.5
G3 X5.0 Y2.3 I1.2 J0.0
G1 X173.0
G3 X174.2 Y3.5 I0.0 J1.2
G1 Y88.5
G3 X173.0 Y89.7 I-1.2 J0.0
( panel_3D )
S1000
G1 F300.0 Y89.5
G1 Z-4.2
G1 F800.0 X5.0
G3 X4.0 Y88.5 I0.0 J-1.0
G1 Y3.5
G3 X5.0 Y2.5 I1.0 J0.0
G1 X173.0
G3 X174.0 Y3.5 I0.0 J1.0
G1 Y88.5
G3 X173.0 Y89.5 I-1.0 J0.0
G0 Z3.0
M5
M30
