( Made using CamBam - http://www.cambam.co.uk )
( ssc_plexi_BottomPanel 2/22/2021 1:44:59 PM )
( T2 : 2.0 )
( CUTVIEWER )
( FROM/0,0,5 )
( Select dummy tool to avoid warnings )
( TOOL/MILL,1,0,20.0,0 )
( STOCK/BLOCK,180.0,95.0,4.0,0.0,0.0,4.0 )
G21 G90 G91.1 G64 G40
G0 Z3.0
( T2 : 2.0 )
( Tool Taper coming soon )
( TOOL/MILL,2.0,0.0,0.0,0 )
T2 M6
( connectorSlot_Cutout )
G17
M3 S1000
G0 X152.9 Y82.9
G0 Z1.0
G1 F300.0 Z0.0
G1 F800.0 Y83.0 Z-0.0015
G1 X166.0 Z-0.2
G1 Y82.9 Z-0.2015
G1 X152.9 Z-0.4
G1 F300.0 Y82.1
G1 F800.0 X152.1
G1 Y83.8
G1 X166.8
G1 Y82.1
G1 X152.9
G1 F300.0 Y82.9
G1 F800.0 Y83.0 Z-0.4004
G1 X166.0 Z-0.45
G1 Y82.9 Z-0.4504
G1 X152.9 Z-0.5
G1 Y83.0
G1 X166.0
G1 Y82.9
G1 X152.9
G1 F300.0 Y82.1
G1 F800.0 X152.1
G1 Y83.8
G1 X166.8
G1 Y82.1
G1 X152.9
G0 Z3.0
G0 Y12.1
G0 Z1.0
G1 F300.0 Z0.0
G1 F800.0 X166.0 Z-0.1985
G1 Y12.0 Z-0.2
G1 X152.9 Z-0.3985
G1 Y12.1 Z-0.4
G1 F300.0 X152.1
G1 F800.0 Y12.9
G1 X166.8
G1 Y11.2
G1 X152.1
G1 Y12.1
G1 F300.0 X152.9
G1 F800.0 X166.0 Z-0.4496
G1 Y12.0 Z-0.45
G1 X152.9 Z-0.4996
G1 Y12.1 Z-0.5
G1 X166.0
G1 Y12.0
G1 X152.9
G1 Y12.1
G1 F300.0 X152.1
G1 F800.0 Y12.9
G1 X166.8
G1 Y11.2
G1 X152.1
G1 Y12.1
G0 Z3.0
G0 X23.1
G0 Z1.0
G1 F300.0 Z0.0
G1 F800.0 Y12.0 Z-0.0015
G1 X10.0 Z-0.2
G1 Y12.1 Z-0.2015
G1 X23.1 Z-0.4
G1 F300.0 Y12.9
G1 F800.0 X23.9
G1 Y11.2
G1 X9.2
G1 Y12.9
G1 X23.1
G1 F300.0 Y12.1
G1 F800.0 Y12.0 Z-0.4004
G1 X10.0 Z-0.45
G1 Y12.1 Z-0.4504
G1 X23.1 Z-0.5
G1 Y12.0
G1 X10.0
G1 Y12.1
G1 X23.1
G1 F300.0 Y12.9
G1 F800.0 X23.9
G1 Y11.2
G1 X9.2
G1 Y12.9
G1 X23.1
G0 Z3.0
G0 Y82.9
G0 Z1.0
G1 F300.0 Z0.0
G1 F800.0 X10.0 Z-0.1985
G1 Y83.0 Z-0.2
G1 X23.1 Z-0.3985
G1 Y82.9 Z-0.4
G1 F300.0 X23.9
G1 F800.0 Y82.1
G1 X9.2
G1 Y83.8
G1 X23.9
G1 Y82.9
G1 F300.0 X23.1
G1 F800.0 X10.0 Z-0.4496
G1 Y83.0 Z-0.45
G1 X23.1 Z-0.4996
G1 Y82.9 Z-0.5
G1 X10.0
G1 Y83.0
G1 X23.1
G1 Y82.9
G1 F300.0 X23.9
G1 F800.0 Y82.1
G1 X9.2
G1 Y83.8
G1 X23.9
G1 Y82.9
( connectorSlot_3D )
S1000
G0 Z3.0
G0 X152.9
G1 F300.0 Z-0.4
G1 F800.0 Y83.0
G1 X166.0
G1 Y82.9
G1 X152.9
G1 F300.0 X152.7
G1 F800.0 Y83.2
G1 X166.2
G1 Y82.7
G1 X152.7
G1 Y82.9
G1 F300.0 X152.5
G1 F800.0 Y83.4
G1 X166.4
G1 Y82.5
G1 X152.5
G1 Y82.9
G1 F300.0 X152.3
G1 F800.0 Y83.6
G1 X166.6
G1 Y82.3
G1 X152.3
G1 Y82.9
G1 F300.0 X152.1
G1 F800.0 Y83.8
G1 X166.8
G1 Y82.1
G1 X152.1
G1 Y82.9
G1 F300.0 X151.9
G1 F800.0 Y84.0
G1 X167.0
G1 Y81.9
G1 X151.9
G1 Y82.9
G1 F300.0 X152.9
G1 Z-0.5
G1 F800.0 Y83.0
G1 X166.0
G1 Y82.9
G1 X152.9
G1 F300.0 X152.7
G1 F800.0 Y83.2
G1 X166.2
G1 Y82.7
G1 X152.7
G1 Y82.9
G1 F300.0 X152.5
G1 F800.0 Y83.4
G1 X166.4
G1 Y82.5
G1 X152.5
G1 Y82.9
G1 F300.0 X152.3
G1 F800.0 Y83.6
G1 X166.6
G1 Y82.3
G1 X152.3
G1 Y82.9
G1 F300.0 X152.1
G1 F800.0 Y83.8
G1 X166.8
G1 Y82.1
G1 X152.1
G1 Y82.9
G1 F300.0 X151.9
G1 F800.0 Y84.0
G1 X167.0
G1 Y81.9
G1 X151.9
G1 Y82.9
G0 Z3.0
G0 X152.9 Y12.1
G1 F300.0 Z-0.4
G1 F800.0 X166.0
G1 Y12.0
G1 X152.9
G1 Y12.1
G1 F300.0 X152.7
G1 F800.0 Y12.3
G1 X166.2
G1 Y11.8
G1 X152.7
G1 Y12.1
G1 F300.0 X152.5
G1 F800.0 Y12.5
G1 X166.4
G1 Y11.6
G1 X152.5
G1 Y12.1
G1 F300.0 X152.3
G1 F800.0 Y12.7
G1 X166.6
G1 Y11.4
G1 X152.3
G1 Y12.1
G1 F300.0 X152.1
G1 F800.0 Y12.9
G1 X166.8
G1 Y11.2
G1 X152.1
G1 Y12.1
G1 F300.0 X151.9
G1 F800.0 Y13.1
G1 X167.0
G1 Y11.0
G1 X151.9
G1 Y12.1
G1 F300.0 X152.9
G1 Z-0.5
G1 F800.0 X166.0
G1 Y12.0
G1 X152.9
G1 Y12.1
G1 F300.0 X152.7
G1 F800.0 Y12.3
G1 X166.2
G1 Y11.8
G1 X152.7
G1 Y12.1
G1 F300.0 X152.5
G1 F800.0 Y12.5
G1 X166.4
G1 Y11.6
G1 X152.5
G1 Y12.1
G1 F300.0 X152.3
G1 F800.0 Y12.7
G1 X166.6
G1 Y11.4
G1 X152.3
G1 Y12.1
G1 F300.0 X152.1
G1 F800.0 Y12.9
G1 X166.8
G1 Y11.2
G1 X152.1
G1 Y12.1
G1 F300.0 X151.9
G1 F800.0 Y13.1
G1 X167.0
G1 Y11.0
G1 X151.9
G1 Y12.1
G0 Z3.0
G0 X23.1
G1 F300.0 Z-0.4
G1 F800.0 Y12.0
G1 X10.0
G1 Y12.1
G1 X23.1
G1 F300.0 Y12.3
G1 F800.0 X23.3
G1 Y11.8
G1 X9.8
G1 Y12.3
G1 X23.1
G1 F300.0 Y12.5
G1 F800.0 X23.5
G1 Y11.6
G1 X9.6
G1 Y12.5
G1 X23.1
G1 F300.0 Y12.7
G1 F800.0 X23.7
G1 Y11.4
G1 X9.4
G1 Y12.7
G1 X23.1
G1 F300.0 Y12.9
G1 F800.0 X23.9
G1 Y11.2
G1 X9.2
G1 Y12.9
G1 X23.1
G1 F300.0 Y13.1
G1 F800.0 X24.1
G1 Y11.0
G1 X9.0
G1 Y13.1
G1 X23.1
G1 F300.0 Y12.1
G1 Z-0.5
G1 F800.0 Y12.0
G1 X10.0
G1 Y12.1
G1 X23.1
G1 F300.0 Y12.3
G1 F800.0 X23.3
G1 Y11.8
G1 X9.8
G1 Y12.3
G1 X23.1
G1 F300.0 Y12.5
G1 F800.0 X23.5
G1 Y11.6
G1 X9.6
G1 Y12.5
G1 X23.1
G1 F300.0 Y12.7
G1 F800.0 X23.7
G1 Y11.4
G1 X9.4
G1 Y12.7
G1 X23.1
G1 F300.0 Y12.9
G1 F800.0 X23.9
G1 Y11.2
G1 X9.2
G1 Y12.9
G1 X23.1
G1 F300.0 Y13.1
G1 F800.0 X24.1
G1 Y11.0
G1 X9.0
G1 Y13.1
G1 X23.1
G0 Z3.0
G0 Y82.9
G1 F300.0 Z-0.4
G1 F800.0 X10.0
G1 Y83.0
G1 X23.1
G1 Y82.9
G1 F300.0 X23.3
G1 F800.0 Y82.7
G1 X9.8
G1 Y83.2
G1 X23.3
G1 Y82.9
G1 F300.0 X23.5
G1 F800.0 Y82.5
G1 X9.6
G1 Y83.4
G1 X23.5
G1 Y82.9
G1 F300.0 X23.7
G1 F800.0 Y82.3
G1 X9.4
G1 Y83.6
G1 X23.7
G1 Y82.9
G1 F300.0 X23.9
G1 F800.0 Y82.1
G1 X9.2
G1 Y83.8
G1 X23.9
G1 Y82.9
G1 F300.0 X24.1
G1 F800.0 Y81.9
G1 X9.0
G1 Y84.0
G1 X24.1
G1 Y82.9
G1 F300.0 X23.1
G1 Z-0.5
G1 F800.0 X10.0
G1 Y83.0
G1 X23.1
G1 Y82.9
G1 F300.0 X23.3
G1 F800.0 Y82.7
G1 X9.8
G1 Y83.2
G1 X23.3
G1 Y82.9
G1 F300.0 X23.5
G1 F800.0 Y82.5
G1 X9.6
G1 Y83.4
G1 X23.5
G1 Y82.9
G1 F300.0 X23.7
G1 F800.0 Y82.3
G1 X9.4
G1 Y83.6
G1 X23.7
G1 Y82.9
G1 F300.0 X23.9
G1 F800.0 Y82.1
G1 X9.2
G1 Y83.8
G1 X23.9
G1 Y82.9
G1 F300.0 X24.1
G1 F800.0 Y81.9
G1 X9.0
G1 Y84.0
G1 X24.1
G1 Y82.9
( connector_trim_3D )
S1000
G0 Z3.0
G0 X151.9 Y13.1
G1 F300.0 Z0.15
G1 F800.0 X168.0 Z0.1364
G3 X169.0 Y14.1 Z0.1351 I0.0 J1.0
G1 Y80.9 Z0.0788
G3 X168.0 Y81.9 Z0.0775 I-1.0 J0.0
G1 X151.9 Z0.0639
G1 Y85.0 Z0.0613
G3 X150.9 Y86.0 Z0.06 I-1.0 J0.0
G1 X25.1 Z-0.0461
G3 X24.1 Y85.0 Z-0.0474 I0.0 J-1.0
G1 Y81.9 Z-0.05
G1 X8.0 Z-0.0636
G3 X7.0 Y80.9 Z-0.0649 I0.0 J-1.0
G1 Y14.1 Z-0.1212
G3 X8.0 Y13.1 Z-0.1225 I1.0 J0.0
G1 X24.1 Z-0.1361
G1 Y10.0 Z-0.1387
G3 X25.1 Y9.0 Z-0.14 I1.0 J0.0
G1 X150.9 Z-0.2461
G3 X151.9 Y10.0 Z-0.2474 I0.0 J1.0
G1 Y13.1 Z-0.25
G1 X168.0 Z-0.2585
G3 X169.0 Y14.1 Z-0.2593 I0.0 J1.0
G1 Y80.9 Z-0.2945
G3 X168.0 Y81.9 Z-0.2953 I-1.0 J0.0
G1 X151.9 Z-0.3038
G1 Y85.0 Z-0.3054
G3 X150.9 Y86.0 Z-0.3063 I-1.0 J0.0
G1 X25.1 Z-0.3725
G3 X24.1 Y85.0 Z-0.3734 I0.0 J-1.0
G1 Y81.9 Z-0.375
G1 X8.0 Z-0.3835
G3 X7.0 Y80.9 Z-0.3843 I0.0 J-1.0
G1 Y14.1 Z-0.4195
G3 X8.0 Y13.1 Z-0.4203 I1.0 J0.0
G1 X24.1 Z-0.4288
G1 Y10.0 Z-0.4304
G3 X25.1 Y9.0 Z-0.4313 I1.0 J0.0
G1 X150.9 Z-0.4975
G3 X151.9 Y10.0 Z-0.4984 I0.0 J1.0
G1 Y13.1 Z-0.5
G1 X168.0
G3 X169.0 Y14.1 I0.0 J1.0
G1 Y80.9
G3 X168.0 Y81.9 I-1.0 J0.0
G1 X151.9
G1 Y85.0
G3 X150.9 Y86.0 I-1.0 J0.0
G1 X25.1
G3 X24.1 Y85.0 I0.0 J-1.0
G1 Y81.9
G1 X8.0
G3 X7.0 Y80.9 I0.0 J-1.0
G1 Y14.1
G3 X8.0 Y13.1 I1.0 J0.0
G1 X24.1
G1 Y10.0
G3 X25.1 Y9.0 I1.0 J0.0
G1 X150.9
G3 X151.9 Y10.0 I0.0 J1.0
G1 Y13.1
( ventBars_Cutout )
S1000
G0 Z3.0
G0 X40.027 Y31.4596
G0 Z1.0
G1 F300.0 Z0.0
G1 F800.0 X40.0229 Y31.4572
G1 X40.0186 Y31.4551 Z-0.0001
G1 X40.0141 Y31.4535
G1 X40.0095 Y31.4524
G1 X40.0048 Y31.4517 Z-0.0002
G1 X40.0 Y31.4514
G1 X39.9952 Y31.4517
G1 X39.9905 Y31.4524 Z-0.0003
G1 X39.9859 Y31.4535
G1 X39.9814 Y31.4551
G1 X39.9771 Y31.4572
G1 X39.973 Y31.4596 Z-0.0004
G1 X39.9692 Y31.4625
G1 X39.9657 Y31.4657
G1 X39.9625 Y31.4692 Z-0.0005
G1 X39.9596 Y31.473
G1 X39.9572 Y31.4771
G1 X39.9551 Y31.4814 Z-0.0006
G1 X39.9535 Y31.4859
G1 X39.9524 Y31.4905
G1 X39.9517 Y31.4952 Z-0.0007
G1 X39.95 Y31.5295 Z-0.0009
G1 Y61.4705 Z-0.1995
G1 X39.9517 Y61.5048 Z-0.1997
G1 X39.9524 Y61.5095
G1 X39.9535 Y61.5141 Z-0.1998
G1 X39.9551 Y61.5186
G1 X39.9572 Y61.5229
G1 X39.9596 Y61.527 Z-0.1999
G1 X39.9625 Y61.5308
G1 X39.9657 Y61.5343
G1 X39.9692 Y61.5375 Z-0.2
G1 X39.973 Y61.5404
G1 X39.9771 Y61.5428
G1 X39.9814 Y61.5449 Z-0.2001
G1 X39.9859 Y61.5465
G1 X39.9905 Y61.5476
G1 X39.9952 Y61.5483 Z-0.2002
G1 X40.0 Y61.5486
G1 X40.0048 Y61.5483
G1 X40.0095 Y61.5476 Z-0.2003
G1 X40.0141 Y61.5465
G1 X40.0186 Y61.5449
G1 X40.0229 Y61.5428
G1 X40.027 Y61.5404 Z-0.2004
G1 X40.0308 Y61.5375
G1 X40.0343 Y61.5343
G1 X40.0375 Y61.5308 Z-0.2005
G1 X40.0404 Y61.527
G1 X40.0428 Y61.5229
G1 X40.0449 Y61.5186 Z-0.2006
G1 X40.0465 Y61.5141
G1 X40.0476 Y61.5095
G1 X40.0483 Y61.5048 Z-0.2007
G1 X40.05 Y61.4705 Z-0.2009
G1 Y31.5295 Z-0.3995
G1 X40.0483 Y31.4952 Z-0.3997
G1 X40.0476 Y31.4905
G1 X40.0465 Y31.4859 Z-0.3998
G1 X40.0449 Y31.4814
G1 X40.0428 Y31.4771
G1 X40.0404 Y31.473 Z-0.3999
G1 X40.0375 Y31.4692
G1 X40.0343 Y31.4657
G1 X40.0308 Y31.4625 Z-0.4
G1 X40.027 Y31.4596
G1 X40.0229 Y31.4572
G1 X40.0186 Y31.4551 Z-0.4001
G1 X40.0141 Y31.4535
G1 X40.0095 Y31.4524
G1 X40.0048 Y31.4517 Z-0.4002
G1 X40.0 Y31.4514
G1 X39.9952 Y31.4517
G1 X39.9905 Y31.4524 Z-0.4003
G1 X39.9859 Y31.4535
G1 X39.9814 Y31.4551
G1 X39.9771 Y31.4572
G1 X39.973 Y31.4596 Z-0.4004
G1 X39.9692 Y31.4625
G1 X39.9657 Y31.4657
G1 X39.9625 Y31.4692 Z-0.4005
G1 X39.9596 Y31.473
G1 X39.9572 Y31.4771
G1 X39.9551 Y31.4814 Z-0.4006
G1 X39.9535 Y31.4859
G1 X39.9524 Y31.4905
G1 X39.9517 Y31.4952 Z-0.4007
G1 X39.95 Y31.5295 Z-0.4009
G1 Y61.4705 Z-0.5995
G1 X39.9517 Y61.5048 Z-0.5997
G1 X39.9524 Y61.5095
G1 X39.9535 Y61.5141 Z-0.5998
G1 X39.9551 Y61.5186
G1 X39.9572 Y61.5229
G1 X39.9596 Y61.527 Z-0.5999
G1 X39.9625 Y61.5308
G1 X39.9657 Y61.5343
G1 X39.9692 Y61.5375 Z-0.6
G1 X39.973 Y61.5404
G1 X39.9771 Y61.5428
G1 X39.9814 Y61.5449 Z-0.6001
G1 X39.9859 Y61.5465
G1 X39.9905 Y61.5476
G1 X39.9952 Y61.5483 Z-0.6002
G1 X40.0 Y61.5486
G1 X40.0048 Y61.5483
G1 X40.0095 Y61.5476 Z-0.6003
G1 X40.0141 Y61.5465
G1 X40.0186 Y61.5449
G1 X40.0229 Y61.5428
G1 X40.027 Y61.5404 Z-0.6004
G1 X40.0308 Y61.5375
G1 X40.0343 Y61.5343
G1 X40.0375 Y61.5308 Z-0.6005
G1 X40.0404 Y61.527
G1 X40.0428 Y61.5229
G1 X40.0449 Y61.5186 Z-0.6006
G1 X40.0465 Y61.5141
G1 X40.0476 Y61.5095
G1 X40.0483 Y61.5048 Z-0.6007
G1 X40.05 Y61.4705 Z-0.6009
G1 Y31.5295 Z-0.7995
G1 X40.0483 Y31.4952 Z-0.7997
G1 X40.0476 Y31.4905
G1 X40.0465 Y31.4859 Z-0.7998
G1 X40.0449 Y31.4814
G1 X40.0428 Y31.4771
G1 X40.0404 Y31.473 Z-0.7999
G1 X40.0375 Y31.4692
G1 X40.0343 Y31.4657
G1 X40.0308 Y31.4625 Z-0.8
G1 X40.027 Y31.4596
G1 X40.0229 Y31.4572
G1 X40.0186 Y31.4551 Z-0.8001
G1 X40.0141 Y31.4535
G1 X40.0095 Y31.4524
G1 X40.0048 Y31.4517 Z-0.8002
G1 X40.0 Y31.4514
G1 X39.9952 Y31.4517
G1 X39.9905 Y31.4524 Z-0.8003
G1 X39.9859 Y31.4535
G1 X39.9814 Y31.4551
G1 X39.9771 Y31.4572
G1 X39.973 Y31.4596 Z-0.8004
G1 X39.9692 Y31.4625
G1 X39.9657 Y31.4657
G1 X39.9625 Y31.4692 Z-0.8005
G1 X39.9596 Y31.473
G1 X39.9572 Y31.4771
G1 X39.9551 Y31.4814 Z-0.8006
G1 X39.9535 Y31.4859
G1 X39.9524 Y31.4905
G1 X39.9517 Y31.4952 Z-0.8007
G1 X39.95 Y31.5295 Z-0.8009
G1 Y61.4705 Z-0.9995
G1 X39.9517 Y61.5048 Z-0.9997
G1 X39.9524 Y61.5095
G1 X39.9535 Y61.5141 Z-0.9998
G1 X39.9551 Y61.5186
G1 X39.9572 Y61.5229
G1 X39.9596 Y61.527 Z-0.9999
G1 X39.9625 Y61.5308
G1 X39.9657 Y61.5343
G1 X39.9692 Y61.5375 Z-1.0
G1 X39.973 Y61.5404
G1 X39.9771 Y61.5428
G1 X39.9814 Y61.5449 Z-1.0001
G1 X39.9859 Y61.5465
G1 X39.9905 Y61.5476
G1 X39.9952 Y61.5483 Z-1.0002
G1 X40.0 Y61.5486
G1 X40.0048 Y61.5483
G1 X40.0095 Y61.5476 Z-1.0003
G1 X40.0141 Y61.5465
G1 X40.0186 Y61.5449
G1 X40.0229 Y61.5428
G1 X40.027 Y61.5404 Z-1.0004
G1 X40.0308 Y61.5375
G1 X40.0343 Y61.5343
G1 X40.0375 Y61.5308 Z-1.0005
G1 X40.0404 Y61.527
G1 X40.0428 Y61.5229
G1 X40.0449 Y61.5186 Z-1.0006
G1 X40.0465 Y61.5141
G1 X40.0476 Y61.5095
G1 X40.0483 Y61.5048 Z-1.0007
G1 X40.05 Y61.4705 Z-1.0009
G1 Y31.5295 Z-1.1995
G1 X40.0483 Y31.4952 Z-1.1997
G1 X40.0476 Y31.4905
G1 X40.0465 Y31.4859 Z-1.1998
G1 X40.0449 Y31.4814
G1 X40.0428 Y31.4771
G1 X40.0404 Y31.473 Z-1.1999
G1 X40.0375 Y31.4692
G1 X40.0343 Y31.4657
G1 X40.0308 Y31.4625 Z-1.2
G1 X40.027 Y31.4596
G1 X40.0229 Y31.4572
G1 X40.0186 Y31.4551 Z-1.2001
G1 X40.0141 Y31.4535
G1 X40.0095 Y31.4524
G1 X40.0048 Y31.4517 Z-1.2002
G1 X40.0 Y31.4514
G1 X39.9952 Y31.4517
G1 X39.9905 Y31.4524 Z-1.2003
G1 X39.9859 Y31.4535
G1 X39.9814 Y31.4551
G1 X39.9771 Y31.4572
G1 X39.973 Y31.4596 Z-1.2004
G1 X39.9692 Y31.4625
G1 X39.9657 Y31.4657
G1 X39.9625 Y31.4692 Z-1.2005
G1 X39.9596 Y31.473
G1 X39.9572 Y31.4771
G1 X39.9551 Y31.4814 Z-1.2006
G1 X39.9535 Y31.4859
G1 X39.9524 Y31.4905
G1 X39.9517 Y31.4952 Z-1.2007
G1 X39.95 Y31.5295 Z-1.2009
G1 Y61.4705 Z-1.3995
G1 X39.9517 Y61.5048 Z-1.3997
G1 X39.9524 Y61.5095
G1 X39.9535 Y61.5141 Z-1.3998
G1 X39.9551 Y61.5186
G1 X39.9572 Y61.5229
G1 X39.9596 Y61.527 Z-1.3999
G1 X39.9625 Y61.5308
G1 X39.9657 Y61.5343
G1 X39.9692 Y61.5375 Z-1.4
G1 X39.973 Y61.5404
G1 X39.9771 Y61.5428
G1 X39.9814 Y61.5449 Z-1.4001
G1 X39.9859 Y61.5465
G1 X39.9905 Y61.5476
G1 X39.9952 Y61.5483 Z-1.4002
G1 X40.0 Y61.5486
G1 X40.0048 Y61.5483
G1 X40.0095 Y61.5476 Z-1.4003
G1 X40.0141 Y61.5465
G1 X40.0186 Y61.5449
G1 X40.0229 Y61.5428
G1 X40.027 Y61.5404 Z-1.4004
G1 X40.0308 Y61.5375
G1 X40.0343 Y61.5343
G1 X40.0375 Y61.5308 Z-1.4005
G1 X40.0404 Y61.527
G1 X40.0428 Y61.5229
G1 X40.0449 Y61.5186 Z-1.4006
G1 X40.0465 Y61.5141
G1 X40.0476 Y61.5095
G1 X40.0483 Y61.5048 Z-1.4007
G1 X40.05 Y61.4705 Z-1.4009
G1 Y31.5295 Z-1.5995
G1 X40.0483 Y31.4952 Z-1.5997
G1 X40.0476 Y31.4905
G1 X40.0465 Y31.4859 Z-1.5998
G1 X40.0449 Y31.4814
G1 X40.0428 Y31.4771
G1 X40.0404 Y31.473 Z-1.5999
G1 X40.0375 Y31.4692
G1 X40.0343 Y31.4657
G1 X40.0308 Y31.4625 Z-1.6
G1 X40.027 Y31.4596
G1 X40.0229 Y31.4572
G1 X40.0186 Y31.4551 Z-1.6001
G1 X40.0141 Y31.4535
G1 X40.0095 Y31.4524
G1 X40.0048 Y31.4517 Z-1.6002
G1 X40.0 Y31.4514
G1 X39.9952 Y31.4517
G1 X39.9905 Y31.4524 Z-1.6003
G1 X39.9859 Y31.4535
G1 X39.9814 Y31.4551
G1 X39.9771 Y31.4572
G1 X39.973 Y31.4596 Z-1.6004
G1 X39.9692 Y31.4625
G1 X39.9657 Y31.4657
G1 X39.9625 Y31.4692 Z-1.6005
G1 X39.9596 Y31.473
G1 X39.9572 Y31.4771
G1 X39.9551 Y31.4814 Z-1.6006
G1 X39.9535 Y31.4859
G1 X39.9524 Y31.4905
G1 X39.9517 Y31.4952 Z-1.6007
G1 X39.95 Y31.5295 Z-1.6009
G1 Y61.4705 Z-1.7995
G1 X39.9517 Y61.5048 Z-1.7997
G1 X39.9524 Y61.5095
G1 X39.9535 Y61.5141 Z-1.7998
G1 X39.9551 Y61.5186
G1 X39.9572 Y61.5229
G1 X39.9596 Y61.527 Z-1.7999
G1 X39.9625 Y61.5308
G1 X39.9657 Y61.5343
G1 X39.9692 Y61.5375 Z-1.8
G1 X39.973 Y61.5404
G1 X39.9771 Y61.5428
G1 X39.9814 Y61.5449 Z-1.8001
G1 X39.9859 Y61.5465
G1 X39.9905 Y61.5476
G1 X39.9952 Y61.5483 Z-1.8002
G1 X40.0 Y61.5486
G1 X40.0048 Y61.5483
G1 X40.0095 Y61.5476 Z-1.8003
G1 X40.0141 Y61.5465
G1 X40.0186 Y61.5449
G1 X40.0229 Y61.5428
G1 X40.027 Y61.5404 Z-1.8004
G1 X40.0308 Y61.5375
G1 X40.0343 Y61.5343
G1 X40.0375 Y61.5308 Z-1.8005
G1 X40.0404 Y61.527
G1 X40.0428 Y61.5229
G1 X40.0449 Y61.5186 Z-1.8006
G1 X40.0465 Y61.5141
G1 X40.0476 Y61.5095
G1 X40.0483 Y61.5048 Z-1.8007
G1 X40.05 Y61.4705 Z-1.8009
G1 Y31.5295 Z-1.9995
G1 X40.0483 Y31.4952 Z-1.9997
G1 X40.0476 Y31.4905
G1 X40.0465 Y31.4859 Z-1.9998
G1 X40.0449 Y31.4814
G1 X40.0428 Y31.4771
G1 X40.0404 Y31.473 Z-1.9999
G1 X40.0375 Y31.4692
G1 X40.0343 Y31.4657
G1 X40.0308 Y31.4625 Z-2.0
G1 X40.027 Y31.4596
G1 X40.0229 Y31.4572
G1 X40.0186 Y31.4551 Z-2.0001
G1 X40.0141 Y31.4535
G1 X40.0095 Y31.4524
G1 X40.0048 Y31.4517 Z-2.0002
G1 X40.0 Y31.4514
G1 X39.9952 Y31.4517
G1 X39.9905 Y31.4524 Z-2.0003
G1 X39.9859 Y31.4535
G1 X39.9814 Y31.4551
G1 X39.9771 Y31.4572
G1 X39.973 Y31.4596 Z-2.0004
G1 X39.9692 Y31.4625
G1 X39.9657 Y31.4657
G1 X39.9625 Y31.4692 Z-2.0005
G1 X39.9596 Y31.473
G1 X39.9572 Y31.4771
G1 X39.9551 Y31.4814 Z-2.0006
G1 X39.9535 Y31.4859
G1 X39.9524 Y31.4905
G1 X39.9517 Y31.4952 Z-2.0007
G1 X39.95 Y31.5295 Z-2.0009
G1 Y61.4705 Z-2.1995
G1 X39.9517 Y61.5048 Z-2.1997
G1 X39.9524 Y61.5095
G1 X39.9535 Y61.5141 Z-2.1998
G1 X39.9551 Y61.5186
G1 X39.9572 Y61.5229
G1 X39.9596 Y61.527 Z-2.1999
G1 X39.9625 Y61.5308
G1 X39.9657 Y61.5343
G1 X39.9692 Y61.5375 Z-2.2
G1 X39.973 Y61.5404
G1 X39.9771 Y61.5428
G1 X39.9814 Y61.5449 Z-2.2001
G1 X39.9859 Y61.5465
G1 X39.9905 Y61.5476
G1 X39.9952 Y61.5483 Z-2.2002
G1 X40.0 Y61.5486
G1 X40.0048 Y61.5483
G1 X40.0095 Y61.5476 Z-2.2003
G1 X40.0141 Y61.5465
G1 X40.0186 Y61.5449
G1 X40.0229 Y61.5428
G1 X40.027 Y61.5404 Z-2.2004
G1 X40.0308 Y61.5375
G1 X40.0343 Y61.5343
G1 X40.0375 Y61.5308 Z-2.2005
G1 X40.0404 Y61.527
G1 X40.0428 Y61.5229
G1 X40.0449 Y61.5186 Z-2.2006
G1 X40.0465 Y61.5141
G1 X40.0476 Y61.5095
G1 X40.0483 Y61.5048 Z-2.2007
G1 X40.05 Y61.4705 Z-2.2009
G1 Y31.5295 Z-2.3995
G1 X40.0483 Y31.4952 Z-2.3997
G1 X40.0476 Y31.4905
G1 X40.0465 Y31.4859 Z-2.3998
G1 X40.0449 Y31.4814
G1 X40.0428 Y31.4771
G1 X40.0404 Y31.473 Z-2.3999
G1 X40.0375 Y31.4692
G1 X40.0343 Y31.4657
G1 X40.0308 Y31.4625 Z-2.4
G1 X40.027 Y31.4596
G1 X40.0229 Y31.4572
G1 X40.0186 Y31.4551 Z-2.4001
G1 X40.0141 Y31.4535
G1 X40.0095 Y31.4524
G1 X40.0048 Y31.4517 Z-2.4002
G1 X40.0 Y31.4514
G1 X39.9952 Y31.4517
G1 X39.9905 Y31.4524 Z-2.4003
G1 X39.9859 Y31.4535
G1 X39.9814 Y31.4551
G1 X39.9771 Y31.4572
G1 X39.973 Y31.4596 Z-2.4004
G1 X39.9692 Y31.4625
G1 X39.9657 Y31.4657
G1 X39.9625 Y31.4692 Z-2.4005
G1 X39.9596 Y31.473
G1 X39.9572 Y31.4771
G1 X39.9551 Y31.4814 Z-2.4006
G1 X39.9535 Y31.4859
G1 X39.9524 Y31.4905
G1 X39.9517 Y31.4952 Z-2.4007
G1 X39.95 Y31.5295 Z-2.4009
G1 Y61.4705 Z-2.5995
G1 X39.9517 Y61.5048 Z-2.5997
G1 X39.9524 Y61.5095
G1 X39.9535 Y61.5141 Z-2.5998
G1 X39.9551 Y61.5186
G1 X39.9572 Y61.5229
G1 X39.9596 Y61.527 Z-2.5999
G1 X39.9625 Y61.5308
G1 X39.9657 Y61.5343
G1 X39.9692 Y61.5375 Z-2.6
G1 X39.973 Y61.5404
G1 X39.9771 Y61.5428
G1 X39.9814 Y61.5449 Z-2.6001
G1 X39.9859 Y61.5465
G1 X39.9905 Y61.5476
G1 X39.9952 Y61.5483 Z-2.6002
G1 X40.0 Y61.5486
G1 X40.0048 Y61.5483
G1 X40.0095 Y61.5476 Z-2.6003
G1 X40.0141 Y61.5465
G1 X40.0186 Y61.5449
G1 X40.0229 Y61.5428
G1 X40.027 Y61.5404 Z-2.6004
G1 X40.0308 Y61.5375
G1 X40.0343 Y61.5343
G1 X40.0375 Y61.5308 Z-2.6005
G1 X40.0404 Y61.527
G1 X40.0428 Y61.5229
G1 X40.0449 Y61.5186 Z-2.6006
G1 X40.0465 Y61.5141
G1 X40.0476 Y61.5095
G1 X40.0483 Y61.5048 Z-2.6007
G1 X40.05 Y61.4705 Z-2.6009
G1 Y31.5295 Z-2.7995
G1 X40.0483 Y31.4952 Z-2.7997
G1 X40.0476 Y31.4905
G1 X40.0465 Y31.4859 Z-2.7998
G1 X40.0449 Y31.4814
G1 X40.0428 Y31.4771
G1 X40.0404 Y31.473 Z-2.7999
G1 X40.0375 Y31.4692
G1 X40.0343 Y31.4657
G1 X40.0308 Y31.4625 Z-2.8
G1 X40.027 Y31.4596
G1 X40.0229 Y31.4572
G1 X40.0186 Y31.4551 Z-2.8001
G1 X40.0141 Y31.4535
G1 X40.0095 Y31.4524
G1 X40.0048 Y31.4517 Z-2.8002
G1 X40.0 Y31.4514
G1 X39.9952 Y31.4517
G1 X39.9905 Y31.4524 Z-2.8003
G1 X39.9859 Y31.4535
G1 X39.9814 Y31.4551
G1 X39.9771 Y31.4572
G1 X39.973 Y31.4596 Z-2.8004
G1 X39.9692 Y31.4625
G1 X39.9657 Y31.4657
G1 X39.9625 Y31.4692 Z-2.8005
G1 X39.9596 Y31.473
G1 X39.9572 Y31.4771
G1 X39.9551 Y31.4814 Z-2.8006
G1 X39.9535 Y31.4859
G1 X39.9524 Y31.4905
G1 X39.9517 Y31.4952 Z-2.8007
G1 X39.95 Y31.5295 Z-2.8009
G1 Y61.4705 Z-2.9995
G1 X39.9517 Y61.5048 Z-2.9997
G1 X39.9524 Y61.5095
G1 X39.9535 Y61.5141 Z-2.9998
G1 X39.9551 Y61.5186
G1 X39.9572 Y61.5229
G1 X39.9596 Y61.527 Z-2.9999
G1 X39.9625 Y61.5308
G1 X39.9657 Y61.5343
G1 X39.9692 Y61.5375 Z-3.0
G1 X39.973 Y61.5404
G1 X39.9771 Y61.5428
G1 X39.9814 Y61.5449 Z-3.0001
G1 X39.9859 Y61.5465
G1 X39.9905 Y61.5476
G1 X39.9952 Y61.5483 Z-3.0002
G1 X40.0 Y61.5486
G1 X40.0048 Y61.5483
G1 X40.0095 Y61.5476 Z-3.0003
G1 X40.0141 Y61.5465
G1 X40.0186 Y61.5449
G1 X40.0229 Y61.5428
G1 X40.027 Y61.5404 Z-3.0004
G1 X40.0308 Y61.5375
G1 X40.0343 Y61.5343
G1 X40.0375 Y61.5308 Z-3.0005
G1 X40.0404 Y61.527
G1 X40.0428 Y61.5229
G1 X40.0449 Y61.5186 Z-3.0006
G1 X40.0465 Y61.5141
G1 X40.0476 Y61.5095
G1 X40.0483 Y61.5048 Z-3.0007
G1 X40.05 Y61.4705 Z-3.0009
G1 Y31.5295 Z-3.1995
G1 X40.0483 Y31.4952 Z-3.1997
G1 X40.0476 Y31.4905
G1 X40.0465 Y31.4859 Z-3.1998
G1 X40.0449 Y31.4814
G1 X40.0428 Y31.4771
G1 X40.0404 Y31.473 Z-3.1999
G1 X40.0375 Y31.4692
G1 X40.0343 Y31.4657
G1 X40.0308 Y31.4625 Z-3.2
G1 X40.027 Y31.4596
G1 X40.0229 Y31.4572
G1 X40.0186 Y31.4551 Z-3.2001
G1 X40.0141 Y31.4535
G1 X40.0095 Y31.4524
G1 X40.0048 Y31.4517 Z-3.2002
G1 X40.0 Y31.4514
G1 X39.9952 Y31.4517
G1 X39.9905 Y31.4524 Z-3.2003
G1 X39.9859 Y31.4535
G1 X39.9814 Y31.4551
G1 X39.9771 Y31.4572
G1 X39.973 Y31.4596 Z-3.2004
G1 X39.9692 Y31.4625
G1 X39.9657 Y31.4657
G1 X39.9625 Y31.4692 Z-3.2005
G1 X39.9596 Y31.473
G1 X39.9572 Y31.4771
G1 X39.9551 Y31.4814 Z-3.2006
G1 X39.9535 Y31.4859
G1 X39.9524 Y31.4905
G1 X39.9517 Y31.4952 Z-3.2007
G1 X39.95 Y31.5295 Z-3.2009
G1 Y61.4705 Z-3.3995
G1 X39.9517 Y61.5048 Z-3.3997
G1 X39.9524 Y61.5095
G1 X39.9535 Y61.5141 Z-3.3998
G1 X39.9551 Y61.5186
G1 X39.9572 Y61.5229
G1 X39.9596 Y61.527 Z-3.3999
G1 X39.9625 Y61.5308
G1 X39.9657 Y61.5343
G1 X39.9692 Y61.5375 Z-3.4
G1 X39.973 Y61.5404
G1 X39.9771 Y61.5428
G1 X39.9814 Y61.5449 Z-3.4001
G1 X39.9859 Y61.5465
G1 X39.9905 Y61.5476
G1 X39.9952 Y61.5483 Z-3.4002
G1 X40.0 Y61.5486
G1 X40.0048 Y61.5483
G1 X40.0095 Y61.5476 Z-3.4003
G1 X40.0141 Y61.5465
G1 X40.0186 Y61.5449
G1 X40.0229 Y61.5428
G1 X40.027 Y61.5404 Z-3.4004
G1 X40.0308 Y61.5375
G1 X40.0343 Y61.5343
G1 X40.0375 Y61.5308 Z-3.4005
G1 X40.0404 Y61.527
G1 X40.0428 Y61.5229
G1 X40.0449 Y61.5186 Z-3.4006
G1 X40.0465 Y61.5141
G1 X40.0476 Y61.5095
G1 X40.0483 Y61.5048 Z-3.4007
G1 X40.05 Y61.4705 Z-3.4009
G1 Y31.5295 Z-3.5995
G1 X40.0483 Y31.4952 Z-3.5997
G1 X40.0476 Y31.4905
G1 X40.0465 Y31.4859 Z-3.5998
G1 X40.0449 Y31.4814
G1 X40.0428 Y31.4771
G1 X40.0404 Y31.473 Z-3.5999
G1 X40.0375 Y31.4692
G1 X40.0343 Y31.4657
G1 X40.0308 Y31.4625 Z-3.6
G1 X40.027 Y31.4596
G1 X40.0229 Y31.4572
G1 X40.0186 Y31.4551 Z-3.6001
G1 X40.0141 Y31.4535
G1 X40.0095 Y31.4524
G1 X40.0048 Y31.4517 Z-3.6002
G1 X40.0 Y31.4514
G1 X39.9952 Y31.4517
G1 X39.9905 Y31.4524 Z-3.6003
G1 X39.9859 Y31.4535
G1 X39.9814 Y31.4551
G1 X39.9771 Y31.4572
G1 X39.973 Y31.4596 Z-3.6004
G1 X39.9692 Y31.4625
G1 X39.9657 Y31.4657
G1 X39.9625 Y31.4692 Z-3.6005
G1 X39.9596 Y31.473
G1 X39.9572 Y31.4771
G1 X39.9551 Y31.4814 Z-3.6006
G1 X39.9535 Y31.4859
G1 X39.9524 Y31.4905
G1 X39.9517 Y31.4952 Z-3.6007
G1 X39.95 Y31.5295 Z-3.6009
G1 Y61.4705 Z-3.7995
G1 X39.9517 Y61.5048 Z-3.7997
G1 X39.9524 Y61.5095
G1 X39.9535 Y61.5141 Z-3.7998
G1 X39.9551 Y61.5186
G1 X39.9572 Y61.5229
G1 X39.9596 Y61.527 Z-3.7999
G1 X39.9625 Y61.5308
G1 X39.9657 Y61.5343
G1 X39.9692 Y61.5375 Z-3.8
G1 X39.973 Y61.5404
G1 X39.9771 Y61.5428
G1 X39.9814 Y61.5449 Z-3.8001
G1 X39.9859 Y61.5465
G1 X39.9905 Y61.5476
G1 X39.9952 Y61.5483 Z-3.8002
G1 X40.0 Y61.5486
G1 X40.0048 Y61.5483
G1 X40.0095 Y61.5476 Z-3.8003
G1 X40.0141 Y61.5465
G1 X40.0186 Y61.5449
G1 X40.0229 Y61.5428
G1 X40.027 Y61.5404 Z-3.8004
G1 X40.0308 Y61.5375
G1 X40.0343 Y61.5343
G1 X40.0375 Y61.5308 Z-3.8005
G1 X40.0404 Y61.527
G1 X40.0428 Y61.5229
G1 X40.0449 Y61.5186 Z-3.8006
G1 X40.0465 Y61.5141
G1 X40.0476 Y61.5095
G1 X40.0483 Y61.5048 Z-3.8007
G1 X40.05 Y61.4705 Z-3.8009
G1 Y31.5295 Z-3.9995
G1 X40.0483 Y31.4952 Z-3.9997
G1 X40.0476 Y31.4905
G1 X40.0465 Y31.4859 Z-3.9998
G1 X40.0449 Y31.4814
G1 X40.0428 Y31.4771
G1 X40.0404 Y31.473 Z-3.9999
G1 X40.0375 Y31.4692
G1 X40.0343 Y31.4657
G1 X40.0308 Y31.4625 Z-4.0
G1 X40.027 Y31.4596
G1 X40.0229 Y31.4572
G1 X40.0186 Y31.4551
G1 X40.0141 Y31.4535
G1 X40.0095 Y31.4524 Z-4.0001
G1 X40.0048 Y31.4517
G1 X40.0 Y31.4514
G1 X39.9952 Y31.4517
G1 X39.9905 Y31.4524
G1 X39.9859 Y31.4535
G1 X39.9814 Y31.4551 Z-4.0002
G1 X39.9771 Y31.4572
G1 X39.973 Y31.4596
G1 X39.9692 Y31.4625
G1 X39.9657 Y31.4657
G1 X39.9625 Y31.4692
G1 X39.9596 Y31.473 Z-4.0003
G1 X39.9572 Y31.4771
G1 X39.9551 Y31.4814
G1 X39.9535 Y31.4859
G1 X39.9524 Y31.4905
G1 X39.9517 Y31.4952
G1 X39.95 Y31.5295 Z-4.0004
G1 Y61.4705 Z-4.0997
G1 X39.9517 Y61.5048 Z-4.0999
G1 X39.9524 Y61.5095
G1 X39.9535 Y61.5141
G1 X39.9551 Y61.5186
G1 X39.9572 Y61.5229
G1 X39.9596 Y61.527
G1 X39.9625 Y61.5308 Z-4.1
G1 X39.9657 Y61.5343
G1 X39.9692 Y61.5375
G1 X39.973 Y61.5404
G1 X39.9771 Y61.5428
G1 X39.9814 Y61.5449
G1 X39.9859 Y61.5465
G1 X39.9905 Y61.5476 Z-4.1001
G1 X39.9952 Y61.5483
G1 X40.0 Y61.5486
G1 X40.0048 Y61.5483
G1 X40.0095 Y61.5476
G1 X40.0141 Y61.5465
G1 X40.0186 Y61.5449 Z-4.1002
G1 X40.0229 Y61.5428
G1 X40.027 Y61.5404
G1 X40.0308 Y61.5375
G1 X40.0343 Y61.5343
G1 X40.0375 Y61.5308
G1 X40.0404 Y61.527 Z-4.1003
G1 X40.0428 Y61.5229
G1 X40.0449 Y61.5186
G1 X40.0465 Y61.5141
G1 X40.0476 Y61.5095
G1 X40.0483 Y61.5048
G1 X40.05 Y61.4705 Z-4.1004
G1 Y31.5295 Z-4.1997
G1 X40.0483 Y31.4952 Z-4.1999
G1 X40.0476 Y31.4905
G1 X40.0465 Y31.4859
G1 X40.0449 Y31.4814
G1 X40.0428 Y31.4771
G1 X40.0404 Y31.473
G1 X40.0375 Y31.4692 Z-4.2
G1 X40.0343 Y31.4657
G1 X40.0308 Y31.4625
G1 X40.027 Y31.4596
G1 X40.0229 Y31.4572
G1 X40.0186 Y31.4551
G1 X40.0141 Y31.4535
G1 X40.0095 Y31.4524
G1 X40.0048 Y31.4517
G1 X40.0 Y31.4514
G1 X39.9952 Y31.4517
G1 X39.9905 Y31.4524
G1 X39.9859 Y31.4535
G1 X39.9814 Y31.4551
G1 X39.9771 Y31.4572
G1 X39.973 Y31.4596
G1 X39.9692 Y31.4625
G1 X39.9657 Y31.4657
G1 X39.9625 Y31.4692
G1 X39.9596 Y31.473
G1 X39.9572 Y31.4771
G1 X39.9551 Y31.4814
G1 X39.9535 Y31.4859
G1 X39.9524 Y31.4905
G1 X39.9517 Y31.4952
G1 X39.95 Y31.5295
G1 Y61.4705
G1 X39.9517 Y61.5048
G1 X39.9524 Y61.5095
G1 X39.9535 Y61.5141
G1 X39.9551 Y61.5186
G1 X39.9572 Y61.5229
G1 X39.9596 Y61.527
G1 X39.9625 Y61.5308
G1 X39.9657 Y61.5343
G1 X39.9692 Y61.5375
G1 X39.973 Y61.5404
G1 X39.9771 Y61.5428
G1 X39.9814 Y61.5449
G1 X39.9859 Y61.5465
G1 X39.9905 Y61.5476
G1 X39.9952 Y61.5483
G1 X40.0 Y61.5486
G1 X40.0048 Y61.5483
G1 X40.0095 Y61.5476
G1 X40.0141 Y61.5465
G1 X40.0186 Y61.5449
G1 X40.0229 Y61.5428
G1 X40.027 Y61.5404
G1 X40.0308 Y61.5375
G1 X40.0343 Y61.5343
G1 X40.0375 Y61.5308
G1 X40.0404 Y61.527
G1 X40.0428 Y61.5229
G1 X40.0449 Y61.5186
G1 X40.0465 Y61.5141
G1 X40.0476 Y61.5095
G1 X40.0483 Y61.5048
G1 X40.05 Y61.4705
G1 Y31.5295
G1 X40.0483 Y31.4952
G1 X40.0476 Y31.4905
G1 X40.0465 Y31.4859
G1 X40.0449 Y31.4814
G1 X40.0428 Y31.4771
G1 X40.0404 Y31.473
G1 X40.0375 Y31.4692
G1 X40.0343 Y31.4657
G1 X40.0308 Y31.4625
G1 X40.027 Y31.4596
G0 Z3.0
G0 X55.95 Y31.5295
G0 Z1.0
G1 F300.0 Z0.0
G1 F800.0 Y61.4705 Z-0.1986
G1 X55.9517 Y61.5048 Z-0.1988
G1 X55.9524 Y61.5095 Z-0.1989
G1 X55.9535 Y61.5141
G1 X55.9551 Y61.5186
G1 X55.9572 Y61.5229 Z-0.199
G1 X55.9596 Y61.527
G1 X55.9625 Y61.5308
G1 X55.9657 Y61.5343
G1 X55.9692 Y61.5375 Z-0.1991
G1 X55.973 Y61.5404
G1 X55.9771 Y61.5428
G1 X55.9814 Y61.5449 Z-0.1992
G1 X55.9859 Y61.5465
G1 X55.9905 Y61.5476
G1 X55.9952 Y61.5483 Z-0.1993
G1 X56.0 Y61.5486
G1 X56.0048 Y61.5483
G1 X56.0095 Y61.5476 Z-0.1994
G1 X56.0141 Y61.5465
G1 X56.0186 Y61.5449
G1 X56.0229 Y61.5428 Z-0.1995
G1 X56.027 Y61.5404
G1 X56.0308 Y61.5375
G1 X56.0343 Y61.5343 Z-0.1996
G1 X56.0375 Y61.5308
G1 X56.0404 Y61.527
G1 X56.0428 Y61.5229
G1 X56.0449 Y61.5186 Z-0.1997
G1 X56.0465 Y61.5141
G1 X56.0476 Y61.5095
G1 X56.0483 Y61.5048 Z-0.1998
G1 X56.05 Y61.4705 Z-0.2
G1 Y31.5295 Z-0.3986
G1 X56.0483 Y31.4952 Z-0.3988
G1 X56.0476 Y31.4905 Z-0.3989
G1 X56.0465 Y31.4859
G1 X56.0449 Y31.4814
G1 X56.0428 Y31.4771 Z-0.399
G1 X56.0404 Y31.473
G1 X56.0375 Y31.4692
G1 X56.0343 Y31.4657
G1 X56.0308 Y31.4625 Z-0.3991
G1 X56.027 Y31.4596
G1 X56.0229 Y31.4572
G1 X56.0186 Y31.4551 Z-0.3992
G1 X56.0141 Y31.4535
G1 X56.0095 Y31.4524
G1 X56.0048 Y31.4517 Z-0.3993
G1 X56.0 Y31.4514
G1 X55.9952 Y31.4517
G1 X55.9905 Y31.4524 Z-0.3994
G1 X55.9859 Y31.4535
G1 X55.9814 Y31.4551
G1 X55.9771 Y31.4572 Z-0.3995
G1 X55.973 Y31.4596
G1 X55.9692 Y31.4625
G1 X55.9657 Y31.4657 Z-0.3996
G1 X55.9625 Y31.4692
G1 X55.9596 Y31.473
G1 X55.9572 Y31.4771
G1 X55.9551 Y31.4814 Z-0.3997
G1 X55.9535 Y31.4859
G1 X55.9524 Y31.4905
G1 X55.9517 Y31.4952 Z-0.3998
G1 X55.95 Y31.5295 Z-0.4
G1 Y61.4705 Z-0.5986
G1 X55.9517 Y61.5048 Z-0.5988
G1 X55.9524 Y61.5095 Z-0.5989
G1 X55.9535 Y61.5141
G1 X55.9551 Y61.5186
G1 X55.9572 Y61.5229 Z-0.599
G1 X55.9596 Y61.527
G1 X55.9625 Y61.5308
G1 X55.9657 Y61.5343
G1 X55.9692 Y61.5375 Z-0.5991
G1 X55.973 Y61.5404
G1 X55.9771 Y61.5428
G1 X55.9814 Y61.5449 Z-0.5992
G1 X55.9859 Y61.5465
G1 X55.9905 Y61.5476
G1 X55.9952 Y61.5483 Z-0.5993
G1 X56.0 Y61.5486
G1 X56.0048 Y61.5483
G1 X56.0095 Y61.5476 Z-0.5994
G1 X56.0141 Y61.5465
G1 X56.0186 Y61.5449
G1 X56.0229 Y61.5428 Z-0.5995
G1 X56.027 Y61.5404
G1 X56.0308 Y61.5375
G1 X56.0343 Y61.5343 Z-0.5996
G1 X56.0375 Y61.5308
G1 X56.0404 Y61.527
G1 X56.0428 Y61.5229
G1 X56.0449 Y61.5186 Z-0.5997
G1 X56.0465 Y61.5141
G1 X56.0476 Y61.5095
G1 X56.0483 Y61.5048 Z-0.5998
G1 X56.05 Y61.4705 Z-0.6
G1 Y31.5295 Z-0.7986
G1 X56.0483 Y31.4952 Z-0.7988
G1 X56.0476 Y31.4905 Z-0.7989
G1 X56.0465 Y31.4859
G1 X56.0449 Y31.4814
G1 X56.0428 Y31.4771 Z-0.799
G1 X56.0404 Y31.473
G1 X56.0375 Y31.4692
G1 X56.0343 Y31.4657
G1 X56.0308 Y31.4625 Z-0.7991
G1 X56.027 Y31.4596
G1 X56.0229 Y31.4572
G1 X56.0186 Y31.4551 Z-0.7992
G1 X56.0141 Y31.4535
G1 X56.0095 Y31.4524
G1 X56.0048 Y31.4517 Z-0.7993
G1 X56.0 Y31.4514
G1 X55.9952 Y31.4517
G1 X55.9905 Y31.4524 Z-0.7994
G1 X55.9859 Y31.4535
G1 X55.9814 Y31.4551
G1 X55.9771 Y31.4572 Z-0.7995
G1 X55.973 Y31.4596
G1 X55.9692 Y31.4625
G1 X55.9657 Y31.4657 Z-0.7996
G1 X55.9625 Y31.4692
G1 X55.9596 Y31.473
G1 X55.9572 Y31.4771
G1 X55.9551 Y31.4814 Z-0.7997
G1 X55.9535 Y31.4859
G1 X55.9524 Y31.4905
G1 X55.9517 Y31.4952 Z-0.7998
G1 X55.95 Y31.5295 Z-0.8
G1 Y61.4705 Z-0.9986
G1 X55.9517 Y61.5048 Z-0.9988
G1 X55.9524 Y61.5095 Z-0.9989
G1 X55.9535 Y61.5141
G1 X55.9551 Y61.5186
G1 X55.9572 Y61.5229 Z-0.999
G1 X55.9596 Y61.527
G1 X55.9625 Y61.5308
G1 X55.9657 Y61.5343
G1 X55.9692 Y61.5375 Z-0.9991
G1 X55.973 Y61.5404
G1 X55.9771 Y61.5428
G1 X55.9814 Y61.5449 Z-0.9992
G1 X55.9859 Y61.5465
G1 X55.9905 Y61.5476
G1 X55.9952 Y61.5483 Z-0.9993
G1 X56.0 Y61.5486
G1 X56.0048 Y61.5483
G1 X56.0095 Y61.5476 Z-0.9994
G1 X56.0141 Y61.5465
G1 X56.0186 Y61.5449
G1 X56.0229 Y61.5428 Z-0.9995
G1 X56.027 Y61.5404
G1 X56.0308 Y61.5375
G1 X56.0343 Y61.5343 Z-0.9996
G1 X56.0375 Y61.5308
G1 X56.0404 Y61.527
G1 X56.0428 Y61.5229
G1 X56.0449 Y61.5186 Z-0.9997
G1 X56.0465 Y61.5141
G1 X56.0476 Y61.5095
G1 X56.0483 Y61.5048 Z-0.9998
G1 X56.05 Y61.4705 Z-1.0
G1 Y31.5295 Z-1.1986
G1 X56.0483 Y31.4952 Z-1.1988
G1 X56.0476 Y31.4905 Z-1.1989
G1 X56.0465 Y31.4859
G1 X56.0449 Y31.4814
G1 X56.0428 Y31.4771 Z-1.199
G1 X56.0404 Y31.473
G1 X56.0375 Y31.4692
G1 X56.0343 Y31.4657
G1 X56.0308 Y31.4625 Z-1.1991
G1 X56.027 Y31.4596
G1 X56.0229 Y31.4572
G1 X56.0186 Y31.4551 Z-1.1992
G1 X56.0141 Y31.4535
G1 X56.0095 Y31.4524
G1 X56.0048 Y31.4517 Z-1.1993
G1 X56.0 Y31.4514
G1 X55.9952 Y31.4517
G1 X55.9905 Y31.4524 Z-1.1994
G1 X55.9859 Y31.4535
G1 X55.9814 Y31.4551
G1 X55.9771 Y31.4572 Z-1.1995
G1 X55.973 Y31.4596
G1 X55.9692 Y31.4625
G1 X55.9657 Y31.4657 Z-1.1996
G1 X55.9625 Y31.4692
G1 X55.9596 Y31.473
G1 X55.9572 Y31.4771
G1 X55.9551 Y31.4814 Z-1.1997
G1 X55.9535 Y31.4859
G1 X55.9524 Y31.4905
G1 X55.9517 Y31.4952 Z-1.1998
G1 X55.95 Y31.5295 Z-1.2
G1 Y61.4705 Z-1.3986
G1 X55.9517 Y61.5048 Z-1.3988
G1 X55.9524 Y61.5095 Z-1.3989
G1 X55.9535 Y61.5141
G1 X55.9551 Y61.5186
G1 X55.9572 Y61.5229 Z-1.399
G1 X55.9596 Y61.527
G1 X55.9625 Y61.5308
G1 X55.9657 Y61.5343
G1 X55.9692 Y61.5375 Z-1.3991
G1 X55.973 Y61.5404
G1 X55.9771 Y61.5428
G1 X55.9814 Y61.5449 Z-1.3992
G1 X55.9859 Y61.5465
G1 X55.9905 Y61.5476
G1 X55.9952 Y61.5483 Z-1.3993
G1 X56.0 Y61.5486
G1 X56.0048 Y61.5483
G1 X56.0095 Y61.5476 Z-1.3994
G1 X56.0141 Y61.5465
G1 X56.0186 Y61.5449
G1 X56.0229 Y61.5428 Z-1.3995
G1 X56.027 Y61.5404
G1 X56.0308 Y61.5375
G1 X56.0343 Y61.5343 Z-1.3996
G1 X56.0375 Y61.5308
G1 X56.0404 Y61.527
G1 X56.0428 Y61.5229
G1 X56.0449 Y61.5186 Z-1.3997
G1 X56.0465 Y61.5141
G1 X56.0476 Y61.5095
G1 X56.0483 Y61.5048 Z-1.3998
G1 X56.05 Y61.4705 Z-1.4
G1 Y31.5295 Z-1.5986
G1 X56.0483 Y31.4952 Z-1.5988
G1 X56.0476 Y31.4905 Z-1.5989
G1 X56.0465 Y31.4859
G1 X56.0449 Y31.4814
G1 X56.0428 Y31.4771 Z-1.599
G1 X56.0404 Y31.473
G1 X56.0375 Y31.4692
G1 X56.0343 Y31.4657
G1 X56.0308 Y31.4625 Z-1.5991
G1 X56.027 Y31.4596
G1 X56.0229 Y31.4572
G1 X56.0186 Y31.4551 Z-1.5992
G1 X56.0141 Y31.4535
G1 X56.0095 Y31.4524
G1 X56.0048 Y31.4517 Z-1.5993
G1 X56.0 Y31.4514
G1 X55.9952 Y31.4517
G1 X55.9905 Y31.4524 Z-1.5994
G1 X55.9859 Y31.4535
G1 X55.9814 Y31.4551
G1 X55.9771 Y31.4572 Z-1.5995
G1 X55.973 Y31.4596
G1 X55.9692 Y31.4625
G1 X55.9657 Y31.4657 Z-1.5996
G1 X55.9625 Y31.4692
G1 X55.9596 Y31.473
G1 X55.9572 Y31.4771
G1 X55.9551 Y31.4814 Z-1.5997
G1 X55.9535 Y31.4859
G1 X55.9524 Y31.4905
G1 X55.9517 Y31.4952 Z-1.5998
G1 X55.95 Y31.5295 Z-1.6
G1 Y61.4705 Z-1.7986
G1 X55.9517 Y61.5048 Z-1.7988
G1 X55.9524 Y61.5095 Z-1.7989
G1 X55.9535 Y61.5141
G1 X55.9551 Y61.5186
G1 X55.9572 Y61.5229 Z-1.799
G1 X55.9596 Y61.527
G1 X55.9625 Y61.5308
G1 X55.9657 Y61.5343
G1 X55.9692 Y61.5375 Z-1.7991
G1 X55.973 Y61.5404
G1 X55.9771 Y61.5428
G1 X55.9814 Y61.5449 Z-1.7992
G1 X55.9859 Y61.5465
G1 X55.9905 Y61.5476
G1 X55.9952 Y61.5483 Z-1.7993
G1 X56.0 Y61.5486
G1 X56.0048 Y61.5483
G1 X56.0095 Y61.5476 Z-1.7994
G1 X56.0141 Y61.5465
G1 X56.0186 Y61.5449
G1 X56.0229 Y61.5428 Z-1.7995
G1 X56.027 Y61.5404
G1 X56.0308 Y61.5375
G1 X56.0343 Y61.5343 Z-1.7996
G1 X56.0375 Y61.5308
G1 X56.0404 Y61.527
G1 X56.0428 Y61.5229
G1 X56.0449 Y61.5186 Z-1.7997
G1 X56.0465 Y61.5141
G1 X56.0476 Y61.5095
G1 X56.0483 Y61.5048 Z-1.7998
G1 X56.05 Y61.4705 Z-1.8
G1 Y31.5295 Z-1.9986
G1 X56.0483 Y31.4952 Z-1.9988
G1 X56.0476 Y31.4905 Z-1.9989
G1 X56.0465 Y31.4859
G1 X56.0449 Y31.4814
G1 X56.0428 Y31.4771 Z-1.999
G1 X56.0404 Y31.473
G1 X56.0375 Y31.4692
G1 X56.0343 Y31.4657
G1 X56.0308 Y31.4625 Z-1.9991
G1 X56.027 Y31.4596
G1 X56.0229 Y31.4572
G1 X56.0186 Y31.4551 Z-1.9992
G1 X56.0141 Y31.4535
G1 X56.0095 Y31.4524
G1 X56.0048 Y31.4517 Z-1.9993
G1 X56.0 Y31.4514
G1 X55.9952 Y31.4517
G1 X55.9905 Y31.4524 Z-1.9994
G1 X55.9859 Y31.4535
G1 X55.9814 Y31.4551
G1 X55.9771 Y31.4572 Z-1.9995
G1 X55.973 Y31.4596
G1 X55.9692 Y31.4625
G1 X55.9657 Y31.4657 Z-1.9996
G1 X55.9625 Y31.4692
G1 X55.9596 Y31.473
G1 X55.9572 Y31.4771
G1 X55.9551 Y31.4814 Z-1.9997
G1 X55.9535 Y31.4859
G1 X55.9524 Y31.4905
G1 X55.9517 Y31.4952 Z-1.9998
G1 X55.95 Y31.5295 Z-2.0
G1 Y61.4705 Z-2.1986
G1 X55.9517 Y61.5048 Z-2.1988
G1 X55.9524 Y61.5095 Z-2.1989
G1 X55.9535 Y61.5141
G1 X55.9551 Y61.5186
G1 X55.9572 Y61.5229 Z-2.199
G1 X55.9596 Y61.527
G1 X55.9625 Y61.5308
G1 X55.9657 Y61.5343
G1 X55.9692 Y61.5375 Z-2.1991
G1 X55.973 Y61.5404
G1 X55.9771 Y61.5428
G1 X55.9814 Y61.5449 Z-2.1992
G1 X55.9859 Y61.5465
G1 X55.9905 Y61.5476
G1 X55.9952 Y61.5483 Z-2.1993
G1 X56.0 Y61.5486
G1 X56.0048 Y61.5483
G1 X56.0095 Y61.5476 Z-2.1994
G1 X56.0141 Y61.5465
G1 X56.0186 Y61.5449
G1 X56.0229 Y61.5428 Z-2.1995
G1 X56.027 Y61.5404
G1 X56.0308 Y61.5375
G1 X56.0343 Y61.5343 Z-2.1996
G1 X56.0375 Y61.5308
G1 X56.0404 Y61.527
G1 X56.0428 Y61.5229
G1 X56.0449 Y61.5186 Z-2.1997
G1 X56.0465 Y61.5141
G1 X56.0476 Y61.5095
G1 X56.0483 Y61.5048 Z-2.1998
G1 X56.05 Y61.4705 Z-2.2
G1 Y31.5295 Z-2.3986
G1 X56.0483 Y31.4952 Z-2.3988
G1 X56.0476 Y31.4905 Z-2.3989
G1 X56.0465 Y31.4859
G1 X56.0449 Y31.4814
G1 X56.0428 Y31.4771 Z-2.399
G1 X56.0404 Y31.473
G1 X56.0375 Y31.4692
G1 X56.0343 Y31.4657
G1 X56.0308 Y31.4625 Z-2.3991
G1 X56.027 Y31.4596
G1 X56.0229 Y31.4572
G1 X56.0186 Y31.4551 Z-2.3992
G1 X56.0141 Y31.4535
G1 X56.0095 Y31.4524
G1 X56.0048 Y31.4517 Z-2.3993
G1 X56.0 Y31.4514
G1 X55.9952 Y31.4517
G1 X55.9905 Y31.4524 Z-2.3994
G1 X55.9859 Y31.4535
G1 X55.9814 Y31.4551
G1 X55.9771 Y31.4572 Z-2.3995
G1 X55.973 Y31.4596
G1 X55.9692 Y31.4625
G1 X55.9657 Y31.4657 Z-2.3996
G1 X55.9625 Y31.4692
G1 X55.9596 Y31.473
G1 X55.9572 Y31.4771
G1 X55.9551 Y31.4814 Z-2.3997
G1 X55.9535 Y31.4859
G1 X55.9524 Y31.4905
G1 X55.9517 Y31.4952 Z-2.3998
G1 X55.95 Y31.5295 Z-2.4
G1 Y61.4705 Z-2.5986
G1 X55.9517 Y61.5048 Z-2.5988
G1 X55.9524 Y61.5095 Z-2.5989
G1 X55.9535 Y61.5141
G1 X55.9551 Y61.5186
G1 X55.9572 Y61.5229 Z-2.599
G1 X55.9596 Y61.527
G1 X55.9625 Y61.5308
G1 X55.9657 Y61.5343
G1 X55.9692 Y61.5375 Z-2.5991
G1 X55.973 Y61.5404
G1 X55.9771 Y61.5428
G1 X55.9814 Y61.5449 Z-2.5992
G1 X55.9859 Y61.5465
G1 X55.9905 Y61.5476
G1 X55.9952 Y61.5483 Z-2.5993
G1 X56.0 Y61.5486
G1 X56.0048 Y61.5483
G1 X56.0095 Y61.5476 Z-2.5994
G1 X56.0141 Y61.5465
G1 X56.0186 Y61.5449
G1 X56.0229 Y61.5428 Z-2.5995
G1 X56.027 Y61.5404
G1 X56.0308 Y61.5375
G1 X56.0343 Y61.5343 Z-2.5996
G1 X56.0375 Y61.5308
G1 X56.0404 Y61.527
G1 X56.0428 Y61.5229
G1 X56.0449 Y61.5186 Z-2.5997
G1 X56.0465 Y61.5141
G1 X56.0476 Y61.5095
G1 X56.0483 Y61.5048 Z-2.5998
G1 X56.05 Y61.4705 Z-2.6
G1 Y31.5295 Z-2.7986
G1 X56.0483 Y31.4952 Z-2.7988
G1 X56.0476 Y31.4905 Z-2.7989
G1 X56.0465 Y31.4859
G1 X56.0449 Y31.4814
G1 X56.0428 Y31.4771 Z-2.799
G1 X56.0404 Y31.473
G1 X56.0375 Y31.4692
G1 X56.0343 Y31.4657
G1 X56.0308 Y31.4625 Z-2.7991
G1 X56.027 Y31.4596
G1 X56.0229 Y31.4572
G1 X56.0186 Y31.4551 Z-2.7992
G1 X56.0141 Y31.4535
G1 X56.0095 Y31.4524
G1 X56.0048 Y31.4517 Z-2.7993
G1 X56.0 Y31.4514
G1 X55.9952 Y31.4517
G1 X55.9905 Y31.4524 Z-2.7994
G1 X55.9859 Y31.4535
G1 X55.9814 Y31.4551
G1 X55.9771 Y31.4572 Z-2.7995
G1 X55.973 Y31.4596
G1 X55.9692 Y31.4625
G1 X55.9657 Y31.4657 Z-2.7996
G1 X55.9625 Y31.4692
G1 X55.9596 Y31.473
G1 X55.9572 Y31.4771
G1 X55.9551 Y31.4814 Z-2.7997
G1 X55.9535 Y31.4859
G1 X55.9524 Y31.4905
G1 X55.9517 Y31.4952 Z-2.7998
G1 X55.95 Y31.5295 Z-2.8
G1 Y61.4705 Z-2.9986
G1 X55.9517 Y61.5048 Z-2.9988
G1 X55.9524 Y61.5095 Z-2.9989
G1 X55.9535 Y61.5141
G1 X55.9551 Y61.5186
G1 X55.9572 Y61.5229 Z-2.999
G1 X55.9596 Y61.527
G1 X55.9625 Y61.5308
G1 X55.9657 Y61.5343
G1 X55.9692 Y61.5375 Z-2.9991
G1 X55.973 Y61.5404
G1 X55.9771 Y61.5428
G1 X55.9814 Y61.5449 Z-2.9992
G1 X55.9859 Y61.5465
G1 X55.9905 Y61.5476
G1 X55.9952 Y61.5483 Z-2.9993
G1 X56.0 Y61.5486
G1 X56.0048 Y61.5483
G1 X56.0095 Y61.5476 Z-2.9994
G1 X56.0141 Y61.5465
G1 X56.0186 Y61.5449
G1 X56.0229 Y61.5428 Z-2.9995
G1 X56.027 Y61.5404
G1 X56.0308 Y61.5375
G1 X56.0343 Y61.5343 Z-2.9996
G1 X56.0375 Y61.5308
G1 X56.0404 Y61.527
G1 X56.0428 Y61.5229
G1 X56.0449 Y61.5186 Z-2.9997
G1 X56.0465 Y61.5141
G1 X56.0476 Y61.5095
G1 X56.0483 Y61.5048 Z-2.9998
G1 X56.05 Y61.4705 Z-3.0
G1 Y31.5295 Z-3.1986
G1 X56.0483 Y31.4952 Z-3.1988
G1 X56.0476 Y31.4905 Z-3.1989
G1 X56.0465 Y31.4859
G1 X56.0449 Y31.4814
G1 X56.0428 Y31.4771 Z-3.199
G1 X56.0404 Y31.473
G1 X56.0375 Y31.4692
G1 X56.0343 Y31.4657
G1 X56.0308 Y31.4625 Z-3.1991
G1 X56.027 Y31.4596
G1 X56.0229 Y31.4572
G1 X56.0186 Y31.4551 Z-3.1992
G1 X56.0141 Y31.4535
G1 X56.0095 Y31.4524
G1 X56.0048 Y31.4517 Z-3.1993
G1 X56.0 Y31.4514
G1 X55.9952 Y31.4517
G1 X55.9905 Y31.4524 Z-3.1994
G1 X55.9859 Y31.4535
G1 X55.9814 Y31.4551
G1 X55.9771 Y31.4572 Z-3.1995
G1 X55.973 Y31.4596
G1 X55.9692 Y31.4625
G1 X55.9657 Y31.4657 Z-3.1996
G1 X55.9625 Y31.4692
G1 X55.9596 Y31.473
G1 X55.9572 Y31.4771
G1 X55.9551 Y31.4814 Z-3.1997
G1 X55.9535 Y31.4859
G1 X55.9524 Y31.4905
G1 X55.9517 Y31.4952 Z-3.1998
G1 X55.95 Y31.5295 Z-3.2
G1 Y61.4705 Z-3.3986
G1 X55.9517 Y61.5048 Z-3.3988
G1 X55.9524 Y61.5095 Z-3.3989
G1 X55.9535 Y61.5141
G1 X55.9551 Y61.5186
G1 X55.9572 Y61.5229 Z-3.399
G1 X55.9596 Y61.527
G1 X55.9625 Y61.5308
G1 X55.9657 Y61.5343
G1 X55.9692 Y61.5375 Z-3.3991
G1 X55.973 Y61.5404
G1 X55.9771 Y61.5428
G1 X55.9814 Y61.5449 Z-3.3992
G1 X55.9859 Y61.5465
G1 X55.9905 Y61.5476
G1 X55.9952 Y61.5483 Z-3.3993
G1 X56.0 Y61.5486
G1 X56.0048 Y61.5483
G1 X56.0095 Y61.5476 Z-3.3994
G1 X56.0141 Y61.5465
G1 X56.0186 Y61.5449
G1 X56.0229 Y61.5428 Z-3.3995
G1 X56.027 Y61.5404
G1 X56.0308 Y61.5375
G1 X56.0343 Y61.5343 Z-3.3996
G1 X56.0375 Y61.5308
G1 X56.0404 Y61.527
G1 X56.0428 Y61.5229
G1 X56.0449 Y61.5186 Z-3.3997
G1 X56.0465 Y61.5141
G1 X56.0476 Y61.5095
G1 X56.0483 Y61.5048 Z-3.3998
G1 X56.05 Y61.4705 Z-3.4
G1 Y31.5295 Z-3.5986
G1 X56.0483 Y31.4952 Z-3.5988
G1 X56.0476 Y31.4905 Z-3.5989
G1 X56.0465 Y31.4859
G1 X56.0449 Y31.4814
G1 X56.0428 Y31.4771 Z-3.599
G1 X56.0404 Y31.473
G1 X56.0375 Y31.4692
G1 X56.0343 Y31.4657
G1 X56.0308 Y31.4625 Z-3.5991
G1 X56.027 Y31.4596
G1 X56.0229 Y31.4572
G1 X56.0186 Y31.4551 Z-3.5992
G1 X56.0141 Y31.4535
G1 X56.0095 Y31.4524
G1 X56.0048 Y31.4517 Z-3.5993
G1 X56.0 Y31.4514
G1 X55.9952 Y31.4517
G1 X55.9905 Y31.4524 Z-3.5994
G1 X55.9859 Y31.4535
G1 X55.9814 Y31.4551
G1 X55.9771 Y31.4572 Z-3.5995
G1 X55.973 Y31.4596
G1 X55.9692 Y31.4625
G1 X55.9657 Y31.4657 Z-3.5996
G1 X55.9625 Y31.4692
G1 X55.9596 Y31.473
G1 X55.9572 Y31.4771
G1 X55.9551 Y31.4814 Z-3.5997
G1 X55.9535 Y31.4859
G1 X55.9524 Y31.4905
G1 X55.9517 Y31.4952 Z-3.5998
G1 X55.95 Y31.5295 Z-3.6
G1 Y61.4705 Z-3.7986
G1 X55.9517 Y61.5048 Z-3.7988
G1 X55.9524 Y61.5095 Z-3.7989
G1 X55.9535 Y61.5141
G1 X55.9551 Y61.5186
G1 X55.9572 Y61.5229 Z-3.799
G1 X55.9596 Y61.527
G1 X55.9625 Y61.5308
G1 X55.9657 Y61.5343
G1 X55.9692 Y61.5375 Z-3.7991
G1 X55.973 Y61.5404
G1 X55.9771 Y61.5428
G1 X55.9814 Y61.5449 Z-3.7992
G1 X55.9859 Y61.5465
G1 X55.9905 Y61.5476
G1 X55.9952 Y61.5483 Z-3.7993
G1 X56.0 Y61.5486
G1 X56.0048 Y61.5483
G1 X56.0095 Y61.5476 Z-3.7994
G1 X56.0141 Y61.5465
G1 X56.0186 Y61.5449
G1 X56.0229 Y61.5428 Z-3.7995
G1 X56.027 Y61.5404
G1 X56.0308 Y61.5375
G1 X56.0343 Y61.5343 Z-3.7996
G1 X56.0375 Y61.5308
G1 X56.0404 Y61.527
G1 X56.0428 Y61.5229
G1 X56.0449 Y61.5186 Z-3.7997
G1 X56.0465 Y61.5141
G1 X56.0476 Y61.5095
G1 X56.0483 Y61.5048 Z-3.7998
G1 X56.05 Y61.4705 Z-3.8
G1 Y31.5295 Z-3.9986
G1 X56.0483 Y31.4952 Z-3.9988
G1 X56.0476 Y31.4905 Z-3.9989
G1 X56.0465 Y31.4859
G1 X56.0449 Y31.4814
G1 X56.0428 Y31.4771 Z-3.999
G1 X56.0404 Y31.473
G1 X56.0375 Y31.4692
G1 X56.0343 Y31.4657
G1 X56.0308 Y31.4625 Z-3.9991
G1 X56.027 Y31.4596
G1 X56.0229 Y31.4572
G1 X56.0186 Y31.4551 Z-3.9992
G1 X56.0141 Y31.4535
G1 X56.0095 Y31.4524
G1 X56.0048 Y31.4517 Z-3.9993
G1 X56.0 Y31.4514
G1 X55.9952 Y31.4517
G1 X55.9905 Y31.4524 Z-3.9994
G1 X55.9859 Y31.4535
G1 X55.9814 Y31.4551
G1 X55.9771 Y31.4572 Z-3.9995
G1 X55.973 Y31.4596
G1 X55.9692 Y31.4625
G1 X55.9657 Y31.4657 Z-3.9996
G1 X55.9625 Y31.4692
G1 X55.9596 Y31.473
G1 X55.9572 Y31.4771
G1 X55.9551 Y31.4814 Z-3.9997
G1 X55.9535 Y31.4859
G1 X55.9524 Y31.4905
G1 X55.9517 Y31.4952 Z-3.9998
G1 X55.95 Y31.5295 Z-4.0
G1 Y61.4705 Z-4.0993
G1 X55.9517 Y61.5048 Z-4.0994
G1 X55.9524 Y61.5095
G1 X55.9535 Y61.5141
G1 X55.9551 Y61.5186 Z-4.0995
G1 X55.9572 Y61.5229
G1 X55.9596 Y61.527
G1 X55.9625 Y61.5308
G1 X55.9657 Y61.5343
G1 X55.9692 Y61.5375
G1 X55.973 Y61.5404 Z-4.0996
G1 X55.9771 Y61.5428
G1 X55.9814 Y61.5449
G1 X55.9859 Y61.5465
G1 X55.9905 Y61.5476
G1 X55.9952 Y61.5483
G1 X56.0 Y61.5486
G1 X56.0048 Y61.5483 Z-4.0997
G1 X56.0095 Y61.5476
G1 X56.0141 Y61.5465
G1 X56.0186 Y61.5449
G1 X56.0229 Y61.5428
G1 X56.027 Y61.5404
G1 X56.0308 Y61.5375 Z-4.0998
G1 X56.0343 Y61.5343
G1 X56.0375 Y61.5308
G1 X56.0404 Y61.527
G1 X56.0428 Y61.5229
G1 X56.0449 Y61.5186
G1 X56.0465 Y61.5141 Z-4.0999
G1 X56.0476 Y61.5095
G1 X56.0483 Y61.5048
G1 X56.05 Y61.4705 Z-4.1
G1 Y31.5295 Z-4.1993
G1 X56.0483 Y31.4952 Z-4.1994
G1 X56.0476 Y31.4905
G1 X56.0465 Y31.4859
G1 X56.0449 Y31.4814 Z-4.1995
G1 X56.0428 Y31.4771
G1 X56.0404 Y31.473
G1 X56.0375 Y31.4692
G1 X56.0343 Y31.4657
G1 X56.0308 Y31.4625
G1 X56.027 Y31.4596 Z-4.1996
G1 X56.0229 Y31.4572
G1 X56.0186 Y31.4551
G1 X56.0141 Y31.4535
G1 X56.0095 Y31.4524
G1 X56.0048 Y31.4517
G1 X56.0 Y31.4514
G1 X55.9952 Y31.4517 Z-4.1997
G1 X55.9905 Y31.4524
G1 X55.9859 Y31.4535
G1 X55.9814 Y31.4551
G1 X55.9771 Y31.4572
G1 X55.973 Y31.4596
G1 X55.9692 Y31.4625 Z-4.1998
G1 X55.9657 Y31.4657
G1 X55.9625 Y31.4692
G1 X55.9596 Y31.473
G1 X55.9572 Y31.4771
G1 X55.9551 Y31.4814
G1 X55.9535 Y31.4859 Z-4.1999
G1 X55.9524 Y31.4905
G1 X55.9517 Y31.4952
G1 X55.95 Y31.5295 Z-4.2
G1 Y61.4705
G1 X55.9517 Y61.5048
G1 X55.9524 Y61.5095
G1 X55.9535 Y61.5141
G1 X55.9551 Y61.5186
G1 X55.9572 Y61.5229
G1 X55.9596 Y61.527
G1 X55.9625 Y61.5308
G1 X55.9657 Y61.5343
G1 X55.9692 Y61.5375
G1 X55.973 Y61.5404
G1 X55.9771 Y61.5428
G1 X55.9814 Y61.5449
G1 X55.9859 Y61.5465
G1 X55.9905 Y61.5476
G1 X55.9952 Y61.5483
G1 X56.0 Y61.5486
G1 X56.0048 Y61.5483
G1 X56.0095 Y61.5476
G1 X56.0141 Y61.5465
G1 X56.0186 Y61.5449
G1 X56.0229 Y61.5428
G1 X56.027 Y61.5404
G1 X56.0308 Y61.5375
G1 X56.0343 Y61.5343
G1 X56.0375 Y61.5308
G1 X56.0404 Y61.527
G1 X56.0428 Y61.5229
G1 X56.0449 Y61.5186
G1 X56.0465 Y61.5141
G1 X56.0476 Y61.5095
G1 X56.0483 Y61.5048
G1 X56.05 Y61.4705
G1 Y31.5295
G1 X56.0483 Y31.4952
G1 X56.0476 Y31.4905
G1 X56.0465 Y31.4859
G1 X56.0449 Y31.4814
G1 X56.0428 Y31.4771
G1 X56.0404 Y31.473
G1 X56.0375 Y31.4692
G1 X56.0343 Y31.4657
G1 X56.0308 Y31.4625
G1 X56.027 Y31.4596
G1 X56.0229 Y31.4572
G1 X56.0186 Y31.4551
G1 X56.0141 Y31.4535
G1 X56.0095 Y31.4524
G1 X56.0048 Y31.4517
G1 X56.0 Y31.4514
G1 X55.9952 Y31.4517
G1 X55.9905 Y31.4524
G1 X55.9859 Y31.4535
G1 X55.9814 Y31.4551
G1 X55.9771 Y31.4572
G1 X55.973 Y31.4596
G1 X55.9692 Y31.4625
G1 X55.9657 Y31.4657
G1 X55.9625 Y31.4692
G1 X55.9596 Y31.473
G1 X55.9572 Y31.4771
G1 X55.9551 Y31.4814
G1 X55.9535 Y31.4859
G1 X55.9524 Y31.4905
G1 X55.9517 Y31.4952
G1 X55.95 Y31.5295
G0 Z3.0
G0 X71.95
G0 Z1.0
G1 F300.0 Z0.0
G1 F800.0 Y61.4705 Z-0.1986
G1 X71.9517 Y61.5048 Z-0.1988
G1 X71.9524 Y61.5095 Z-0.1989
G1 X71.9535 Y61.5141
G1 X71.9551 Y61.5186
G1 X71.9572 Y61.5229 Z-0.199
G1 X71.9596 Y61.527
G1 X71.9625 Y61.5308
G1 X71.9657 Y61.5343
G1 X71.9692 Y61.5375 Z-0.1991
G1 X71.973 Y61.5404
G1 X71.9771 Y61.5428
G1 X71.9814 Y61.5449 Z-0.1992
G1 X71.9859 Y61.5465
G1 X71.9905 Y61.5476
G1 X71.9952 Y61.5483 Z-0.1993
G1 X72.0 Y61.5486
G1 X72.0048 Y61.5483
G1 X72.0095 Y61.5476 Z-0.1994
G1 X72.0141 Y61.5465
G1 X72.0186 Y61.5449
G1 X72.0229 Y61.5428 Z-0.1995
G1 X72.027 Y61.5404
G1 X72.0308 Y61.5375
G1 X72.0343 Y61.5343 Z-0.1996
G1 X72.0375 Y61.5308
G1 X72.0404 Y61.527
G1 X72.0428 Y61.5229
G1 X72.0449 Y61.5186 Z-0.1997
G1 X72.0465 Y61.5141
G1 X72.0476 Y61.5095
G1 X72.0483 Y61.5048 Z-0.1998
G1 X72.05 Y61.4705 Z-0.2
G1 Y31.5295 Z-0.3986
G1 X72.0483 Y31.4952 Z-0.3988
G1 X72.0476 Y31.4905 Z-0.3989
G1 X72.0465 Y31.4859
G1 X72.0449 Y31.4814
G1 X72.0428 Y31.4771 Z-0.399
G1 X72.0404 Y31.473
G1 X72.0375 Y31.4692
G1 X72.0343 Y31.4657
G1 X72.0308 Y31.4625 Z-0.3991
G1 X72.027 Y31.4596
G1 X72.0229 Y31.4572
G1 X72.0186 Y31.4551 Z-0.3992
G1 X72.0141 Y31.4535
G1 X72.0095 Y31.4524
G1 X72.0048 Y31.4517 Z-0.3993
G1 X72.0 Y31.4514
G1 X71.9952 Y31.4517
G1 X71.9905 Y31.4524 Z-0.3994
G1 X71.9859 Y31.4535
G1 X71.9814 Y31.4551
G1 X71.9771 Y31.4572 Z-0.3995
G1 X71.973 Y31.4596
G1 X71.9692 Y31.4625
G1 X71.9657 Y31.4657 Z-0.3996
G1 X71.9625 Y31.4692
G1 X71.9596 Y31.473
G1 X71.9572 Y31.4771
G1 X71.9551 Y31.4814 Z-0.3997
G1 X71.9535 Y31.4859
G1 X71.9524 Y31.4905
G1 X71.9517 Y31.4952 Z-0.3998
G1 X71.95 Y31.5295 Z-0.4
G1 Y61.4705 Z-0.5986
G1 X71.9517 Y61.5048 Z-0.5988
G1 X71.9524 Y61.5095 Z-0.5989
G1 X71.9535 Y61.5141
G1 X71.9551 Y61.5186
G1 X71.9572 Y61.5229 Z-0.599
G1 X71.9596 Y61.527
G1 X71.9625 Y61.5308
G1 X71.9657 Y61.5343
G1 X71.9692 Y61.5375 Z-0.5991
G1 X71.973 Y61.5404
G1 X71.9771 Y61.5428
G1 X71.9814 Y61.5449 Z-0.5992
G1 X71.9859 Y61.5465
G1 X71.9905 Y61.5476
G1 X71.9952 Y61.5483 Z-0.5993
G1 X72.0 Y61.5486
G1 X72.0048 Y61.5483
G1 X72.0095 Y61.5476 Z-0.5994
G1 X72.0141 Y61.5465
G1 X72.0186 Y61.5449
G1 X72.0229 Y61.5428 Z-0.5995
G1 X72.027 Y61.5404
G1 X72.0308 Y61.5375
G1 X72.0343 Y61.5343 Z-0.5996
G1 X72.0375 Y61.5308
G1 X72.0404 Y61.527
G1 X72.0428 Y61.5229
G1 X72.0449 Y61.5186 Z-0.5997
G1 X72.0465 Y61.5141
G1 X72.0476 Y61.5095
G1 X72.0483 Y61.5048 Z-0.5998
G1 X72.05 Y61.4705 Z-0.6
G1 Y31.5295 Z-0.7986
G1 X72.0483 Y31.4952 Z-0.7988
G1 X72.0476 Y31.4905 Z-0.7989
G1 X72.0465 Y31.4859
G1 X72.0449 Y31.4814
G1 X72.0428 Y31.4771 Z-0.799
G1 X72.0404 Y31.473
G1 X72.0375 Y31.4692
G1 X72.0343 Y31.4657
G1 X72.0308 Y31.4625 Z-0.7991
G1 X72.027 Y31.4596
G1 X72.0229 Y31.4572
G1 X72.0186 Y31.4551 Z-0.7992
G1 X72.0141 Y31.4535
G1 X72.0095 Y31.4524
G1 X72.0048 Y31.4517 Z-0.7993
G1 X72.0 Y31.4514
G1 X71.9952 Y31.4517
G1 X71.9905 Y31.4524 Z-0.7994
G1 X71.9859 Y31.4535
G1 X71.9814 Y31.4551
G1 X71.9771 Y31.4572 Z-0.7995
G1 X71.973 Y31.4596
G1 X71.9692 Y31.4625
G1 X71.9657 Y31.4657 Z-0.7996
G1 X71.9625 Y31.4692
G1 X71.9596 Y31.473
G1 X71.9572 Y31.4771
G1 X71.9551 Y31.4814 Z-0.7997
G1 X71.9535 Y31.4859
G1 X71.9524 Y31.4905
G1 X71.9517 Y31.4952 Z-0.7998
G1 X71.95 Y31.5295 Z-0.8
G1 Y61.4705 Z-0.9986
G1 X71.9517 Y61.5048 Z-0.9988
G1 X71.9524 Y61.5095 Z-0.9989
G1 X71.9535 Y61.5141
G1 X71.9551 Y61.5186
G1 X71.9572 Y61.5229 Z-0.999
G1 X71.9596 Y61.527
G1 X71.9625 Y61.5308
G1 X71.9657 Y61.5343
G1 X71.9692 Y61.5375 Z-0.9991
G1 X71.973 Y61.5404
G1 X71.9771 Y61.5428
G1 X71.9814 Y61.5449 Z-0.9992
G1 X71.9859 Y61.5465
G1 X71.9905 Y61.5476
G1 X71.9952 Y61.5483 Z-0.9993
G1 X72.0 Y61.5486
G1 X72.0048 Y61.5483
G1 X72.0095 Y61.5476 Z-0.9994
G1 X72.0141 Y61.5465
G1 X72.0186 Y61.5449
G1 X72.0229 Y61.5428 Z-0.9995
G1 X72.027 Y61.5404
G1 X72.0308 Y61.5375
G1 X72.0343 Y61.5343 Z-0.9996
G1 X72.0375 Y61.5308
G1 X72.0404 Y61.527
G1 X72.0428 Y61.5229
G1 X72.0449 Y61.5186 Z-0.9997
G1 X72.0465 Y61.5141
G1 X72.0476 Y61.5095
G1 X72.0483 Y61.5048 Z-0.9998
G1 X72.05 Y61.4705 Z-1.0
G1 Y31.5295 Z-1.1986
G1 X72.0483 Y31.4952 Z-1.1988
G1 X72.0476 Y31.4905 Z-1.1989
G1 X72.0465 Y31.4859
G1 X72.0449 Y31.4814
G1 X72.0428 Y31.4771 Z-1.199
G1 X72.0404 Y31.473
G1 X72.0375 Y31.4692
G1 X72.0343 Y31.4657
G1 X72.0308 Y31.4625 Z-1.1991
G1 X72.027 Y31.4596
G1 X72.0229 Y31.4572
G1 X72.0186 Y31.4551 Z-1.1992
G1 X72.0141 Y31.4535
G1 X72.0095 Y31.4524
G1 X72.0048 Y31.4517 Z-1.1993
G1 X72.0 Y31.4514
G1 X71.9952 Y31.4517
G1 X71.9905 Y31.4524 Z-1.1994
G1 X71.9859 Y31.4535
G1 X71.9814 Y31.4551
G1 X71.9771 Y31.4572 Z-1.1995
G1 X71.973 Y31.4596
G1 X71.9692 Y31.4625
G1 X71.9657 Y31.4657 Z-1.1996
G1 X71.9625 Y31.4692
G1 X71.9596 Y31.473
G1 X71.9572 Y31.4771
G1 X71.9551 Y31.4814 Z-1.1997
G1 X71.9535 Y31.4859
G1 X71.9524 Y31.4905
G1 X71.9517 Y31.4952 Z-1.1998
G1 X71.95 Y31.5295 Z-1.2
G1 Y61.4705 Z-1.3986
G1 X71.9517 Y61.5048 Z-1.3988
G1 X71.9524 Y61.5095 Z-1.3989
G1 X71.9535 Y61.5141
G1 X71.9551 Y61.5186
G1 X71.9572 Y61.5229 Z-1.399
G1 X71.9596 Y61.527
G1 X71.9625 Y61.5308
G1 X71.9657 Y61.5343
G1 X71.9692 Y61.5375 Z-1.3991
G1 X71.973 Y61.5404
G1 X71.9771 Y61.5428
G1 X71.9814 Y61.5449 Z-1.3992
G1 X71.9859 Y61.5465
G1 X71.9905 Y61.5476
G1 X71.9952 Y61.5483 Z-1.3993
G1 X72.0 Y61.5486
G1 X72.0048 Y61.5483
G1 X72.0095 Y61.5476 Z-1.3994
G1 X72.0141 Y61.5465
G1 X72.0186 Y61.5449
G1 X72.0229 Y61.5428 Z-1.3995
G1 X72.027 Y61.5404
G1 X72.0308 Y61.5375
G1 X72.0343 Y61.5343 Z-1.3996
G1 X72.0375 Y61.5308
G1 X72.0404 Y61.527
G1 X72.0428 Y61.5229
G1 X72.0449 Y61.5186 Z-1.3997
G1 X72.0465 Y61.5141
G1 X72.0476 Y61.5095
G1 X72.0483 Y61.5048 Z-1.3998
G1 X72.05 Y61.4705 Z-1.4
G1 Y31.5295 Z-1.5986
G1 X72.0483 Y31.4952 Z-1.5988
G1 X72.0476 Y31.4905 Z-1.5989
G1 X72.0465 Y31.4859
G1 X72.0449 Y31.4814
G1 X72.0428 Y31.4771 Z-1.599
G1 X72.0404 Y31.473
G1 X72.0375 Y31.4692
G1 X72.0343 Y31.4657
G1 X72.0308 Y31.4625 Z-1.5991
G1 X72.027 Y31.4596
G1 X72.0229 Y31.4572
G1 X72.0186 Y31.4551 Z-1.5992
G1 X72.0141 Y31.4535
G1 X72.0095 Y31.4524
G1 X72.0048 Y31.4517 Z-1.5993
G1 X72.0 Y31.4514
G1 X71.9952 Y31.4517
G1 X71.9905 Y31.4524 Z-1.5994
G1 X71.9859 Y31.4535
G1 X71.9814 Y31.4551
G1 X71.9771 Y31.4572 Z-1.5995
G1 X71.973 Y31.4596
G1 X71.9692 Y31.4625
G1 X71.9657 Y31.4657 Z-1.5996
G1 X71.9625 Y31.4692
G1 X71.9596 Y31.473
G1 X71.9572 Y31.4771
G1 X71.9551 Y31.4814 Z-1.5997
G1 X71.9535 Y31.4859
G1 X71.9524 Y31.4905
G1 X71.9517 Y31.4952 Z-1.5998
G1 X71.95 Y31.5295 Z-1.6
G1 Y61.4705 Z-1.7986
G1 X71.9517 Y61.5048 Z-1.7988
G1 X71.9524 Y61.5095 Z-1.7989
G1 X71.9535 Y61.5141
G1 X71.9551 Y61.5186
G1 X71.9572 Y61.5229 Z-1.799
G1 X71.9596 Y61.527
G1 X71.9625 Y61.5308
G1 X71.9657 Y61.5343
G1 X71.9692 Y61.5375 Z-1.7991
G1 X71.973 Y61.5404
G1 X71.9771 Y61.5428
G1 X71.9814 Y61.5449 Z-1.7992
G1 X71.9859 Y61.5465
G1 X71.9905 Y61.5476
G1 X71.9952 Y61.5483 Z-1.7993
G1 X72.0 Y61.5486
G1 X72.0048 Y61.5483
G1 X72.0095 Y61.5476 Z-1.7994
G1 X72.0141 Y61.5465
G1 X72.0186 Y61.5449
G1 X72.0229 Y61.5428 Z-1.7995
G1 X72.027 Y61.5404
G1 X72.0308 Y61.5375
G1 X72.0343 Y61.5343 Z-1.7996
G1 X72.0375 Y61.5308
G1 X72.0404 Y61.527
G1 X72.0428 Y61.5229
G1 X72.0449 Y61.5186 Z-1.7997
G1 X72.0465 Y61.5141
G1 X72.0476 Y61.5095
G1 X72.0483 Y61.5048 Z-1.7998
G1 X72.05 Y61.4705 Z-1.8
G1 Y31.5295 Z-1.9986
G1 X72.0483 Y31.4952 Z-1.9988
G1 X72.0476 Y31.4905 Z-1.9989
G1 X72.0465 Y31.4859
G1 X72.0449 Y31.4814
G1 X72.0428 Y31.4771 Z-1.999
G1 X72.0404 Y31.473
G1 X72.0375 Y31.4692
G1 X72.0343 Y31.4657
G1 X72.0308 Y31.4625 Z-1.9991
G1 X72.027 Y31.4596
G1 X72.0229 Y31.4572
G1 X72.0186 Y31.4551 Z-1.9992
G1 X72.0141 Y31.4535
G1 X72.0095 Y31.4524
G1 X72.0048 Y31.4517 Z-1.9993
G1 X72.0 Y31.4514
G1 X71.9952 Y31.4517
G1 X71.9905 Y31.4524 Z-1.9994
G1 X71.9859 Y31.4535
G1 X71.9814 Y31.4551
G1 X71.9771 Y31.4572 Z-1.9995
G1 X71.973 Y31.4596
G1 X71.9692 Y31.4625
G1 X71.9657 Y31.4657 Z-1.9996
G1 X71.9625 Y31.4692
G1 X71.9596 Y31.473
G1 X71.9572 Y31.4771
G1 X71.9551 Y31.4814 Z-1.9997
G1 X71.9535 Y31.4859
G1 X71.9524 Y31.4905
G1 X71.9517 Y31.4952 Z-1.9998
G1 X71.95 Y31.5295 Z-2.0
G1 Y61.4705 Z-2.1986
G1 X71.9517 Y61.5048 Z-2.1988
G1 X71.9524 Y61.5095 Z-2.1989
G1 X71.9535 Y61.5141
G1 X71.9551 Y61.5186
G1 X71.9572 Y61.5229 Z-2.199
G1 X71.9596 Y61.527
G1 X71.9625 Y61.5308
G1 X71.9657 Y61.5343
G1 X71.9692 Y61.5375 Z-2.1991
G1 X71.973 Y61.5404
G1 X71.9771 Y61.5428
G1 X71.9814 Y61.5449 Z-2.1992
G1 X71.9859 Y61.5465
G1 X71.9905 Y61.5476
G1 X71.9952 Y61.5483 Z-2.1993
G1 X72.0 Y61.5486
G1 X72.0048 Y61.5483
G1 X72.0095 Y61.5476 Z-2.1994
G1 X72.0141 Y61.5465
G1 X72.0186 Y61.5449
G1 X72.0229 Y61.5428 Z-2.1995
G1 X72.027 Y61.5404
G1 X72.0308 Y61.5375
G1 X72.0343 Y61.5343 Z-2.1996
G1 X72.0375 Y61.5308
G1 X72.0404 Y61.527
G1 X72.0428 Y61.5229
G1 X72.0449 Y61.5186 Z-2.1997
G1 X72.0465 Y61.5141
G1 X72.0476 Y61.5095
G1 X72.0483 Y61.5048 Z-2.1998
G1 X72.05 Y61.4705 Z-2.2
G1 Y31.5295 Z-2.3986
G1 X72.0483 Y31.4952 Z-2.3988
G1 X72.0476 Y31.4905 Z-2.3989
G1 X72.0465 Y31.4859
G1 X72.0449 Y31.4814
G1 X72.0428 Y31.4771 Z-2.399
G1 X72.0404 Y31.473
G1 X72.0375 Y31.4692
G1 X72.0343 Y31.4657
G1 X72.0308 Y31.4625 Z-2.3991
G1 X72.027 Y31.4596
G1 X72.0229 Y31.4572
G1 X72.0186 Y31.4551 Z-2.3992
G1 X72.0141 Y31.4535
G1 X72.0095 Y31.4524
G1 X72.0048 Y31.4517 Z-2.3993
G1 X72.0 Y31.4514
G1 X71.9952 Y31.4517
G1 X71.9905 Y31.4524 Z-2.3994
G1 X71.9859 Y31.4535
G1 X71.9814 Y31.4551
G1 X71.9771 Y31.4572 Z-2.3995
G1 X71.973 Y31.4596
G1 X71.9692 Y31.4625
G1 X71.9657 Y31.4657 Z-2.3996
G1 X71.9625 Y31.4692
G1 X71.9596 Y31.473
G1 X71.9572 Y31.4771
G1 X71.9551 Y31.4814 Z-2.3997
G1 X71.9535 Y31.4859
G1 X71.9524 Y31.4905
G1 X71.9517 Y31.4952 Z-2.3998
G1 X71.95 Y31.5295 Z-2.4
G1 Y61.4705 Z-2.5986
G1 X71.9517 Y61.5048 Z-2.5988
G1 X71.9524 Y61.5095 Z-2.5989
G1 X71.9535 Y61.5141
G1 X71.9551 Y61.5186
G1 X71.9572 Y61.5229 Z-2.599
G1 X71.9596 Y61.527
G1 X71.9625 Y61.5308
G1 X71.9657 Y61.5343
G1 X71.9692 Y61.5375 Z-2.5991
G1 X71.973 Y61.5404
G1 X71.9771 Y61.5428
G1 X71.9814 Y61.5449 Z-2.5992
G1 X71.9859 Y61.5465
G1 X71.9905 Y61.5476
G1 X71.9952 Y61.5483 Z-2.5993
G1 X72.0 Y61.5486
G1 X72.0048 Y61.5483
G1 X72.0095 Y61.5476 Z-2.5994
G1 X72.0141 Y61.5465
G1 X72.0186 Y61.5449
G1 X72.0229 Y61.5428 Z-2.5995
G1 X72.027 Y61.5404
G1 X72.0308 Y61.5375
G1 X72.0343 Y61.5343 Z-2.5996
G1 X72.0375 Y61.5308
G1 X72.0404 Y61.527
G1 X72.0428 Y61.5229
G1 X72.0449 Y61.5186 Z-2.5997
G1 X72.0465 Y61.5141
G1 X72.0476 Y61.5095
G1 X72.0483 Y61.5048 Z-2.5998
G1 X72.05 Y61.4705 Z-2.6
G1 Y31.5295 Z-2.7986
G1 X72.0483 Y31.4952 Z-2.7988
G1 X72.0476 Y31.4905 Z-2.7989
G1 X72.0465 Y31.4859
G1 X72.0449 Y31.4814
G1 X72.0428 Y31.4771 Z-2.799
G1 X72.0404 Y31.473
G1 X72.0375 Y31.4692
G1 X72.0343 Y31.4657
G1 X72.0308 Y31.4625 Z-2.7991
G1 X72.027 Y31.4596
G1 X72.0229 Y31.4572
G1 X72.0186 Y31.4551 Z-2.7992
G1 X72.0141 Y31.4535
G1 X72.0095 Y31.4524
G1 X72.0048 Y31.4517 Z-2.7993
G1 X72.0 Y31.4514
G1 X71.9952 Y31.4517
G1 X71.9905 Y31.4524 Z-2.7994
G1 X71.9859 Y31.4535
G1 X71.9814 Y31.4551
G1 X71.9771 Y31.4572 Z-2.7995
G1 X71.973 Y31.4596
G1 X71.9692 Y31.4625
G1 X71.9657 Y31.4657 Z-2.7996
G1 X71.9625 Y31.4692
G1 X71.9596 Y31.473
G1 X71.9572 Y31.4771
G1 X71.9551 Y31.4814 Z-2.7997
G1 X71.9535 Y31.4859
G1 X71.9524 Y31.4905
G1 X71.9517 Y31.4952 Z-2.7998
G1 X71.95 Y31.5295 Z-2.8
G1 Y61.4705 Z-2.9986
G1 X71.9517 Y61.5048 Z-2.9988
G1 X71.9524 Y61.5095 Z-2.9989
G1 X71.9535 Y61.5141
G1 X71.9551 Y61.5186
G1 X71.9572 Y61.5229 Z-2.999
G1 X71.9596 Y61.527
G1 X71.9625 Y61.5308
G1 X71.9657 Y61.5343
G1 X71.9692 Y61.5375 Z-2.9991
G1 X71.973 Y61.5404
G1 X71.9771 Y61.5428
G1 X71.9814 Y61.5449 Z-2.9992
G1 X71.9859 Y61.5465
G1 X71.9905 Y61.5476
G1 X71.9952 Y61.5483 Z-2.9993
G1 X72.0 Y61.5486
G1 X72.0048 Y61.5483
G1 X72.0095 Y61.5476 Z-2.9994
G1 X72.0141 Y61.5465
G1 X72.0186 Y61.5449
G1 X72.0229 Y61.5428 Z-2.9995
G1 X72.027 Y61.5404
G1 X72.0308 Y61.5375
G1 X72.0343 Y61.5343 Z-2.9996
G1 X72.0375 Y61.5308
G1 X72.0404 Y61.527
G1 X72.0428 Y61.5229
G1 X72.0449 Y61.5186 Z-2.9997
G1 X72.0465 Y61.5141
G1 X72.0476 Y61.5095
G1 X72.0483 Y61.5048 Z-2.9998
G1 X72.05 Y61.4705 Z-3.0
G1 Y31.5295 Z-3.1986
G1 X72.0483 Y31.4952 Z-3.1988
G1 X72.0476 Y31.4905 Z-3.1989
G1 X72.0465 Y31.4859
G1 X72.0449 Y31.4814
G1 X72.0428 Y31.4771 Z-3.199
G1 X72.0404 Y31.473
G1 X72.0375 Y31.4692
G1 X72.0343 Y31.4657
G1 X72.0308 Y31.4625 Z-3.1991
G1 X72.027 Y31.4596
G1 X72.0229 Y31.4572
G1 X72.0186 Y31.4551 Z-3.1992
G1 X72.0141 Y31.4535
G1 X72.0095 Y31.4524
G1 X72.0048 Y31.4517 Z-3.1993
G1 X72.0 Y31.4514
G1 X71.9952 Y31.4517
G1 X71.9905 Y31.4524 Z-3.1994
G1 X71.9859 Y31.4535
G1 X71.9814 Y31.4551
G1 X71.9771 Y31.4572 Z-3.1995
G1 X71.973 Y31.4596
G1 X71.9692 Y31.4625
G1 X71.9657 Y31.4657 Z-3.1996
G1 X71.9625 Y31.4692
G1 X71.9596 Y31.473
G1 X71.9572 Y31.4771
G1 X71.9551 Y31.4814 Z-3.1997
G1 X71.9535 Y31.4859
G1 X71.9524 Y31.4905
G1 X71.9517 Y31.4952 Z-3.1998
G1 X71.95 Y31.5295 Z-3.2
G1 Y61.4705 Z-3.3986
G1 X71.9517 Y61.5048 Z-3.3988
G1 X71.9524 Y61.5095 Z-3.3989
G1 X71.9535 Y61.5141
G1 X71.9551 Y61.5186
G1 X71.9572 Y61.5229 Z-3.399
G1 X71.9596 Y61.527
G1 X71.9625 Y61.5308
G1 X71.9657 Y61.5343
G1 X71.9692 Y61.5375 Z-3.3991
G1 X71.973 Y61.5404
G1 X71.9771 Y61.5428
G1 X71.9814 Y61.5449 Z-3.3992
G1 X71.9859 Y61.5465
G1 X71.9905 Y61.5476
G1 X71.9952 Y61.5483 Z-3.3993
G1 X72.0 Y61.5486
G1 X72.0048 Y61.5483
G1 X72.0095 Y61.5476 Z-3.3994
G1 X72.0141 Y61.5465
G1 X72.0186 Y61.5449
G1 X72.0229 Y61.5428 Z-3.3995
G1 X72.027 Y61.5404
G1 X72.0308 Y61.5375
G1 X72.0343 Y61.5343 Z-3.3996
G1 X72.0375 Y61.5308
G1 X72.0404 Y61.527
G1 X72.0428 Y61.5229
G1 X72.0449 Y61.5186 Z-3.3997
G1 X72.0465 Y61.5141
G1 X72.0476 Y61.5095
G1 X72.0483 Y61.5048 Z-3.3998
G1 X72.05 Y61.4705 Z-3.4
G1 Y31.5295 Z-3.5986
G1 X72.0483 Y31.4952 Z-3.5988
G1 X72.0476 Y31.4905 Z-3.5989
G1 X72.0465 Y31.4859
G1 X72.0449 Y31.4814
G1 X72.0428 Y31.4771 Z-3.599
G1 X72.0404 Y31.473
G1 X72.0375 Y31.4692
G1 X72.0343 Y31.4657
G1 X72.0308 Y31.4625 Z-3.5991
G1 X72.027 Y31.4596
G1 X72.0229 Y31.4572
G1 X72.0186 Y31.4551 Z-3.5992
G1 X72.0141 Y31.4535
G1 X72.0095 Y31.4524
G1 X72.0048 Y31.4517 Z-3.5993
G1 X72.0 Y31.4514
G1 X71.9952 Y31.4517
G1 X71.9905 Y31.4524 Z-3.5994
G1 X71.9859 Y31.4535
G1 X71.9814 Y31.4551
G1 X71.9771 Y31.4572 Z-3.5995
G1 X71.973 Y31.4596
G1 X71.9692 Y31.4625
G1 X71.9657 Y31.4657 Z-3.5996
G1 X71.9625 Y31.4692
G1 X71.9596 Y31.473
G1 X71.9572 Y31.4771
G1 X71.9551 Y31.4814 Z-3.5997
G1 X71.9535 Y31.4859
G1 X71.9524 Y31.4905
G1 X71.9517 Y31.4952 Z-3.5998
G1 X71.95 Y31.5295 Z-3.6
G1 Y61.4705 Z-3.7986
G1 X71.9517 Y61.5048 Z-3.7988
G1 X71.9524 Y61.5095 Z-3.7989
G1 X71.9535 Y61.5141
G1 X71.9551 Y61.5186
G1 X71.9572 Y61.5229 Z-3.799
G1 X71.9596 Y61.527
G1 X71.9625 Y61.5308
G1 X71.9657 Y61.5343
G1 X71.9692 Y61.5375 Z-3.7991
G1 X71.973 Y61.5404
G1 X71.9771 Y61.5428
G1 X71.9814 Y61.5449 Z-3.7992
G1 X71.9859 Y61.5465
G1 X71.9905 Y61.5476
G1 X71.9952 Y61.5483 Z-3.7993
G1 X72.0 Y61.5486
G1 X72.0048 Y61.5483
G1 X72.0095 Y61.5476 Z-3.7994
G1 X72.0141 Y61.5465
G1 X72.0186 Y61.5449
G1 X72.0229 Y61.5428 Z-3.7995
G1 X72.027 Y61.5404
G1 X72.0308 Y61.5375
G1 X72.0343 Y61.5343 Z-3.7996
G1 X72.0375 Y61.5308
G1 X72.0404 Y61.527
G1 X72.0428 Y61.5229
G1 X72.0449 Y61.5186 Z-3.7997
G1 X72.0465 Y61.5141
G1 X72.0476 Y61.5095
G1 X72.0483 Y61.5048 Z-3.7998
G1 X72.05 Y61.4705 Z-3.8
G1 Y31.5295 Z-3.9986
G1 X72.0483 Y31.4952 Z-3.9988
G1 X72.0476 Y31.4905 Z-3.9989
G1 X72.0465 Y31.4859
G1 X72.0449 Y31.4814
G1 X72.0428 Y31.4771 Z-3.999
G1 X72.0404 Y31.473
G1 X72.0375 Y31.4692
G1 X72.0343 Y31.4657
G1 X72.0308 Y31.4625 Z-3.9991
G1 X72.027 Y31.4596
G1 X72.0229 Y31.4572
G1 X72.0186 Y31.4551 Z-3.9992
G1 X72.0141 Y31.4535
G1 X72.0095 Y31.4524
G1 X72.0048 Y31.4517 Z-3.9993
G1 X72.0 Y31.4514
G1 X71.9952 Y31.4517
G1 X71.9905 Y31.4524 Z-3.9994
G1 X71.9859 Y31.4535
G1 X71.9814 Y31.4551
G1 X71.9771 Y31.4572 Z-3.9995
G1 X71.973 Y31.4596
G1 X71.9692 Y31.4625
G1 X71.9657 Y31.4657 Z-3.9996
G1 X71.9625 Y31.4692
G1 X71.9596 Y31.473
G1 X71.9572 Y31.4771
G1 X71.9551 Y31.4814 Z-3.9997
G1 X71.9535 Y31.4859
G1 X71.9524 Y31.4905
G1 X71.9517 Y31.4952 Z-3.9998
G1 X71.95 Y31.5295 Z-4.0
G1 Y61.4705 Z-4.0993
G1 X71.9517 Y61.5048 Z-4.0994
G1 X71.9524 Y61.5095
G1 X71.9535 Y61.5141
G1 X71.9551 Y61.5186 Z-4.0995
G1 X71.9572 Y61.5229
G1 X71.9596 Y61.527
G1 X71.9625 Y61.5308
G1 X71.9657 Y61.5343
G1 X71.9692 Y61.5375
G1 X71.973 Y61.5404 Z-4.0996
G1 X71.9771 Y61.5428
G1 X71.9814 Y61.5449
G1 X71.9859 Y61.5465
G1 X71.9905 Y61.5476
G1 X71.9952 Y61.5483
G1 X72.0 Y61.5486
G1 X72.0048 Y61.5483 Z-4.0997
G1 X72.0095 Y61.5476
G1 X72.0141 Y61.5465
G1 X72.0186 Y61.5449
G1 X72.0229 Y61.5428
G1 X72.027 Y61.5404
G1 X72.0308 Y61.5375 Z-4.0998
G1 X72.0343 Y61.5343
G1 X72.0375 Y61.5308
G1 X72.0404 Y61.527
G1 X72.0428 Y61.5229
G1 X72.0449 Y61.5186
G1 X72.0465 Y61.5141 Z-4.0999
G1 X72.0476 Y61.5095
G1 X72.0483 Y61.5048
G1 X72.05 Y61.4705 Z-4.1
G1 Y31.5295 Z-4.1993
G1 X72.0483 Y31.4952 Z-4.1994
G1 X72.0476 Y31.4905
G1 X72.0465 Y31.4859
G1 X72.0449 Y31.4814 Z-4.1995
G1 X72.0428 Y31.4771
G1 X72.0404 Y31.473
G1 X72.0375 Y31.4692
G1 X72.0343 Y31.4657
G1 X72.0308 Y31.4625
G1 X72.027 Y31.4596 Z-4.1996
G1 X72.0229 Y31.4572
G1 X72.0186 Y31.4551
G1 X72.0141 Y31.4535
G1 X72.0095 Y31.4524
G1 X72.0048 Y31.4517
G1 X72.0 Y31.4514
G1 X71.9952 Y31.4517 Z-4.1997
G1 X71.9905 Y31.4524
G1 X71.9859 Y31.4535
G1 X71.9814 Y31.4551
G1 X71.9771 Y31.4572
G1 X71.973 Y31.4596
G1 X71.9692 Y31.4625 Z-4.1998
G1 X71.9657 Y31.4657
G1 X71.9625 Y31.4692
G1 X71.9596 Y31.473
G1 X71.9572 Y31.4771
G1 X71.9551 Y31.4814
G1 X71.9535 Y31.4859 Z-4.1999
G1 X71.9524 Y31.4905
G1 X71.9517 Y31.4952
G1 X71.95 Y31.5295 Z-4.2
G1 Y61.4705
G1 X71.9517 Y61.5048
G1 X71.9524 Y61.5095
G1 X71.9535 Y61.5141
G1 X71.9551 Y61.5186
G1 X71.9572 Y61.5229
G1 X71.9596 Y61.527
G1 X71.9625 Y61.5308
G1 X71.9657 Y61.5343
G1 X71.9692 Y61.5375
G1 X71.973 Y61.5404
G1 X71.9771 Y61.5428
G1 X71.9814 Y61.5449
G1 X71.9859 Y61.5465
G1 X71.9905 Y61.5476
G1 X71.9952 Y61.5483
G1 X72.0 Y61.5486
G1 X72.0048 Y61.5483
G1 X72.0095 Y61.5476
G1 X72.0141 Y61.5465
G1 X72.0186 Y61.5449
G1 X72.0229 Y61.5428
G1 X72.027 Y61.5404
G1 X72.0308 Y61.5375
G1 X72.0343 Y61.5343
G1 X72.0375 Y61.5308
G1 X72.0404 Y61.527
G1 X72.0428 Y61.5229
G1 X72.0449 Y61.5186
G1 X72.0465 Y61.5141
G1 X72.0476 Y61.5095
G1 X72.0483 Y61.5048
G1 X72.05 Y61.4705
G1 Y31.5295
G1 X72.0483 Y31.4952
G1 X72.0476 Y31.4905
G1 X72.0465 Y31.4859
G1 X72.0449 Y31.4814
G1 X72.0428 Y31.4771
G1 X72.0404 Y31.473
G1 X72.0375 Y31.4692
G1 X72.0343 Y31.4657
G1 X72.0308 Y31.4625
G1 X72.027 Y31.4596
G1 X72.0229 Y31.4572
G1 X72.0186 Y31.4551
G1 X72.0141 Y31.4535
G1 X72.0095 Y31.4524
G1 X72.0048 Y31.4517
G1 X72.0 Y31.4514
G1 X71.9952 Y31.4517
G1 X71.9905 Y31.4524
G1 X71.9859 Y31.4535
G1 X71.9814 Y31.4551
G1 X71.9771 Y31.4572
G1 X71.973 Y31.4596
G1 X71.9692 Y31.4625
G1 X71.9657 Y31.4657
G1 X71.9625 Y31.4692
G1 X71.9596 Y31.473
G1 X71.9572 Y31.4771
G1 X71.9551 Y31.4814
G1 X71.9535 Y31.4859
G1 X71.9524 Y31.4905
G1 X71.9517 Y31.4952
G1 X71.95 Y31.5295
G0 Z3.0
G0 X87.95
G0 Z1.0
G1 F300.0 Z0.0
G1 F800.0 Y61.4705 Z-0.1986
G1 X87.9517 Y61.5048 Z-0.1988
G1 X87.9524 Y61.5095 Z-0.1989
G1 X87.9535 Y61.5141
G1 X87.9551 Y61.5186
G1 X87.9572 Y61.5229 Z-0.199
G1 X87.9596 Y61.527
G1 X87.9625 Y61.5308
G1 X87.9657 Y61.5343
G1 X87.9692 Y61.5375 Z-0.1991
G1 X87.973 Y61.5404
G1 X87.9771 Y61.5428
G1 X87.9814 Y61.5449 Z-0.1992
G1 X87.9859 Y61.5465
G1 X87.9905 Y61.5476
G1 X87.9952 Y61.5483 Z-0.1993
G1 X88.0 Y61.5486
G1 X88.0048 Y61.5483
G1 X88.0095 Y61.5476 Z-0.1994
G1 X88.0141 Y61.5465
G1 X88.0186 Y61.5449
G1 X88.0229 Y61.5428 Z-0.1995
G1 X88.027 Y61.5404
G1 X88.0308 Y61.5375
G1 X88.0343 Y61.5343 Z-0.1996
G1 X88.0375 Y61.5308
G1 X88.0404 Y61.527
G1 X88.0428 Y61.5229
G1 X88.0449 Y61.5186 Z-0.1997
G1 X88.0465 Y61.5141
G1 X88.0476 Y61.5095
G1 X88.0483 Y61.5048 Z-0.1998
G1 X88.05 Y61.4705 Z-0.2
G1 Y31.5295 Z-0.3986
G1 X88.0483 Y31.4952 Z-0.3988
G1 X88.0476 Y31.4905 Z-0.3989
G1 X88.0465 Y31.4859
G1 X88.0449 Y31.4814
G1 X88.0428 Y31.4771 Z-0.399
G1 X88.0404 Y31.473
G1 X88.0375 Y31.4692
G1 X88.0343 Y31.4657
G1 X88.0308 Y31.4625 Z-0.3991
G1 X88.027 Y31.4596
G1 X88.0229 Y31.4572
G1 X88.0186 Y31.4551 Z-0.3992
G1 X88.0141 Y31.4535
G1 X88.0095 Y31.4524
G1 X88.0048 Y31.4517 Z-0.3993
G1 X88.0 Y31.4514
G1 X87.9952 Y31.4517
G1 X87.9905 Y31.4524 Z-0.3994
G1 X87.9859 Y31.4535
G1 X87.9814 Y31.4551
G1 X87.9771 Y31.4572 Z-0.3995
G1 X87.973 Y31.4596
G1 X87.9692 Y31.4625
G1 X87.9657 Y31.4657 Z-0.3996
G1 X87.9625 Y31.4692
G1 X87.9596 Y31.473
G1 X87.9572 Y31.4771
G1 X87.9551 Y31.4814 Z-0.3997
G1 X87.9535 Y31.4859
G1 X87.9524 Y31.4905
G1 X87.9517 Y31.4952 Z-0.3998
G1 X87.95 Y31.5295 Z-0.4
G1 Y61.4705 Z-0.5986
G1 X87.9517 Y61.5048 Z-0.5988
G1 X87.9524 Y61.5095 Z-0.5989
G1 X87.9535 Y61.5141
G1 X87.9551 Y61.5186
G1 X87.9572 Y61.5229 Z-0.599
G1 X87.9596 Y61.527
G1 X87.9625 Y61.5308
G1 X87.9657 Y61.5343
G1 X87.9692 Y61.5375 Z-0.5991
G1 X87.973 Y61.5404
G1 X87.9771 Y61.5428
G1 X87.9814 Y61.5449 Z-0.5992
G1 X87.9859 Y61.5465
G1 X87.9905 Y61.5476
G1 X87.9952 Y61.5483 Z-0.5993
G1 X88.0 Y61.5486
G1 X88.0048 Y61.5483
G1 X88.0095 Y61.5476 Z-0.5994
G1 X88.0141 Y61.5465
G1 X88.0186 Y61.5449
G1 X88.0229 Y61.5428 Z-0.5995
G1 X88.027 Y61.5404
G1 X88.0308 Y61.5375
G1 X88.0343 Y61.5343 Z-0.5996
G1 X88.0375 Y61.5308
G1 X88.0404 Y61.527
G1 X88.0428 Y61.5229
G1 X88.0449 Y61.5186 Z-0.5997
G1 X88.0465 Y61.5141
G1 X88.0476 Y61.5095
G1 X88.0483 Y61.5048 Z-0.5998
G1 X88.05 Y61.4705 Z-0.6
G1 Y31.5295 Z-0.7986
G1 X88.0483 Y31.4952 Z-0.7988
G1 X88.0476 Y31.4905 Z-0.7989
G1 X88.0465 Y31.4859
G1 X88.0449 Y31.4814
G1 X88.0428 Y31.4771 Z-0.799
G1 X88.0404 Y31.473
G1 X88.0375 Y31.4692
G1 X88.0343 Y31.4657
G1 X88.0308 Y31.4625 Z-0.7991
G1 X88.027 Y31.4596
G1 X88.0229 Y31.4572
G1 X88.0186 Y31.4551 Z-0.7992
G1 X88.0141 Y31.4535
G1 X88.0095 Y31.4524
G1 X88.0048 Y31.4517 Z-0.7993
G1 X88.0 Y31.4514
G1 X87.9952 Y31.4517
G1 X87.9905 Y31.4524 Z-0.7994
G1 X87.9859 Y31.4535
G1 X87.9814 Y31.4551
G1 X87.9771 Y31.4572 Z-0.7995
G1 X87.973 Y31.4596
G1 X87.9692 Y31.4625
G1 X87.9657 Y31.4657 Z-0.7996
G1 X87.9625 Y31.4692
G1 X87.9596 Y31.473
G1 X87.9572 Y31.4771
G1 X87.9551 Y31.4814 Z-0.7997
G1 X87.9535 Y31.4859
G1 X87.9524 Y31.4905
G1 X87.9517 Y31.4952 Z-0.7998
G1 X87.95 Y31.5295 Z-0.8
G1 Y61.4705 Z-0.9986
G1 X87.9517 Y61.5048 Z-0.9988
G1 X87.9524 Y61.5095 Z-0.9989
G1 X87.9535 Y61.5141
G1 X87.9551 Y61.5186
G1 X87.9572 Y61.5229 Z-0.999
G1 X87.9596 Y61.527
G1 X87.9625 Y61.5308
G1 X87.9657 Y61.5343
G1 X87.9692 Y61.5375 Z-0.9991
G1 X87.973 Y61.5404
G1 X87.9771 Y61.5428
G1 X87.9814 Y61.5449 Z-0.9992
G1 X87.9859 Y61.5465
G1 X87.9905 Y61.5476
G1 X87.9952 Y61.5483 Z-0.9993
G1 X88.0 Y61.5486
G1 X88.0048 Y61.5483
G1 X88.0095 Y61.5476 Z-0.9994
G1 X88.0141 Y61.5465
G1 X88.0186 Y61.5449
G1 X88.0229 Y61.5428 Z-0.9995
G1 X88.027 Y61.5404
G1 X88.0308 Y61.5375
G1 X88.0343 Y61.5343 Z-0.9996
G1 X88.0375 Y61.5308
G1 X88.0404 Y61.527
G1 X88.0428 Y61.5229
G1 X88.0449 Y61.5186 Z-0.9997
G1 X88.0465 Y61.5141
G1 X88.0476 Y61.5095
G1 X88.0483 Y61.5048 Z-0.9998
G1 X88.05 Y61.4705 Z-1.0
G1 Y31.5295 Z-1.1986
G1 X88.0483 Y31.4952 Z-1.1988
G1 X88.0476 Y31.4905 Z-1.1989
G1 X88.0465 Y31.4859
G1 X88.0449 Y31.4814
G1 X88.0428 Y31.4771 Z-1.199
G1 X88.0404 Y31.473
G1 X88.0375 Y31.4692
G1 X88.0343 Y31.4657
G1 X88.0308 Y31.4625 Z-1.1991
G1 X88.027 Y31.4596
G1 X88.0229 Y31.4572
G1 X88.0186 Y31.4551 Z-1.1992
G1 X88.0141 Y31.4535
G1 X88.0095 Y31.4524
G1 X88.0048 Y31.4517 Z-1.1993
G1 X88.0 Y31.4514
G1 X87.9952 Y31.4517
G1 X87.9905 Y31.4524 Z-1.1994
G1 X87.9859 Y31.4535
G1 X87.9814 Y31.4551
G1 X87.9771 Y31.4572 Z-1.1995
G1 X87.973 Y31.4596
G1 X87.9692 Y31.4625
G1 X87.9657 Y31.4657 Z-1.1996
G1 X87.9625 Y31.4692
G1 X87.9596 Y31.473
G1 X87.9572 Y31.4771
G1 X87.9551 Y31.4814 Z-1.1997
G1 X87.9535 Y31.4859
G1 X87.9524 Y31.4905
G1 X87.9517 Y31.4952 Z-1.1998
G1 X87.95 Y31.5295 Z-1.2
G1 Y61.4705 Z-1.3986
G1 X87.9517 Y61.5048 Z-1.3988
G1 X87.9524 Y61.5095 Z-1.3989
G1 X87.9535 Y61.5141
G1 X87.9551 Y61.5186
G1 X87.9572 Y61.5229 Z-1.399
G1 X87.9596 Y61.527
G1 X87.9625 Y61.5308
G1 X87.9657 Y61.5343
G1 X87.9692 Y61.5375 Z-1.3991
G1 X87.973 Y61.5404
G1 X87.9771 Y61.5428
G1 X87.9814 Y61.5449 Z-1.3992
G1 X87.9859 Y61.5465
G1 X87.9905 Y61.5476
G1 X87.9952 Y61.5483 Z-1.3993
G1 X88.0 Y61.5486
G1 X88.0048 Y61.5483
G1 X88.0095 Y61.5476 Z-1.3994
G1 X88.0141 Y61.5465
G1 X88.0186 Y61.5449
G1 X88.0229 Y61.5428 Z-1.3995
G1 X88.027 Y61.5404
G1 X88.0308 Y61.5375
G1 X88.0343 Y61.5343 Z-1.3996
G1 X88.0375 Y61.5308
G1 X88.0404 Y61.527
G1 X88.0428 Y61.5229
G1 X88.0449 Y61.5186 Z-1.3997
G1 X88.0465 Y61.5141
G1 X88.0476 Y61.5095
G1 X88.0483 Y61.5048 Z-1.3998
G1 X88.05 Y61.4705 Z-1.4
G1 Y31.5295 Z-1.5986
G1 X88.0483 Y31.4952 Z-1.5988
G1 X88.0476 Y31.4905 Z-1.5989
G1 X88.0465 Y31.4859
G1 X88.0449 Y31.4814
G1 X88.0428 Y31.4771 Z-1.599
G1 X88.0404 Y31.473
G1 X88.0375 Y31.4692
G1 X88.0343 Y31.4657
G1 X88.0308 Y31.4625 Z-1.5991
G1 X88.027 Y31.4596
G1 X88.0229 Y31.4572
G1 X88.0186 Y31.4551 Z-1.5992
G1 X88.0141 Y31.4535
G1 X88.0095 Y31.4524
G1 X88.0048 Y31.4517 Z-1.5993
G1 X88.0 Y31.4514
G1 X87.9952 Y31.4517
G1 X87.9905 Y31.4524 Z-1.5994
G1 X87.9859 Y31.4535
G1 X87.9814 Y31.4551
G1 X87.9771 Y31.4572 Z-1.5995
G1 X87.973 Y31.4596
G1 X87.9692 Y31.4625
G1 X87.9657 Y31.4657 Z-1.5996
G1 X87.9625 Y31.4692
G1 X87.9596 Y31.473
G1 X87.9572 Y31.4771
G1 X87.9551 Y31.4814 Z-1.5997
G1 X87.9535 Y31.4859
G1 X87.9524 Y31.4905
G1 X87.9517 Y31.4952 Z-1.5998
G1 X87.95 Y31.5295 Z-1.6
G1 Y61.4705 Z-1.7986
G1 X87.9517 Y61.5048 Z-1.7988
G1 X87.9524 Y61.5095 Z-1.7989
G1 X87.9535 Y61.5141
G1 X87.9551 Y61.5186
G1 X87.9572 Y61.5229 Z-1.799
G1 X87.9596 Y61.527
G1 X87.9625 Y61.5308
G1 X87.9657 Y61.5343
G1 X87.9692 Y61.5375 Z-1.7991
G1 X87.973 Y61.5404
G1 X87.9771 Y61.5428
G1 X87.9814 Y61.5449 Z-1.7992
G1 X87.9859 Y61.5465
G1 X87.9905 Y61.5476
G1 X87.9952 Y61.5483 Z-1.7993
G1 X88.0 Y61.5486
G1 X88.0048 Y61.5483
G1 X88.0095 Y61.5476 Z-1.7994
G1 X88.0141 Y61.5465
G1 X88.0186 Y61.5449
G1 X88.0229 Y61.5428 Z-1.7995
G1 X88.027 Y61.5404
G1 X88.0308 Y61.5375
G1 X88.0343 Y61.5343 Z-1.7996
G1 X88.0375 Y61.5308
G1 X88.0404 Y61.527
G1 X88.0428 Y61.5229
G1 X88.0449 Y61.5186 Z-1.7997
G1 X88.0465 Y61.5141
G1 X88.0476 Y61.5095
G1 X88.0483 Y61.5048 Z-1.7998
G1 X88.05 Y61.4705 Z-1.8
G1 Y31.5295 Z-1.9986
G1 X88.0483 Y31.4952 Z-1.9988
G1 X88.0476 Y31.4905 Z-1.9989
G1 X88.0465 Y31.4859
G1 X88.0449 Y31.4814
G1 X88.0428 Y31.4771 Z-1.999
G1 X88.0404 Y31.473
G1 X88.0375 Y31.4692
G1 X88.0343 Y31.4657
G1 X88.0308 Y31.4625 Z-1.9991
G1 X88.027 Y31.4596
G1 X88.0229 Y31.4572
G1 X88.0186 Y31.4551 Z-1.9992
G1 X88.0141 Y31.4535
G1 X88.0095 Y31.4524
G1 X88.0048 Y31.4517 Z-1.9993
G1 X88.0 Y31.4514
G1 X87.9952 Y31.4517
G1 X87.9905 Y31.4524 Z-1.9994
G1 X87.9859 Y31.4535
G1 X87.9814 Y31.4551
G1 X87.9771 Y31.4572 Z-1.9995
G1 X87.973 Y31.4596
G1 X87.9692 Y31.4625
G1 X87.9657 Y31.4657 Z-1.9996
G1 X87.9625 Y31.4692
G1 X87.9596 Y31.473
G1 X87.9572 Y31.4771
G1 X87.9551 Y31.4814 Z-1.9997
G1 X87.9535 Y31.4859
G1 X87.9524 Y31.4905
G1 X87.9517 Y31.4952 Z-1.9998
G1 X87.95 Y31.5295 Z-2.0
G1 Y61.4705 Z-2.1986
G1 X87.9517 Y61.5048 Z-2.1988
G1 X87.9524 Y61.5095 Z-2.1989
G1 X87.9535 Y61.5141
G1 X87.9551 Y61.5186
G1 X87.9572 Y61.5229 Z-2.199
G1 X87.9596 Y61.527
G1 X87.9625 Y61.5308
G1 X87.9657 Y61.5343
G1 X87.9692 Y61.5375 Z-2.1991
G1 X87.973 Y61.5404
G1 X87.9771 Y61.5428
G1 X87.9814 Y61.5449 Z-2.1992
G1 X87.9859 Y61.5465
G1 X87.9905 Y61.5476
G1 X87.9952 Y61.5483 Z-2.1993
G1 X88.0 Y61.5486
G1 X88.0048 Y61.5483
G1 X88.0095 Y61.5476 Z-2.1994
G1 X88.0141 Y61.5465
G1 X88.0186 Y61.5449
G1 X88.0229 Y61.5428 Z-2.1995
G1 X88.027 Y61.5404
G1 X88.0308 Y61.5375
G1 X88.0343 Y61.5343 Z-2.1996
G1 X88.0375 Y61.5308
G1 X88.0404 Y61.527
G1 X88.0428 Y61.5229
G1 X88.0449 Y61.5186 Z-2.1997
G1 X88.0465 Y61.5141
G1 X88.0476 Y61.5095
G1 X88.0483 Y61.5048 Z-2.1998
G1 X88.05 Y61.4705 Z-2.2
G1 Y31.5295 Z-2.3986
G1 X88.0483 Y31.4952 Z-2.3988
G1 X88.0476 Y31.4905 Z-2.3989
G1 X88.0465 Y31.4859
G1 X88.0449 Y31.4814
G1 X88.0428 Y31.4771 Z-2.399
G1 X88.0404 Y31.473
G1 X88.0375 Y31.4692
G1 X88.0343 Y31.4657
G1 X88.0308 Y31.4625 Z-2.3991
G1 X88.027 Y31.4596
G1 X88.0229 Y31.4572
G1 X88.0186 Y31.4551 Z-2.3992
G1 X88.0141 Y31.4535
G1 X88.0095 Y31.4524
G1 X88.0048 Y31.4517 Z-2.3993
G1 X88.0 Y31.4514
G1 X87.9952 Y31.4517
G1 X87.9905 Y31.4524 Z-2.3994
G1 X87.9859 Y31.4535
G1 X87.9814 Y31.4551
G1 X87.9771 Y31.4572 Z-2.3995
G1 X87.973 Y31.4596
G1 X87.9692 Y31.4625
G1 X87.9657 Y31.4657 Z-2.3996
G1 X87.9625 Y31.4692
G1 X87.9596 Y31.473
G1 X87.9572 Y31.4771
G1 X87.9551 Y31.4814 Z-2.3997
G1 X87.9535 Y31.4859
G1 X87.9524 Y31.4905
G1 X87.9517 Y31.4952 Z-2.3998
G1 X87.95 Y31.5295 Z-2.4
G1 Y61.4705 Z-2.5986
G1 X87.9517 Y61.5048 Z-2.5988
G1 X87.9524 Y61.5095 Z-2.5989
G1 X87.9535 Y61.5141
G1 X87.9551 Y61.5186
G1 X87.9572 Y61.5229 Z-2.599
G1 X87.9596 Y61.527
G1 X87.9625 Y61.5308
G1 X87.9657 Y61.5343
G1 X87.9692 Y61.5375 Z-2.5991
G1 X87.973 Y61.5404
G1 X87.9771 Y61.5428
G1 X87.9814 Y61.5449 Z-2.5992
G1 X87.9859 Y61.5465
G1 X87.9905 Y61.5476
G1 X87.9952 Y61.5483 Z-2.5993
G1 X88.0 Y61.5486
G1 X88.0048 Y61.5483
G1 X88.0095 Y61.5476 Z-2.5994
G1 X88.0141 Y61.5465
G1 X88.0186 Y61.5449
G1 X88.0229 Y61.5428 Z-2.5995
G1 X88.027 Y61.5404
G1 X88.0308 Y61.5375
G1 X88.0343 Y61.5343 Z-2.5996
G1 X88.0375 Y61.5308
G1 X88.0404 Y61.527
G1 X88.0428 Y61.5229
G1 X88.0449 Y61.5186 Z-2.5997
G1 X88.0465 Y61.5141
G1 X88.0476 Y61.5095
G1 X88.0483 Y61.5048 Z-2.5998
G1 X88.05 Y61.4705 Z-2.6
G1 Y31.5295 Z-2.7986
G1 X88.0483 Y31.4952 Z-2.7988
G1 X88.0476 Y31.4905 Z-2.7989
G1 X88.0465 Y31.4859
G1 X88.0449 Y31.4814
G1 X88.0428 Y31.4771 Z-2.799
G1 X88.0404 Y31.473
G1 X88.0375 Y31.4692
G1 X88.0343 Y31.4657
G1 X88.0308 Y31.4625 Z-2.7991
G1 X88.027 Y31.4596
G1 X88.0229 Y31.4572
G1 X88.0186 Y31.4551 Z-2.7992
G1 X88.0141 Y31.4535
G1 X88.0095 Y31.4524
G1 X88.0048 Y31.4517 Z-2.7993
G1 X88.0 Y31.4514
G1 X87.9952 Y31.4517
G1 X87.9905 Y31.4524 Z-2.7994
G1 X87.9859 Y31.4535
G1 X87.9814 Y31.4551
G1 X87.9771 Y31.4572 Z-2.7995
G1 X87.973 Y31.4596
G1 X87.9692 Y31.4625
G1 X87.9657 Y31.4657 Z-2.7996
G1 X87.9625 Y31.4692
G1 X87.9596 Y31.473
G1 X87.9572 Y31.4771
G1 X87.9551 Y31.4814 Z-2.7997
G1 X87.9535 Y31.4859
G1 X87.9524 Y31.4905
G1 X87.9517 Y31.4952 Z-2.7998
G1 X87.95 Y31.5295 Z-2.8
G1 Y61.4705 Z-2.9986
G1 X87.9517 Y61.5048 Z-2.9988
G1 X87.9524 Y61.5095 Z-2.9989
G1 X87.9535 Y61.5141
G1 X87.9551 Y61.5186
G1 X87.9572 Y61.5229 Z-2.999
G1 X87.9596 Y61.527
G1 X87.9625 Y61.5308
G1 X87.9657 Y61.5343
G1 X87.9692 Y61.5375 Z-2.9991
G1 X87.973 Y61.5404
G1 X87.9771 Y61.5428
G1 X87.9814 Y61.5449 Z-2.9992
G1 X87.9859 Y61.5465
G1 X87.9905 Y61.5476
G1 X87.9952 Y61.5483 Z-2.9993
G1 X88.0 Y61.5486
G1 X88.0048 Y61.5483
G1 X88.0095 Y61.5476 Z-2.9994
G1 X88.0141 Y61.5465
G1 X88.0186 Y61.5449
G1 X88.0229 Y61.5428 Z-2.9995
G1 X88.027 Y61.5404
G1 X88.0308 Y61.5375
G1 X88.0343 Y61.5343 Z-2.9996
G1 X88.0375 Y61.5308
G1 X88.0404 Y61.527
G1 X88.0428 Y61.5229
G1 X88.0449 Y61.5186 Z-2.9997
G1 X88.0465 Y61.5141
G1 X88.0476 Y61.5095
G1 X88.0483 Y61.5048 Z-2.9998
G1 X88.05 Y61.4705 Z-3.0
G1 Y31.5295 Z-3.1986
G1 X88.0483 Y31.4952 Z-3.1988
G1 X88.0476 Y31.4905 Z-3.1989
G1 X88.0465 Y31.4859
G1 X88.0449 Y31.4814
G1 X88.0428 Y31.4771 Z-3.199
G1 X88.0404 Y31.473
G1 X88.0375 Y31.4692
G1 X88.0343 Y31.4657
G1 X88.0308 Y31.4625 Z-3.1991
G1 X88.027 Y31.4596
G1 X88.0229 Y31.4572
G1 X88.0186 Y31.4551 Z-3.1992
G1 X88.0141 Y31.4535
G1 X88.0095 Y31.4524
G1 X88.0048 Y31.4517 Z-3.1993
G1 X88.0 Y31.4514
G1 X87.9952 Y31.4517
G1 X87.9905 Y31.4524 Z-3.1994
G1 X87.9859 Y31.4535
G1 X87.9814 Y31.4551
G1 X87.9771 Y31.4572 Z-3.1995
G1 X87.973 Y31.4596
G1 X87.9692 Y31.4625
G1 X87.9657 Y31.4657 Z-3.1996
G1 X87.9625 Y31.4692
G1 X87.9596 Y31.473
G1 X87.9572 Y31.4771
G1 X87.9551 Y31.4814 Z-3.1997
G1 X87.9535 Y31.4859
G1 X87.9524 Y31.4905
G1 X87.9517 Y31.4952 Z-3.1998
G1 X87.95 Y31.5295 Z-3.2
G1 Y61.4705 Z-3.3986
G1 X87.9517 Y61.5048 Z-3.3988
G1 X87.9524 Y61.5095 Z-3.3989
G1 X87.9535 Y61.5141
G1 X87.9551 Y61.5186
G1 X87.9572 Y61.5229 Z-3.399
G1 X87.9596 Y61.527
G1 X87.9625 Y61.5308
G1 X87.9657 Y61.5343
G1 X87.9692 Y61.5375 Z-3.3991
G1 X87.973 Y61.5404
G1 X87.9771 Y61.5428
G1 X87.9814 Y61.5449 Z-3.3992
G1 X87.9859 Y61.5465
G1 X87.9905 Y61.5476
G1 X87.9952 Y61.5483 Z-3.3993
G1 X88.0 Y61.5486
G1 X88.0048 Y61.5483
G1 X88.0095 Y61.5476 Z-3.3994
G1 X88.0141 Y61.5465
G1 X88.0186 Y61.5449
G1 X88.0229 Y61.5428 Z-3.3995
G1 X88.027 Y61.5404
G1 X88.0308 Y61.5375
G1 X88.0343 Y61.5343 Z-3.3996
G1 X88.0375 Y61.5308
G1 X88.0404 Y61.527
G1 X88.0428 Y61.5229
G1 X88.0449 Y61.5186 Z-3.3997
G1 X88.0465 Y61.5141
G1 X88.0476 Y61.5095
G1 X88.0483 Y61.5048 Z-3.3998
G1 X88.05 Y61.4705 Z-3.4
G1 Y31.5295 Z-3.5986
G1 X88.0483 Y31.4952 Z-3.5988
G1 X88.0476 Y31.4905 Z-3.5989
G1 X88.0465 Y31.4859
G1 X88.0449 Y31.4814
G1 X88.0428 Y31.4771 Z-3.599
G1 X88.0404 Y31.473
G1 X88.0375 Y31.4692
G1 X88.0343 Y31.4657
G1 X88.0308 Y31.4625 Z-3.5991
G1 X88.027 Y31.4596
G1 X88.0229 Y31.4572
G1 X88.0186 Y31.4551 Z-3.5992
G1 X88.0141 Y31.4535
G1 X88.0095 Y31.4524
G1 X88.0048 Y31.4517 Z-3.5993
G1 X88.0 Y31.4514
G1 X87.9952 Y31.4517
G1 X87.9905 Y31.4524 Z-3.5994
G1 X87.9859 Y31.4535
G1 X87.9814 Y31.4551
G1 X87.9771 Y31.4572 Z-3.5995
G1 X87.973 Y31.4596
G1 X87.9692 Y31.4625
G1 X87.9657 Y31.4657 Z-3.5996
G1 X87.9625 Y31.4692
G1 X87.9596 Y31.473
G1 X87.9572 Y31.4771
G1 X87.9551 Y31.4814 Z-3.5997
G1 X87.9535 Y31.4859
G1 X87.9524 Y31.4905
G1 X87.9517 Y31.4952 Z-3.5998
G1 X87.95 Y31.5295 Z-3.6
G1 Y61.4705 Z-3.7986
G1 X87.9517 Y61.5048 Z-3.7988
G1 X87.9524 Y61.5095 Z-3.7989
G1 X87.9535 Y61.5141
G1 X87.9551 Y61.5186
G1 X87.9572 Y61.5229 Z-3.799
G1 X87.9596 Y61.527
G1 X87.9625 Y61.5308
G1 X87.9657 Y61.5343
G1 X87.9692 Y61.5375 Z-3.7991
G1 X87.973 Y61.5404
G1 X87.9771 Y61.5428
G1 X87.9814 Y61.5449 Z-3.7992
G1 X87.9859 Y61.5465
G1 X87.9905 Y61.5476
G1 X87.9952 Y61.5483 Z-3.7993
G1 X88.0 Y61.5486
G1 X88.0048 Y61.5483
G1 X88.0095 Y61.5476 Z-3.7994
G1 X88.0141 Y61.5465
G1 X88.0186 Y61.5449
G1 X88.0229 Y61.5428 Z-3.7995
G1 X88.027 Y61.5404
G1 X88.0308 Y61.5375
G1 X88.0343 Y61.5343 Z-3.7996
G1 X88.0375 Y61.5308
G1 X88.0404 Y61.527
G1 X88.0428 Y61.5229
G1 X88.0449 Y61.5186 Z-3.7997
G1 X88.0465 Y61.5141
G1 X88.0476 Y61.5095
G1 X88.0483 Y61.5048 Z-3.7998
G1 X88.05 Y61.4705 Z-3.8
G1 Y31.5295 Z-3.9986
G1 X88.0483 Y31.4952 Z-3.9988
G1 X88.0476 Y31.4905 Z-3.9989
G1 X88.0465 Y31.4859
G1 X88.0449 Y31.4814
G1 X88.0428 Y31.4771 Z-3.999
G1 X88.0404 Y31.473
G1 X88.0375 Y31.4692
G1 X88.0343 Y31.4657
G1 X88.0308 Y31.4625 Z-3.9991
G1 X88.027 Y31.4596
G1 X88.0229 Y31.4572
G1 X88.0186 Y31.4551 Z-3.9992
G1 X88.0141 Y31.4535
G1 X88.0095 Y31.4524
G1 X88.0048 Y31.4517 Z-3.9993
G1 X88.0 Y31.4514
G1 X87.9952 Y31.4517
G1 X87.9905 Y31.4524 Z-3.9994
G1 X87.9859 Y31.4535
G1 X87.9814 Y31.4551
G1 X87.9771 Y31.4572 Z-3.9995
G1 X87.973 Y31.4596
G1 X87.9692 Y31.4625
G1 X87.9657 Y31.4657 Z-3.9996
G1 X87.9625 Y31.4692
G1 X87.9596 Y31.473
G1 X87.9572 Y31.4771
G1 X87.9551 Y31.4814 Z-3.9997
G1 X87.9535 Y31.4859
G1 X87.9524 Y31.4905
G1 X87.9517 Y31.4952 Z-3.9998
G1 X87.95 Y31.5295 Z-4.0
G1 Y61.4705 Z-4.0993
G1 X87.9517 Y61.5048 Z-4.0994
G1 X87.9524 Y61.5095
G1 X87.9535 Y61.5141
G1 X87.9551 Y61.5186 Z-4.0995
G1 X87.9572 Y61.5229
G1 X87.9596 Y61.527
G1 X87.9625 Y61.5308
G1 X87.9657 Y61.5343
G1 X87.9692 Y61.5375
G1 X87.973 Y61.5404 Z-4.0996
G1 X87.9771 Y61.5428
G1 X87.9814 Y61.5449
G1 X87.9859 Y61.5465
G1 X87.9905 Y61.5476
G1 X87.9952 Y61.5483
G1 X88.0 Y61.5486
G1 X88.0048 Y61.5483 Z-4.0997
G1 X88.0095 Y61.5476
G1 X88.0141 Y61.5465
G1 X88.0186 Y61.5449
G1 X88.0229 Y61.5428
G1 X88.027 Y61.5404
G1 X88.0308 Y61.5375 Z-4.0998
G1 X88.0343 Y61.5343
G1 X88.0375 Y61.5308
G1 X88.0404 Y61.527
G1 X88.0428 Y61.5229
G1 X88.0449 Y61.5186
G1 X88.0465 Y61.5141 Z-4.0999
G1 X88.0476 Y61.5095
G1 X88.0483 Y61.5048
G1 X88.05 Y61.4705 Z-4.1
G1 Y31.5295 Z-4.1993
G1 X88.0483 Y31.4952 Z-4.1994
G1 X88.0476 Y31.4905
G1 X88.0465 Y31.4859
G1 X88.0449 Y31.4814 Z-4.1995
G1 X88.0428 Y31.4771
G1 X88.0404 Y31.473
G1 X88.0375 Y31.4692
G1 X88.0343 Y31.4657
G1 X88.0308 Y31.4625
G1 X88.027 Y31.4596 Z-4.1996
G1 X88.0229 Y31.4572
G1 X88.0186 Y31.4551
G1 X88.0141 Y31.4535
G1 X88.0095 Y31.4524
G1 X88.0048 Y31.4517
G1 X88.0 Y31.4514
G1 X87.9952 Y31.4517 Z-4.1997
G1 X87.9905 Y31.4524
G1 X87.9859 Y31.4535
G1 X87.9814 Y31.4551
G1 X87.9771 Y31.4572
G1 X87.973 Y31.4596
G1 X87.9692 Y31.4625 Z-4.1998
G1 X87.9657 Y31.4657
G1 X87.9625 Y31.4692
G1 X87.9596 Y31.473
G1 X87.9572 Y31.4771
G1 X87.9551 Y31.4814
G1 X87.9535 Y31.4859 Z-4.1999
G1 X87.9524 Y31.4905
G1 X87.9517 Y31.4952
G1 X87.95 Y31.5295 Z-4.2
G1 Y61.4705
G1 X87.9517 Y61.5048
G1 X87.9524 Y61.5095
G1 X87.9535 Y61.5141
G1 X87.9551 Y61.5186
G1 X87.9572 Y61.5229
G1 X87.9596 Y61.527
G1 X87.9625 Y61.5308
G1 X87.9657 Y61.5343
G1 X87.9692 Y61.5375
G1 X87.973 Y61.5404
G1 X87.9771 Y61.5428
G1 X87.9814 Y61.5449
G1 X87.9859 Y61.5465
G1 X87.9905 Y61.5476
G1 X87.9952 Y61.5483
G1 X88.0 Y61.5486
G1 X88.0048 Y61.5483
G1 X88.0095 Y61.5476
G1 X88.0141 Y61.5465
G1 X88.0186 Y61.5449
G1 X88.0229 Y61.5428
G1 X88.027 Y61.5404
G1 X88.0308 Y61.5375
G1 X88.0343 Y61.5343
G1 X88.0375 Y61.5308
G1 X88.0404 Y61.527
G1 X88.0428 Y61.5229
G1 X88.0449 Y61.5186
G1 X88.0465 Y61.5141
G1 X88.0476 Y61.5095
G1 X88.0483 Y61.5048
G1 X88.05 Y61.4705
G1 Y31.5295
G1 X88.0483 Y31.4952
G1 X88.0476 Y31.4905
G1 X88.0465 Y31.4859
G1 X88.0449 Y31.4814
G1 X88.0428 Y31.4771
G1 X88.0404 Y31.473
G1 X88.0375 Y31.4692
G1 X88.0343 Y31.4657
G1 X88.0308 Y31.4625
G1 X88.027 Y31.4596
G1 X88.0229 Y31.4572
G1 X88.0186 Y31.4551
G1 X88.0141 Y31.4535
G1 X88.0095 Y31.4524
G1 X88.0048 Y31.4517
G1 X88.0 Y31.4514
G1 X87.9952 Y31.4517
G1 X87.9905 Y31.4524
G1 X87.9859 Y31.4535
G1 X87.9814 Y31.4551
G1 X87.9771 Y31.4572
G1 X87.973 Y31.4596
G1 X87.9692 Y31.4625
G1 X87.9657 Y31.4657
G1 X87.9625 Y31.4692
G1 X87.9596 Y31.473
G1 X87.9572 Y31.4771
G1 X87.9551 Y31.4814
G1 X87.9535 Y31.4859
G1 X87.9524 Y31.4905
G1 X87.9517 Y31.4952
G1 X87.95 Y31.5295
G0 Z3.0
G0 X103.95
G0 Z1.0
G1 F300.0 Z0.0
G1 F800.0 Y61.4705 Z-0.1986
G1 X103.9517 Y61.5048 Z-0.1988
G1 X103.9524 Y61.5095 Z-0.1989
G1 X103.9535 Y61.5141
G1 X103.9551 Y61.5186
G1 X103.9572 Y61.5229 Z-0.199
G1 X103.9596 Y61.527
G1 X103.9625 Y61.5308
G1 X103.9657 Y61.5343
G1 X103.9692 Y61.5375 Z-0.1991
G1 X103.973 Y61.5404
G1 X103.9771 Y61.5428
G1 X103.9814 Y61.5449 Z-0.1992
G1 X103.9859 Y61.5465
G1 X103.9905 Y61.5476
G1 X103.9952 Y61.5483 Z-0.1993
G1 X104.0 Y61.5486
G1 X104.0048 Y61.5483
G1 X104.0095 Y61.5476 Z-0.1994
G1 X104.0141 Y61.5465
G1 X104.0186 Y61.5449
G1 X104.0229 Y61.5428 Z-0.1995
G1 X104.027 Y61.5404
G1 X104.0308 Y61.5375
G1 X104.0343 Y61.5343 Z-0.1996
G1 X104.0375 Y61.5308
G1 X104.0404 Y61.527
G1 X104.0428 Y61.5229
G1 X104.0449 Y61.5186 Z-0.1997
G1 X104.0465 Y61.5141
G1 X104.0476 Y61.5095
G1 X104.0483 Y61.5048 Z-0.1998
G1 X104.05 Y61.4705 Z-0.2
G1 Y31.5295 Z-0.3986
G1 X104.0483 Y31.4952 Z-0.3988
G1 X104.0476 Y31.4905 Z-0.3989
G1 X104.0465 Y31.4859
G1 X104.0449 Y31.4814
G1 X104.0428 Y31.4771 Z-0.399
G1 X104.0404 Y31.473
G1 X104.0375 Y31.4692
G1 X104.0343 Y31.4657
G1 X104.0308 Y31.4625 Z-0.3991
G1 X104.027 Y31.4596
G1 X104.0229 Y31.4572
G1 X104.0186 Y31.4551 Z-0.3992
G1 X104.0141 Y31.4535
G1 X104.0095 Y31.4524
G1 X104.0048 Y31.4517 Z-0.3993
G1 X104.0 Y31.4514
G1 X103.9952 Y31.4517
G1 X103.9905 Y31.4524 Z-0.3994
G1 X103.9859 Y31.4535
G1 X103.9814 Y31.4551
G1 X103.9771 Y31.4572 Z-0.3995
G1 X103.973 Y31.4596
G1 X103.9692 Y31.4625
G1 X103.9657 Y31.4657 Z-0.3996
G1 X103.9625 Y31.4692
G1 X103.9596 Y31.473
G1 X103.9572 Y31.4771
G1 X103.9551 Y31.4814 Z-0.3997
G1 X103.9535 Y31.4859
G1 X103.9524 Y31.4905
G1 X103.9517 Y31.4952 Z-0.3998
G1 X103.95 Y31.5295 Z-0.4
G1 Y61.4705 Z-0.5986
G1 X103.9517 Y61.5048 Z-0.5988
G1 X103.9524 Y61.5095 Z-0.5989
G1 X103.9535 Y61.5141
G1 X103.9551 Y61.5186
G1 X103.9572 Y61.5229 Z-0.599
G1 X103.9596 Y61.527
G1 X103.9625 Y61.5308
G1 X103.9657 Y61.5343
G1 X103.9692 Y61.5375 Z-0.5991
G1 X103.973 Y61.5404
G1 X103.9771 Y61.5428
G1 X103.9814 Y61.5449 Z-0.5992
G1 X103.9859 Y61.5465
G1 X103.9905 Y61.5476
G1 X103.9952 Y61.5483 Z-0.5993
G1 X104.0 Y61.5486
G1 X104.0048 Y61.5483
G1 X104.0095 Y61.5476 Z-0.5994
G1 X104.0141 Y61.5465
G1 X104.0186 Y61.5449
G1 X104.0229 Y61.5428 Z-0.5995
G1 X104.027 Y61.5404
G1 X104.0308 Y61.5375
G1 X104.0343 Y61.5343 Z-0.5996
G1 X104.0375 Y61.5308
G1 X104.0404 Y61.527
G1 X104.0428 Y61.5229
G1 X104.0449 Y61.5186 Z-0.5997
G1 X104.0465 Y61.5141
G1 X104.0476 Y61.5095
G1 X104.0483 Y61.5048 Z-0.5998
G1 X104.05 Y61.4705 Z-0.6
G1 Y31.5295 Z-0.7986
G1 X104.0483 Y31.4952 Z-0.7988
G1 X104.0476 Y31.4905 Z-0.7989
G1 X104.0465 Y31.4859
G1 X104.0449 Y31.4814
G1 X104.0428 Y31.4771 Z-0.799
G1 X104.0404 Y31.473
G1 X104.0375 Y31.4692
G1 X104.0343 Y31.4657
G1 X104.0308 Y31.4625 Z-0.7991
G1 X104.027 Y31.4596
G1 X104.0229 Y31.4572
G1 X104.0186 Y31.4551 Z-0.7992
G1 X104.0141 Y31.4535
G1 X104.0095 Y31.4524
G1 X104.0048 Y31.4517 Z-0.7993
G1 X104.0 Y31.4514
G1 X103.9952 Y31.4517
G1 X103.9905 Y31.4524 Z-0.7994
G1 X103.9859 Y31.4535
G1 X103.9814 Y31.4551
G1 X103.9771 Y31.4572 Z-0.7995
G1 X103.973 Y31.4596
G1 X103.9692 Y31.4625
G1 X103.9657 Y31.4657 Z-0.7996
G1 X103.9625 Y31.4692
G1 X103.9596 Y31.473
G1 X103.9572 Y31.4771
G1 X103.9551 Y31.4814 Z-0.7997
G1 X103.9535 Y31.4859
G1 X103.9524 Y31.4905
G1 X103.9517 Y31.4952 Z-0.7998
G1 X103.95 Y31.5295 Z-0.8
G1 Y61.4705 Z-0.9986
G1 X103.9517 Y61.5048 Z-0.9988
G1 X103.9524 Y61.5095 Z-0.9989
G1 X103.9535 Y61.5141
G1 X103.9551 Y61.5186
G1 X103.9572 Y61.5229 Z-0.999
G1 X103.9596 Y61.527
G1 X103.9625 Y61.5308
G1 X103.9657 Y61.5343
G1 X103.9692 Y61.5375 Z-0.9991
G1 X103.973 Y61.5404
G1 X103.9771 Y61.5428
G1 X103.9814 Y61.5449 Z-0.9992
G1 X103.9859 Y61.5465
G1 X103.9905 Y61.5476
G1 X103.9952 Y61.5483 Z-0.9993
G1 X104.0 Y61.5486
G1 X104.0048 Y61.5483
G1 X104.0095 Y61.5476 Z-0.9994
G1 X104.0141 Y61.5465
G1 X104.0186 Y61.5449
G1 X104.0229 Y61.5428 Z-0.9995
G1 X104.027 Y61.5404
G1 X104.0308 Y61.5375
G1 X104.0343 Y61.5343 Z-0.9996
G1 X104.0375 Y61.5308
G1 X104.0404 Y61.527
G1 X104.0428 Y61.5229
G1 X104.0449 Y61.5186 Z-0.9997
G1 X104.0465 Y61.5141
G1 X104.0476 Y61.5095
G1 X104.0483 Y61.5048 Z-0.9998
G1 X104.05 Y61.4705 Z-1.0
G1 Y31.5295 Z-1.1986
G1 X104.0483 Y31.4952 Z-1.1988
G1 X104.0476 Y31.4905 Z-1.1989
G1 X104.0465 Y31.4859
G1 X104.0449 Y31.4814
G1 X104.0428 Y31.4771 Z-1.199
G1 X104.0404 Y31.473
G1 X104.0375 Y31.4692
G1 X104.0343 Y31.4657
G1 X104.0308 Y31.4625 Z-1.1991
G1 X104.027 Y31.4596
G1 X104.0229 Y31.4572
G1 X104.0186 Y31.4551 Z-1.1992
G1 X104.0141 Y31.4535
G1 X104.0095 Y31.4524
G1 X104.0048 Y31.4517 Z-1.1993
G1 X104.0 Y31.4514
G1 X103.9952 Y31.4517
G1 X103.9905 Y31.4524 Z-1.1994
G1 X103.9859 Y31.4535
G1 X103.9814 Y31.4551
G1 X103.9771 Y31.4572 Z-1.1995
G1 X103.973 Y31.4596
G1 X103.9692 Y31.4625
G1 X103.9657 Y31.4657 Z-1.1996
G1 X103.9625 Y31.4692
G1 X103.9596 Y31.473
G1 X103.9572 Y31.4771
G1 X103.9551 Y31.4814 Z-1.1997
G1 X103.9535 Y31.4859
G1 X103.9524 Y31.4905
G1 X103.9517 Y31.4952 Z-1.1998
G1 X103.95 Y31.5295 Z-1.2
G1 Y61.4705 Z-1.3986
G1 X103.9517 Y61.5048 Z-1.3988
G1 X103.9524 Y61.5095 Z-1.3989
G1 X103.9535 Y61.5141
G1 X103.9551 Y61.5186
G1 X103.9572 Y61.5229 Z-1.399
G1 X103.9596 Y61.527
G1 X103.9625 Y61.5308
G1 X103.9657 Y61.5343
G1 X103.9692 Y61.5375 Z-1.3991
G1 X103.973 Y61.5404
G1 X103.9771 Y61.5428
G1 X103.9814 Y61.5449 Z-1.3992
G1 X103.9859 Y61.5465
G1 X103.9905 Y61.5476
G1 X103.9952 Y61.5483 Z-1.3993
G1 X104.0 Y61.5486
G1 X104.0048 Y61.5483
G1 X104.0095 Y61.5476 Z-1.3994
G1 X104.0141 Y61.5465
G1 X104.0186 Y61.5449
G1 X104.0229 Y61.5428 Z-1.3995
G1 X104.027 Y61.5404
G1 X104.0308 Y61.5375
G1 X104.0343 Y61.5343 Z-1.3996
G1 X104.0375 Y61.5308
G1 X104.0404 Y61.527
G1 X104.0428 Y61.5229
G1 X104.0449 Y61.5186 Z-1.3997
G1 X104.0465 Y61.5141
G1 X104.0476 Y61.5095
G1 X104.0483 Y61.5048 Z-1.3998
G1 X104.05 Y61.4705 Z-1.4
G1 Y31.5295 Z-1.5986
G1 X104.0483 Y31.4952 Z-1.5988
G1 X104.0476 Y31.4905 Z-1.5989
G1 X104.0465 Y31.4859
G1 X104.0449 Y31.4814
G1 X104.0428 Y31.4771 Z-1.599
G1 X104.0404 Y31.473
G1 X104.0375 Y31.4692
G1 X104.0343 Y31.4657
G1 X104.0308 Y31.4625 Z-1.5991
G1 X104.027 Y31.4596
G1 X104.0229 Y31.4572
G1 X104.0186 Y31.4551 Z-1.5992
G1 X104.0141 Y31.4535
G1 X104.0095 Y31.4524
G1 X104.0048 Y31.4517 Z-1.5993
G1 X104.0 Y31.4514
G1 X103.9952 Y31.4517
G1 X103.9905 Y31.4524 Z-1.5994
G1 X103.9859 Y31.4535
G1 X103.9814 Y31.4551
G1 X103.9771 Y31.4572 Z-1.5995
G1 X103.973 Y31.4596
G1 X103.9692 Y31.4625
G1 X103.9657 Y31.4657 Z-1.5996
G1 X103.9625 Y31.4692
G1 X103.9596 Y31.473
G1 X103.9572 Y31.4771
G1 X103.9551 Y31.4814 Z-1.5997
G1 X103.9535 Y31.4859
G1 X103.9524 Y31.4905
G1 X103.9517 Y31.4952 Z-1.5998
G1 X103.95 Y31.5295 Z-1.6
G1 Y61.4705 Z-1.7986
G1 X103.9517 Y61.5048 Z-1.7988
G1 X103.9524 Y61.5095 Z-1.7989
G1 X103.9535 Y61.5141
G1 X103.9551 Y61.5186
G1 X103.9572 Y61.5229 Z-1.799
G1 X103.9596 Y61.527
G1 X103.9625 Y61.5308
G1 X103.9657 Y61.5343
G1 X103.9692 Y61.5375 Z-1.7991
G1 X103.973 Y61.5404
G1 X103.9771 Y61.5428
G1 X103.9814 Y61.5449 Z-1.7992
G1 X103.9859 Y61.5465
G1 X103.9905 Y61.5476
G1 X103.9952 Y61.5483 Z-1.7993
G1 X104.0 Y61.5486
G1 X104.0048 Y61.5483
G1 X104.0095 Y61.5476 Z-1.7994
G1 X104.0141 Y61.5465
G1 X104.0186 Y61.5449
G1 X104.0229 Y61.5428 Z-1.7995
G1 X104.027 Y61.5404
G1 X104.0308 Y61.5375
G1 X104.0343 Y61.5343 Z-1.7996
G1 X104.0375 Y61.5308
G1 X104.0404 Y61.527
G1 X104.0428 Y61.5229
G1 X104.0449 Y61.5186 Z-1.7997
G1 X104.0465 Y61.5141
G1 X104.0476 Y61.5095
G1 X104.0483 Y61.5048 Z-1.7998
G1 X104.05 Y61.4705 Z-1.8
G1 Y31.5295 Z-1.9986
G1 X104.0483 Y31.4952 Z-1.9988
G1 X104.0476 Y31.4905 Z-1.9989
G1 X104.0465 Y31.4859
G1 X104.0449 Y31.4814
G1 X104.0428 Y31.4771 Z-1.999
G1 X104.0404 Y31.473
G1 X104.0375 Y31.4692
G1 X104.0343 Y31.4657
G1 X104.0308 Y31.4625 Z-1.9991
G1 X104.027 Y31.4596
G1 X104.0229 Y31.4572
G1 X104.0186 Y31.4551 Z-1.9992
G1 X104.0141 Y31.4535
G1 X104.0095 Y31.4524
G1 X104.0048 Y31.4517 Z-1.9993
G1 X104.0 Y31.4514
G1 X103.9952 Y31.4517
G1 X103.9905 Y31.4524 Z-1.9994
G1 X103.9859 Y31.4535
G1 X103.9814 Y31.4551
G1 X103.9771 Y31.4572 Z-1.9995
G1 X103.973 Y31.4596
G1 X103.9692 Y31.4625
G1 X103.9657 Y31.4657 Z-1.9996
G1 X103.9625 Y31.4692
G1 X103.9596 Y31.473
G1 X103.9572 Y31.4771
G1 X103.9551 Y31.4814 Z-1.9997
G1 X103.9535 Y31.4859
G1 X103.9524 Y31.4905
G1 X103.9517 Y31.4952 Z-1.9998
G1 X103.95 Y31.5295 Z-2.0
G1 Y61.4705 Z-2.1986
G1 X103.9517 Y61.5048 Z-2.1988
G1 X103.9524 Y61.5095 Z-2.1989
G1 X103.9535 Y61.5141
G1 X103.9551 Y61.5186
G1 X103.9572 Y61.5229 Z-2.199
G1 X103.9596 Y61.527
G1 X103.9625 Y61.5308
G1 X103.9657 Y61.5343
G1 X103.9692 Y61.5375 Z-2.1991
G1 X103.973 Y61.5404
G1 X103.9771 Y61.5428
G1 X103.9814 Y61.5449 Z-2.1992
G1 X103.9859 Y61.5465
G1 X103.9905 Y61.5476
G1 X103.9952 Y61.5483 Z-2.1993
G1 X104.0 Y61.5486
G1 X104.0048 Y61.5483
G1 X104.0095 Y61.5476 Z-2.1994
G1 X104.0141 Y61.5465
G1 X104.0186 Y61.5449
G1 X104.0229 Y61.5428 Z-2.1995
G1 X104.027 Y61.5404
G1 X104.0308 Y61.5375
G1 X104.0343 Y61.5343 Z-2.1996
G1 X104.0375 Y61.5308
G1 X104.0404 Y61.527
G1 X104.0428 Y61.5229
G1 X104.0449 Y61.5186 Z-2.1997
G1 X104.0465 Y61.5141
G1 X104.0476 Y61.5095
G1 X104.0483 Y61.5048 Z-2.1998
G1 X104.05 Y61.4705 Z-2.2
G1 Y31.5295 Z-2.3986
G1 X104.0483 Y31.4952 Z-2.3988
G1 X104.0476 Y31.4905 Z-2.3989
G1 X104.0465 Y31.4859
G1 X104.0449 Y31.4814
G1 X104.0428 Y31.4771 Z-2.399
G1 X104.0404 Y31.473
G1 X104.0375 Y31.4692
G1 X104.0343 Y31.4657
G1 X104.0308 Y31.4625 Z-2.3991
G1 X104.027 Y31.4596
G1 X104.0229 Y31.4572
G1 X104.0186 Y31.4551 Z-2.3992
G1 X104.0141 Y31.4535
G1 X104.0095 Y31.4524
G1 X104.0048 Y31.4517 Z-2.3993
G1 X104.0 Y31.4514
G1 X103.9952 Y31.4517
G1 X103.9905 Y31.4524 Z-2.3994
G1 X103.9859 Y31.4535
G1 X103.9814 Y31.4551
G1 X103.9771 Y31.4572 Z-2.3995
G1 X103.973 Y31.4596
G1 X103.9692 Y31.4625
G1 X103.9657 Y31.4657 Z-2.3996
G1 X103.9625 Y31.4692
G1 X103.9596 Y31.473
G1 X103.9572 Y31.4771
G1 X103.9551 Y31.4814 Z-2.3997
G1 X103.9535 Y31.4859
G1 X103.9524 Y31.4905
G1 X103.9517 Y31.4952 Z-2.3998
G1 X103.95 Y31.5295 Z-2.4
G1 Y61.4705 Z-2.5986
G1 X103.9517 Y61.5048 Z-2.5988
G1 X103.9524 Y61.5095 Z-2.5989
G1 X103.9535 Y61.5141
G1 X103.9551 Y61.5186
G1 X103.9572 Y61.5229 Z-2.599
G1 X103.9596 Y61.527
G1 X103.9625 Y61.5308
G1 X103.9657 Y61.5343
G1 X103.9692 Y61.5375 Z-2.5991
G1 X103.973 Y61.5404
G1 X103.9771 Y61.5428
G1 X103.9814 Y61.5449 Z-2.5992
G1 X103.9859 Y61.5465
G1 X103.9905 Y61.5476
G1 X103.9952 Y61.5483 Z-2.5993
G1 X104.0 Y61.5486
G1 X104.0048 Y61.5483
G1 X104.0095 Y61.5476 Z-2.5994
G1 X104.0141 Y61.5465
G1 X104.0186 Y61.5449
G1 X104.0229 Y61.5428 Z-2.5995
G1 X104.027 Y61.5404
G1 X104.0308 Y61.5375
G1 X104.0343 Y61.5343 Z-2.5996
G1 X104.0375 Y61.5308
G1 X104.0404 Y61.527
G1 X104.0428 Y61.5229
G1 X104.0449 Y61.5186 Z-2.5997
G1 X104.0465 Y61.5141
G1 X104.0476 Y61.5095
G1 X104.0483 Y61.5048 Z-2.5998
G1 X104.05 Y61.4705 Z-2.6
G1 Y31.5295 Z-2.7986
G1 X104.0483 Y31.4952 Z-2.7988
G1 X104.0476 Y31.4905 Z-2.7989
G1 X104.0465 Y31.4859
G1 X104.0449 Y31.4814
G1 X104.0428 Y31.4771 Z-2.799
G1 X104.0404 Y31.473
G1 X104.0375 Y31.4692
G1 X104.0343 Y31.4657
G1 X104.0308 Y31.4625 Z-2.7991
G1 X104.027 Y31.4596
G1 X104.0229 Y31.4572
G1 X104.0186 Y31.4551 Z-2.7992
G1 X104.0141 Y31.4535
G1 X104.0095 Y31.4524
G1 X104.0048 Y31.4517 Z-2.7993
G1 X104.0 Y31.4514
G1 X103.9952 Y31.4517
G1 X103.9905 Y31.4524 Z-2.7994
G1 X103.9859 Y31.4535
G1 X103.9814 Y31.4551
G1 X103.9771 Y31.4572 Z-2.7995
G1 X103.973 Y31.4596
G1 X103.9692 Y31.4625
G1 X103.9657 Y31.4657 Z-2.7996
G1 X103.9625 Y31.4692
G1 X103.9596 Y31.473
G1 X103.9572 Y31.4771
G1 X103.9551 Y31.4814 Z-2.7997
G1 X103.9535 Y31.4859
G1 X103.9524 Y31.4905
G1 X103.9517 Y31.4952 Z-2.7998
G1 X103.95 Y31.5295 Z-2.8
G1 Y61.4705 Z-2.9986
G1 X103.9517 Y61.5048 Z-2.9988
G1 X103.9524 Y61.5095 Z-2.9989
G1 X103.9535 Y61.5141
G1 X103.9551 Y61.5186
G1 X103.9572 Y61.5229 Z-2.999
G1 X103.9596 Y61.527
G1 X103.9625 Y61.5308
G1 X103.9657 Y61.5343
G1 X103.9692 Y61.5375 Z-2.9991
G1 X103.973 Y61.5404
G1 X103.9771 Y61.5428
G1 X103.9814 Y61.5449 Z-2.9992
G1 X103.9859 Y61.5465
G1 X103.9905 Y61.5476
G1 X103.9952 Y61.5483 Z-2.9993
G1 X104.0 Y61.5486
G1 X104.0048 Y61.5483
G1 X104.0095 Y61.5476 Z-2.9994
G1 X104.0141 Y61.5465
G1 X104.0186 Y61.5449
G1 X104.0229 Y61.5428 Z-2.9995
G1 X104.027 Y61.5404
G1 X104.0308 Y61.5375
G1 X104.0343 Y61.5343 Z-2.9996
G1 X104.0375 Y61.5308
G1 X104.0404 Y61.527
G1 X104.0428 Y61.5229
G1 X104.0449 Y61.5186 Z-2.9997
G1 X104.0465 Y61.5141
G1 X104.0476 Y61.5095
G1 X104.0483 Y61.5048 Z-2.9998
G1 X104.05 Y61.4705 Z-3.0
G1 Y31.5295 Z-3.1986
G1 X104.0483 Y31.4952 Z-3.1988
G1 X104.0476 Y31.4905 Z-3.1989
G1 X104.0465 Y31.4859
G1 X104.0449 Y31.4814
G1 X104.0428 Y31.4771 Z-3.199
G1 X104.0404 Y31.473
G1 X104.0375 Y31.4692
G1 X104.0343 Y31.4657
G1 X104.0308 Y31.4625 Z-3.1991
G1 X104.027 Y31.4596
G1 X104.0229 Y31.4572
G1 X104.0186 Y31.4551 Z-3.1992
G1 X104.0141 Y31.4535
G1 X104.0095 Y31.4524
G1 X104.0048 Y31.4517 Z-3.1993
G1 X104.0 Y31.4514
G1 X103.9952 Y31.4517
G1 X103.9905 Y31.4524 Z-3.1994
G1 X103.9859 Y31.4535
G1 X103.9814 Y31.4551
G1 X103.9771 Y31.4572 Z-3.1995
G1 X103.973 Y31.4596
G1 X103.9692 Y31.4625
G1 X103.9657 Y31.4657 Z-3.1996
G1 X103.9625 Y31.4692
G1 X103.9596 Y31.473
G1 X103.9572 Y31.4771
G1 X103.9551 Y31.4814 Z-3.1997
G1 X103.9535 Y31.4859
G1 X103.9524 Y31.4905
G1 X103.9517 Y31.4952 Z-3.1998
G1 X103.95 Y31.5295 Z-3.2
G1 Y61.4705 Z-3.3986
G1 X103.9517 Y61.5048 Z-3.3988
G1 X103.9524 Y61.5095 Z-3.3989
G1 X103.9535 Y61.5141
G1 X103.9551 Y61.5186
G1 X103.9572 Y61.5229 Z-3.399
G1 X103.9596 Y61.527
G1 X103.9625 Y61.5308
G1 X103.9657 Y61.5343
G1 X103.9692 Y61.5375 Z-3.3991
G1 X103.973 Y61.5404
G1 X103.9771 Y61.5428
G1 X103.9814 Y61.5449 Z-3.3992
G1 X103.9859 Y61.5465
G1 X103.9905 Y61.5476
G1 X103.9952 Y61.5483 Z-3.3993
G1 X104.0 Y61.5486
G1 X104.0048 Y61.5483
G1 X104.0095 Y61.5476 Z-3.3994
G1 X104.0141 Y61.5465
G1 X104.0186 Y61.5449
G1 X104.0229 Y61.5428 Z-3.3995
G1 X104.027 Y61.5404
G1 X104.0308 Y61.5375
G1 X104.0343 Y61.5343 Z-3.3996
G1 X104.0375 Y61.5308
G1 X104.0404 Y61.527
G1 X104.0428 Y61.5229
G1 X104.0449 Y61.5186 Z-3.3997
G1 X104.0465 Y61.5141
G1 X104.0476 Y61.5095
G1 X104.0483 Y61.5048 Z-3.3998
G1 X104.05 Y61.4705 Z-3.4
G1 Y31.5295 Z-3.5986
G1 X104.0483 Y31.4952 Z-3.5988
G1 X104.0476 Y31.4905 Z-3.5989
G1 X104.0465 Y31.4859
G1 X104.0449 Y31.4814
G1 X104.0428 Y31.4771 Z-3.599
G1 X104.0404 Y31.473
G1 X104.0375 Y31.4692
G1 X104.0343 Y31.4657
G1 X104.0308 Y31.4625 Z-3.5991
G1 X104.027 Y31.4596
G1 X104.0229 Y31.4572
G1 X104.0186 Y31.4551 Z-3.5992
G1 X104.0141 Y31.4535
G1 X104.0095 Y31.4524
G1 X104.0048 Y31.4517 Z-3.5993
G1 X104.0 Y31.4514
G1 X103.9952 Y31.4517
G1 X103.9905 Y31.4524 Z-3.5994
G1 X103.9859 Y31.4535
G1 X103.9814 Y31.4551
G1 X103.9771 Y31.4572 Z-3.5995
G1 X103.973 Y31.4596
G1 X103.9692 Y31.4625
G1 X103.9657 Y31.4657 Z-3.5996
G1 X103.9625 Y31.4692
G1 X103.9596 Y31.473
G1 X103.9572 Y31.4771
G1 X103.9551 Y31.4814 Z-3.5997
G1 X103.9535 Y31.4859
G1 X103.9524 Y31.4905
G1 X103.9517 Y31.4952 Z-3.5998
G1 X103.95 Y31.5295 Z-3.6
G1 Y61.4705 Z-3.7986
G1 X103.9517 Y61.5048 Z-3.7988
G1 X103.9524 Y61.5095 Z-3.7989
G1 X103.9535 Y61.5141
G1 X103.9551 Y61.5186
G1 X103.9572 Y61.5229 Z-3.799
G1 X103.9596 Y61.527
G1 X103.9625 Y61.5308
G1 X103.9657 Y61.5343
G1 X103.9692 Y61.5375 Z-3.7991
G1 X103.973 Y61.5404
G1 X103.9771 Y61.5428
G1 X103.9814 Y61.5449 Z-3.7992
G1 X103.9859 Y61.5465
G1 X103.9905 Y61.5476
G1 X103.9952 Y61.5483 Z-3.7993
G1 X104.0 Y61.5486
G1 X104.0048 Y61.5483
G1 X104.0095 Y61.5476 Z-3.7994
G1 X104.0141 Y61.5465
G1 X104.0186 Y61.5449
G1 X104.0229 Y61.5428 Z-3.7995
G1 X104.027 Y61.5404
G1 X104.0308 Y61.5375
G1 X104.0343 Y61.5343 Z-3.7996
G1 X104.0375 Y61.5308
G1 X104.0404 Y61.527
G1 X104.0428 Y61.5229
G1 X104.0449 Y61.5186 Z-3.7997
G1 X104.0465 Y61.5141
G1 X104.0476 Y61.5095
G1 X104.0483 Y61.5048 Z-3.7998
G1 X104.05 Y61.4705 Z-3.8
G1 Y31.5295 Z-3.9986
G1 X104.0483 Y31.4952 Z-3.9988
G1 X104.0476 Y31.4905 Z-3.9989
G1 X104.0465 Y31.4859
G1 X104.0449 Y31.4814
G1 X104.0428 Y31.4771 Z-3.999
G1 X104.0404 Y31.473
G1 X104.0375 Y31.4692
G1 X104.0343 Y31.4657
G1 X104.0308 Y31.4625 Z-3.9991
G1 X104.027 Y31.4596
G1 X104.0229 Y31.4572
G1 X104.0186 Y31.4551 Z-3.9992
G1 X104.0141 Y31.4535
G1 X104.0095 Y31.4524
G1 X104.0048 Y31.4517 Z-3.9993
G1 X104.0 Y31.4514
G1 X103.9952 Y31.4517
G1 X103.9905 Y31.4524 Z-3.9994
G1 X103.9859 Y31.4535
G1 X103.9814 Y31.4551
G1 X103.9771 Y31.4572 Z-3.9995
G1 X103.973 Y31.4596
G1 X103.9692 Y31.4625
G1 X103.9657 Y31.4657 Z-3.9996
G1 X103.9625 Y31.4692
G1 X103.9596 Y31.473
G1 X103.9572 Y31.4771
G1 X103.9551 Y31.4814 Z-3.9997
G1 X103.9535 Y31.4859
G1 X103.9524 Y31.4905
G1 X103.9517 Y31.4952 Z-3.9998
G1 X103.95 Y31.5295 Z-4.0
G1 Y61.4705 Z-4.0993
G1 X103.9517 Y61.5048 Z-4.0994
G1 X103.9524 Y61.5095
G1 X103.9535 Y61.5141
G1 X103.9551 Y61.5186 Z-4.0995
G1 X103.9572 Y61.5229
G1 X103.9596 Y61.527
G1 X103.9625 Y61.5308
G1 X103.9657 Y61.5343
G1 X103.9692 Y61.5375
G1 X103.973 Y61.5404 Z-4.0996
G1 X103.9771 Y61.5428
G1 X103.9814 Y61.5449
G1 X103.9859 Y61.5465
G1 X103.9905 Y61.5476
G1 X103.9952 Y61.5483
G1 X104.0 Y61.5486
G1 X104.0048 Y61.5483 Z-4.0997
G1 X104.0095 Y61.5476
G1 X104.0141 Y61.5465
G1 X104.0186 Y61.5449
G1 X104.0229 Y61.5428
G1 X104.027 Y61.5404
G1 X104.0308 Y61.5375 Z-4.0998
G1 X104.0343 Y61.5343
G1 X104.0375 Y61.5308
G1 X104.0404 Y61.527
G1 X104.0428 Y61.5229
G1 X104.0449 Y61.5186
G1 X104.0465 Y61.5141 Z-4.0999
G1 X104.0476 Y61.5095
G1 X104.0483 Y61.5048
G1 X104.05 Y61.4705 Z-4.1
G1 Y31.5295 Z-4.1993
G1 X104.0483 Y31.4952 Z-4.1994
G1 X104.0476 Y31.4905
G1 X104.0465 Y31.4859
G1 X104.0449 Y31.4814 Z-4.1995
G1 X104.0428 Y31.4771
G1 X104.0404 Y31.473
G1 X104.0375 Y31.4692
G1 X104.0343 Y31.4657
G1 X104.0308 Y31.4625
G1 X104.027 Y31.4596 Z-4.1996
G1 X104.0229 Y31.4572
G1 X104.0186 Y31.4551
G1 X104.0141 Y31.4535
G1 X104.0095 Y31.4524
G1 X104.0048 Y31.4517
G1 X104.0 Y31.4514
G1 X103.9952 Y31.4517 Z-4.1997
G1 X103.9905 Y31.4524
G1 X103.9859 Y31.4535
G1 X103.9814 Y31.4551
G1 X103.9771 Y31.4572
G1 X103.973 Y31.4596
G1 X103.9692 Y31.4625 Z-4.1998
G1 X103.9657 Y31.4657
G1 X103.9625 Y31.4692
G1 X103.9596 Y31.473
G1 X103.9572 Y31.4771
G1 X103.9551 Y31.4814
G1 X103.9535 Y31.4859 Z-4.1999
G1 X103.9524 Y31.4905
G1 X103.9517 Y31.4952
G1 X103.95 Y31.5295 Z-4.2
G1 Y61.4705
G1 X103.9517 Y61.5048
G1 X103.9524 Y61.5095
G1 X103.9535 Y61.5141
G1 X103.9551 Y61.5186
G1 X103.9572 Y61.5229
G1 X103.9596 Y61.527
G1 X103.9625 Y61.5308
G1 X103.9657 Y61.5343
G1 X103.9692 Y61.5375
G1 X103.973 Y61.5404
G1 X103.9771 Y61.5428
G1 X103.9814 Y61.5449
G1 X103.9859 Y61.5465
G1 X103.9905 Y61.5476
G1 X103.9952 Y61.5483
G1 X104.0 Y61.5486
G1 X104.0048 Y61.5483
G1 X104.0095 Y61.5476
G1 X104.0141 Y61.5465
G1 X104.0186 Y61.5449
G1 X104.0229 Y61.5428
G1 X104.027 Y61.5404
G1 X104.0308 Y61.5375
G1 X104.0343 Y61.5343
G1 X104.0375 Y61.5308
G1 X104.0404 Y61.527
G1 X104.0428 Y61.5229
G1 X104.0449 Y61.5186
G1 X104.0465 Y61.5141
G1 X104.0476 Y61.5095
G1 X104.0483 Y61.5048
G1 X104.05 Y61.4705
G1 Y31.5295
