( Made using CamBam - http://www.cambam.co.uk )
( 210226_Corner_Sharp 2/26/2021 9:09:36 AM )
( T2 : 2.0 )
( CUTVIEWER )
( FROM/0,0,5 )
( Select dummy tool to avoid warnings )
( TOOL/MILL,1,0,20.0,0 )
( STOCK/BLOCK,75.0,25.0,4.0,0.0,0.0,4.0 )
G21 G90 G91.1 G64 G40
G0 Z3.0
( T2 : 2.0 )
( Tool Taper coming soon )
( TOOL/MILL,2.0,0.0,0.0,0 )
T2 M6
( Hoe_cutout )
G17
M3 S1000
G0 X13.4576 Y9.25
G0 Z1.0
G1 F100.0 Z-0.4
G1 F600.0 X13.436 Y9.2627
G1 X13.4152 Y9.2768
G1 X13.3954 Y9.2922
G1 X13.3765 Y9.3088
G1 X13.3588 Y9.3266
G1 X13.3422 Y9.3454
G1 X13.3268 Y9.3652
G1 X13.3127 Y9.386
G1 X13.3 Y9.4076
G1 X13.2886 Y9.4299
G1 X13.2786 Y9.4529
G1 X13.2701 Y9.4766
G1 X13.2631 Y9.5007
G1 X13.2576 Y9.5251
G1 X13.2537 Y9.5499
G1 X13.2513 Y9.5749
G1 X13.2505 Y9.6
G1 X13.2513 Y9.6251
G1 X13.2537 Y9.6501
G1 X13.2576 Y9.6748
G1 X13.2631 Y9.6993
G1 X13.2701 Y9.7234
G1 X13.2786 Y9.7471
G1 X13.2886 Y9.7701
G1 X13.3 Y9.7924
G1 X13.3127 Y9.814
G1 X13.3268 Y9.8348
G1 X13.3422 Y9.8546
G1 X13.3588 Y9.8734
G1 X13.3765 Y9.8912
G1 X13.3954 Y9.9078
G1 X13.4152 Y9.9232
G1 X13.436 Y9.9373
G1 X13.4576 Y9.95
G1 X13.4799 Y9.9614
G1 X13.5029 Y9.9714
G1 X13.5266 Y9.9799
G1 X13.5507 Y9.9869
G1 X13.5752 Y9.9924
G1 X13.5999 Y9.9963
G1 X13.6249 Y9.9987
G1 X13.65 Y9.9995
G1 X13.6751 Y9.9987
G1 X13.7001 Y9.9963
G1 X13.7248 Y9.9924
G1 X13.7493 Y9.9869
G1 X13.7734 Y9.9799
G1 X13.797 Y9.9714
G1 X13.8201 Y9.9614
G1 X13.8424 Y9.95
G1 X13.864 Y9.9373
G1 X13.8848 Y9.9232
G1 X13.9046 Y9.9078
G1 X13.9234 Y9.8912
G1 X13.9412 Y9.8734
G1 X13.9578 Y9.8546
G1 X13.9732 Y9.8348
G1 X13.9873 Y9.814
G1 X14.0 Y9.7924
G1 X14.0114 Y9.7701
G1 X14.0214 Y9.7471
G1 X14.0299 Y9.7234
G1 X14.0369 Y9.6993
G1 X14.0424 Y9.6748
G1 X14.0463 Y9.6501
G1 X14.0487 Y9.6251
G1 X14.0495 Y9.6
G1 X14.0487 Y9.5749
G1 X14.0463 Y9.5499
G1 X14.0424 Y9.5251
G1 X14.0369 Y9.5007
G1 X14.0299 Y9.4766
G1 X14.0214 Y9.4529
G1 X14.0114 Y9.4299
G1 X14.0 Y9.4076
G1 X13.9873 Y9.386
G1 X13.9732 Y9.3652
G1 X13.9578 Y9.3454
G1 X13.9412 Y9.3266
G1 X13.9234 Y9.3088
G1 X13.9046 Y9.2922
G1 X13.8848 Y9.2768
G1 X13.864 Y9.2627
G1 X13.8424 Y9.25
G1 X13.8201 Y9.2386
G1 X13.7971 Y9.2286
G1 X13.7734 Y9.2201
G1 X13.7493 Y9.2131
G1 X13.7248 Y9.2076
G1 X13.7001 Y9.2037
G1 X13.6751 Y9.2013
G1 X13.65 Y9.2005
G1 X13.6249 Y9.2013
G1 X13.5999 Y9.2037
G1 X13.5752 Y9.2076
G1 X13.5507 Y9.2131
G1 X13.5266 Y9.2201
G1 X13.5029 Y9.2286
G1 X13.4799 Y9.2386
G1 X13.4576 Y9.25
G1 F100.0 Z-0.8
G1 F600.0 X13.436 Y9.2627
G1 X13.4152 Y9.2768
G1 X13.3954 Y9.2922
G1 X13.3765 Y9.3088
G1 X13.3588 Y9.3266
G1 X13.3422 Y9.3454
G1 X13.3268 Y9.3652
G1 X13.3127 Y9.386
G1 X13.3 Y9.4076
G1 X13.2886 Y9.4299
G1 X13.2786 Y9.4529
G1 X13.2701 Y9.4766
G1 X13.2631 Y9.5007
G1 X13.2576 Y9.5251
G1 X13.2537 Y9.5499
G1 X13.2513 Y9.5749
G1 X13.2505 Y9.6
G1 X13.2513 Y9.6251
G1 X13.2537 Y9.6501
G1 X13.2576 Y9.6748
G1 X13.2631 Y9.6993
G1 X13.2701 Y9.7234
G1 X13.2786 Y9.7471
G1 X13.2886 Y9.7701
G1 X13.3 Y9.7924
G1 X13.3127 Y9.814
G1 X13.3268 Y9.8348
G1 X13.3422 Y9.8546
G1 X13.3588 Y9.8734
G1 X13.3765 Y9.8912
G1 X13.3954 Y9.9078
G1 X13.4152 Y9.9232
G1 X13.436 Y9.9373
G1 X13.4576 Y9.95
G1 X13.4799 Y9.9614
G1 X13.5029 Y9.9714
G1 X13.5266 Y9.9799
G1 X13.5507 Y9.9869
G1 X13.5752 Y9.9924
G1 X13.5999 Y9.9963
G1 X13.6249 Y9.9987
G1 X13.65 Y9.9995
G1 X13.6751 Y9.9987
G1 X13.7001 Y9.9963
G1 X13.7248 Y9.9924
G1 X13.7493 Y9.9869
G1 X13.7734 Y9.9799
G1 X13.797 Y9.9714
G1 X13.8201 Y9.9614
G1 X13.8424 Y9.95
G1 X13.864 Y9.9373
G1 X13.8848 Y9.9232
G1 X13.9046 Y9.9078
G1 X13.9234 Y9.8912
G1 X13.9412 Y9.8734
G1 X13.9578 Y9.8546
G1 X13.9732 Y9.8348
G1 X13.9873 Y9.814
G1 X14.0 Y9.7924
G1 X14.0114 Y9.7701
G1 X14.0214 Y9.7471
G1 X14.0299 Y9.7234
G1 X14.0369 Y9.6993
G1 X14.0424 Y9.6748
G1 X14.0463 Y9.6501
G1 X14.0487 Y9.6251
G1 X14.0495 Y9.6
G1 X14.0487 Y9.5749
G1 X14.0463 Y9.5499
G1 X14.0424 Y9.5251
G1 X14.0369 Y9.5007
G1 X14.0299 Y9.4766
G1 X14.0214 Y9.4529
G1 X14.0114 Y9.4299
G1 X14.0 Y9.4076
G1 X13.9873 Y9.386
G1 X13.9732 Y9.3652
G1 X13.9578 Y9.3454
G1 X13.9412 Y9.3266
G1 X13.9234 Y9.3088
G1 X13.9046 Y9.2922
G1 X13.8848 Y9.2768
G1 X13.864 Y9.2627
G1 X13.8424 Y9.25
G1 X13.8201 Y9.2386
G1 X13.7971 Y9.2286
G1 X13.7734 Y9.2201
G1 X13.7493 Y9.2131
G1 X13.7248 Y9.2076
G1 X13.7001 Y9.2037
G1 X13.6751 Y9.2013
G1 X13.65 Y9.2005
G1 X13.6249 Y9.2013
G1 X13.5999 Y9.2037
G1 X13.5752 Y9.2076
G1 X13.5507 Y9.2131
G1 X13.5266 Y9.2201
G1 X13.5029 Y9.2286
G1 X13.4799 Y9.2386
G1 X13.4576 Y9.25
G1 F100.0 Z-1.2
G1 F600.0 X13.436 Y9.2627
G1 X13.4152 Y9.2768
G1 X13.3954 Y9.2922
G1 X13.3765 Y9.3088
G1 X13.3588 Y9.3266
G1 X13.3422 Y9.3454
G1 X13.3268 Y9.3652
G1 X13.3127 Y9.386
G1 X13.3 Y9.4076
G1 X13.2886 Y9.4299
G1 X13.2786 Y9.4529
G1 X13.2701 Y9.4766
G1 X13.2631 Y9.5007
G1 X13.2576 Y9.5251
G1 X13.2537 Y9.5499
G1 X13.2513 Y9.5749
G1 X13.2505 Y9.6
G1 X13.2513 Y9.6251
G1 X13.2537 Y9.6501
G1 X13.2576 Y9.6748
G1 X13.2631 Y9.6993
G1 X13.2701 Y9.7234
G1 X13.2786 Y9.7471
G1 X13.2886 Y9.7701
G1 X13.3 Y9.7924
G1 X13.3127 Y9.814
G1 X13.3268 Y9.8348
G1 X13.3422 Y9.8546
G1 X13.3588 Y9.8734
G1 X13.3765 Y9.8912
G1 X13.3954 Y9.9078
G1 X13.4152 Y9.9232
G1 X13.436 Y9.9373
G1 X13.4576 Y9.95
G1 X13.4799 Y9.9614
G1 X13.5029 Y9.9714
G1 X13.5266 Y9.9799
G1 X13.5507 Y9.9869
G1 X13.5752 Y9.9924
G1 X13.5999 Y9.9963
G1 X13.6249 Y9.9987
G1 X13.65 Y9.9995
G1 X13.6751 Y9.9987
G1 X13.7001 Y9.9963
G1 X13.7248 Y9.9924
G1 X13.7493 Y9.9869
G1 X13.7734 Y9.9799
G1 X13.797 Y9.9714
G1 X13.8201 Y9.9614
G1 X13.8424 Y9.95
G1 X13.864 Y9.9373
G1 X13.8848 Y9.9232
G1 X13.9046 Y9.9078
G1 X13.9234 Y9.8912
G1 X13.9412 Y9.8734
G1 X13.9578 Y9.8546
G1 X13.9732 Y9.8348
G1 X13.9873 Y9.814
G1 X14.0 Y9.7924
G1 X14.0114 Y9.7701
G1 X14.0214 Y9.7471
G1 X14.0299 Y9.7234
G1 X14.0369 Y9.6993
G1 X14.0424 Y9.6748
G1 X14.0463 Y9.6501
G1 X14.0487 Y9.6251
G1 X14.0495 Y9.6
G1 X14.0487 Y9.5749
G1 X14.0463 Y9.5499
G1 X14.0424 Y9.5251
G1 X14.0369 Y9.5007
G1 X14.0299 Y9.4766
G1 X14.0214 Y9.4529
G1 X14.0114 Y9.4299
G1 X14.0 Y9.4076
G1 X13.9873 Y9.386
G1 X13.9732 Y9.3652
G1 X13.9578 Y9.3454
G1 X13.9412 Y9.3266
G1 X13.9234 Y9.3088
G1 X13.9046 Y9.2922
G1 X13.8848 Y9.2768
G1 X13.864 Y9.2627
G1 X13.8424 Y9.25
G1 X13.8201 Y9.2386
G1 X13.7971 Y9.2286
G1 X13.7734 Y9.2201
G1 X13.7493 Y9.2131
G1 X13.7248 Y9.2076
G1 X13.7001 Y9.2037
G1 X13.6751 Y9.2013
G1 X13.65 Y9.2005
G1 X13.6249 Y9.2013
G1 X13.5999 Y9.2037
G1 X13.5752 Y9.2076
G1 X13.5507 Y9.2131
G1 X13.5266 Y9.2201
G1 X13.5029 Y9.2286
G1 X13.4799 Y9.2386
G1 X13.4576 Y9.25
G1 F100.0 Z-1.6
G1 F600.0 X13.436 Y9.2627
G1 X13.4152 Y9.2768
G1 X13.3954 Y9.2922
G1 X13.3765 Y9.3088
G1 X13.3588 Y9.3266
G1 X13.3422 Y9.3454
G1 X13.3268 Y9.3652
G1 X13.3127 Y9.386
G1 X13.3 Y9.4076
G1 X13.2886 Y9.4299
G1 X13.2786 Y9.4529
G1 X13.2701 Y9.4766
G1 X13.2631 Y9.5007
G1 X13.2576 Y9.5251
G1 X13.2537 Y9.5499
G1 X13.2513 Y9.5749
G1 X13.2505 Y9.6
G1 X13.2513 Y9.6251
G1 X13.2537 Y9.6501
G1 X13.2576 Y9.6748
G1 X13.2631 Y9.6993
G1 X13.2701 Y9.7234
G1 X13.2786 Y9.7471
G1 X13.2886 Y9.7701
G1 X13.3 Y9.7924
G1 X13.3127 Y9.814
G1 X13.3268 Y9.8348
G1 X13.3422 Y9.8546
G1 X13.3588 Y9.8734
G1 X13.3765 Y9.8912
G1 X13.3954 Y9.9078
G1 X13.4152 Y9.9232
G1 X13.436 Y9.9373
G1 X13.4576 Y9.95
G1 X13.4799 Y9.9614
G1 X13.5029 Y9.9714
G1 X13.5266 Y9.9799
G1 X13.5507 Y9.9869
G1 X13.5752 Y9.9924
G1 X13.5999 Y9.9963
G1 X13.6249 Y9.9987
G1 X13.65 Y9.9995
G1 X13.6751 Y9.9987
G1 X13.7001 Y9.9963
G1 X13.7248 Y9.9924
G1 X13.7493 Y9.9869
G1 X13.7734 Y9.9799
G1 X13.797 Y9.9714
G1 X13.8201 Y9.9614
G1 X13.8424 Y9.95
G1 X13.864 Y9.9373
G1 X13.8848 Y9.9232
G1 X13.9046 Y9.9078
G1 X13.9234 Y9.8912
G1 X13.9412 Y9.8734
G1 X13.9578 Y9.8546
G1 X13.9732 Y9.8348
G1 X13.9873 Y9.814
G1 X14.0 Y9.7924
G1 X14.0114 Y9.7701
G1 X14.0214 Y9.7471
G1 X14.0299 Y9.7234
G1 X14.0369 Y9.6993
G1 X14.0424 Y9.6748
G1 X14.0463 Y9.6501
G1 X14.0487 Y9.6251
G1 X14.0495 Y9.6
G1 X14.0487 Y9.5749
G1 X14.0463 Y9.5499
G1 X14.0424 Y9.5251
G1 X14.0369 Y9.5007
G1 X14.0299 Y9.4766
G1 X14.0214 Y9.4529
G1 X14.0114 Y9.4299
G1 X14.0 Y9.4076
G1 X13.9873 Y9.386
G1 X13.9732 Y9.3652
G1 X13.9578 Y9.3454
G1 X13.9412 Y9.3266
G1 X13.9234 Y9.3088
G1 X13.9046 Y9.2922
G1 X13.8848 Y9.2768
G1 X13.864 Y9.2627
G1 X13.8424 Y9.25
G1 X13.8201 Y9.2386
G1 X13.7971 Y9.2286
G1 X13.7734 Y9.2201
G1 X13.7493 Y9.2131
G1 X13.7248 Y9.2076
G1 X13.7001 Y9.2037
G1 X13.6751 Y9.2013
G1 X13.65 Y9.2005
G1 X13.6249 Y9.2013
G1 X13.5999 Y9.2037
G1 X13.5752 Y9.2076
G1 X13.5507 Y9.2131
G1 X13.5266 Y9.2201
G1 X13.5029 Y9.2286
G1 X13.4799 Y9.2386
G1 X13.4576 Y9.25
G1 F100.0 Z-2.0
G1 F600.0 X13.436 Y9.2627
G1 X13.4152 Y9.2768
G1 X13.3954 Y9.2922
G1 X13.3765 Y9.3088
G1 X13.3588 Y9.3266
G1 X13.3422 Y9.3454
G1 X13.3268 Y9.3652
G1 X13.3127 Y9.386
G1 X13.3 Y9.4076
G1 X13.2886 Y9.4299
G1 X13.2786 Y9.4529
G1 X13.2701 Y9.4766
G1 X13.2631 Y9.5007
G1 X13.2576 Y9.5251
G1 X13.2537 Y9.5499
G1 X13.2513 Y9.5749
G1 X13.2505 Y9.6
G1 X13.2513 Y9.6251
G1 X13.2537 Y9.6501
G1 X13.2576 Y9.6748
G1 X13.2631 Y9.6993
G1 X13.2701 Y9.7234
G1 X13.2786 Y9.7471
G1 X13.2886 Y9.7701
G1 X13.3 Y9.7924
G1 X13.3127 Y9.814
G1 X13.3268 Y9.8348
G1 X13.3422 Y9.8546
G1 X13.3588 Y9.8734
G1 X13.3765 Y9.8912
G1 X13.3954 Y9.9078
G1 X13.4152 Y9.9232
G1 X13.436 Y9.9373
G1 X13.4576 Y9.95
G1 X13.4799 Y9.9614
G1 X13.5029 Y9.9714
G1 X13.5266 Y9.9799
G1 X13.5507 Y9.9869
G1 X13.5752 Y9.9924
G1 X13.5999 Y9.9963
G1 X13.6249 Y9.9987
G1 X13.65 Y9.9995
G1 X13.6751 Y9.9987
G1 X13.7001 Y9.9963
G1 X13.7248 Y9.9924
G1 X13.7493 Y9.9869
G1 X13.7734 Y9.9799
G1 X13.797 Y9.9714
G1 X13.8201 Y9.9614
G1 X13.8424 Y9.95
G1 X13.864 Y9.9373
G1 X13.8848 Y9.9232
G1 X13.9046 Y9.9078
G1 X13.9234 Y9.8912
G1 X13.9412 Y9.8734
G1 X13.9578 Y9.8546
G1 X13.9732 Y9.8348
G1 X13.9873 Y9.814
G1 X14.0 Y9.7924
G1 X14.0114 Y9.7701
G1 X14.0214 Y9.7471
G1 X14.0299 Y9.7234
G1 X14.0369 Y9.6993
G1 X14.0424 Y9.6748
G1 X14.0463 Y9.6501
G1 X14.0487 Y9.6251
G1 X14.0495 Y9.6
G1 X14.0487 Y9.5749
G1 X14.0463 Y9.5499
G1 X14.0424 Y9.5251
G1 X14.0369 Y9.5007
G1 X14.0299 Y9.4766
G1 X14.0214 Y9.4529
G1 X14.0114 Y9.4299
G1 X14.0 Y9.4076
G1 X13.9873 Y9.386
G1 X13.9732 Y9.3652
G1 X13.9578 Y9.3454
G1 X13.9412 Y9.3266
G1 X13.9234 Y9.3088
G1 X13.9046 Y9.2922
G1 X13.8848 Y9.2768
G1 X13.864 Y9.2627
G1 X13.8424 Y9.25
G1 X13.8201 Y9.2386
G1 X13.7971 Y9.2286
G1 X13.7734 Y9.2201
G1 X13.7493 Y9.2131
G1 X13.7248 Y9.2076
G1 X13.7001 Y9.2037
G1 X13.6751 Y9.2013
G1 X13.65 Y9.2005
G1 X13.6249 Y9.2013
G1 X13.5999 Y9.2037
G1 X13.5752 Y9.2076
G1 X13.5507 Y9.2131
G1 X13.5266 Y9.2201
G1 X13.5029 Y9.2286
G1 X13.4799 Y9.2386
G1 X13.4576 Y9.25
G1 F100.0 Z-2.4
G1 F600.0 X13.436 Y9.2627
G1 X13.4152 Y9.2768
G1 X13.3954 Y9.2922
G1 X13.3765 Y9.3088
G1 X13.3588 Y9.3266
G1 X13.3422 Y9.3454
G1 X13.3268 Y9.3652
G1 X13.3127 Y9.386
G1 X13.3 Y9.4076
G1 X13.2886 Y9.4299
G1 X13.2786 Y9.4529
G1 X13.2701 Y9.4766
G1 X13.2631 Y9.5007
G1 X13.2576 Y9.5251
G1 X13.2537 Y9.5499
G1 X13.2513 Y9.5749
G1 X13.2505 Y9.6
G1 X13.2513 Y9.6251
G1 X13.2537 Y9.6501
G1 X13.2576 Y9.6748
G1 X13.2631 Y9.6993
G1 X13.2701 Y9.7234
G1 X13.2786 Y9.7471
G1 X13.2886 Y9.7701
G1 X13.3 Y9.7924
G1 X13.3127 Y9.814
G1 X13.3268 Y9.8348
G1 X13.3422 Y9.8546
G1 X13.3588 Y9.8734
G1 X13.3765 Y9.8912
G1 X13.3954 Y9.9078
G1 X13.4152 Y9.9232
G1 X13.436 Y9.9373
G1 X13.4576 Y9.95
G1 X13.4799 Y9.9614
G1 X13.5029 Y9.9714
G1 X13.5266 Y9.9799
G1 X13.5507 Y9.9869
G1 X13.5752 Y9.9924
G1 X13.5999 Y9.9963
G1 X13.6249 Y9.9987
G1 X13.65 Y9.9995
G1 X13.6751 Y9.9987
G1 X13.7001 Y9.9963
G1 X13.7248 Y9.9924
G1 X13.7493 Y9.9869
G1 X13.7734 Y9.9799
G1 X13.797 Y9.9714
G1 X13.8201 Y9.9614
G1 X13.8424 Y9.95
G1 X13.864 Y9.9373
G1 X13.8848 Y9.9232
G1 X13.9046 Y9.9078
G1 X13.9234 Y9.8912
G1 X13.9412 Y9.8734
G1 X13.9578 Y9.8546
G1 X13.9732 Y9.8348
G1 X13.9873 Y9.814
G1 X14.0 Y9.7924
G1 X14.0114 Y9.7701
G1 X14.0214 Y9.7471
G1 X14.0299 Y9.7234
G1 X14.0369 Y9.6993
G1 X14.0424 Y9.6748
G1 X14.0463 Y9.6501
G1 X14.0487 Y9.6251
G1 X14.0495 Y9.6
G1 X14.0487 Y9.5749
G1 X14.0463 Y9.5499
G1 X14.0424 Y9.5251
G1 X14.0369 Y9.5007
G1 X14.0299 Y9.4766
G1 X14.0214 Y9.4529
G1 X14.0114 Y9.4299
G1 X14.0 Y9.4076
G1 X13.9873 Y9.386
G1 X13.9732 Y9.3652
G1 X13.9578 Y9.3454
G1 X13.9412 Y9.3266
G1 X13.9234 Y9.3088
G1 X13.9046 Y9.2922
G1 X13.8848 Y9.2768
G1 X13.864 Y9.2627
G1 X13.8424 Y9.25
G1 X13.8201 Y9.2386
G1 X13.7971 Y9.2286
G1 X13.7734 Y9.2201
G1 X13.7493 Y9.2131
G1 X13.7248 Y9.2076
G1 X13.7001 Y9.2037
G1 X13.6751 Y9.2013
G1 X13.65 Y9.2005
G1 X13.6249 Y9.2013
G1 X13.5999 Y9.2037
G1 X13.5752 Y9.2076
G1 X13.5507 Y9.2131
G1 X13.5266 Y9.2201
G1 X13.5029 Y9.2286
G1 X13.4799 Y9.2386
G1 X13.4576 Y9.25
G1 F100.0 Z-2.8
G1 F600.0 X13.436 Y9.2627
G1 X13.4152 Y9.2768
G1 X13.3954 Y9.2922
G1 X13.3765 Y9.3088
G1 X13.3588 Y9.3266
G1 X13.3422 Y9.3454
G1 X13.3268 Y9.3652
G1 X13.3127 Y9.386
G1 X13.3 Y9.4076
G1 X13.2886 Y9.4299
G1 X13.2786 Y9.4529
G1 X13.2701 Y9.4766
G1 X13.2631 Y9.5007
G1 X13.2576 Y9.5251
G1 X13.2537 Y9.5499
G1 X13.2513 Y9.5749
G1 X13.2505 Y9.6
G1 X13.2513 Y9.6251
G1 X13.2537 Y9.6501
G1 X13.2576 Y9.6748
G1 X13.2631 Y9.6993
G1 X13.2701 Y9.7234
G1 X13.2786 Y9.7471
G1 X13.2886 Y9.7701
G1 X13.3 Y9.7924
G1 X13.3127 Y9.814
G1 X13.3268 Y9.8348
G1 X13.3422 Y9.8546
G1 X13.3588 Y9.8734
G1 X13.3765 Y9.8912
G1 X13.3954 Y9.9078
G1 X13.4152 Y9.9232
G1 X13.436 Y9.9373
G1 X13.4576 Y9.95
G1 X13.4799 Y9.9614
G1 X13.5029 Y9.9714
G1 X13.5266 Y9.9799
G1 X13.5507 Y9.9869
G1 X13.5752 Y9.9924
G1 X13.5999 Y9.9963
G1 X13.6249 Y9.9987
G1 X13.65 Y9.9995
G1 X13.6751 Y9.9987
G1 X13.7001 Y9.9963
G1 X13.7248 Y9.9924
G1 X13.7493 Y9.9869
G1 X13.7734 Y9.9799
G1 X13.797 Y9.9714
G1 X13.8201 Y9.9614
G1 X13.8424 Y9.95
G1 X13.864 Y9.9373
G1 X13.8848 Y9.9232
G1 X13.9046 Y9.9078
G1 X13.9234 Y9.8912
G1 X13.9412 Y9.8734
G1 X13.9578 Y9.8546
G1 X13.9732 Y9.8348
G1 X13.9873 Y9.814
G1 X14.0 Y9.7924
G1 X14.0114 Y9.7701
G1 X14.0214 Y9.7471
G1 X14.0299 Y9.7234
G1 X14.0369 Y9.6993
G1 X14.0424 Y9.6748
G1 X14.0463 Y9.6501
G1 X14.0487 Y9.6251
G1 X14.0495 Y9.6
G1 X14.0487 Y9.5749
G1 X14.0463 Y9.5499
G1 X14.0424 Y9.5251
G1 X14.0369 Y9.5007
G1 X14.0299 Y9.4766
G1 X14.0214 Y9.4529
G1 X14.0114 Y9.4299
G1 X14.0 Y9.4076
G1 X13.9873 Y9.386
G1 X13.9732 Y9.3652
G1 X13.9578 Y9.3454
G1 X13.9412 Y9.3266
G1 X13.9234 Y9.3088
G1 X13.9046 Y9.2922
G1 X13.8848 Y9.2768
G1 X13.864 Y9.2627
G1 X13.8424 Y9.25
G1 X13.8201 Y9.2386
G1 X13.7971 Y9.2286
G1 X13.7734 Y9.2201
G1 X13.7493 Y9.2131
G1 X13.7248 Y9.2076
G1 X13.7001 Y9.2037
G1 X13.6751 Y9.2013
G1 X13.65 Y9.2005
G1 X13.6249 Y9.2013
G1 X13.5999 Y9.2037
G1 X13.5752 Y9.2076
G1 X13.5507 Y9.2131
G1 X13.5266 Y9.2201
G1 X13.5029 Y9.2286
G1 X13.4799 Y9.2386
G1 X13.4576 Y9.25
G1 F100.0 Z-3.2
G1 F600.0 X13.436 Y9.2627
G1 X13.4152 Y9.2768
G1 X13.3954 Y9.2922
G1 X13.3765 Y9.3088
G1 X13.3588 Y9.3266
G1 X13.3422 Y9.3454
G1 X13.3268 Y9.3652
G1 X13.3127 Y9.386
G1 X13.3 Y9.4076
G1 X13.2886 Y9.4299
G1 X13.2786 Y9.4529
G1 X13.2701 Y9.4766
G1 X13.2631 Y9.5007
G1 X13.2576 Y9.5251
G1 X13.2537 Y9.5499
G1 X13.2513 Y9.5749
G1 X13.2505 Y9.6
G1 X13.2513 Y9.6251
G1 X13.2537 Y9.6501
G1 X13.2576 Y9.6748
G1 X13.2631 Y9.6993
G1 X13.2701 Y9.7234
G1 X13.2786 Y9.7471
G1 X13.2886 Y9.7701
G1 X13.3 Y9.7924
G1 X13.3127 Y9.814
G1 X13.3268 Y9.8348
G1 X13.3422 Y9.8546
G1 X13.3588 Y9.8734
G1 X13.3765 Y9.8912
G1 X13.3954 Y9.9078
G1 X13.4152 Y9.9232
G1 X13.436 Y9.9373
G1 X13.4576 Y9.95
G1 X13.4799 Y9.9614
G1 X13.5029 Y9.9714
G1 X13.5266 Y9.9799
G1 X13.5507 Y9.9869
G1 X13.5752 Y9.9924
G1 X13.5999 Y9.9963
G1 X13.6249 Y9.9987
G1 X13.65 Y9.9995
G1 X13.6751 Y9.9987
G1 X13.7001 Y9.9963
G1 X13.7248 Y9.9924
G1 X13.7493 Y9.9869
G1 X13.7734 Y9.9799
G1 X13.797 Y9.9714
G1 X13.8201 Y9.9614
G1 X13.8424 Y9.95
G1 X13.864 Y9.9373
G1 X13.8848 Y9.9232
G1 X13.9046 Y9.9078
G1 X13.9234 Y9.8912
G1 X13.9412 Y9.8734
G1 X13.9578 Y9.8546
G1 X13.9732 Y9.8348
G1 X13.9873 Y9.814
G1 X14.0 Y9.7924
G1 X14.0114 Y9.7701
G1 X14.0214 Y9.7471
G1 X14.0299 Y9.7234
G1 X14.0369 Y9.6993
G1 X14.0424 Y9.6748
G1 X14.0463 Y9.6501
G1 X14.0487 Y9.6251
G1 X14.0495 Y9.6
G1 X14.0487 Y9.5749
G1 X14.0463 Y9.5499
G1 X14.0424 Y9.5251
G1 X14.0369 Y9.5007
G1 X14.0299 Y9.4766
G1 X14.0214 Y9.4529
G1 X14.0114 Y9.4299
G1 X14.0 Y9.4076
G1 X13.9873 Y9.386
G1 X13.9732 Y9.3652
G1 X13.9578 Y9.3454
G1 X13.9412 Y9.3266
G1 X13.9234 Y9.3088
G1 X13.9046 Y9.2922
G1 X13.8848 Y9.2768
G1 X13.864 Y9.2627
G1 X13.8424 Y9.25
G1 X13.8201 Y9.2386
G1 X13.7971 Y9.2286
G1 X13.7734 Y9.2201
G1 X13.7493 Y9.2131
G1 X13.7248 Y9.2076
G1 X13.7001 Y9.2037
G1 X13.6751 Y9.2013
G1 X13.65 Y9.2005
G1 X13.6249 Y9.2013
G1 X13.5999 Y9.2037
G1 X13.5752 Y9.2076
G1 X13.5507 Y9.2131
G1 X13.5266 Y9.2201
G1 X13.5029 Y9.2286
G1 X13.4799 Y9.2386
G1 X13.4576 Y9.25
G1 F100.0 Z-3.6
G1 F600.0 X13.436 Y9.2627
G1 X13.4152 Y9.2768
G1 X13.3954 Y9.2922
G1 X13.3765 Y9.3088
G1 X13.3588 Y9.3266
G1 X13.3422 Y9.3454
G1 X13.3268 Y9.3652
G1 X13.3127 Y9.386
G1 X13.3 Y9.4076
G1 X13.2886 Y9.4299
G1 X13.2786 Y9.4529
G1 X13.2701 Y9.4766
G1 X13.2631 Y9.5007
G1 X13.2576 Y9.5251
G1 X13.2537 Y9.5499
G1 X13.2513 Y9.5749
G1 X13.2505 Y9.6
G1 X13.2513 Y9.6251
G1 X13.2537 Y9.6501
G1 X13.2576 Y9.6748
G1 X13.2631 Y9.6993
G1 X13.2701 Y9.7234
G1 X13.2786 Y9.7471
G1 X13.2886 Y9.7701
G1 X13.3 Y9.7924
G1 X13.3127 Y9.814
G1 X13.3268 Y9.8348
G1 X13.3422 Y9.8546
G1 X13.3588 Y9.8734
G1 X13.3765 Y9.8912
G1 X13.3954 Y9.9078
G1 X13.4152 Y9.9232
G1 X13.436 Y9.9373
G1 X13.4576 Y9.95
G1 X13.4799 Y9.9614
G1 X13.5029 Y9.9714
G1 X13.5266 Y9.9799
G1 X13.5507 Y9.9869
G1 X13.5752 Y9.9924
G1 X13.5999 Y9.9963
G1 X13.6249 Y9.9987
G1 X13.65 Y9.9995
G1 X13.6751 Y9.9987
G1 X13.7001 Y9.9963
G1 X13.7248 Y9.9924
G1 X13.7493 Y9.9869
G1 X13.7734 Y9.9799
G1 X13.797 Y9.9714
G1 X13.8201 Y9.9614
G1 X13.8424 Y9.95
G1 X13.864 Y9.9373
G1 X13.8848 Y9.9232
G1 X13.9046 Y9.9078
G1 X13.9234 Y9.8912
G1 X13.9412 Y9.8734
G1 X13.9578 Y9.8546
G1 X13.9732 Y9.8348
G1 X13.9873 Y9.814
G1 X14.0 Y9.7924
G1 X14.0114 Y9.7701
G1 X14.0214 Y9.7471
G1 X14.0299 Y9.7234
G1 X14.0369 Y9.6993
G1 X14.0424 Y9.6748
G1 X14.0463 Y9.6501
G1 X14.0487 Y9.6251
G1 X14.0495 Y9.6
G1 X14.0487 Y9.5749
G1 X14.0463 Y9.5499
G1 X14.0424 Y9.5251
G1 X14.0369 Y9.5007
G1 X14.0299 Y9.4766
G1 X14.0214 Y9.4529
G1 X14.0114 Y9.4299
G1 X14.0 Y9.4076
G1 X13.9873 Y9.386
G1 X13.9732 Y9.3652
G1 X13.9578 Y9.3454
G1 X13.9412 Y9.3266
G1 X13.9234 Y9.3088
G1 X13.9046 Y9.2922
G1 X13.8848 Y9.2768
G1 X13.864 Y9.2627
G1 X13.8424 Y9.25
G1 X13.8201 Y9.2386
G1 X13.7971 Y9.2286
G1 X13.7734 Y9.2201
G1 X13.7493 Y9.2131
G1 X13.7248 Y9.2076
G1 X13.7001 Y9.2037
G1 X13.6751 Y9.2013
G1 X13.65 Y9.2005
G1 X13.6249 Y9.2013
G1 X13.5999 Y9.2037
G1 X13.5752 Y9.2076
G1 X13.5507 Y9.2131
G1 X13.5266 Y9.2201
G1 X13.5029 Y9.2286
G1 X13.4799 Y9.2386
G1 X13.4576 Y9.25
G1 F100.0 Z-3.9
G1 F600.0 X13.436 Y9.2627
G1 X13.4152 Y9.2768
G1 X13.3954 Y9.2922
G1 X13.3765 Y9.3088
G1 X13.3588 Y9.3266
G1 X13.3422 Y9.3454
G1 X13.3268 Y9.3652
G1 X13.3127 Y9.386
G1 X13.3 Y9.4076
G1 X13.2886 Y9.4299
G1 X13.2786 Y9.4529
G1 X13.2701 Y9.4766
G1 X13.2631 Y9.5007
G1 X13.2576 Y9.5251
G1 X13.2537 Y9.5499
G1 X13.2513 Y9.5749
G1 X13.2505 Y9.6
G1 X13.2513 Y9.6251
G1 X13.2537 Y9.6501
G1 X13.2576 Y9.6748
G1 X13.2631 Y9.6993
G1 X13.2701 Y9.7234
G1 X13.2786 Y9.7471
G1 X13.2886 Y9.7701
G1 X13.3 Y9.7924
G1 X13.3127 Y9.814
G1 X13.3268 Y9.8348
G1 X13.3422 Y9.8546
G1 X13.3588 Y9.8734
G1 X13.3765 Y9.8912
G1 X13.3954 Y9.9078
G1 X13.4152 Y9.9232
G1 X13.436 Y9.9373
G1 X13.4576 Y9.95
G1 X13.4799 Y9.9614
G1 X13.5029 Y9.9714
G1 X13.5266 Y9.9799
G1 X13.5507 Y9.9869
G1 X13.5752 Y9.9924
G1 X13.5999 Y9.9963
G1 X13.6249 Y9.9987
G1 X13.65 Y9.9995
G1 X13.6751 Y9.9987
G1 X13.7001 Y9.9963
G1 X13.7248 Y9.9924
G1 X13.7493 Y9.9869
G1 X13.7734 Y9.9799
G1 X13.797 Y9.9714
G1 X13.8201 Y9.9614
G1 X13.8424 Y9.95
G1 X13.864 Y9.9373
G1 X13.8848 Y9.9232
G1 X13.9046 Y9.9078
G1 X13.9234 Y9.8912
G1 X13.9412 Y9.8734
G1 X13.9578 Y9.8546
G1 X13.9732 Y9.8348
G1 X13.9873 Y9.814
G1 X14.0 Y9.7924
G1 X14.0114 Y9.7701
G1 X14.0214 Y9.7471
G1 X14.0299 Y9.7234
G1 X14.0369 Y9.6993
G1 X14.0424 Y9.6748
G1 X14.0463 Y9.6501
G1 X14.0487 Y9.6251
G1 X14.0495 Y9.6
G1 X14.0487 Y9.5749
G1 X14.0463 Y9.5499
G1 X14.0424 Y9.5251
G1 X14.0369 Y9.5007
G1 X14.0299 Y9.4766
G1 X14.0214 Y9.4529
G1 X14.0114 Y9.4299
G1 X14.0 Y9.4076
G1 X13.9873 Y9.386
G1 X13.9732 Y9.3652
G1 X13.9578 Y9.3454
G1 X13.9412 Y9.3266
G1 X13.9234 Y9.3088
G1 X13.9046 Y9.2922
G1 X13.8848 Y9.2768
G1 X13.864 Y9.2627
G1 X13.8424 Y9.25
G1 X13.8201 Y9.2386
G1 X13.7971 Y9.2286
G1 X13.7734 Y9.2201
G1 X13.7493 Y9.2131
G1 X13.7248 Y9.2076
G1 X13.7001 Y9.2037
G1 X13.6751 Y9.2013
G1 X13.65 Y9.2005
G1 X13.6249 Y9.2013
G1 X13.5999 Y9.2037
G1 X13.5752 Y9.2076
G1 X13.5507 Y9.2131
G1 X13.5266 Y9.2201
G1 X13.5029 Y9.2286
G1 X13.4799 Y9.2386
G1 X13.4576 Y9.25
G1 F100.0 Z-4.2
G1 F600.0 X13.436 Y9.2627
G1 X13.4152 Y9.2768
G1 X13.3954 Y9.2922
G1 X13.3765 Y9.3088
G1 X13.3588 Y9.3266
G1 X13.3422 Y9.3454
G1 X13.3268 Y9.3652
G1 X13.3127 Y9.386
G1 X13.3 Y9.4076
G1 X13.2886 Y9.4299
G1 X13.2786 Y9.4529
G1 X13.2701 Y9.4766
G1 X13.2631 Y9.5007
G1 X13.2576 Y9.5251
G1 X13.2537 Y9.5499
G1 X13.2513 Y9.5749
G1 X13.2505 Y9.6
G1 X13.2513 Y9.6251
G1 X13.2537 Y9.6501
G1 X13.2576 Y9.6748
G1 X13.2631 Y9.6993
G1 X13.2701 Y9.7234
G1 X13.2786 Y9.7471
G1 X13.2886 Y9.7701
G1 X13.3 Y9.7924
G1 X13.3127 Y9.814
G1 X13.3268 Y9.8348
G1 X13.3422 Y9.8546
G1 X13.3588 Y9.8734
G1 X13.3765 Y9.8912
G1 X13.3954 Y9.9078
G1 X13.4152 Y9.9232
G1 X13.436 Y9.9373
G1 X13.4576 Y9.95
G1 X13.4799 Y9.9614
G1 X13.5029 Y9.9714
G1 X13.5266 Y9.9799
G1 X13.5507 Y9.9869
G1 X13.5752 Y9.9924
G1 X13.5999 Y9.9963
G1 X13.6249 Y9.9987
G1 X13.65 Y9.9995
G1 X13.6751 Y9.9987
G1 X13.7001 Y9.9963
G1 X13.7248 Y9.9924
G1 X13.7493 Y9.9869
G1 X13.7734 Y9.9799
G1 X13.797 Y9.9714
G1 X13.8201 Y9.9614
G1 X13.8424 Y9.95
G1 X13.864 Y9.9373
G1 X13.8848 Y9.9232
G1 X13.9046 Y9.9078
G1 X13.9234 Y9.8912
G1 X13.9412 Y9.8734
G1 X13.9578 Y9.8546
G1 X13.9732 Y9.8348
G1 X13.9873 Y9.814
G1 X14.0 Y9.7924
G1 X14.0114 Y9.7701
G1 X14.0214 Y9.7471
G1 X14.0299 Y9.7234
G1 X14.0369 Y9.6993
G1 X14.0424 Y9.6748
G1 X14.0463 Y9.6501
G1 X14.0487 Y9.6251
G1 X14.0495 Y9.6
G1 X14.0487 Y9.5749
G1 X14.0463 Y9.5499
G1 X14.0424 Y9.5251
G1 X14.0369 Y9.5007
G1 X14.0299 Y9.4766
G1 X14.0214 Y9.4529
G1 X14.0114 Y9.4299
G1 X14.0 Y9.4076
G1 X13.9873 Y9.386
G1 X13.9732 Y9.3652
G1 X13.9578 Y9.3454
G1 X13.9412 Y9.3266
G1 X13.9234 Y9.3088
G1 X13.9046 Y9.2922
G1 X13.8848 Y9.2768
G1 X13.864 Y9.2627
G1 X13.8424 Y9.25
G1 X13.8201 Y9.2386
G1 X13.7971 Y9.2286
G1 X13.7734 Y9.2201
G1 X13.7493 Y9.2131
G1 X13.7248 Y9.2076
G1 X13.7001 Y9.2037
G1 X13.6751 Y9.2013
G1 X13.65 Y9.2005
G1 X13.6249 Y9.2013
G1 X13.5999 Y9.2037
G1 X13.5752 Y9.2076
G1 X13.5507 Y9.2131
G1 X13.5266 Y9.2201
G1 X13.5029 Y9.2286
G1 X13.4799 Y9.2386
G1 X13.4576 Y9.25
G0 Z3.0
G0 X19.0954 Y16.0922
G0 Z1.0
G1 F100.0 Z-0.4
G1 F600.0 X19.0766 Y16.1088
G1 X19.0588 Y16.1266
G1 X19.0422 Y16.1454
G1 X19.0268 Y16.1652
G1 X19.0127 Y16.186
G1 X19.0 Y16.2076
G1 X18.9886 Y16.2299
G1 X18.9786 Y16.2529
G1 X18.9701 Y16.2766
G1 X18.9631 Y16.3007
G1 X18.9576 Y16.3252
G1 X18.9537 Y16.3499
G1 X18.9513 Y16.3749
G1 X18.9505 Y16.4
G1 X18.9513 Y16.4251
G1 X18.9537 Y16.4501
G1 X18.9576 Y16.4749
G1 X18.9631 Y16.4993
G1 X18.9701 Y16.5234
G1 X18.9786 Y16.5471
G1 X18.9886 Y16.5701
G1 X19.0 Y16.5924
G1 X19.0127 Y16.614
G1 X19.0268 Y16.6348
G1 X19.0422 Y16.6546
G1 X19.0588 Y16.6734
G1 X19.0766 Y16.6912
G1 X19.0954 Y16.7078
G1 X19.1152 Y16.7232
G1 X19.136 Y16.7373
G1 X19.1576 Y16.75
G1 X19.1799 Y16.7614
G1 X19.2029 Y16.7714
G1 X19.2266 Y16.7799
G1 X19.2507 Y16.7869
G1 X19.2752 Y16.7924
G1 X19.2999 Y16.7963
G1 X19.3249 Y16.7987
G1 X19.35 Y16.7995
G1 X19.3751 Y16.7987
G1 X19.4001 Y16.7963
G1 X19.4249 Y16.7924
G1 X19.4493 Y16.7869
G1 X19.4734 Y16.7799
G1 X19.4971 Y16.7714
G1 X19.5201 Y16.7614
G1 X19.5424 Y16.75
G1 X19.564 Y16.7373
G1 X19.5848 Y16.7232
G1 X19.6046 Y16.7078
G1 X19.6234 Y16.6912
G1 X19.6412 Y16.6734
G1 X19.6578 Y16.6546
G1 X19.6732 Y16.6348
G1 X19.6873 Y16.614
G1 X19.7 Y16.5924
G1 X19.7114 Y16.5701
G1 X19.7214 Y16.547
G1 X19.7299 Y16.5234
G1 X19.7369 Y16.4993
G1 X19.7424 Y16.4749
G1 X19.7463 Y16.4501
G1 X19.7487 Y16.4251
G1 X19.7495 Y16.4
G1 X19.7487 Y16.3749
G1 X19.7463 Y16.3499
G1 X19.7424 Y16.3252
G1 X19.7369 Y16.3007
G1 X19.7299 Y16.2766
G1 X19.7214 Y16.253
G1 X19.7114 Y16.2299
G1 X19.7 Y16.2076
G1 X19.6873 Y16.186
G1 X19.6732 Y16.1652
G1 X19.6578 Y16.1454
G1 X19.6412 Y16.1266
G1 X19.6234 Y16.1088
G1 X19.6046 Y16.0922
G1 X19.5848 Y16.0768
G1 X19.564 Y16.0627
G1 X19.5424 Y16.05
G1 X19.5201 Y16.0386
G1 X19.497 Y16.0286
G1 X19.4734 Y16.0201
G1 X19.4493 Y16.0131
G1 X19.4249 Y16.0076
G1 X19.4001 Y16.0037
G1 X19.3751 Y16.0013
G1 X19.35 Y16.0005
G1 X19.3249 Y16.0013
G1 X19.2999 Y16.0037
G1 X19.2752 Y16.0076
G1 X19.2507 Y16.0131
G1 X19.2266 Y16.0201
G1 X19.203 Y16.0286
G1 X19.1799 Y16.0386
G1 X19.1576 Y16.05
G1 X19.136 Y16.0627
G1 X19.1152 Y16.0768
G1 X19.0954 Y16.0922
G1 F100.0 Z-0.8
G1 F600.0 X19.0766 Y16.1088
G1 X19.0588 Y16.1266
G1 X19.0422 Y16.1454
G1 X19.0268 Y16.1652
G1 X19.0127 Y16.186
G1 X19.0 Y16.2076
G1 X18.9886 Y16.2299
G1 X18.9786 Y16.2529
G1 X18.9701 Y16.2766
G1 X18.9631 Y16.3007
G1 X18.9576 Y16.3252
G1 X18.9537 Y16.3499
G1 X18.9513 Y16.3749
G1 X18.9505 Y16.4
G1 X18.9513 Y16.4251
G1 X18.9537 Y16.4501
G1 X18.9576 Y16.4749
G1 X18.9631 Y16.4993
G1 X18.9701 Y16.5234
G1 X18.9786 Y16.5471
G1 X18.9886 Y16.5701
G1 X19.0 Y16.5924
G1 X19.0127 Y16.614
G1 X19.0268 Y16.6348
G1 X19.0422 Y16.6546
G1 X19.0588 Y16.6734
G1 X19.0766 Y16.6912
G1 X19.0954 Y16.7078
G1 X19.1152 Y16.7232
G1 X19.136 Y16.7373
G1 X19.1576 Y16.75
G1 X19.1799 Y16.7614
G1 X19.2029 Y16.7714
G1 X19.2266 Y16.7799
G1 X19.2507 Y16.7869
G1 X19.2752 Y16.7924
G1 X19.2999 Y16.7963
G1 X19.3249 Y16.7987
G1 X19.35 Y16.7995
G1 X19.3751 Y16.7987
G1 X19.4001 Y16.7963
G1 X19.4249 Y16.7924
G1 X19.4493 Y16.7869
G1 X19.4734 Y16.7799
G1 X19.4971 Y16.7714
G1 X19.5201 Y16.7614
G1 X19.5424 Y16.75
G1 X19.564 Y16.7373
G1 X19.5848 Y16.7232
G1 X19.6046 Y16.7078
G1 X19.6234 Y16.6912
G1 X19.6412 Y16.6734
G1 X19.6578 Y16.6546
G1 X19.6732 Y16.6348
G1 X19.6873 Y16.614
G1 X19.7 Y16.5924
G1 X19.7114 Y16.5701
G1 X19.7214 Y16.547
G1 X19.7299 Y16.5234
G1 X19.7369 Y16.4993
G1 X19.7424 Y16.4749
G1 X19.7463 Y16.4501
G1 X19.7487 Y16.4251
G1 X19.7495 Y16.4
G1 X19.7487 Y16.3749
G1 X19.7463 Y16.3499
G1 X19.7424 Y16.3252
G1 X19.7369 Y16.3007
G1 X19.7299 Y16.2766
G1 X19.7214 Y16.253
G1 X19.7114 Y16.2299
G1 X19.7 Y16.2076
G1 X19.6873 Y16.186
G1 X19.6732 Y16.1652
G1 X19.6578 Y16.1454
G1 X19.6412 Y16.1266
G1 X19.6234 Y16.1088
G1 X19.6046 Y16.0922
G1 X19.5848 Y16.0768
G1 X19.564 Y16.0627
G1 X19.5424 Y16.05
G1 X19.5201 Y16.0386
G1 X19.497 Y16.0286
G1 X19.4734 Y16.0201
G1 X19.4493 Y16.0131
G1 X19.4249 Y16.0076
G1 X19.4001 Y16.0037
G1 X19.3751 Y16.0013
G1 X19.35 Y16.0005
G1 X19.3249 Y16.0013
G1 X19.2999 Y16.0037
G1 X19.2752 Y16.0076
G1 X19.2507 Y16.0131
G1 X19.2266 Y16.0201
G1 X19.203 Y16.0286
G1 X19.1799 Y16.0386
G1 X19.1576 Y16.05
G1 X19.136 Y16.0627
G1 X19.1152 Y16.0768
G1 X19.0954 Y16.0922
G1 F100.0 Z-1.2
G1 F600.0 X19.0766 Y16.1088
G1 X19.0588 Y16.1266
G1 X19.0422 Y16.1454
G1 X19.0268 Y16.1652
G1 X19.0127 Y16.186
G1 X19.0 Y16.2076
G1 X18.9886 Y16.2299
G1 X18.9786 Y16.2529
G1 X18.9701 Y16.2766
G1 X18.9631 Y16.3007
G1 X18.9576 Y16.3252
G1 X18.9537 Y16.3499
G1 X18.9513 Y16.3749
G1 X18.9505 Y16.4
G1 X18.9513 Y16.4251
G1 X18.9537 Y16.4501
G1 X18.9576 Y16.4749
G1 X18.9631 Y16.4993
G1 X18.9701 Y16.5234
G1 X18.9786 Y16.5471
G1 X18.9886 Y16.5701
G1 X19.0 Y16.5924
G1 X19.0127 Y16.614
G1 X19.0268 Y16.6348
G1 X19.0422 Y16.6546
G1 X19.0588 Y16.6734
G1 X19.0766 Y16.6912
G1 X19.0954 Y16.7078
G1 X19.1152 Y16.7232
G1 X19.136 Y16.7373
G1 X19.1576 Y16.75
G1 X19.1799 Y16.7614
G1 X19.2029 Y16.7714
G1 X19.2266 Y16.7799
G1 X19.2507 Y16.7869
G1 X19.2752 Y16.7924
G1 X19.2999 Y16.7963
G1 X19.3249 Y16.7987
G1 X19.35 Y16.7995
G1 X19.3751 Y16.7987
G1 X19.4001 Y16.7963
G1 X19.4249 Y16.7924
G1 X19.4493 Y16.7869
G1 X19.4734 Y16.7799
G1 X19.4971 Y16.7714
G1 X19.5201 Y16.7614
G1 X19.5424 Y16.75
G1 X19.564 Y16.7373
G1 X19.5848 Y16.7232
G1 X19.6046 Y16.7078
G1 X19.6234 Y16.6912
G1 X19.6412 Y16.6734
G1 X19.6578 Y16.6546
G1 X19.6732 Y16.6348
G1 X19.6873 Y16.614
G1 X19.7 Y16.5924
G1 X19.7114 Y16.5701
G1 X19.7214 Y16.547
G1 X19.7299 Y16.5234
G1 X19.7369 Y16.4993
G1 X19.7424 Y16.4749
G1 X19.7463 Y16.4501
G1 X19.7487 Y16.4251
G1 X19.7495 Y16.4
G1 X19.7487 Y16.3749
G1 X19.7463 Y16.3499
G1 X19.7424 Y16.3252
G1 X19.7369 Y16.3007
G1 X19.7299 Y16.2766
G1 X19.7214 Y16.253
G1 X19.7114 Y16.2299
G1 X19.7 Y16.2076
G1 X19.6873 Y16.186
G1 X19.6732 Y16.1652
G1 X19.6578 Y16.1454
G1 X19.6412 Y16.1266
G1 X19.6234 Y16.1088
G1 X19.6046 Y16.0922
G1 X19.5848 Y16.0768
G1 X19.564 Y16.0627
G1 X19.5424 Y16.05
G1 X19.5201 Y16.0386
G1 X19.497 Y16.0286
G1 X19.4734 Y16.0201
G1 X19.4493 Y16.0131
G1 X19.4249 Y16.0076
G1 X19.4001 Y16.0037
G1 X19.3751 Y16.0013
G1 X19.35 Y16.0005
G1 X19.3249 Y16.0013
G1 X19.2999 Y16.0037
G1 X19.2752 Y16.0076
G1 X19.2507 Y16.0131
G1 X19.2266 Y16.0201
G1 X19.203 Y16.0286
G1 X19.1799 Y16.0386
G1 X19.1576 Y16.05
G1 X19.136 Y16.0627
G1 X19.1152 Y16.0768
G1 X19.0954 Y16.0922
G1 F100.0 Z-1.6
G1 F600.0 X19.0766 Y16.1088
G1 X19.0588 Y16.1266
G1 X19.0422 Y16.1454
G1 X19.0268 Y16.1652
G1 X19.0127 Y16.186
G1 X19.0 Y16.2076
G1 X18.9886 Y16.2299
G1 X18.9786 Y16.2529
G1 X18.9701 Y16.2766
G1 X18.9631 Y16.3007
G1 X18.9576 Y16.3252
G1 X18.9537 Y16.3499
G1 X18.9513 Y16.3749
G1 X18.9505 Y16.4
G1 X18.9513 Y16.4251
G1 X18.9537 Y16.4501
G1 X18.9576 Y16.4749
G1 X18.9631 Y16.4993
G1 X18.9701 Y16.5234
G1 X18.9786 Y16.5471
G1 X18.9886 Y16.5701
G1 X19.0 Y16.5924
G1 X19.0127 Y16.614
G1 X19.0268 Y16.6348
G1 X19.0422 Y16.6546
G1 X19.0588 Y16.6734
G1 X19.0766 Y16.6912
G1 X19.0954 Y16.7078
G1 X19.1152 Y16.7232
G1 X19.136 Y16.7373
G1 X19.1576 Y16.75
G1 X19.1799 Y16.7614
G1 X19.2029 Y16.7714
G1 X19.2266 Y16.7799
G1 X19.2507 Y16.7869
G1 X19.2752 Y16.7924
G1 X19.2999 Y16.7963
G1 X19.3249 Y16.7987
G1 X19.35 Y16.7995
G1 X19.3751 Y16.7987
G1 X19.4001 Y16.7963
G1 X19.4249 Y16.7924
G1 X19.4493 Y16.7869
G1 X19.4734 Y16.7799
G1 X19.4971 Y16.7714
G1 X19.5201 Y16.7614
G1 X19.5424 Y16.75
G1 X19.564 Y16.7373
G1 X19.5848 Y16.7232
G1 X19.6046 Y16.7078
G1 X19.6234 Y16.6912
G1 X19.6412 Y16.6734
G1 X19.6578 Y16.6546
G1 X19.6732 Y16.6348
G1 X19.6873 Y16.614
G1 X19.7 Y16.5924
G1 X19.7114 Y16.5701
G1 X19.7214 Y16.547
G1 X19.7299 Y16.5234
G1 X19.7369 Y16.4993
G1 X19.7424 Y16.4749
G1 X19.7463 Y16.4501
G1 X19.7487 Y16.4251
G1 X19.7495 Y16.4
G1 X19.7487 Y16.3749
G1 X19.7463 Y16.3499
G1 X19.7424 Y16.3252
G1 X19.7369 Y16.3007
G1 X19.7299 Y16.2766
G1 X19.7214 Y16.253
G1 X19.7114 Y16.2299
G1 X19.7 Y16.2076
G1 X19.6873 Y16.186
G1 X19.6732 Y16.1652
G1 X19.6578 Y16.1454
G1 X19.6412 Y16.1266
G1 X19.6234 Y16.1088
G1 X19.6046 Y16.0922
G1 X19.5848 Y16.0768
G1 X19.564 Y16.0627
G1 X19.5424 Y16.05
G1 X19.5201 Y16.0386
G1 X19.497 Y16.0286
G1 X19.4734 Y16.0201
G1 X19.4493 Y16.0131
G1 X19.4249 Y16.0076
G1 X19.4001 Y16.0037
G1 X19.3751 Y16.0013
G1 X19.35 Y16.0005
G1 X19.3249 Y16.0013
G1 X19.2999 Y16.0037
G1 X19.2752 Y16.0076
G1 X19.2507 Y16.0131
G1 X19.2266 Y16.0201
G1 X19.203 Y16.0286
G1 X19.1799 Y16.0386
G1 X19.1576 Y16.05
G1 X19.136 Y16.0627
G1 X19.1152 Y16.0768
G1 X19.0954 Y16.0922
G1 F100.0 Z-2.0
G1 F600.0 X19.0766 Y16.1088
G1 X19.0588 Y16.1266
G1 X19.0422 Y16.1454
G1 X19.0268 Y16.1652
G1 X19.0127 Y16.186
G1 X19.0 Y16.2076
G1 X18.9886 Y16.2299
G1 X18.9786 Y16.2529
G1 X18.9701 Y16.2766
G1 X18.9631 Y16.3007
G1 X18.9576 Y16.3252
G1 X18.9537 Y16.3499
G1 X18.9513 Y16.3749
G1 X18.9505 Y16.4
G1 X18.9513 Y16.4251
G1 X18.9537 Y16.4501
G1 X18.9576 Y16.4749
G1 X18.9631 Y16.4993
G1 X18.9701 Y16.5234
G1 X18.9786 Y16.5471
G1 X18.9886 Y16.5701
G1 X19.0 Y16.5924
G1 X19.0127 Y16.614
G1 X19.0268 Y16.6348
G1 X19.0422 Y16.6546
G1 X19.0588 Y16.6734
G1 X19.0766 Y16.6912
G1 X19.0954 Y16.7078
G1 X19.1152 Y16.7232
G1 X19.136 Y16.7373
G1 X19.1576 Y16.75
G1 X19.1799 Y16.7614
G1 X19.2029 Y16.7714
G1 X19.2266 Y16.7799
G1 X19.2507 Y16.7869
G1 X19.2752 Y16.7924
G1 X19.2999 Y16.7963
G1 X19.3249 Y16.7987
G1 X19.35 Y16.7995
G1 X19.3751 Y16.7987
G1 X19.4001 Y16.7963
G1 X19.4249 Y16.7924
G1 X19.4493 Y16.7869
G1 X19.4734 Y16.7799
G1 X19.4971 Y16.7714
G1 X19.5201 Y16.7614
G1 X19.5424 Y16.75
G1 X19.564 Y16.7373
G1 X19.5848 Y16.7232
G1 X19.6046 Y16.7078
G1 X19.6234 Y16.6912
G1 X19.6412 Y16.6734
G1 X19.6578 Y16.6546
G1 X19.6732 Y16.6348
G1 X19.6873 Y16.614
G1 X19.7 Y16.5924
G1 X19.7114 Y16.5701
G1 X19.7214 Y16.547
G1 X19.7299 Y16.5234
G1 X19.7369 Y16.4993
G1 X19.7424 Y16.4749
G1 X19.7463 Y16.4501
G1 X19.7487 Y16.4251
G1 X19.7495 Y16.4
G1 X19.7487 Y16.3749
G1 X19.7463 Y16.3499
G1 X19.7424 Y16.3252
G1 X19.7369 Y16.3007
G1 X19.7299 Y16.2766
G1 X19.7214 Y16.253
G1 X19.7114 Y16.2299
G1 X19.7 Y16.2076
G1 X19.6873 Y16.186
G1 X19.6732 Y16.1652
G1 X19.6578 Y16.1454
G1 X19.6412 Y16.1266
G1 X19.6234 Y16.1088
G1 X19.6046 Y16.0922
G1 X19.5848 Y16.0768
G1 X19.564 Y16.0627
G1 X19.5424 Y16.05
G1 X19.5201 Y16.0386
G1 X19.497 Y16.0286
G1 X19.4734 Y16.0201
G1 X19.4493 Y16.0131
G1 X19.4249 Y16.0076
G1 X19.4001 Y16.0037
G1 X19.3751 Y16.0013
G1 X19.35 Y16.0005
G1 X19.3249 Y16.0013
G1 X19.2999 Y16.0037
G1 X19.2752 Y16.0076
G1 X19.2507 Y16.0131
G1 X19.2266 Y16.0201
G1 X19.203 Y16.0286
G1 X19.1799 Y16.0386
G1 X19.1576 Y16.05
G1 X19.136 Y16.0627
G1 X19.1152 Y16.0768
G1 X19.0954 Y16.0922
G1 F100.0 Z-2.4
G1 F600.0 X19.0766 Y16.1088
G1 X19.0588 Y16.1266
G1 X19.0422 Y16.1454
G1 X19.0268 Y16.1652
G1 X19.0127 Y16.186
G1 X19.0 Y16.2076
G1 X18.9886 Y16.2299
G1 X18.9786 Y16.2529
G1 X18.9701 Y16.2766
G1 X18.9631 Y16.3007
G1 X18.9576 Y16.3252
G1 X18.9537 Y16.3499
G1 X18.9513 Y16.3749
G1 X18.9505 Y16.4
G1 X18.9513 Y16.4251
G1 X18.9537 Y16.4501
G1 X18.9576 Y16.4749
G1 X18.9631 Y16.4993
G1 X18.9701 Y16.5234
G1 X18.9786 Y16.5471
G1 X18.9886 Y16.5701
G1 X19.0 Y16.5924
G1 X19.0127 Y16.614
G1 X19.0268 Y16.6348
G1 X19.0422 Y16.6546
G1 X19.0588 Y16.6734
G1 X19.0766 Y16.6912
G1 X19.0954 Y16.7078
G1 X19.1152 Y16.7232
G1 X19.136 Y16.7373
G1 X19.1576 Y16.75
G1 X19.1799 Y16.7614
G1 X19.2029 Y16.7714
G1 X19.2266 Y16.7799
G1 X19.2507 Y16.7869
G1 X19.2752 Y16.7924
G1 X19.2999 Y16.7963
G1 X19.3249 Y16.7987
G1 X19.35 Y16.7995
G1 X19.3751 Y16.7987
G1 X19.4001 Y16.7963
G1 X19.4249 Y16.7924
G1 X19.4493 Y16.7869
G1 X19.4734 Y16.7799
G1 X19.4971 Y16.7714
G1 X19.5201 Y16.7614
G1 X19.5424 Y16.75
G1 X19.564 Y16.7373
G1 X19.5848 Y16.7232
G1 X19.6046 Y16.7078
G1 X19.6234 Y16.6912
G1 X19.6412 Y16.6734
G1 X19.6578 Y16.6546
G1 X19.6732 Y16.6348
G1 X19.6873 Y16.614
G1 X19.7 Y16.5924
G1 X19.7114 Y16.5701
G1 X19.7214 Y16.547
G1 X19.7299 Y16.5234
G1 X19.7369 Y16.4993
G1 X19.7424 Y16.4749
G1 X19.7463 Y16.4501
G1 X19.7487 Y16.4251
G1 X19.7495 Y16.4
G1 X19.7487 Y16.3749
G1 X19.7463 Y16.3499
G1 X19.7424 Y16.3252
G1 X19.7369 Y16.3007
G1 X19.7299 Y16.2766
G1 X19.7214 Y16.253
G1 X19.7114 Y16.2299
G1 X19.7 Y16.2076
G1 X19.6873 Y16.186
G1 X19.6732 Y16.1652
G1 X19.6578 Y16.1454
G1 X19.6412 Y16.1266
G1 X19.6234 Y16.1088
G1 X19.6046 Y16.0922
G1 X19.5848 Y16.0768
G1 X19.564 Y16.0627
G1 X19.5424 Y16.05
G1 X19.5201 Y16.0386
G1 X19.497 Y16.0286
G1 X19.4734 Y16.0201
G1 X19.4493 Y16.0131
G1 X19.4249 Y16.0076
G1 X19.4001 Y16.0037
G1 X19.3751 Y16.0013
G1 X19.35 Y16.0005
G1 X19.3249 Y16.0013
G1 X19.2999 Y16.0037
G1 X19.2752 Y16.0076
G1 X19.2507 Y16.0131
G1 X19.2266 Y16.0201
G1 X19.203 Y16.0286
G1 X19.1799 Y16.0386
G1 X19.1576 Y16.05
G1 X19.136 Y16.0627
G1 X19.1152 Y16.0768
G1 X19.0954 Y16.0922
G1 F100.0 Z-2.8
G1 F600.0 X19.0766 Y16.1088
G1 X19.0588 Y16.1266
G1 X19.0422 Y16.1454
G1 X19.0268 Y16.1652
G1 X19.0127 Y16.186
G1 X19.0 Y16.2076
G1 X18.9886 Y16.2299
G1 X18.9786 Y16.2529
G1 X18.9701 Y16.2766
G1 X18.9631 Y16.3007
G1 X18.9576 Y16.3252
G1 X18.9537 Y16.3499
G1 X18.9513 Y16.3749
G1 X18.9505 Y16.4
G1 X18.9513 Y16.4251
G1 X18.9537 Y16.4501
G1 X18.9576 Y16.4749
G1 X18.9631 Y16.4993
G1 X18.9701 Y16.5234
G1 X18.9786 Y16.5471
G1 X18.9886 Y16.5701
G1 X19.0 Y16.5924
G1 X19.0127 Y16.614
G1 X19.0268 Y16.6348
G1 X19.0422 Y16.6546
G1 X19.0588 Y16.6734
G1 X19.0766 Y16.6912
G1 X19.0954 Y16.7078
G1 X19.1152 Y16.7232
G1 X19.136 Y16.7373
G1 X19.1576 Y16.75
G1 X19.1799 Y16.7614
G1 X19.2029 Y16.7714
G1 X19.2266 Y16.7799
G1 X19.2507 Y16.7869
G1 X19.2752 Y16.7924
G1 X19.2999 Y16.7963
G1 X19.3249 Y16.7987
G1 X19.35 Y16.7995
G1 X19.3751 Y16.7987
G1 X19.4001 Y16.7963
G1 X19.4249 Y16.7924
G1 X19.4493 Y16.7869
G1 X19.4734 Y16.7799
G1 X19.4971 Y16.7714
G1 X19.5201 Y16.7614
G1 X19.5424 Y16.75
G1 X19.564 Y16.7373
G1 X19.5848 Y16.7232
G1 X19.6046 Y16.7078
G1 X19.6234 Y16.6912
G1 X19.6412 Y16.6734
G1 X19.6578 Y16.6546
G1 X19.6732 Y16.6348
G1 X19.6873 Y16.614
G1 X19.7 Y16.5924
G1 X19.7114 Y16.5701
G1 X19.7214 Y16.547
G1 X19.7299 Y16.5234
G1 X19.7369 Y16.4993
G1 X19.7424 Y16.4749
G1 X19.7463 Y16.4501
G1 X19.7487 Y16.4251
G1 X19.7495 Y16.4
G1 X19.7487 Y16.3749
G1 X19.7463 Y16.3499
G1 X19.7424 Y16.3252
G1 X19.7369 Y16.3007
G1 X19.7299 Y16.2766
G1 X19.7214 Y16.253
G1 X19.7114 Y16.2299
G1 X19.7 Y16.2076
G1 X19.6873 Y16.186
G1 X19.6732 Y16.1652
G1 X19.6578 Y16.1454
G1 X19.6412 Y16.1266
G1 X19.6234 Y16.1088
G1 X19.6046 Y16.0922
G1 X19.5848 Y16.0768
G1 X19.564 Y16.0627
G1 X19.5424 Y16.05
G1 X19.5201 Y16.0386
G1 X19.497 Y16.0286
G1 X19.4734 Y16.0201
G1 X19.4493 Y16.0131
G1 X19.4249 Y16.0076
G1 X19.4001 Y16.0037
G1 X19.3751 Y16.0013
G1 X19.35 Y16.0005
G1 X19.3249 Y16.0013
G1 X19.2999 Y16.0037
G1 X19.2752 Y16.0076
G1 X19.2507 Y16.0131
G1 X19.2266 Y16.0201
G1 X19.203 Y16.0286
G1 X19.1799 Y16.0386
G1 X19.1576 Y16.05
G1 X19.136 Y16.0627
G1 X19.1152 Y16.0768
G1 X19.0954 Y16.0922
G1 F100.0 Z-3.2
G1 F600.0 X19.0766 Y16.1088
G1 X19.0588 Y16.1266
G1 X19.0422 Y16.1454
G1 X19.0268 Y16.1652
G1 X19.0127 Y16.186
G1 X19.0 Y16.2076
G1 X18.9886 Y16.2299
G1 X18.9786 Y16.2529
G1 X18.9701 Y16.2766
G1 X18.9631 Y16.3007
G1 X18.9576 Y16.3252
G1 X18.9537 Y16.3499
G1 X18.9513 Y16.3749
G1 X18.9505 Y16.4
G1 X18.9513 Y16.4251
G1 X18.9537 Y16.4501
G1 X18.9576 Y16.4749
G1 X18.9631 Y16.4993
G1 X18.9701 Y16.5234
G1 X18.9786 Y16.5471
G1 X18.9886 Y16.5701
G1 X19.0 Y16.5924
G1 X19.0127 Y16.614
G1 X19.0268 Y16.6348
G1 X19.0422 Y16.6546
G1 X19.0588 Y16.6734
G1 X19.0766 Y16.6912
G1 X19.0954 Y16.7078
G1 X19.1152 Y16.7232
G1 X19.136 Y16.7373
G1 X19.1576 Y16.75
G1 X19.1799 Y16.7614
G1 X19.2029 Y16.7714
G1 X19.2266 Y16.7799
G1 X19.2507 Y16.7869
G1 X19.2752 Y16.7924
G1 X19.2999 Y16.7963
G1 X19.3249 Y16.7987
G1 X19.35 Y16.7995
G1 X19.3751 Y16.7987
G1 X19.4001 Y16.7963
G1 X19.4249 Y16.7924
G1 X19.4493 Y16.7869
G1 X19.4734 Y16.7799
G1 X19.4971 Y16.7714
G1 X19.5201 Y16.7614
G1 X19.5424 Y16.75
G1 X19.564 Y16.7373
G1 X19.5848 Y16.7232
G1 X19.6046 Y16.7078
G1 X19.6234 Y16.6912
G1 X19.6412 Y16.6734
G1 X19.6578 Y16.6546
G1 X19.6732 Y16.6348
G1 X19.6873 Y16.614
G1 X19.7 Y16.5924
G1 X19.7114 Y16.5701
G1 X19.7214 Y16.547
G1 X19.7299 Y16.5234
G1 X19.7369 Y16.4993
G1 X19.7424 Y16.4749
G1 X19.7463 Y16.4501
G1 X19.7487 Y16.4251
G1 X19.7495 Y16.4
G1 X19.7487 Y16.3749
G1 X19.7463 Y16.3499
G1 X19.7424 Y16.3252
G1 X19.7369 Y16.3007
G1 X19.7299 Y16.2766
G1 X19.7214 Y16.253
G1 X19.7114 Y16.2299
G1 X19.7 Y16.2076
G1 X19.6873 Y16.186
G1 X19.6732 Y16.1652
G1 X19.6578 Y16.1454
G1 X19.6412 Y16.1266
G1 X19.6234 Y16.1088
G1 X19.6046 Y16.0922
G1 X19.5848 Y16.0768
G1 X19.564 Y16.0627
G1 X19.5424 Y16.05
G1 X19.5201 Y16.0386
G1 X19.497 Y16.0286
G1 X19.4734 Y16.0201
G1 X19.4493 Y16.0131
G1 X19.4249 Y16.0076
G1 X19.4001 Y16.0037
G1 X19.3751 Y16.0013
G1 X19.35 Y16.0005
G1 X19.3249 Y16.0013
G1 X19.2999 Y16.0037
G1 X19.2752 Y16.0076
G1 X19.2507 Y16.0131
G1 X19.2266 Y16.0201
G1 X19.203 Y16.0286
G1 X19.1799 Y16.0386
G1 X19.1576 Y16.05
G1 X19.136 Y16.0627
G1 X19.1152 Y16.0768
G1 X19.0954 Y16.0922
G1 F100.0 Z-3.6
G1 F600.0 X19.0766 Y16.1088
G1 X19.0588 Y16.1266
G1 X19.0422 Y16.1454
G1 X19.0268 Y16.1652
G1 X19.0127 Y16.186
G1 X19.0 Y16.2076
G1 X18.9886 Y16.2299
G1 X18.9786 Y16.2529
G1 X18.9701 Y16.2766
G1 X18.9631 Y16.3007
G1 X18.9576 Y16.3252
G1 X18.9537 Y16.3499
G1 X18.9513 Y16.3749
G1 X18.9505 Y16.4
G1 X18.9513 Y16.4251
G1 X18.9537 Y16.4501
G1 X18.9576 Y16.4749
G1 X18.9631 Y16.4993
G1 X18.9701 Y16.5234
G1 X18.9786 Y16.5471
G1 X18.9886 Y16.5701
G1 X19.0 Y16.5924
G1 X19.0127 Y16.614
G1 X19.0268 Y16.6348
G1 X19.0422 Y16.6546
G1 X19.0588 Y16.6734
G1 X19.0766 Y16.6912
G1 X19.0954 Y16.7078
G1 X19.1152 Y16.7232
G1 X19.136 Y16.7373
G1 X19.1576 Y16.75
G1 X19.1799 Y16.7614
G1 X19.2029 Y16.7714
G1 X19.2266 Y16.7799
G1 X19.2507 Y16.7869
G1 X19.2752 Y16.7924
G1 X19.2999 Y16.7963
G1 X19.3249 Y16.7987
G1 X19.35 Y16.7995
G1 X19.3751 Y16.7987
G1 X19.4001 Y16.7963
G1 X19.4249 Y16.7924
G1 X19.4493 Y16.7869
G1 X19.4734 Y16.7799
G1 X19.4971 Y16.7714
G1 X19.5201 Y16.7614
G1 X19.5424 Y16.75
G1 X19.564 Y16.7373
G1 X19.5848 Y16.7232
G1 X19.6046 Y16.7078
G1 X19.6234 Y16.6912
G1 X19.6412 Y16.6734
G1 X19.6578 Y16.6546
G1 X19.6732 Y16.6348
G1 X19.6873 Y16.614
G1 X19.7 Y16.5924
G1 X19.7114 Y16.5701
G1 X19.7214 Y16.547
G1 X19.7299 Y16.5234
G1 X19.7369 Y16.4993
G1 X19.7424 Y16.4749
G1 X19.7463 Y16.4501
G1 X19.7487 Y16.4251
G1 X19.7495 Y16.4
G1 X19.7487 Y16.3749
G1 X19.7463 Y16.3499
G1 X19.7424 Y16.3252
G1 X19.7369 Y16.3007
G1 X19.7299 Y16.2766
G1 X19.7214 Y16.253
G1 X19.7114 Y16.2299
G1 X19.7 Y16.2076
G1 X19.6873 Y16.186
G1 X19.6732 Y16.1652
G1 X19.6578 Y16.1454
G1 X19.6412 Y16.1266
G1 X19.6234 Y16.1088
G1 X19.6046 Y16.0922
G1 X19.5848 Y16.0768
G1 X19.564 Y16.0627
G1 X19.5424 Y16.05
G1 X19.5201 Y16.0386
G1 X19.497 Y16.0286
G1 X19.4734 Y16.0201
G1 X19.4493 Y16.0131
G1 X19.4249 Y16.0076
G1 X19.4001 Y16.0037
G1 X19.3751 Y16.0013
G1 X19.35 Y16.0005
G1 X19.3249 Y16.0013
G1 X19.2999 Y16.0037
G1 X19.2752 Y16.0076
G1 X19.2507 Y16.0131
G1 X19.2266 Y16.0201
G1 X19.203 Y16.0286
G1 X19.1799 Y16.0386
G1 X19.1576 Y16.05
G1 X19.136 Y16.0627
G1 X19.1152 Y16.0768
G1 X19.0954 Y16.0922
G1 F100.0 Z-3.9
G1 F600.0 X19.0766 Y16.1088
G1 X19.0588 Y16.1266
G1 X19.0422 Y16.1454
G1 X19.0268 Y16.1652
G1 X19.0127 Y16.186
G1 X19.0 Y16.2076
G1 X18.9886 Y16.2299
G1 X18.9786 Y16.2529
G1 X18.9701 Y16.2766
G1 X18.9631 Y16.3007
G1 X18.9576 Y16.3252
G1 X18.9537 Y16.3499
G1 X18.9513 Y16.3749
G1 X18.9505 Y16.4
G1 X18.9513 Y16.4251
G1 X18.9537 Y16.4501
G1 X18.9576 Y16.4749
G1 X18.9631 Y16.4993
G1 X18.9701 Y16.5234
G1 X18.9786 Y16.5471
G1 X18.9886 Y16.5701
G1 X19.0 Y16.5924
G1 X19.0127 Y16.614
G1 X19.0268 Y16.6348
G1 X19.0422 Y16.6546
G1 X19.0588 Y16.6734
G1 X19.0766 Y16.6912
G1 X19.0954 Y16.7078
G1 X19.1152 Y16.7232
G1 X19.136 Y16.7373
G1 X19.1576 Y16.75
G1 X19.1799 Y16.7614
G1 X19.2029 Y16.7714
G1 X19.2266 Y16.7799
G1 X19.2507 Y16.7869
G1 X19.2752 Y16.7924
G1 X19.2999 Y16.7963
G1 X19.3249 Y16.7987
G1 X19.35 Y16.7995
G1 X19.3751 Y16.7987
G1 X19.4001 Y16.7963
G1 X19.4249 Y16.7924
G1 X19.4493 Y16.7869
G1 X19.4734 Y16.7799
G1 X19.4971 Y16.7714
G1 X19.5201 Y16.7614
G1 X19.5424 Y16.75
G1 X19.564 Y16.7373
G1 X19.5848 Y16.7232
G1 X19.6046 Y16.7078
G1 X19.6234 Y16.6912
G1 X19.6412 Y16.6734
G1 X19.6578 Y16.6546
G1 X19.6732 Y16.6348
G1 X19.6873 Y16.614
G1 X19.7 Y16.5924
G1 X19.7114 Y16.5701
G1 X19.7214 Y16.547
G1 X19.7299 Y16.5234
G1 X19.7369 Y16.4993
G1 X19.7424 Y16.4749
G1 X19.7463 Y16.4501
G1 X19.7487 Y16.4251
G1 X19.7495 Y16.4
G1 X19.7487 Y16.3749
G1 X19.7463 Y16.3499
G1 X19.7424 Y16.3252
G1 X19.7369 Y16.3007
G1 X19.7299 Y16.2766
G1 X19.7214 Y16.253
G1 X19.7114 Y16.2299
G1 X19.7 Y16.2076
G1 X19.6873 Y16.186
G1 X19.6732 Y16.1652
G1 X19.6578 Y16.1454
G1 X19.6412 Y16.1266
G1 X19.6234 Y16.1088
G1 X19.6046 Y16.0922
G1 X19.5848 Y16.0768
G1 X19.564 Y16.0627
G1 X19.5424 Y16.05
G1 X19.5201 Y16.0386
G1 X19.497 Y16.0286
G1 X19.4734 Y16.0201
G1 X19.4493 Y16.0131
G1 X19.4249 Y16.0076
G1 X19.4001 Y16.0037
G1 X19.3751 Y16.0013
G1 X19.35 Y16.0005
G1 X19.3249 Y16.0013
G1 X19.2999 Y16.0037
G1 X19.2752 Y16.0076
G1 X19.2507 Y16.0131
G1 X19.2266 Y16.0201
G1 X19.203 Y16.0286
G1 X19.1799 Y16.0386
G1 X19.1576 Y16.05
G1 X19.136 Y16.0627
G1 X19.1152 Y16.0768
G1 X19.0954 Y16.0922
G1 F100.0 Z-4.2
G1 F600.0 X19.0766 Y16.1088
G1 X19.0588 Y16.1266
G1 X19.0422 Y16.1454
G1 X19.0268 Y16.1652
G1 X19.0127 Y16.186
G1 X19.0 Y16.2076
G1 X18.9886 Y16.2299
G1 X18.9786 Y16.2529
G1 X18.9701 Y16.2766
G1 X18.9631 Y16.3007
G1 X18.9576 Y16.3252
G1 X18.9537 Y16.3499
G1 X18.9513 Y16.3749
G1 X18.9505 Y16.4
G1 X18.9513 Y16.4251
G1 X18.9537 Y16.4501
G1 X18.9576 Y16.4749
G1 X18.9631 Y16.4993
G1 X18.9701 Y16.5234
G1 X18.9786 Y16.5471
G1 X18.9886 Y16.5701
G1 X19.0 Y16.5924
G1 X19.0127 Y16.614
G1 X19.0268 Y16.6348
G1 X19.0422 Y16.6546
G1 X19.0588 Y16.6734
G1 X19.0766 Y16.6912
G1 X19.0954 Y16.7078
G1 X19.1152 Y16.7232
G1 X19.136 Y16.7373
G1 X19.1576 Y16.75
G1 X19.1799 Y16.7614
G1 X19.2029 Y16.7714
G1 X19.2266 Y16.7799
G1 X19.2507 Y16.7869
G1 X19.2752 Y16.7924
G1 X19.2999 Y16.7963
G1 X19.3249 Y16.7987
G1 X19.35 Y16.7995
G1 X19.3751 Y16.7987
G1 X19.4001 Y16.7963
G1 X19.4249 Y16.7924
G1 X19.4493 Y16.7869
G1 X19.4734 Y16.7799
G1 X19.4971 Y16.7714
G1 X19.5201 Y16.7614
G1 X19.5424 Y16.75
G1 X19.564 Y16.7373
G1 X19.5848 Y16.7232
G1 X19.6046 Y16.7078
G1 X19.6234 Y16.6912
G1 X19.6412 Y16.6734
G1 X19.6578 Y16.6546
G1 X19.6732 Y16.6348
G1 X19.6873 Y16.614
G1 X19.7 Y16.5924
G1 X19.7114 Y16.5701
G1 X19.7214 Y16.547
G1 X19.7299 Y16.5234
G1 X19.7369 Y16.4993
G1 X19.7424 Y16.4749
G1 X19.7463 Y16.4501
G1 X19.7487 Y16.4251
G1 X19.7495 Y16.4
G1 X19.7487 Y16.3749
G1 X19.7463 Y16.3499
G1 X19.7424 Y16.3252
G1 X19.7369 Y16.3007
G1 X19.7299 Y16.2766
G1 X19.7214 Y16.253
G1 X19.7114 Y16.2299
G1 X19.7 Y16.2076
G1 X19.6873 Y16.186
G1 X19.6732 Y16.1652
G1 X19.6578 Y16.1454
G1 X19.6412 Y16.1266
G1 X19.6234 Y16.1088
G1 X19.6046 Y16.0922
G1 X19.5848 Y16.0768
G1 X19.564 Y16.0627
G1 X19.5424 Y16.05
G1 X19.5201 Y16.0386
G1 X19.497 Y16.0286
G1 X19.4734 Y16.0201
G1 X19.4493 Y16.0131
G1 X19.4249 Y16.0076
G1 X19.4001 Y16.0037
G1 X19.3751 Y16.0013
G1 X19.35 Y16.0005
G1 X19.3249 Y16.0013
G1 X19.2999 Y16.0037
G1 X19.2752 Y16.0076
G1 X19.2507 Y16.0131
G1 X19.2266 Y16.0201
G1 X19.203 Y16.0286
G1 X19.1799 Y16.0386
G1 X19.1576 Y16.05
G1 X19.136 Y16.0627
G1 X19.1152 Y16.0768
G1 X19.0954 Y16.0922
G0 Z3.0
G0 X34.2886 Y8.7701
G0 Z1.0
G1 F100.0 Z-0.4
G1 F600.0 X34.3 Y8.7924
G1 X34.3127 Y8.814
G1 X34.3268 Y8.8348
G1 X34.3422 Y8.8546
G1 X34.3588 Y8.8734
G1 X34.3766 Y8.8912
G1 X34.3954 Y8.9078
G1 X34.4152 Y8.9232
G1 X34.436 Y8.9373
G1 X34.4576 Y8.95
G1 X34.4799 Y8.9614
G1 X34.503 Y8.9714
G1 X34.5266 Y8.9799
G1 X34.5507 Y8.9869
G1 X34.5751 Y8.9924
G1 X34.5999 Y8.9963
G1 X34.6249 Y8.9987
G1 X34.65 Y8.9995
G1 X34.6751 Y8.9987
G1 X34.7001 Y8.9963
G1 X34.7248 Y8.9924
G1 X34.7493 Y8.9869
G1 X34.7734 Y8.9799
G1 X34.797 Y8.9714
G1 X34.8201 Y8.9614
G1 X34.8424 Y8.95
G1 X34.864 Y8.9373
G1 X34.8848 Y8.9232
G1 X34.9046 Y8.9078
G1 X34.9234 Y8.8912
G1 X34.9412 Y8.8734
G1 X34.9578 Y8.8546
G1 X34.9732 Y8.8348
G1 X34.9873 Y8.814
G1 X35.0 Y8.7924
G1 X35.0114 Y8.7701
G1 X35.0214 Y8.7471
G1 X35.0299 Y8.7234
G1 X35.0369 Y8.6993
G1 X35.0424 Y8.6748
G1 X35.0463 Y8.6501
G1 X35.0487 Y8.6251
G1 X35.0495 Y8.6
G1 X35.0487 Y8.5749
G1 X35.0463 Y8.5499
G1 X35.0424 Y8.5251
G1 X35.0369 Y8.5007
G1 X35.0299 Y8.4766
G1 X35.0214 Y8.4529
G1 X35.0114 Y8.4299
G1 X35.0 Y8.4076
G1 X34.9873 Y8.386
G1 X34.9732 Y8.3652
G1 X34.9578 Y8.3454
G1 X34.9412 Y8.3266
G1 X34.9234 Y8.3088
G1 X34.9046 Y8.2922
G1 X34.8848 Y8.2768
G1 X34.864 Y8.2627
G1 X34.8424 Y8.25
G1 X34.8201 Y8.2386
G1 X34.7971 Y8.2286
G1 X34.7734 Y8.2201
G1 X34.7493 Y8.2131
G1 X34.7248 Y8.2076
G1 X34.7001 Y8.2037
G1 X34.6751 Y8.2013
G1 X34.65 Y8.2005
G1 X34.6249 Y8.2013
G1 X34.5999 Y8.2037
G1 X34.5751 Y8.2076
G1 X34.5507 Y8.2131
G1 X34.5266 Y8.2201
G1 X34.5029 Y8.2286
G1 X34.4799 Y8.2386
G1 X34.4576 Y8.25
G1 X34.436 Y8.2627
G1 X34.4152 Y8.2768
G1 X34.3954 Y8.2922
G1 X34.3766 Y8.3088
G1 X34.3588 Y8.3266
G1 X34.3422 Y8.3454
G1 X34.3268 Y8.3652
G1 X34.3127 Y8.386
G1 X34.3 Y8.4076
G1 X34.2886 Y8.4299
G1 X34.2786 Y8.453
G1 X34.2701 Y8.4766
G1 X34.2631 Y8.5007
G1 X34.2576 Y8.5251
G1 X34.2537 Y8.5499
G1 X34.2513 Y8.5749
G1 X34.2505 Y8.6
G1 X34.2513 Y8.6251
G1 X34.2537 Y8.6501
G1 X34.2576 Y8.6748
G1 X34.2631 Y8.6993
G1 X34.2701 Y8.7234
G1 X34.2786 Y8.747
G1 X34.2886 Y8.7701
G1 F100.0 Z-0.8
G1 F600.0 X34.3 Y8.7924
G1 X34.3127 Y8.814
G1 X34.3268 Y8.8348
G1 X34.3422 Y8.8546
G1 X34.3588 Y8.8734
G1 X34.3766 Y8.8912
G1 X34.3954 Y8.9078
G1 X34.4152 Y8.9232
G1 X34.436 Y8.9373
G1 X34.4576 Y8.95
G1 X34.4799 Y8.9614
G1 X34.503 Y8.9714
G1 X34.5266 Y8.9799
G1 X34.5507 Y8.9869
G1 X34.5751 Y8.9924
G1 X34.5999 Y8.9963
G1 X34.6249 Y8.9987
G1 X34.65 Y8.9995
G1 X34.6751 Y8.9987
G1 X34.7001 Y8.9963
G1 X34.7248 Y8.9924
G1 X34.7493 Y8.9869
G1 X34.7734 Y8.9799
G1 X34.797 Y8.9714
G1 X34.8201 Y8.9614
G1 X34.8424 Y8.95
G1 X34.864 Y8.9373
G1 X34.8848 Y8.9232
G1 X34.9046 Y8.9078
G1 X34.9234 Y8.8912
G1 X34.9412 Y8.8734
G1 X34.9578 Y8.8546
G1 X34.9732 Y8.8348
G1 X34.9873 Y8.814
G1 X35.0 Y8.7924
G1 X35.0114 Y8.7701
G1 X35.0214 Y8.7471
G1 X35.0299 Y8.7234
G1 X35.0369 Y8.6993
G1 X35.0424 Y8.6748
G1 X35.0463 Y8.6501
G1 X35.0487 Y8.6251
G1 X35.0495 Y8.6
G1 X35.0487 Y8.5749
G1 X35.0463 Y8.5499
G1 X35.0424 Y8.5251
G1 X35.0369 Y8.5007
G1 X35.0299 Y8.4766
G1 X35.0214 Y8.4529
G1 X35.0114 Y8.4299
G1 X35.0 Y8.4076
G1 X34.9873 Y8.386
G1 X34.9732 Y8.3652
G1 X34.9578 Y8.3454
G1 X34.9412 Y8.3266
G1 X34.9234 Y8.3088
G1 X34.9046 Y8.2922
G1 X34.8848 Y8.2768
G1 X34.864 Y8.2627
G1 X34.8424 Y8.25
G1 X34.8201 Y8.2386
G1 X34.7971 Y8.2286
G1 X34.7734 Y8.2201
G1 X34.7493 Y8.2131
G1 X34.7248 Y8.2076
G1 X34.7001 Y8.2037
G1 X34.6751 Y8.2013
G1 X34.65 Y8.2005
G1 X34.6249 Y8.2013
G1 X34.5999 Y8.2037
G1 X34.5751 Y8.2076
G1 X34.5507 Y8.2131
G1 X34.5266 Y8.2201
G1 X34.5029 Y8.2286
G1 X34.4799 Y8.2386
G1 X34.4576 Y8.25
G1 X34.436 Y8.2627
G1 X34.4152 Y8.2768
G1 X34.3954 Y8.2922
G1 X34.3766 Y8.3088
G1 X34.3588 Y8.3266
G1 X34.3422 Y8.3454
G1 X34.3268 Y8.3652
G1 X34.3127 Y8.386
G1 X34.3 Y8.4076
G1 X34.2886 Y8.4299
G1 X34.2786 Y8.453
G1 X34.2701 Y8.4766
G1 X34.2631 Y8.5007
G1 X34.2576 Y8.5251
G1 X34.2537 Y8.5499
G1 X34.2513 Y8.5749
G1 X34.2505 Y8.6
G1 X34.2513 Y8.6251
G1 X34.2537 Y8.6501
G1 X34.2576 Y8.6748
G1 X34.2631 Y8.6993
G1 X34.2701 Y8.7234
G1 X34.2786 Y8.747
G1 X34.2886 Y8.7701
G1 F100.0 Z-1.2
G1 F600.0 X34.3 Y8.7924
G1 X34.3127 Y8.814
G1 X34.3268 Y8.8348
G1 X34.3422 Y8.8546
G1 X34.3588 Y8.8734
G1 X34.3766 Y8.8912
G1 X34.3954 Y8.9078
G1 X34.4152 Y8.9232
G1 X34.436 Y8.9373
G1 X34.4576 Y8.95
G1 X34.4799 Y8.9614
G1 X34.503 Y8.9714
G1 X34.5266 Y8.9799
G1 X34.5507 Y8.9869
G1 X34.5751 Y8.9924
G1 X34.5999 Y8.9963
G1 X34.6249 Y8.9987
G1 X34.65 Y8.9995
G1 X34.6751 Y8.9987
G1 X34.7001 Y8.9963
G1 X34.7248 Y8.9924
G1 X34.7493 Y8.9869
G1 X34.7734 Y8.9799
G1 X34.797 Y8.9714
G1 X34.8201 Y8.9614
G1 X34.8424 Y8.95
G1 X34.864 Y8.9373
G1 X34.8848 Y8.9232
G1 X34.9046 Y8.9078
G1 X34.9234 Y8.8912
G1 X34.9412 Y8.8734
G1 X34.9578 Y8.8546
G1 X34.9732 Y8.8348
G1 X34.9873 Y8.814
G1 X35.0 Y8.7924
G1 X35.0114 Y8.7701
G1 X35.0214 Y8.7471
G1 X35.0299 Y8.7234
G1 X35.0369 Y8.6993
G1 X35.0424 Y8.6748
G1 X35.0463 Y8.6501
G1 X35.0487 Y8.6251
G1 X35.0495 Y8.6
G1 X35.0487 Y8.5749
G1 X35.0463 Y8.5499
G1 X35.0424 Y8.5251
G1 X35.0369 Y8.5007
G1 X35.0299 Y8.4766
G1 X35.0214 Y8.4529
G1 X35.0114 Y8.4299
G1 X35.0 Y8.4076
G1 X34.9873 Y8.386
G1 X34.9732 Y8.3652
G1 X34.9578 Y8.3454
G1 X34.9412 Y8.3266
G1 X34.9234 Y8.3088
G1 X34.9046 Y8.2922
G1 X34.8848 Y8.2768
G1 X34.864 Y8.2627
G1 X34.8424 Y8.25
G1 X34.8201 Y8.2386
G1 X34.7971 Y8.2286
G1 X34.7734 Y8.2201
G1 X34.7493 Y8.2131
G1 X34.7248 Y8.2076
G1 X34.7001 Y8.2037
G1 X34.6751 Y8.2013
G1 X34.65 Y8.2005
G1 X34.6249 Y8.2013
G1 X34.5999 Y8.2037
G1 X34.5751 Y8.2076
G1 X34.5507 Y8.2131
G1 X34.5266 Y8.2201
G1 X34.5029 Y8.2286
G1 X34.4799 Y8.2386
G1 X34.4576 Y8.25
G1 X34.436 Y8.2627
G1 X34.4152 Y8.2768
G1 X34.3954 Y8.2922
G1 X34.3766 Y8.3088
G1 X34.3588 Y8.3266
G1 X34.3422 Y8.3454
G1 X34.3268 Y8.3652
G1 X34.3127 Y8.386
G1 X34.3 Y8.4076
G1 X34.2886 Y8.4299
G1 X34.2786 Y8.453
G1 X34.2701 Y8.4766
G1 X34.2631 Y8.5007
G1 X34.2576 Y8.5251
G1 X34.2537 Y8.5499
G1 X34.2513 Y8.5749
G1 X34.2505 Y8.6
G1 X34.2513 Y8.6251
G1 X34.2537 Y8.6501
G1 X34.2576 Y8.6748
G1 X34.2631 Y8.6993
G1 X34.2701 Y8.7234
G1 X34.2786 Y8.747
G1 X34.2886 Y8.7701
G1 F100.0 Z-1.6
G1 F600.0 X34.3 Y8.7924
G1 X34.3127 Y8.814
G1 X34.3268 Y8.8348
G1 X34.3422 Y8.8546
G1 X34.3588 Y8.8734
G1 X34.3766 Y8.8912
G1 X34.3954 Y8.9078
G1 X34.4152 Y8.9232
G1 X34.436 Y8.9373
G1 X34.4576 Y8.95
G1 X34.4799 Y8.9614
G1 X34.503 Y8.9714
G1 X34.5266 Y8.9799
G1 X34.5507 Y8.9869
G1 X34.5751 Y8.9924
G1 X34.5999 Y8.9963
G1 X34.6249 Y8.9987
G1 X34.65 Y8.9995
G1 X34.6751 Y8.9987
G1 X34.7001 Y8.9963
G1 X34.7248 Y8.9924
G1 X34.7493 Y8.9869
G1 X34.7734 Y8.9799
G1 X34.797 Y8.9714
G1 X34.8201 Y8.9614
G1 X34.8424 Y8.95
G1 X34.864 Y8.9373
G1 X34.8848 Y8.9232
G1 X34.9046 Y8.9078
G1 X34.9234 Y8.8912
G1 X34.9412 Y8.8734
G1 X34.9578 Y8.8546
G1 X34.9732 Y8.8348
G1 X34.9873 Y8.814
G1 X35.0 Y8.7924
G1 X35.0114 Y8.7701
G1 X35.0214 Y8.7471
G1 X35.0299 Y8.7234
G1 X35.0369 Y8.6993
G1 X35.0424 Y8.6748
G1 X35.0463 Y8.6501
G1 X35.0487 Y8.6251
G1 X35.0495 Y8.6
G1 X35.0487 Y8.5749
G1 X35.0463 Y8.5499
G1 X35.0424 Y8.5251
G1 X35.0369 Y8.5007
G1 X35.0299 Y8.4766
G1 X35.0214 Y8.4529
G1 X35.0114 Y8.4299
G1 X35.0 Y8.4076
G1 X34.9873 Y8.386
G1 X34.9732 Y8.3652
G1 X34.9578 Y8.3454
G1 X34.9412 Y8.3266
G1 X34.9234 Y8.3088
G1 X34.9046 Y8.2922
G1 X34.8848 Y8.2768
G1 X34.864 Y8.2627
G1 X34.8424 Y8.25
G1 X34.8201 Y8.2386
G1 X34.7971 Y8.2286
G1 X34.7734 Y8.2201
G1 X34.7493 Y8.2131
G1 X34.7248 Y8.2076
G1 X34.7001 Y8.2037
G1 X34.6751 Y8.2013
G1 X34.65 Y8.2005
G1 X34.6249 Y8.2013
G1 X34.5999 Y8.2037
G1 X34.5751 Y8.2076
G1 X34.5507 Y8.2131
G1 X34.5266 Y8.2201
G1 X34.5029 Y8.2286
G1 X34.4799 Y8.2386
G1 X34.4576 Y8.25
G1 X34.436 Y8.2627
G1 X34.4152 Y8.2768
G1 X34.3954 Y8.2922
G1 X34.3766 Y8.3088
G1 X34.3588 Y8.3266
G1 X34.3422 Y8.3454
G1 X34.3268 Y8.3652
G1 X34.3127 Y8.386
G1 X34.3 Y8.4076
G1 X34.2886 Y8.4299
G1 X34.2786 Y8.453
G1 X34.2701 Y8.4766
G1 X34.2631 Y8.5007
G1 X34.2576 Y8.5251
G1 X34.2537 Y8.5499
G1 X34.2513 Y8.5749
G1 X34.2505 Y8.6
G1 X34.2513 Y8.6251
G1 X34.2537 Y8.6501
G1 X34.2576 Y8.6748
G1 X34.2631 Y8.6993
G1 X34.2701 Y8.7234
G1 X34.2786 Y8.747
G1 X34.2886 Y8.7701
G1 F100.0 Z-2.0
G1 F600.0 X34.3 Y8.7924
G1 X34.3127 Y8.814
G1 X34.3268 Y8.8348
G1 X34.3422 Y8.8546
G1 X34.3588 Y8.8734
G1 X34.3766 Y8.8912
G1 X34.3954 Y8.9078
G1 X34.4152 Y8.9232
G1 X34.436 Y8.9373
G1 X34.4576 Y8.95
G1 X34.4799 Y8.9614
G1 X34.503 Y8.9714
G1 X34.5266 Y8.9799
G1 X34.5507 Y8.9869
G1 X34.5751 Y8.9924
G1 X34.5999 Y8.9963
G1 X34.6249 Y8.9987
G1 X34.65 Y8.9995
G1 X34.6751 Y8.9987
G1 X34.7001 Y8.9963
G1 X34.7248 Y8.9924
G1 X34.7493 Y8.9869
G1 X34.7734 Y8.9799
G1 X34.797 Y8.9714
G1 X34.8201 Y8.9614
G1 X34.8424 Y8.95
G1 X34.864 Y8.9373
G1 X34.8848 Y8.9232
G1 X34.9046 Y8.9078
G1 X34.9234 Y8.8912
G1 X34.9412 Y8.8734
G1 X34.9578 Y8.8546
G1 X34.9732 Y8.8348
G1 X34.9873 Y8.814
G1 X35.0 Y8.7924
G1 X35.0114 Y8.7701
G1 X35.0214 Y8.7471
G1 X35.0299 Y8.7234
G1 X35.0369 Y8.6993
G1 X35.0424 Y8.6748
G1 X35.0463 Y8.6501
G1 X35.0487 Y8.6251
G1 X35.0495 Y8.6
G1 X35.0487 Y8.5749
G1 X35.0463 Y8.5499
G1 X35.0424 Y8.5251
G1 X35.0369 Y8.5007
G1 X35.0299 Y8.4766
G1 X35.0214 Y8.4529
G1 X35.0114 Y8.4299
G1 X35.0 Y8.4076
G1 X34.9873 Y8.386
G1 X34.9732 Y8.3652
G1 X34.9578 Y8.3454
G1 X34.9412 Y8.3266
G1 X34.9234 Y8.3088
G1 X34.9046 Y8.2922
G1 X34.8848 Y8.2768
G1 X34.864 Y8.2627
G1 X34.8424 Y8.25
G1 X34.8201 Y8.2386
G1 X34.7971 Y8.2286
G1 X34.7734 Y8.2201
G1 X34.7493 Y8.2131
G1 X34.7248 Y8.2076
G1 X34.7001 Y8.2037
G1 X34.6751 Y8.2013
G1 X34.65 Y8.2005
G1 X34.6249 Y8.2013
G1 X34.5999 Y8.2037
G1 X34.5751 Y8.2076
G1 X34.5507 Y8.2131
G1 X34.5266 Y8.2201
G1 X34.5029 Y8.2286
G1 X34.4799 Y8.2386
G1 X34.4576 Y8.25
G1 X34.436 Y8.2627
G1 X34.4152 Y8.2768
G1 X34.3954 Y8.2922
G1 X34.3766 Y8.3088
G1 X34.3588 Y8.3266
G1 X34.3422 Y8.3454
G1 X34.3268 Y8.3652
G1 X34.3127 Y8.386
G1 X34.3 Y8.4076
G1 X34.2886 Y8.4299
G1 X34.2786 Y8.453
G1 X34.2701 Y8.4766
G1 X34.2631 Y8.5007
G1 X34.2576 Y8.5251
G1 X34.2537 Y8.5499
G1 X34.2513 Y8.5749
G1 X34.2505 Y8.6
G1 X34.2513 Y8.6251
G1 X34.2537 Y8.6501
G1 X34.2576 Y8.6748
G1 X34.2631 Y8.6993
G1 X34.2701 Y8.7234
G1 X34.2786 Y8.747
G1 X34.2886 Y8.7701
G1 F100.0 Z-2.4
G1 F600.0 X34.3 Y8.7924
G1 X34.3127 Y8.814
G1 X34.3268 Y8.8348
G1 X34.3422 Y8.8546
G1 X34.3588 Y8.8734
G1 X34.3766 Y8.8912
G1 X34.3954 Y8.9078
G1 X34.4152 Y8.9232
G1 X34.436 Y8.9373
G1 X34.4576 Y8.95
G1 X34.4799 Y8.9614
G1 X34.503 Y8.9714
G1 X34.5266 Y8.9799
G1 X34.5507 Y8.9869
G1 X34.5751 Y8.9924
G1 X34.5999 Y8.9963
G1 X34.6249 Y8.9987
G1 X34.65 Y8.9995
G1 X34.6751 Y8.9987
G1 X34.7001 Y8.9963
G1 X34.7248 Y8.9924
G1 X34.7493 Y8.9869
G1 X34.7734 Y8.9799
G1 X34.797 Y8.9714
G1 X34.8201 Y8.9614
G1 X34.8424 Y8.95
G1 X34.864 Y8.9373
G1 X34.8848 Y8.9232
G1 X34.9046 Y8.9078
G1 X34.9234 Y8.8912
G1 X34.9412 Y8.8734
G1 X34.9578 Y8.8546
G1 X34.9732 Y8.8348
G1 X34.9873 Y8.814
G1 X35.0 Y8.7924
G1 X35.0114 Y8.7701
G1 X35.0214 Y8.7471
G1 X35.0299 Y8.7234
G1 X35.0369 Y8.6993
G1 X35.0424 Y8.6748
G1 X35.0463 Y8.6501
G1 X35.0487 Y8.6251
G1 X35.0495 Y8.6
G1 X35.0487 Y8.5749
G1 X35.0463 Y8.5499
G1 X35.0424 Y8.5251
G1 X35.0369 Y8.5007
G1 X35.0299 Y8.4766
G1 X35.0214 Y8.4529
G1 X35.0114 Y8.4299
G1 X35.0 Y8.4076
G1 X34.9873 Y8.386
G1 X34.9732 Y8.3652
G1 X34.9578 Y8.3454
G1 X34.9412 Y8.3266
G1 X34.9234 Y8.3088
G1 X34.9046 Y8.2922
G1 X34.8848 Y8.2768
G1 X34.864 Y8.2627
G1 X34.8424 Y8.25
G1 X34.8201 Y8.2386
G1 X34.7971 Y8.2286
G1 X34.7734 Y8.2201
G1 X34.7493 Y8.2131
G1 X34.7248 Y8.2076
G1 X34.7001 Y8.2037
G1 X34.6751 Y8.2013
G1 X34.65 Y8.2005
G1 X34.6249 Y8.2013
G1 X34.5999 Y8.2037
G1 X34.5751 Y8.2076
G1 X34.5507 Y8.2131
G1 X34.5266 Y8.2201
G1 X34.5029 Y8.2286
G1 X34.4799 Y8.2386
G1 X34.4576 Y8.25
G1 X34.436 Y8.2627
G1 X34.4152 Y8.2768
G1 X34.3954 Y8.2922
G1 X34.3766 Y8.3088
G1 X34.3588 Y8.3266
G1 X34.3422 Y8.3454
G1 X34.3268 Y8.3652
G1 X34.3127 Y8.386
G1 X34.3 Y8.4076
G1 X34.2886 Y8.4299
G1 X34.2786 Y8.453
G1 X34.2701 Y8.4766
G1 X34.2631 Y8.5007
G1 X34.2576 Y8.5251
G1 X34.2537 Y8.5499
G1 X34.2513 Y8.5749
G1 X34.2505 Y8.6
G1 X34.2513 Y8.6251
G1 X34.2537 Y8.6501
G1 X34.2576 Y8.6748
G1 X34.2631 Y8.6993
G1 X34.2701 Y8.7234
G1 X34.2786 Y8.747
G1 X34.2886 Y8.7701
G1 F100.0 Z-2.8
G1 F600.0 X34.3 Y8.7924
G1 X34.3127 Y8.814
G1 X34.3268 Y8.8348
G1 X34.3422 Y8.8546
G1 X34.3588 Y8.8734
G1 X34.3766 Y8.8912
G1 X34.3954 Y8.9078
G1 X34.4152 Y8.9232
G1 X34.436 Y8.9373
G1 X34.4576 Y8.95
G1 X34.4799 Y8.9614
G1 X34.503 Y8.9714
G1 X34.5266 Y8.9799
G1 X34.5507 Y8.9869
G1 X34.5751 Y8.9924
G1 X34.5999 Y8.9963
G1 X34.6249 Y8.9987
G1 X34.65 Y8.9995
G1 X34.6751 Y8.9987
G1 X34.7001 Y8.9963
G1 X34.7248 Y8.9924
G1 X34.7493 Y8.9869
G1 X34.7734 Y8.9799
G1 X34.797 Y8.9714
G1 X34.8201 Y8.9614
G1 X34.8424 Y8.95
G1 X34.864 Y8.9373
G1 X34.8848 Y8.9232
G1 X34.9046 Y8.9078
G1 X34.9234 Y8.8912
G1 X34.9412 Y8.8734
G1 X34.9578 Y8.8546
G1 X34.9732 Y8.8348
G1 X34.9873 Y8.814
G1 X35.0 Y8.7924
G1 X35.0114 Y8.7701
G1 X35.0214 Y8.7471
G1 X35.0299 Y8.7234
G1 X35.0369 Y8.6993
G1 X35.0424 Y8.6748
G1 X35.0463 Y8.6501
G1 X35.0487 Y8.6251
G1 X35.0495 Y8.6
G1 X35.0487 Y8.5749
G1 X35.0463 Y8.5499
G1 X35.0424 Y8.5251
G1 X35.0369 Y8.5007
G1 X35.0299 Y8.4766
G1 X35.0214 Y8.4529
G1 X35.0114 Y8.4299
G1 X35.0 Y8.4076
G1 X34.9873 Y8.386
G1 X34.9732 Y8.3652
G1 X34.9578 Y8.3454
G1 X34.9412 Y8.3266
G1 X34.9234 Y8.3088
G1 X34.9046 Y8.2922
G1 X34.8848 Y8.2768
G1 X34.864 Y8.2627
G1 X34.8424 Y8.25
G1 X34.8201 Y8.2386
G1 X34.7971 Y8.2286
G1 X34.7734 Y8.2201
G1 X34.7493 Y8.2131
G1 X34.7248 Y8.2076
G1 X34.7001 Y8.2037
G1 X34.6751 Y8.2013
G1 X34.65 Y8.2005
G1 X34.6249 Y8.2013
G1 X34.5999 Y8.2037
G1 X34.5751 Y8.2076
G1 X34.5507 Y8.2131
G1 X34.5266 Y8.2201
G1 X34.5029 Y8.2286
G1 X34.4799 Y8.2386
G1 X34.4576 Y8.25
G1 X34.436 Y8.2627
G1 X34.4152 Y8.2768
G1 X34.3954 Y8.2922
G1 X34.3766 Y8.3088
G1 X34.3588 Y8.3266
G1 X34.3422 Y8.3454
G1 X34.3268 Y8.3652
G1 X34.3127 Y8.386
G1 X34.3 Y8.4076
G1 X34.2886 Y8.4299
G1 X34.2786 Y8.453
G1 X34.2701 Y8.4766
G1 X34.2631 Y8.5007
G1 X34.2576 Y8.5251
G1 X34.2537 Y8.5499
G1 X34.2513 Y8.5749
G1 X34.2505 Y8.6
G1 X34.2513 Y8.6251
G1 X34.2537 Y8.6501
G1 X34.2576 Y8.6748
G1 X34.2631 Y8.6993
G1 X34.2701 Y8.7234
G1 X34.2786 Y8.747
G1 X34.2886 Y8.7701
G1 F100.0 Z-3.2
G1 F600.0 X34.3 Y8.7924
G1 X34.3127 Y8.814
G1 X34.3268 Y8.8348
G1 X34.3422 Y8.8546
G1 X34.3588 Y8.8734
G1 X34.3766 Y8.8912
G1 X34.3954 Y8.9078
G1 X34.4152 Y8.9232
G1 X34.436 Y8.9373
G1 X34.4576 Y8.95
G1 X34.4799 Y8.9614
G1 X34.503 Y8.9714
G1 X34.5266 Y8.9799
G1 X34.5507 Y8.9869
G1 X34.5751 Y8.9924
G1 X34.5999 Y8.9963
G1 X34.6249 Y8.9987
G1 X34.65 Y8.9995
G1 X34.6751 Y8.9987
G1 X34.7001 Y8.9963
G1 X34.7248 Y8.9924
G1 X34.7493 Y8.9869
G1 X34.7734 Y8.9799
G1 X34.797 Y8.9714
G1 X34.8201 Y8.9614
G1 X34.8424 Y8.95
G1 X34.864 Y8.9373
G1 X34.8848 Y8.9232
G1 X34.9046 Y8.9078
G1 X34.9234 Y8.8912
G1 X34.9412 Y8.8734
G1 X34.9578 Y8.8546
G1 X34.9732 Y8.8348
G1 X34.9873 Y8.814
G1 X35.0 Y8.7924
G1 X35.0114 Y8.7701
G1 X35.0214 Y8.7471
G1 X35.0299 Y8.7234
G1 X35.0369 Y8.6993
G1 X35.0424 Y8.6748
G1 X35.0463 Y8.6501
G1 X35.0487 Y8.6251
G1 X35.0495 Y8.6
G1 X35.0487 Y8.5749
G1 X35.0463 Y8.5499
G1 X35.0424 Y8.5251
G1 X35.0369 Y8.5007
G1 X35.0299 Y8.4766
G1 X35.0214 Y8.4529
G1 X35.0114 Y8.4299
G1 X35.0 Y8.4076
G1 X34.9873 Y8.386
G1 X34.9732 Y8.3652
G1 X34.9578 Y8.3454
G1 X34.9412 Y8.3266
G1 X34.9234 Y8.3088
G1 X34.9046 Y8.2922
G1 X34.8848 Y8.2768
G1 X34.864 Y8.2627
G1 X34.8424 Y8.25
G1 X34.8201 Y8.2386
G1 X34.7971 Y8.2286
G1 X34.7734 Y8.2201
G1 X34.7493 Y8.2131
G1 X34.7248 Y8.2076
G1 X34.7001 Y8.2037
G1 X34.6751 Y8.2013
G1 X34.65 Y8.2005
G1 X34.6249 Y8.2013
G1 X34.5999 Y8.2037
G1 X34.5751 Y8.2076
G1 X34.5507 Y8.2131
G1 X34.5266 Y8.2201
G1 X34.5029 Y8.2286
G1 X34.4799 Y8.2386
G1 X34.4576 Y8.25
G1 X34.436 Y8.2627
G1 X34.4152 Y8.2768
G1 X34.3954 Y8.2922
G1 X34.3766 Y8.3088
G1 X34.3588 Y8.3266
G1 X34.3422 Y8.3454
G1 X34.3268 Y8.3652
G1 X34.3127 Y8.386
G1 X34.3 Y8.4076
G1 X34.2886 Y8.4299
G1 X34.2786 Y8.453
G1 X34.2701 Y8.4766
G1 X34.2631 Y8.5007
G1 X34.2576 Y8.5251
G1 X34.2537 Y8.5499
G1 X34.2513 Y8.5749
G1 X34.2505 Y8.6
G1 X34.2513 Y8.6251
G1 X34.2537 Y8.6501
G1 X34.2576 Y8.6748
G1 X34.2631 Y8.6993
G1 X34.2701 Y8.7234
G1 X34.2786 Y8.747
G1 X34.2886 Y8.7701
G1 F100.0 Z-3.6
G1 F600.0 X34.3 Y8.7924
G1 X34.3127 Y8.814
G1 X34.3268 Y8.8348
G1 X34.3422 Y8.8546
G1 X34.3588 Y8.8734
G1 X34.3766 Y8.8912
G1 X34.3954 Y8.9078
G1 X34.4152 Y8.9232
G1 X34.436 Y8.9373
G1 X34.4576 Y8.95
G1 X34.4799 Y8.9614
G1 X34.503 Y8.9714
G1 X34.5266 Y8.9799
G1 X34.5507 Y8.9869
G1 X34.5751 Y8.9924
G1 X34.5999 Y8.9963
G1 X34.6249 Y8.9987
G1 X34.65 Y8.9995
G1 X34.6751 Y8.9987
G1 X34.7001 Y8.9963
G1 X34.7248 Y8.9924
G1 X34.7493 Y8.9869
G1 X34.7734 Y8.9799
G1 X34.797 Y8.9714
G1 X34.8201 Y8.9614
G1 X34.8424 Y8.95
G1 X34.864 Y8.9373
G1 X34.8848 Y8.9232
G1 X34.9046 Y8.9078
G1 X34.9234 Y8.8912
G1 X34.9412 Y8.8734
G1 X34.9578 Y8.8546
G1 X34.9732 Y8.8348
G1 X34.9873 Y8.814
G1 X35.0 Y8.7924
G1 X35.0114 Y8.7701
G1 X35.0214 Y8.7471
G1 X35.0299 Y8.7234
G1 X35.0369 Y8.6993
G1 X35.0424 Y8.6748
G1 X35.0463 Y8.6501
G1 X35.0487 Y8.6251
G1 X35.0495 Y8.6
G1 X35.0487 Y8.5749
G1 X35.0463 Y8.5499
G1 X35.0424 Y8.5251
G1 X35.0369 Y8.5007
G1 X35.0299 Y8.4766
G1 X35.0214 Y8.4529
G1 X35.0114 Y8.4299
G1 X35.0 Y8.4076
G1 X34.9873 Y8.386
G1 X34.9732 Y8.3652
G1 X34.9578 Y8.3454
G1 X34.9412 Y8.3266
G1 X34.9234 Y8.3088
G1 X34.9046 Y8.2922
G1 X34.8848 Y8.2768
G1 X34.864 Y8.2627
G1 X34.8424 Y8.25
G1 X34.8201 Y8.2386
G1 X34.7971 Y8.2286
G1 X34.7734 Y8.2201
G1 X34.7493 Y8.2131
G1 X34.7248 Y8.2076
G1 X34.7001 Y8.2037
G1 X34.6751 Y8.2013
G1 X34.65 Y8.2005
G1 X34.6249 Y8.2013
G1 X34.5999 Y8.2037
G1 X34.5751 Y8.2076
G1 X34.5507 Y8.2131
G1 X34.5266 Y8.2201
G1 X34.5029 Y8.2286
G1 X34.4799 Y8.2386
G1 X34.4576 Y8.25
G1 X34.436 Y8.2627
G1 X34.4152 Y8.2768
G1 X34.3954 Y8.2922
G1 X34.3766 Y8.3088
G1 X34.3588 Y8.3266
G1 X34.3422 Y8.3454
G1 X34.3268 Y8.3652
G1 X34.3127 Y8.386
G1 X34.3 Y8.4076
G1 X34.2886 Y8.4299
G1 X34.2786 Y8.453
G1 X34.2701 Y8.4766
G1 X34.2631 Y8.5007
G1 X34.2576 Y8.5251
G1 X34.2537 Y8.5499
G1 X34.2513 Y8.5749
G1 X34.2505 Y8.6
G1 X34.2513 Y8.6251
G1 X34.2537 Y8.6501
G1 X34.2576 Y8.6748
G1 X34.2631 Y8.6993
G1 X34.2701 Y8.7234
G1 X34.2786 Y8.747
G1 X34.2886 Y8.7701
G1 F100.0 Z-3.9
G1 F600.0 X34.3 Y8.7924
G1 X34.3127 Y8.814
G1 X34.3268 Y8.8348
G1 X34.3422 Y8.8546
G1 X34.3588 Y8.8734
G1 X34.3766 Y8.8912
G1 X34.3954 Y8.9078
G1 X34.4152 Y8.9232
G1 X34.436 Y8.9373
G1 X34.4576 Y8.95
G1 X34.4799 Y8.9614
G1 X34.503 Y8.9714
G1 X34.5266 Y8.9799
G1 X34.5507 Y8.9869
G1 X34.5751 Y8.9924
G1 X34.5999 Y8.9963
G1 X34.6249 Y8.9987
G1 X34.65 Y8.9995
G1 X34.6751 Y8.9987
G1 X34.7001 Y8.9963
G1 X34.7248 Y8.9924
G1 X34.7493 Y8.9869
G1 X34.7734 Y8.9799
G1 X34.797 Y8.9714
G1 X34.8201 Y8.9614
G1 X34.8424 Y8.95
G1 X34.864 Y8.9373
G1 X34.8848 Y8.9232
G1 X34.9046 Y8.9078
G1 X34.9234 Y8.8912
G1 X34.9412 Y8.8734
G1 X34.9578 Y8.8546
G1 X34.9732 Y8.8348
G1 X34.9873 Y8.814
G1 X35.0 Y8.7924
G1 X35.0114 Y8.7701
G1 X35.0214 Y8.7471
G1 X35.0299 Y8.7234
G1 X35.0369 Y8.6993
G1 X35.0424 Y8.6748
G1 X35.0463 Y8.6501
G1 X35.0487 Y8.6251
G1 X35.0495 Y8.6
G1 X35.0487 Y8.5749
G1 X35.0463 Y8.5499
G1 X35.0424 Y8.5251
G1 X35.0369 Y8.5007
G1 X35.0299 Y8.4766
G1 X35.0214 Y8.4529
G1 X35.0114 Y8.4299
G1 X35.0 Y8.4076
G1 X34.9873 Y8.386
G1 X34.9732 Y8.3652
G1 X34.9578 Y8.3454
G1 X34.9412 Y8.3266
G1 X34.9234 Y8.3088
G1 X34.9046 Y8.2922
G1 X34.8848 Y8.2768
G1 X34.864 Y8.2627
G1 X34.8424 Y8.25
G1 X34.8201 Y8.2386
G1 X34.7971 Y8.2286
G1 X34.7734 Y8.2201
G1 X34.7493 Y8.2131
G1 X34.7248 Y8.2076
G1 X34.7001 Y8.2037
G1 X34.6751 Y8.2013
G1 X34.65 Y8.2005
G1 X34.6249 Y8.2013
G1 X34.5999 Y8.2037
G1 X34.5751 Y8.2076
G1 X34.5507 Y8.2131
G1 X34.5266 Y8.2201
G1 X34.5029 Y8.2286
G1 X34.4799 Y8.2386
G1 X34.4576 Y8.25
G1 X34.436 Y8.2627
G1 X34.4152 Y8.2768
G1 X34.3954 Y8.2922
G1 X34.3766 Y8.3088
G1 X34.3588 Y8.3266
G1 X34.3422 Y8.3454
G1 X34.3268 Y8.3652
G1 X34.3127 Y8.386
G1 X34.3 Y8.4076
G1 X34.2886 Y8.4299
G1 X34.2786 Y8.453
G1 X34.2701 Y8.4766
G1 X34.2631 Y8.5007
G1 X34.2576 Y8.5251
G1 X34.2537 Y8.5499
G1 X34.2513 Y8.5749
G1 X34.2505 Y8.6
G1 X34.2513 Y8.6251
G1 X34.2537 Y8.6501
G1 X34.2576 Y8.6748
G1 X34.2631 Y8.6993
G1 X34.2701 Y8.7234
G1 X34.2786 Y8.747
G1 X34.2886 Y8.7701
G1 F100.0 Z-4.2
G1 F600.0 X34.3 Y8.7924
G1 X34.3127 Y8.814
G1 X34.3268 Y8.8348
G1 X34.3422 Y8.8546
G1 X34.3588 Y8.8734
G1 X34.3766 Y8.8912
G1 X34.3954 Y8.9078
G1 X34.4152 Y8.9232
G1 X34.436 Y8.9373
G1 X34.4576 Y8.95
G1 X34.4799 Y8.9614
G1 X34.503 Y8.9714
G1 X34.5266 Y8.9799
G1 X34.5507 Y8.9869
G1 X34.5751 Y8.9924
G1 X34.5999 Y8.9963
G1 X34.6249 Y8.9987
G1 X34.65 Y8.9995
G1 X34.6751 Y8.9987
G1 X34.7001 Y8.9963
G1 X34.7248 Y8.9924
G1 X34.7493 Y8.9869
G1 X34.7734 Y8.9799
G1 X34.797 Y8.9714
G1 X34.8201 Y8.9614
G1 X34.8424 Y8.95
G1 X34.864 Y8.9373
G1 X34.8848 Y8.9232
G1 X34.9046 Y8.9078
G1 X34.9234 Y8.8912
G1 X34.9412 Y8.8734
G1 X34.9578 Y8.8546
G1 X34.9732 Y8.8348
G1 X34.9873 Y8.814
G1 X35.0 Y8.7924
G1 X35.0114 Y8.7701
G1 X35.0214 Y8.7471
G1 X35.0299 Y8.7234
G1 X35.0369 Y8.6993
G1 X35.0424 Y8.6748
G1 X35.0463 Y8.6501
G1 X35.0487 Y8.6251
G1 X35.0495 Y8.6
G1 X35.0487 Y8.5749
G1 X35.0463 Y8.5499
G1 X35.0424 Y8.5251
G1 X35.0369 Y8.5007
G1 X35.0299 Y8.4766
G1 X35.0214 Y8.4529
G1 X35.0114 Y8.4299
G1 X35.0 Y8.4076
G1 X34.9873 Y8.386
G1 X34.9732 Y8.3652
G1 X34.9578 Y8.3454
G1 X34.9412 Y8.3266
G1 X34.9234 Y8.3088
G1 X34.9046 Y8.2922
G1 X34.8848 Y8.2768
G1 X34.864 Y8.2627
G1 X34.8424 Y8.25
G1 X34.8201 Y8.2386
G1 X34.7971 Y8.2286
G1 X34.7734 Y8.2201
G1 X34.7493 Y8.2131
G1 X34.7248 Y8.2076
G1 X34.7001 Y8.2037
G1 X34.6751 Y8.2013
G1 X34.65 Y8.2005
G1 X34.6249 Y8.2013
G1 X34.5999 Y8.2037
G1 X34.5751 Y8.2076
G1 X34.5507 Y8.2131
G1 X34.5266 Y8.2201
G1 X34.5029 Y8.2286
G1 X34.4799 Y8.2386
G1 X34.4576 Y8.25
G1 X34.436 Y8.2627
G1 X34.4152 Y8.2768
G1 X34.3954 Y8.2922
G1 X34.3766 Y8.3088
G1 X34.3588 Y8.3266
G1 X34.3422 Y8.3454
G1 X34.3268 Y8.3652
G1 X34.3127 Y8.386
G1 X34.3 Y8.4076
G1 X34.2886 Y8.4299
G1 X34.2786 Y8.453
G1 X34.2701 Y8.4766
G1 X34.2631 Y8.5007
G1 X34.2576 Y8.5251
G1 X34.2537 Y8.5499
G1 X34.2513 Y8.5749
G1 X34.2505 Y8.6
G1 X34.2513 Y8.6251
G1 X34.2537 Y8.6501
G1 X34.2576 Y8.6748
G1 X34.2631 Y8.6993
G1 X34.2701 Y8.7234
G1 X34.2786 Y8.747
G1 X34.2886 Y8.7701
G0 Z3.0
G0 X42.0588 Y16.1266
G0 Z1.0
G1 F100.0 Z-0.4
G1 F600.0 X42.0422 Y16.1454
G1 X42.0268 Y16.1652
G1 X42.0127 Y16.186
G1 X42.0 Y16.2076
G1 X41.9886 Y16.2299
G1 X41.9786 Y16.2529
G1 X41.9701 Y16.2766
G1 X41.9631 Y16.3007
G1 X41.9576 Y16.3252
G1 X41.9537 Y16.35
G1 X41.9513 Y16.3749
G1 X41.9505 Y16.4
G1 X41.9513 Y16.4251
G1 X41.9537 Y16.45
G1 X41.9576 Y16.4749
G1 X41.9631 Y16.4994
G1 X41.9701 Y16.5234
G1 X41.9786 Y16.5471
G1 X41.9886 Y16.5701
G1 X42.0 Y16.5924
G1 X42.0127 Y16.614
G1 X42.0268 Y16.6348
G1 X42.0422 Y16.6546
G1 X42.0588 Y16.6734
G1 X42.0766 Y16.6912
G1 X42.0954 Y16.7078
G1 X42.1152 Y16.7232
G1 X42.136 Y16.7373
G1 X42.1576 Y16.75
G1 X42.1799 Y16.7614
G1 X42.2029 Y16.7714
G1 X42.2266 Y16.7799
G1 X42.2507 Y16.7869
G1 X42.2751 Y16.7924
G1 X42.2999 Y16.7963
G1 X42.3249 Y16.7987
G1 X42.35 Y16.7995
G1 X42.3751 Y16.7987
G1 X42.4001 Y16.7963
G1 X42.4248 Y16.7924
G1 X42.4493 Y16.7869
G1 X42.4734 Y16.7799
G1 X42.4971 Y16.7714
G1 X42.5201 Y16.7614
G1 X42.5424 Y16.75
G1 X42.564 Y16.7373
G1 X42.5848 Y16.7232
G1 X42.6046 Y16.7078
G1 X42.6235 Y16.6912
G1 X42.6412 Y16.6734
G1 X42.6578 Y16.6546
G1 X42.6732 Y16.6348
G1 X42.6873 Y16.614
G1 X42.7 Y16.5924
G1 X42.7114 Y16.5701
G1 X42.7214 Y16.5471
G1 X42.7299 Y16.5234
G1 X42.7369 Y16.4993
G1 X42.7424 Y16.4749
G1 X42.7463 Y16.4501
G1 X42.7487 Y16.4251
G1 X42.7495 Y16.4
G1 X42.7487 Y16.3749
G1 X42.7463 Y16.3499
G1 X42.7424 Y16.3252
G1 X42.7369 Y16.3007
G1 X42.7299 Y16.2766
G1 X42.7214 Y16.2529
G1 X42.7114 Y16.2299
G1 X42.7 Y16.2076
G1 X42.6873 Y16.186
G1 X42.6732 Y16.1652
G1 X42.6578 Y16.1454
G1 X42.6412 Y16.1265
G1 X42.6235 Y16.1088
G1 X42.6046 Y16.0922
G1 X42.5848 Y16.0768
G1 X42.564 Y16.0627
G1 X42.5424 Y16.05
G1 X42.5201 Y16.0386
G1 X42.4971 Y16.0286
G1 X42.4734 Y16.0201
G1 X42.4493 Y16.0131
G1 X42.4248 Y16.0076
G1 X42.4001 Y16.0037
G1 X42.3751 Y16.0013
G1 X42.35 Y16.0005
G1 X42.3249 Y16.0013
G1 X42.2999 Y16.0037
G1 X42.2751 Y16.0076
G1 X42.2507 Y16.0131
G1 X42.2266 Y16.0201
G1 X42.203 Y16.0286
G1 X42.1799 Y16.0386
G1 X42.1576 Y16.05
G1 X42.136 Y16.0627
G1 X42.1152 Y16.0768
G1 X42.0954 Y16.0922
G1 X42.0766 Y16.1088
G1 X42.0588 Y16.1266
G1 F100.0 Z-0.8
G1 F600.0 X42.0422 Y16.1454
G1 X42.0268 Y16.1652
G1 X42.0127 Y16.186
G1 X42.0 Y16.2076
G1 X41.9886 Y16.2299
G1 X41.9786 Y16.2529
G1 X41.9701 Y16.2766
G1 X41.9631 Y16.3007
G1 X41.9576 Y16.3252
G1 X41.9537 Y16.35
G1 X41.9513 Y16.3749
G1 X41.9505 Y16.4
G1 X41.9513 Y16.4251
G1 X41.9537 Y16.45
G1 X41.9576 Y16.4749
G1 X41.9631 Y16.4994
G1 X41.9701 Y16.5234
G1 X41.9786 Y16.5471
G1 X41.9886 Y16.5701
G1 X42.0 Y16.5924
G1 X42.0127 Y16.614
G1 X42.0268 Y16.6348
G1 X42.0422 Y16.6546
G1 X42.0588 Y16.6734
G1 X42.0766 Y16.6912
G1 X42.0954 Y16.7078
G1 X42.1152 Y16.7232
G1 X42.136 Y16.7373
G1 X42.1576 Y16.75
G1 X42.1799 Y16.7614
G1 X42.2029 Y16.7714
G1 X42.2266 Y16.7799
G1 X42.2507 Y16.7869
G1 X42.2751 Y16.7924
G1 X42.2999 Y16.7963
G1 X42.3249 Y16.7987
G1 X42.35 Y16.7995
G1 X42.3751 Y16.7987
G1 X42.4001 Y16.7963
G1 X42.4248 Y16.7924
G1 X42.4493 Y16.7869
G1 X42.4734 Y16.7799
G1 X42.4971 Y16.7714
G1 X42.5201 Y16.7614
G1 X42.5424 Y16.75
G1 X42.564 Y16.7373
G1 X42.5848 Y16.7232
G1 X42.6046 Y16.7078
G1 X42.6235 Y16.6912
G1 X42.6412 Y16.6734
G1 X42.6578 Y16.6546
G1 X42.6732 Y16.6348
G1 X42.6873 Y16.614
G1 X42.7 Y16.5924
G1 X42.7114 Y16.5701
G1 X42.7214 Y16.5471
G1 X42.7299 Y16.5234
G1 X42.7369 Y16.4993
G1 X42.7424 Y16.4749
G1 X42.7463 Y16.4501
G1 X42.7487 Y16.4251
G1 X42.7495 Y16.4
G1 X42.7487 Y16.3749
G1 X42.7463 Y16.3499
G1 X42.7424 Y16.3252
G1 X42.7369 Y16.3007
G1 X42.7299 Y16.2766
G1 X42.7214 Y16.2529
G1 X42.7114 Y16.2299
G1 X42.7 Y16.2076
G1 X42.6873 Y16.186
G1 X42.6732 Y16.1652
G1 X42.6578 Y16.1454
G1 X42.6412 Y16.1265
G1 X42.6235 Y16.1088
G1 X42.6046 Y16.0922
G1 X42.5848 Y16.0768
G1 X42.564 Y16.0627
G1 X42.5424 Y16.05
G1 X42.5201 Y16.0386
G1 X42.4971 Y16.0286
G1 X42.4734 Y16.0201
G1 X42.4493 Y16.0131
G1 X42.4248 Y16.0076
G1 X42.4001 Y16.0037
G1 X42.3751 Y16.0013
G1 X42.35 Y16.0005
G1 X42.3249 Y16.0013
G1 X42.2999 Y16.0037
G1 X42.2751 Y16.0076
G1 X42.2507 Y16.0131
G1 X42.2266 Y16.0201
G1 X42.203 Y16.0286
G1 X42.1799 Y16.0386
G1 X42.1576 Y16.05
G1 X42.136 Y16.0627
G1 X42.1152 Y16.0768
G1 X42.0954 Y16.0922
G1 X42.0766 Y16.1088
G1 X42.0588 Y16.1266
G1 F100.0 Z-1.2
G1 F600.0 X42.0422 Y16.1454
G1 X42.0268 Y16.1652
G1 X42.0127 Y16.186
G1 X42.0 Y16.2076
G1 X41.9886 Y16.2299
G1 X41.9786 Y16.2529
G1 X41.9701 Y16.2766
G1 X41.9631 Y16.3007
G1 X41.9576 Y16.3252
G1 X41.9537 Y16.35
G1 X41.9513 Y16.3749
G1 X41.9505 Y16.4
G1 X41.9513 Y16.4251
G1 X41.9537 Y16.45
G1 X41.9576 Y16.4749
G1 X41.9631 Y16.4994
G1 X41.9701 Y16.5234
G1 X41.9786 Y16.5471
G1 X41.9886 Y16.5701
G1 X42.0 Y16.5924
G1 X42.0127 Y16.614
G1 X42.0268 Y16.6348
G1 X42.0422 Y16.6546
G1 X42.0588 Y16.6734
G1 X42.0766 Y16.6912
G1 X42.0954 Y16.7078
G1 X42.1152 Y16.7232
G1 X42.136 Y16.7373
G1 X42.1576 Y16.75
G1 X42.1799 Y16.7614
G1 X42.2029 Y16.7714
G1 X42.2266 Y16.7799
G1 X42.2507 Y16.7869
G1 X42.2751 Y16.7924
G1 X42.2999 Y16.7963
G1 X42.3249 Y16.7987
G1 X42.35 Y16.7995
G1 X42.3751 Y16.7987
G1 X42.4001 Y16.7963
G1 X42.4248 Y16.7924
G1 X42.4493 Y16.7869
G1 X42.4734 Y16.7799
G1 X42.4971 Y16.7714
G1 X42.5201 Y16.7614
G1 X42.5424 Y16.75
G1 X42.564 Y16.7373
G1 X42.5848 Y16.7232
G1 X42.6046 Y16.7078
G1 X42.6235 Y16.6912
G1 X42.6412 Y16.6734
G1 X42.6578 Y16.6546
G1 X42.6732 Y16.6348
G1 X42.6873 Y16.614
G1 X42.7 Y16.5924
G1 X42.7114 Y16.5701
G1 X42.7214 Y16.5471
G1 X42.7299 Y16.5234
G1 X42.7369 Y16.4993
G1 X42.7424 Y16.4749
G1 X42.7463 Y16.4501
G1 X42.7487 Y16.4251
G1 X42.7495 Y16.4
G1 X42.7487 Y16.3749
G1 X42.7463 Y16.3499
G1 X42.7424 Y16.3252
G1 X42.7369 Y16.3007
G1 X42.7299 Y16.2766
G1 X42.7214 Y16.2529
G1 X42.7114 Y16.2299
G1 X42.7 Y16.2076
G1 X42.6873 Y16.186
G1 X42.6732 Y16.1652
G1 X42.6578 Y16.1454
G1 X42.6412 Y16.1265
G1 X42.6235 Y16.1088
G1 X42.6046 Y16.0922
G1 X42.5848 Y16.0768
G1 X42.564 Y16.0627
G1 X42.5424 Y16.05
G1 X42.5201 Y16.0386
G1 X42.4971 Y16.0286
G1 X42.4734 Y16.0201
G1 X42.4493 Y16.0131
G1 X42.4248 Y16.0076
G1 X42.4001 Y16.0037
G1 X42.3751 Y16.0013
G1 X42.35 Y16.0005
G1 X42.3249 Y16.0013
G1 X42.2999 Y16.0037
G1 X42.2751 Y16.0076
G1 X42.2507 Y16.0131
G1 X42.2266 Y16.0201
G1 X42.203 Y16.0286
G1 X42.1799 Y16.0386
G1 X42.1576 Y16.05
G1 X42.136 Y16.0627
G1 X42.1152 Y16.0768
G1 X42.0954 Y16.0922
G1 X42.0766 Y16.1088
G1 X42.0588 Y16.1266
G1 F100.0 Z-1.6
G1 F600.0 X42.0422 Y16.1454
G1 X42.0268 Y16.1652
G1 X42.0127 Y16.186
G1 X42.0 Y16.2076
G1 X41.9886 Y16.2299
G1 X41.9786 Y16.2529
G1 X41.9701 Y16.2766
G1 X41.9631 Y16.3007
G1 X41.9576 Y16.3252
G1 X41.9537 Y16.35
G1 X41.9513 Y16.3749
G1 X41.9505 Y16.4
G1 X41.9513 Y16.4251
G1 X41.9537 Y16.45
G1 X41.9576 Y16.4749
G1 X41.9631 Y16.4994
G1 X41.9701 Y16.5234
G1 X41.9786 Y16.5471
G1 X41.9886 Y16.5701
G1 X42.0 Y16.5924
G1 X42.0127 Y16.614
G1 X42.0268 Y16.6348
G1 X42.0422 Y16.6546
G1 X42.0588 Y16.6734
G1 X42.0766 Y16.6912
G1 X42.0954 Y16.7078
G1 X42.1152 Y16.7232
G1 X42.136 Y16.7373
G1 X42.1576 Y16.75
G1 X42.1799 Y16.7614
G1 X42.2029 Y16.7714
G1 X42.2266 Y16.7799
G1 X42.2507 Y16.7869
G1 X42.2751 Y16.7924
G1 X42.2999 Y16.7963
G1 X42.3249 Y16.7987
G1 X42.35 Y16.7995
G1 X42.3751 Y16.7987
G1 X42.4001 Y16.7963
G1 X42.4248 Y16.7924
G1 X42.4493 Y16.7869
G1 X42.4734 Y16.7799
G1 X42.4971 Y16.7714
G1 X42.5201 Y16.7614
G1 X42.5424 Y16.75
G1 X42.564 Y16.7373
G1 X42.5848 Y16.7232
G1 X42.6046 Y16.7078
G1 X42.6235 Y16.6912
G1 X42.6412 Y16.6734
G1 X42.6578 Y16.6546
G1 X42.6732 Y16.6348
G1 X42.6873 Y16.614
G1 X42.7 Y16.5924
G1 X42.7114 Y16.5701
G1 X42.7214 Y16.5471
G1 X42.7299 Y16.5234
G1 X42.7369 Y16.4993
G1 X42.7424 Y16.4749
G1 X42.7463 Y16.4501
G1 X42.7487 Y16.4251
G1 X42.7495 Y16.4
G1 X42.7487 Y16.3749
G1 X42.7463 Y16.3499
G1 X42.7424 Y16.3252
G1 X42.7369 Y16.3007
G1 X42.7299 Y16.2766
G1 X42.7214 Y16.2529
G1 X42.7114 Y16.2299
G1 X42.7 Y16.2076
G1 X42.6873 Y16.186
G1 X42.6732 Y16.1652
G1 X42.6578 Y16.1454
G1 X42.6412 Y16.1265
G1 X42.6235 Y16.1088
G1 X42.6046 Y16.0922
G1 X42.5848 Y16.0768
G1 X42.564 Y16.0627
G1 X42.5424 Y16.05
G1 X42.5201 Y16.0386
G1 X42.4971 Y16.0286
G1 X42.4734 Y16.0201
G1 X42.4493 Y16.0131
G1 X42.4248 Y16.0076
G1 X42.4001 Y16.0037
G1 X42.3751 Y16.0013
G1 X42.35 Y16.0005
G1 X42.3249 Y16.0013
G1 X42.2999 Y16.0037
G1 X42.2751 Y16.0076
G1 X42.2507 Y16.0131
G1 X42.2266 Y16.0201
G1 X42.203 Y16.0286
G1 X42.1799 Y16.0386
G1 X42.1576 Y16.05
G1 X42.136 Y16.0627
G1 X42.1152 Y16.0768
G1 X42.0954 Y16.0922
G1 X42.0766 Y16.1088
G1 X42.0588 Y16.1266
G1 F100.0 Z-2.0
G1 F600.0 X42.0422 Y16.1454
G1 X42.0268 Y16.1652
G1 X42.0127 Y16.186
G1 X42.0 Y16.2076
G1 X41.9886 Y16.2299
G1 X41.9786 Y16.2529
G1 X41.9701 Y16.2766
G1 X41.9631 Y16.3007
G1 X41.9576 Y16.3252
G1 X41.9537 Y16.35
G1 X41.9513 Y16.3749
G1 X41.9505 Y16.4
G1 X41.9513 Y16.4251
G1 X41.9537 Y16.45
G1 X41.9576 Y16.4749
G1 X41.9631 Y16.4994
G1 X41.9701 Y16.5234
G1 X41.9786 Y16.5471
G1 X41.9886 Y16.5701
G1 X42.0 Y16.5924
G1 X42.0127 Y16.614
G1 X42.0268 Y16.6348
G1 X42.0422 Y16.6546
G1 X42.0588 Y16.6734
G1 X42.0766 Y16.6912
G1 X42.0954 Y16.7078
G1 X42.1152 Y16.7232
G1 X42.136 Y16.7373
G1 X42.1576 Y16.75
G1 X42.1799 Y16.7614
G1 X42.2029 Y16.7714
G1 X42.2266 Y16.7799
G1 X42.2507 Y16.7869
G1 X42.2751 Y16.7924
G1 X42.2999 Y16.7963
G1 X42.3249 Y16.7987
G1 X42.35 Y16.7995
G1 X42.3751 Y16.7987
G1 X42.4001 Y16.7963
G1 X42.4248 Y16.7924
G1 X42.4493 Y16.7869
G1 X42.4734 Y16.7799
G1 X42.4971 Y16.7714
G1 X42.5201 Y16.7614
G1 X42.5424 Y16.75
G1 X42.564 Y16.7373
G1 X42.5848 Y16.7232
G1 X42.6046 Y16.7078
G1 X42.6235 Y16.6912
G1 X42.6412 Y16.6734
G1 X42.6578 Y16.6546
G1 X42.6732 Y16.6348
G1 X42.6873 Y16.614
G1 X42.7 Y16.5924
G1 X42.7114 Y16.5701
G1 X42.7214 Y16.5471
G1 X42.7299 Y16.5234
G1 X42.7369 Y16.4993
G1 X42.7424 Y16.4749
G1 X42.7463 Y16.4501
G1 X42.7487 Y16.4251
G1 X42.7495 Y16.4
G1 X42.7487 Y16.3749
G1 X42.7463 Y16.3499
G1 X42.7424 Y16.3252
G1 X42.7369 Y16.3007
G1 X42.7299 Y16.2766
G1 X42.7214 Y16.2529
G1 X42.7114 Y16.2299
G1 X42.7 Y16.2076
G1 X42.6873 Y16.186
G1 X42.6732 Y16.1652
G1 X42.6578 Y16.1454
G1 X42.6412 Y16.1265
G1 X42.6235 Y16.1088
G1 X42.6046 Y16.0922
G1 X42.5848 Y16.0768
G1 X42.564 Y16.0627
G1 X42.5424 Y16.05
G1 X42.5201 Y16.0386
G1 X42.4971 Y16.0286
G1 X42.4734 Y16.0201
G1 X42.4493 Y16.0131
G1 X42.4248 Y16.0076
G1 X42.4001 Y16.0037
G1 X42.3751 Y16.0013
G1 X42.35 Y16.0005
G1 X42.3249 Y16.0013
G1 X42.2999 Y16.0037
G1 X42.2751 Y16.0076
G1 X42.2507 Y16.0131
G1 X42.2266 Y16.0201
G1 X42.203 Y16.0286
G1 X42.1799 Y16.0386
G1 X42.1576 Y16.05
G1 X42.136 Y16.0627
G1 X42.1152 Y16.0768
G1 X42.0954 Y16.0922
G1 X42.0766 Y16.1088
G1 X42.0588 Y16.1266
G1 F100.0 Z-2.4
G1 F600.0 X42.0422 Y16.1454
G1 X42.0268 Y16.1652
G1 X42.0127 Y16.186
G1 X42.0 Y16.2076
G1 X41.9886 Y16.2299
G1 X41.9786 Y16.2529
G1 X41.9701 Y16.2766
G1 X41.9631 Y16.3007
G1 X41.9576 Y16.3252
G1 X41.9537 Y16.35
G1 X41.9513 Y16.3749
G1 X41.9505 Y16.4
G1 X41.9513 Y16.4251
G1 X41.9537 Y16.45
G1 X41.9576 Y16.4749
G1 X41.9631 Y16.4994
G1 X41.9701 Y16.5234
G1 X41.9786 Y16.5471
G1 X41.9886 Y16.5701
G1 X42.0 Y16.5924
G1 X42.0127 Y16.614
G1 X42.0268 Y16.6348
G1 X42.0422 Y16.6546
G1 X42.0588 Y16.6734
G1 X42.0766 Y16.6912
G1 X42.0954 Y16.7078
G1 X42.1152 Y16.7232
G1 X42.136 Y16.7373
G1 X42.1576 Y16.75
G1 X42.1799 Y16.7614
G1 X42.2029 Y16.7714
G1 X42.2266 Y16.7799
G1 X42.2507 Y16.7869
G1 X42.2751 Y16.7924
G1 X42.2999 Y16.7963
G1 X42.3249 Y16.7987
G1 X42.35 Y16.7995
G1 X42.3751 Y16.7987
G1 X42.4001 Y16.7963
G1 X42.4248 Y16.7924
G1 X42.4493 Y16.7869
G1 X42.4734 Y16.7799
G1 X42.4971 Y16.7714
G1 X42.5201 Y16.7614
G1 X42.5424 Y16.75
G1 X42.564 Y16.7373
G1 X42.5848 Y16.7232
G1 X42.6046 Y16.7078
G1 X42.6235 Y16.6912
G1 X42.6412 Y16.6734
G1 X42.6578 Y16.6546
G1 X42.6732 Y16.6348
G1 X42.6873 Y16.614
G1 X42.7 Y16.5924
G1 X42.7114 Y16.5701
G1 X42.7214 Y16.5471
G1 X42.7299 Y16.5234
G1 X42.7369 Y16.4993
G1 X42.7424 Y16.4749
G1 X42.7463 Y16.4501
G1 X42.7487 Y16.4251
G1 X42.7495 Y16.4
G1 X42.7487 Y16.3749
G1 X42.7463 Y16.3499
G1 X42.7424 Y16.3252
G1 X42.7369 Y16.3007
G1 X42.7299 Y16.2766
G1 X42.7214 Y16.2529
G1 X42.7114 Y16.2299
G1 X42.7 Y16.2076
G1 X42.6873 Y16.186
G1 X42.6732 Y16.1652
G1 X42.6578 Y16.1454
G1 X42.6412 Y16.1265
G1 X42.6235 Y16.1088
G1 X42.6046 Y16.0922
G1 X42.5848 Y16.0768
G1 X42.564 Y16.0627
G1 X42.5424 Y16.05
G1 X42.5201 Y16.0386
G1 X42.4971 Y16.0286
G1 X42.4734 Y16.0201
G1 X42.4493 Y16.0131
G1 X42.4248 Y16.0076
G1 X42.4001 Y16.0037
G1 X42.3751 Y16.0013
G1 X42.35 Y16.0005
G1 X42.3249 Y16.0013
G1 X42.2999 Y16.0037
G1 X42.2751 Y16.0076
G1 X42.2507 Y16.0131
G1 X42.2266 Y16.0201
G1 X42.203 Y16.0286
G1 X42.1799 Y16.0386
G1 X42.1576 Y16.05
G1 X42.136 Y16.0627
G1 X42.1152 Y16.0768
G1 X42.0954 Y16.0922
G1 X42.0766 Y16.1088
G1 X42.0588 Y16.1266
G1 F100.0 Z-2.8
G1 F600.0 X42.0422 Y16.1454
G1 X42.0268 Y16.1652
G1 X42.0127 Y16.186
G1 X42.0 Y16.2076
G1 X41.9886 Y16.2299
G1 X41.9786 Y16.2529
G1 X41.9701 Y16.2766
G1 X41.9631 Y16.3007
G1 X41.9576 Y16.3252
G1 X41.9537 Y16.35
G1 X41.9513 Y16.3749
G1 X41.9505 Y16.4
G1 X41.9513 Y16.4251
G1 X41.9537 Y16.45
G1 X41.9576 Y16.4749
G1 X41.9631 Y16.4994
G1 X41.9701 Y16.5234
G1 X41.9786 Y16.5471
G1 X41.9886 Y16.5701
G1 X42.0 Y16.5924
G1 X42.0127 Y16.614
G1 X42.0268 Y16.6348
G1 X42.0422 Y16.6546
G1 X42.0588 Y16.6734
G1 X42.0766 Y16.6912
G1 X42.0954 Y16.7078
G1 X42.1152 Y16.7232
G1 X42.136 Y16.7373
G1 X42.1576 Y16.75
G1 X42.1799 Y16.7614
G1 X42.2029 Y16.7714
G1 X42.2266 Y16.7799
G1 X42.2507 Y16.7869
G1 X42.2751 Y16.7924
G1 X42.2999 Y16.7963
G1 X42.3249 Y16.7987
G1 X42.35 Y16.7995
G1 X42.3751 Y16.7987
G1 X42.4001 Y16.7963
G1 X42.4248 Y16.7924
G1 X42.4493 Y16.7869
G1 X42.4734 Y16.7799
G1 X42.4971 Y16.7714
G1 X42.5201 Y16.7614
G1 X42.5424 Y16.75
G1 X42.564 Y16.7373
G1 X42.5848 Y16.7232
G1 X42.6046 Y16.7078
G1 X42.6235 Y16.6912
G1 X42.6412 Y16.6734
G1 X42.6578 Y16.6546
G1 X42.6732 Y16.6348
G1 X42.6873 Y16.614
G1 X42.7 Y16.5924
G1 X42.7114 Y16.5701
G1 X42.7214 Y16.5471
G1 X42.7299 Y16.5234
G1 X42.7369 Y16.4993
G1 X42.7424 Y16.4749
G1 X42.7463 Y16.4501
G1 X42.7487 Y16.4251
G1 X42.7495 Y16.4
G1 X42.7487 Y16.3749
G1 X42.7463 Y16.3499
G1 X42.7424 Y16.3252
G1 X42.7369 Y16.3007
G1 X42.7299 Y16.2766
G1 X42.7214 Y16.2529
G1 X42.7114 Y16.2299
G1 X42.7 Y16.2076
G1 X42.6873 Y16.186
G1 X42.6732 Y16.1652
G1 X42.6578 Y16.1454
G1 X42.6412 Y16.1265
G1 X42.6235 Y16.1088
G1 X42.6046 Y16.0922
G1 X42.5848 Y16.0768
G1 X42.564 Y16.0627
G1 X42.5424 Y16.05
G1 X42.5201 Y16.0386
G1 X42.4971 Y16.0286
G1 X42.4734 Y16.0201
G1 X42.4493 Y16.0131
G1 X42.4248 Y16.0076
G1 X42.4001 Y16.0037
G1 X42.3751 Y16.0013
G1 X42.35 Y16.0005
G1 X42.3249 Y16.0013
G1 X42.2999 Y16.0037
G1 X42.2751 Y16.0076
G1 X42.2507 Y16.0131
G1 X42.2266 Y16.0201
G1 X42.203 Y16.0286
G1 X42.1799 Y16.0386
G1 X42.1576 Y16.05
G1 X42.136 Y16.0627
G1 X42.1152 Y16.0768
G1 X42.0954 Y16.0922
G1 X42.0766 Y16.1088
G1 X42.0588 Y16.1266
G1 F100.0 Z-3.2
G1 F600.0 X42.0422 Y16.1454
G1 X42.0268 Y16.1652
G1 X42.0127 Y16.186
G1 X42.0 Y16.2076
G1 X41.9886 Y16.2299
G1 X41.9786 Y16.2529
G1 X41.9701 Y16.2766
G1 X41.9631 Y16.3007
G1 X41.9576 Y16.3252
G1 X41.9537 Y16.35
G1 X41.9513 Y16.3749
G1 X41.9505 Y16.4
G1 X41.9513 Y16.4251
G1 X41.9537 Y16.45
G1 X41.9576 Y16.4749
G1 X41.9631 Y16.4994
G1 X41.9701 Y16.5234
G1 X41.9786 Y16.5471
G1 X41.9886 Y16.5701
G1 X42.0 Y16.5924
G1 X42.0127 Y16.614
G1 X42.0268 Y16.6348
G1 X42.0422 Y16.6546
G1 X42.0588 Y16.6734
G1 X42.0766 Y16.6912
G1 X42.0954 Y16.7078
G1 X42.1152 Y16.7232
G1 X42.136 Y16.7373
G1 X42.1576 Y16.75
G1 X42.1799 Y16.7614
G1 X42.2029 Y16.7714
G1 X42.2266 Y16.7799
G1 X42.2507 Y16.7869
G1 X42.2751 Y16.7924
G1 X42.2999 Y16.7963
G1 X42.3249 Y16.7987
G1 X42.35 Y16.7995
G1 X42.3751 Y16.7987
G1 X42.4001 Y16.7963
G1 X42.4248 Y16.7924
G1 X42.4493 Y16.7869
G1 X42.4734 Y16.7799
G1 X42.4971 Y16.7714
G1 X42.5201 Y16.7614
G1 X42.5424 Y16.75
G1 X42.564 Y16.7373
G1 X42.5848 Y16.7232
G1 X42.6046 Y16.7078
G1 X42.6235 Y16.6912
G1 X42.6412 Y16.6734
G1 X42.6578 Y16.6546
G1 X42.6732 Y16.6348
G1 X42.6873 Y16.614
G1 X42.7 Y16.5924
G1 X42.7114 Y16.5701
G1 X42.7214 Y16.5471
G1 X42.7299 Y16.5234
G1 X42.7369 Y16.4993
G1 X42.7424 Y16.4749
G1 X42.7463 Y16.4501
G1 X42.7487 Y16.4251
G1 X42.7495 Y16.4
G1 X42.7487 Y16.3749
G1 X42.7463 Y16.3499
G1 X42.7424 Y16.3252
G1 X42.7369 Y16.3007
G1 X42.7299 Y16.2766
G1 X42.7214 Y16.2529
G1 X42.7114 Y16.2299
G1 X42.7 Y16.2076
G1 X42.6873 Y16.186
G1 X42.6732 Y16.1652
G1 X42.6578 Y16.1454
G1 X42.6412 Y16.1265
G1 X42.6235 Y16.1088
G1 X42.6046 Y16.0922
G1 X42.5848 Y16.0768
G1 X42.564 Y16.0627
G1 X42.5424 Y16.05
G1 X42.5201 Y16.0386
G1 X42.4971 Y16.0286
G1 X42.4734 Y16.0201
G1 X42.4493 Y16.0131
G1 X42.4248 Y16.0076
G1 X42.4001 Y16.0037
G1 X42.3751 Y16.0013
G1 X42.35 Y16.0005
G1 X42.3249 Y16.0013
G1 X42.2999 Y16.0037
G1 X42.2751 Y16.0076
G1 X42.2507 Y16.0131
G1 X42.2266 Y16.0201
G1 X42.203 Y16.0286
G1 X42.1799 Y16.0386
G1 X42.1576 Y16.05
G1 X42.136 Y16.0627
G1 X42.1152 Y16.0768
G1 X42.0954 Y16.0922
G1 X42.0766 Y16.1088
G1 X42.0588 Y16.1266
G1 F100.0 Z-3.6
G1 F600.0 X42.0422 Y16.1454
G1 X42.0268 Y16.1652
G1 X42.0127 Y16.186
G1 X42.0 Y16.2076
G1 X41.9886 Y16.2299
G1 X41.9786 Y16.2529
G1 X41.9701 Y16.2766
G1 X41.9631 Y16.3007
G1 X41.9576 Y16.3252
G1 X41.9537 Y16.35
G1 X41.9513 Y16.3749
G1 X41.9505 Y16.4
G1 X41.9513 Y16.4251
G1 X41.9537 Y16.45
G1 X41.9576 Y16.4749
G1 X41.9631 Y16.4994
G1 X41.9701 Y16.5234
G1 X41.9786 Y16.5471
G1 X41.9886 Y16.5701
G1 X42.0 Y16.5924
G1 X42.0127 Y16.614
G1 X42.0268 Y16.6348
G1 X42.0422 Y16.6546
G1 X42.0588 Y16.6734
G1 X42.0766 Y16.6912
G1 X42.0954 Y16.7078
G1 X42.1152 Y16.7232
G1 X42.136 Y16.7373
G1 X42.1576 Y16.75
G1 X42.1799 Y16.7614
G1 X42.2029 Y16.7714
G1 X42.2266 Y16.7799
G1 X42.2507 Y16.7869
G1 X42.2751 Y16.7924
G1 X42.2999 Y16.7963
G1 X42.3249 Y16.7987
G1 X42.35 Y16.7995
G1 X42.3751 Y16.7987
G1 X42.4001 Y16.7963
G1 X42.4248 Y16.7924
G1 X42.4493 Y16.7869
G1 X42.4734 Y16.7799
G1 X42.4971 Y16.7714
G1 X42.5201 Y16.7614
G1 X42.5424 Y16.75
G1 X42.564 Y16.7373
G1 X42.5848 Y16.7232
G1 X42.6046 Y16.7078
G1 X42.6235 Y16.6912
G1 X42.6412 Y16.6734
G1 X42.6578 Y16.6546
G1 X42.6732 Y16.6348
G1 X42.6873 Y16.614
G1 X42.7 Y16.5924
G1 X42.7114 Y16.5701
G1 X42.7214 Y16.5471
G1 X42.7299 Y16.5234
G1 X42.7369 Y16.4993
G1 X42.7424 Y16.4749
G1 X42.7463 Y16.4501
G1 X42.7487 Y16.4251
G1 X42.7495 Y16.4
G1 X42.7487 Y16.3749
G1 X42.7463 Y16.3499
G1 X42.7424 Y16.3252
G1 X42.7369 Y16.3007
G1 X42.7299 Y16.2766
G1 X42.7214 Y16.2529
G1 X42.7114 Y16.2299
G1 X42.7 Y16.2076
G1 X42.6873 Y16.186
G1 X42.6732 Y16.1652
G1 X42.6578 Y16.1454
G1 X42.6412 Y16.1265
G1 X42.6235 Y16.1088
G1 X42.6046 Y16.0922
G1 X42.5848 Y16.0768
G1 X42.564 Y16.0627
G1 X42.5424 Y16.05
G1 X42.5201 Y16.0386
G1 X42.4971 Y16.0286
G1 X42.4734 Y16.0201
G1 X42.4493 Y16.0131
G1 X42.4248 Y16.0076
G1 X42.4001 Y16.0037
G1 X42.3751 Y16.0013
G1 X42.35 Y16.0005
G1 X42.3249 Y16.0013
G1 X42.2999 Y16.0037
G1 X42.2751 Y16.0076
G1 X42.2507 Y16.0131
G1 X42.2266 Y16.0201
G1 X42.203 Y16.0286
G1 X42.1799 Y16.0386
G1 X42.1576 Y16.05
G1 X42.136 Y16.0627
G1 X42.1152 Y16.0768
G1 X42.0954 Y16.0922
G1 X42.0766 Y16.1088
G1 X42.0588 Y16.1266
G1 F100.0 Z-3.9
G1 F600.0 X42.0422 Y16.1454
G1 X42.0268 Y16.1652
G1 X42.0127 Y16.186
G1 X42.0 Y16.2076
G1 X41.9886 Y16.2299
G1 X41.9786 Y16.2529
G1 X41.9701 Y16.2766
G1 X41.9631 Y16.3007
G1 X41.9576 Y16.3252
G1 X41.9537 Y16.35
G1 X41.9513 Y16.3749
G1 X41.9505 Y16.4
G1 X41.9513 Y16.4251
G1 X41.9537 Y16.45
G1 X41.9576 Y16.4749
G1 X41.9631 Y16.4994
G1 X41.9701 Y16.5234
G1 X41.9786 Y16.5471
G1 X41.9886 Y16.5701
G1 X42.0 Y16.5924
G1 X42.0127 Y16.614
G1 X42.0268 Y16.6348
G1 X42.0422 Y16.6546
G1 X42.0588 Y16.6734
G1 X42.0766 Y16.6912
G1 X42.0954 Y16.7078
G1 X42.1152 Y16.7232
G1 X42.136 Y16.7373
G1 X42.1576 Y16.75
G1 X42.1799 Y16.7614
G1 X42.2029 Y16.7714
G1 X42.2266 Y16.7799
G1 X42.2507 Y16.7869
G1 X42.2751 Y16.7924
G1 X42.2999 Y16.7963
G1 X42.3249 Y16.7987
G1 X42.35 Y16.7995
G1 X42.3751 Y16.7987
G1 X42.4001 Y16.7963
G1 X42.4248 Y16.7924
G1 X42.4493 Y16.7869
G1 X42.4734 Y16.7799
G1 X42.4971 Y16.7714
G1 X42.5201 Y16.7614
G1 X42.5424 Y16.75
G1 X42.564 Y16.7373
G1 X42.5848 Y16.7232
G1 X42.6046 Y16.7078
G1 X42.6235 Y16.6912
G1 X42.6412 Y16.6734
G1 X42.6578 Y16.6546
G1 X42.6732 Y16.6348
G1 X42.6873 Y16.614
G1 X42.7 Y16.5924
G1 X42.7114 Y16.5701
G1 X42.7214 Y16.5471
G1 X42.7299 Y16.5234
G1 X42.7369 Y16.4993
G1 X42.7424 Y16.4749
G1 X42.7463 Y16.4501
G1 X42.7487 Y16.4251
G1 X42.7495 Y16.4
G1 X42.7487 Y16.3749
G1 X42.7463 Y16.3499
G1 X42.7424 Y16.3252
G1 X42.7369 Y16.3007
G1 X42.7299 Y16.2766
G1 X42.7214 Y16.2529
G1 X42.7114 Y16.2299
G1 X42.7 Y16.2076
G1 X42.6873 Y16.186
G1 X42.6732 Y16.1652
G1 X42.6578 Y16.1454
G1 X42.6412 Y16.1265
G1 X42.6235 Y16.1088
G1 X42.6046 Y16.0922
G1 X42.5848 Y16.0768
G1 X42.564 Y16.0627
G1 X42.5424 Y16.05
G1 X42.5201 Y16.0386
G1 X42.4971 Y16.0286
G1 X42.4734 Y16.0201
G1 X42.4493 Y16.0131
G1 X42.4248 Y16.0076
G1 X42.4001 Y16.0037
G1 X42.3751 Y16.0013
G1 X42.35 Y16.0005
G1 X42.3249 Y16.0013
G1 X42.2999 Y16.0037
G1 X42.2751 Y16.0076
G1 X42.2507 Y16.0131
G1 X42.2266 Y16.0201
G1 X42.203 Y16.0286
G1 X42.1799 Y16.0386
G1 X42.1576 Y16.05
G1 X42.136 Y16.0627
G1 X42.1152 Y16.0768
G1 X42.0954 Y16.0922
G1 X42.0766 Y16.1088
G1 X42.0588 Y16.1266
G1 F100.0 Z-4.2
G1 F600.0 X42.0422 Y16.1454
G1 X42.0268 Y16.1652
G1 X42.0127 Y16.186
G1 X42.0 Y16.2076
G1 X41.9886 Y16.2299
G1 X41.9786 Y16.2529
G1 X41.9701 Y16.2766
G1 X41.9631 Y16.3007
G1 X41.9576 Y16.3252
G1 X41.9537 Y16.35
G1 X41.9513 Y16.3749
G1 X41.9505 Y16.4
G1 X41.9513 Y16.4251
G1 X41.9537 Y16.45
G1 X41.9576 Y16.4749
G1 X41.9631 Y16.4994
G1 X41.9701 Y16.5234
G1 X41.9786 Y16.5471
G1 X41.9886 Y16.5701
G1 X42.0 Y16.5924
G1 X42.0127 Y16.614
G1 X42.0268 Y16.6348
G1 X42.0422 Y16.6546
G1 X42.0588 Y16.6734
G1 X42.0766 Y16.6912
G1 X42.0954 Y16.7078
G1 X42.1152 Y16.7232
G1 X42.136 Y16.7373
G1 X42.1576 Y16.75
G1 X42.1799 Y16.7614
G1 X42.2029 Y16.7714
G1 X42.2266 Y16.7799
G1 X42.2507 Y16.7869
G1 X42.2751 Y16.7924
G1 X42.2999 Y16.7963
G1 X42.3249 Y16.7987
G1 X42.35 Y16.7995
G1 X42.3751 Y16.7987
G1 X42.4001 Y16.7963
G1 X42.4248 Y16.7924
G1 X42.4493 Y16.7869
G1 X42.4734 Y16.7799
G1 X42.4971 Y16.7714
G1 X42.5201 Y16.7614
G1 X42.5424 Y16.75
G1 X42.564 Y16.7373
G1 X42.5848 Y16.7232
G1 X42.6046 Y16.7078
G1 X42.6235 Y16.6912
G1 X42.6412 Y16.6734
G1 X42.6578 Y16.6546
G1 X42.6732 Y16.6348
G1 X42.6873 Y16.614
G1 X42.7 Y16.5924
G1 X42.7114 Y16.5701
G1 X42.7214 Y16.5471
G1 X42.7299 Y16.5234
G1 X42.7369 Y16.4993
G1 X42.7424 Y16.4749
G1 X42.7463 Y16.4501
G1 X42.7487 Y16.4251
G1 X42.7495 Y16.4
G1 X42.7487 Y16.3749
G1 X42.7463 Y16.3499
G1 X42.7424 Y16.3252
G1 X42.7369 Y16.3007
G1 X42.7299 Y16.2766
G1 X42.7214 Y16.2529
G1 X42.7114 Y16.2299
G1 X42.7 Y16.2076
G1 X42.6873 Y16.186
G1 X42.6732 Y16.1652
G1 X42.6578 Y16.1454
G1 X42.6412 Y16.1265
G1 X42.6235 Y16.1088
G1 X42.6046 Y16.0922
G1 X42.5848 Y16.0768
G1 X42.564 Y16.0627
G1 X42.5424 Y16.05
G1 X42.5201 Y16.0386
G1 X42.4971 Y16.0286
G1 X42.4734 Y16.0201
G1 X42.4493 Y16.0131
G1 X42.4248 Y16.0076
G1 X42.4001 Y16.0037
G1 X42.3751 Y16.0013
G1 X42.35 Y16.0005
G1 X42.3249 Y16.0013
G1 X42.2999 Y16.0037
G1 X42.2751 Y16.0076
G1 X42.2507 Y16.0131
G1 X42.2266 Y16.0201
G1 X42.203 Y16.0286
G1 X42.1799 Y16.0386
G1 X42.1576 Y16.05
G1 X42.136 Y16.0627
G1 X42.1152 Y16.0768
G1 X42.0954 Y16.0922
G1 X42.0766 Y16.1088
G1 X42.0588 Y16.1266
( Hole_3D )
S1000
G0 Z3.0
G0 X13.4094 Y9.1623
G0 Z1.0
G1 F200.0 Z-4.1
G1 F450.0 X13.3824 Y9.1783
G1 X13.3564 Y9.1959
G1 X13.3316 Y9.2151
G1 X13.3081 Y9.2359
G1 X13.2859 Y9.2581
G1 X13.2651 Y9.2816
G1 X13.2459 Y9.3064
G1 X13.2283 Y9.3323
G1 X13.2123 Y9.3594
G1 X13.198 Y9.3873
G1 X13.1856 Y9.4161
G1 X13.1749 Y9.4456
G1 X13.1662 Y9.4758
G1 X13.1593 Y9.5064
G1 X13.1544 Y9.5374
G1 X13.1515 Y9.5686
G1 X13.1505 Y9.6
G1 X13.1515 Y9.6314
G1 X13.1544 Y9.6626
G1 X13.1593 Y9.6936
G1 X13.1662 Y9.7242
G1 X13.1749 Y9.7544
G1 X13.1856 Y9.7839
G1 X13.198 Y9.8127
G1 X13.2123 Y9.8406
G1 X13.2283 Y9.8677
G1 X13.2459 Y9.8936
G1 X13.2651 Y9.9184
G1 X13.2859 Y9.9419
G1 X13.3081 Y9.9641
G1 X13.3316 Y9.9849
G1 X13.3564 Y10.0041
G1 X13.3824 Y10.0217
G1 X13.4094 Y10.0377
G1 X13.4373 Y10.052
G1 X13.4661 Y10.0644
G1 X13.4956 Y10.0751
G1 X13.5258 Y10.0838
G1 X13.5564 Y10.0907
G1 X13.5874 Y10.0956
G1 X13.6186 Y10.0985
G1 X13.65 Y10.0995
G1 X13.6814 Y10.0985
G1 X13.7126 Y10.0956
G1 X13.7436 Y10.0907
G1 X13.7742 Y10.0838
G1 X13.8044 Y10.0751
G1 X13.8339 Y10.0644
G1 X13.8627 Y10.052
G1 X13.8906 Y10.0377
G1 X13.9176 Y10.0217
G1 X13.9436 Y10.0041
G1 X13.9684 Y9.9849
G1 X13.9919 Y9.9641
G1 X14.0141 Y9.9419
G1 X14.0349 Y9.9184
G1 X14.0541 Y9.8936
G1 X14.0717 Y9.8677
G1 X14.0877 Y9.8406
G1 X14.102 Y9.8127
G1 X14.1144 Y9.7839
G1 X14.1251 Y9.7544
G1 X14.1338 Y9.7242
G1 X14.1407 Y9.6936
G1 X14.1456 Y9.6626
G1 X14.1485 Y9.6314
G1 X14.1495 Y9.6
G1 X14.1485 Y9.5686
G1 X14.1456 Y9.5374
G1 X14.1407 Y9.5064
G1 X14.1338 Y9.4758
G1 X14.1251 Y9.4456
G1 X14.1144 Y9.4161
G1 X14.102 Y9.3873
G1 X14.0877 Y9.3594
G1 X14.0717 Y9.3323
G1 X14.0541 Y9.3064
G1 X14.0349 Y9.2816
G1 X14.0141 Y9.2581
G1 X13.9919 Y9.2359
G1 X13.9684 Y9.2151
G1 X13.9436 Y9.1959
G1 X13.9176 Y9.1783
G1 X13.8906 Y9.1623
G1 X13.8627 Y9.148
G1 X13.8339 Y9.1356
G1 X13.8044 Y9.1249
G1 X13.7742 Y9.1162
G1 X13.7436 Y9.1093
G1 X13.7126 Y9.1044
G1 X13.6814 Y9.1015
G1 X13.65 Y9.1005
G1 X13.6186 Y9.1015
G1 X13.5874 Y9.1044
G1 X13.5564 Y9.1093
G1 X13.5258 Y9.1162
G1 X13.4956 Y9.1249
G1 X13.4661 Y9.1356
G1 X13.4373 Y9.148
G1 X13.4094 Y9.1623
G0 Z3.0
G0 X19.0316 Y16.0151
G0 Z1.0
G1 F200.0 Z-4.1
G1 F450.0 X19.0081 Y16.0359
G1 X18.9859 Y16.0581
G1 X18.9651 Y16.0816
G1 X18.9459 Y16.1064
G1 X18.9283 Y16.1324
G1 X18.9123 Y16.1594
G1 X18.898 Y16.1873
G1 X18.8856 Y16.2161
G1 X18.8749 Y16.2456
G1 X18.8662 Y16.2758
G1 X18.8593 Y16.3064
G1 X18.8544 Y16.3374
G1 X18.8515 Y16.3686
G1 X18.8505 Y16.4
G1 X18.8515 Y16.4314
G1 X18.8544 Y16.4626
G1 X18.8593 Y16.4936
G1 X18.8662 Y16.5242
G1 X18.8749 Y16.5544
G1 X18.8856 Y16.5839
G1 X18.898 Y16.6127
G1 X18.9123 Y16.6406
G1 X18.9283 Y16.6677
G1 X18.9459 Y16.6936
G1 X18.9651 Y16.7184
G1 X18.9859 Y16.7419
G1 X19.0081 Y16.7641
G1 X19.0316 Y16.7849
G1 X19.0564 Y16.8041
G1 X19.0824 Y16.8217
G1 X19.1094 Y16.8377
G1 X19.1373 Y16.852
G1 X19.1661 Y16.8644
G1 X19.1956 Y16.8751
G1 X19.2258 Y16.8838
G1 X19.2564 Y16.8907
G1 X19.2874 Y16.8956
G1 X19.3186 Y16.8985
G1 X19.35 Y16.8995
G1 X19.3814 Y16.8985
G1 X19.4126 Y16.8956
G1 X19.4436 Y16.8907
G1 X19.4742 Y16.8838
G1 X19.5044 Y16.8751
G1 X19.5339 Y16.8644
G1 X19.5627 Y16.852
G1 X19.5906 Y16.8377
G1 X19.6177 Y16.8217
G1 X19.6436 Y16.8041
G1 X19.6684 Y16.7849
G1 X19.6919 Y16.7641
G1 X19.7141 Y16.7419
G1 X19.7349 Y16.7184
G1 X19.7541 Y16.6936
G1 X19.7717 Y16.6677
G1 X19.7877 Y16.6406
G1 X19.802 Y16.6127
G1 X19.8144 Y16.5839
G1 X19.8251 Y16.5544
G1 X19.8338 Y16.5242
G1 X19.8407 Y16.4936
G1 X19.8456 Y16.4626
G1 X19.8485 Y16.4314
G1 X19.8495 Y16.4
G1 X19.8485 Y16.3686
G1 X19.8456 Y16.3374
G1 X19.8407 Y16.3064
G1 X19.8338 Y16.2758
G1 X19.8251 Y16.2456
G1 X19.8144 Y16.2161
G1 X19.802 Y16.1873
G1 X19.7877 Y16.1594
G1 X19.7717 Y16.1324
G1 X19.7541 Y16.1064
G1 X19.7349 Y16.0816
G1 X19.7141 Y16.0581
G1 X19.6919 Y16.0359
G1 X19.6684 Y16.0151
G1 X19.6436 Y15.9959
G1 X19.6177 Y15.9783
G1 X19.5906 Y15.9623
G1 X19.5627 Y15.948
G1 X19.5339 Y15.9356
G1 X19.5044 Y15.9249
G1 X19.4742 Y15.9162
G1 X19.4436 Y15.9093
G1 X19.4126 Y15.9044
G1 X19.3814 Y15.9015
G1 X19.35 Y15.9005
G1 X19.3186 Y15.9015
G1 X19.2874 Y15.9044
G1 X19.2564 Y15.9093
G1 X19.2258 Y15.9162
G1 X19.1956 Y15.9249
G1 X19.1661 Y15.9356
G1 X19.1373 Y15.948
G1 X19.1094 Y15.9623
G1 X19.0824 Y15.9783
G1 X19.0564 Y15.9959
G1 X19.0316 Y16.0151
G0 Z3.0
G0 X34.198 Y8.8127
G0 Z1.0
G1 F200.0 Z-4.1
G1 F450.0 X34.2123 Y8.8406
G1 X34.2283 Y8.8676
G1 X34.2459 Y8.8936
G1 X34.2651 Y8.9184
G1 X34.2859 Y8.9419
G1 X34.3081 Y8.9641
G1 X34.3316 Y8.9849
G1 X34.3564 Y9.0041
G1 X34.3823 Y9.0217
G1 X34.4094 Y9.0377
G1 X34.4373 Y9.052
G1 X34.4661 Y9.0644
G1 X34.4956 Y9.0751
G1 X34.5258 Y9.0838
G1 X34.5564 Y9.0907
G1 X34.5874 Y9.0956
G1 X34.6186 Y9.0985
G1 X34.65 Y9.0995
G1 X34.6814 Y9.0985
G1 X34.7126 Y9.0956
G1 X34.7436 Y9.0907
G1 X34.7742 Y9.0838
G1 X34.8044 Y9.0751
G1 X34.8339 Y9.0644
G1 X34.8627 Y9.052
G1 X34.8906 Y9.0377
G1 X34.9176 Y9.0217
G1 X34.9436 Y9.0041
G1 X34.9684 Y8.9849
G1 X34.9919 Y8.9641
G1 X35.0141 Y8.9419
G1 X35.0349 Y8.9184
G1 X35.0541 Y8.8936
G1 X35.0717 Y8.8677
G1 X35.0877 Y8.8406
G1 X35.102 Y8.8127
G1 X35.1144 Y8.7839
G1 X35.1251 Y8.7544
G1 X35.1338 Y8.7242
G1 X35.1407 Y8.6936
G1 X35.1456 Y8.6626
G1 X35.1485 Y8.6314
G1 X35.1495 Y8.6
G1 X35.1485 Y8.5686
G1 X35.1456 Y8.5374
G1 X35.1407 Y8.5064
G1 X35.1338 Y8.4758
G1 X35.1251 Y8.4456
G1 X35.1144 Y8.4161
G1 X35.102 Y8.3873
G1 X35.0877 Y8.3594
G1 X35.0717 Y8.3323
G1 X35.0541 Y8.3064
G1 X35.0349 Y8.2816
G1 X35.0141 Y8.2581
G1 X34.9919 Y8.2359
G1 X34.9684 Y8.2151
G1 X34.9436 Y8.1959
G1 X34.9176 Y8.1783
G1 X34.8906 Y8.1623
G1 X34.8627 Y8.148
G1 X34.8339 Y8.1356
G1 X34.8044 Y8.1249
G1 X34.7742 Y8.1162
G1 X34.7436 Y8.1093
G1 X34.7126 Y8.1044
G1 X34.6814 Y8.1015
G1 X34.65 Y8.1005
G1 X34.6186 Y8.1015
G1 X34.5874 Y8.1044
G1 X34.5564 Y8.1093
G1 X34.5258 Y8.1162
G1 X34.4956 Y8.1249
G1 X34.4661 Y8.1356
G1 X34.4373 Y8.148
G1 X34.4094 Y8.1623
G1 X34.3823 Y8.1783
G1 X34.3564 Y8.1959
G1 X34.3316 Y8.2151
G1 X34.3081 Y8.2359
G1 X34.2859 Y8.2581
G1 X34.2651 Y8.2816
G1 X34.2459 Y8.3064
G1 X34.2283 Y8.3323
G1 X34.2123 Y8.3594
G1 X34.198 Y8.3873
G1 X34.1856 Y8.4161
G1 X34.1749 Y8.4456
G1 X34.1662 Y8.4758
G1 X34.1593 Y8.5064
G1 X34.1544 Y8.5374
G1 X34.1515 Y8.5686
G1 X34.1505 Y8.6
G1 X34.1515 Y8.6314
G1 X34.1544 Y8.6626
G1 X34.1593 Y8.6936
G1 X34.1662 Y8.7242
G1 X34.1749 Y8.7544
G1 X34.1856 Y8.7839
G1 X34.198 Y8.8127
G0 Z3.0
G0 X41.9859 Y16.0581
G0 Z1.0
G1 F200.0 Z-4.1
G1 F450.0 X41.9651 Y16.0816
G1 X41.9459 Y16.1064
G1 X41.9283 Y16.1323
G1 X41.9123 Y16.1594
G1 X41.898 Y16.1873
G1 X41.8856 Y16.2161
G1 X41.8749 Y16.2457
G1 X41.8662 Y16.2758
G1 X41.8593 Y16.3064
G1 X41.8544 Y16.3374
G1 X41.8515 Y16.3686
G1 X41.8505 Y16.4
G1 X41.8515 Y16.4314
G1 X41.8544 Y16.4626
G1 X41.8593 Y16.4936
G1 X41.8662 Y16.5242
G1 X41.8749 Y16.5543
G1 X41.8856 Y16.5839
G1 X41.898 Y16.6127
G1 X41.9123 Y16.6406
G1 X41.9283 Y16.6677
G1 X41.9459 Y16.6936
G1 X41.9651 Y16.7184
G1 X41.9859 Y16.7419
G1 X42.0081 Y16.7641
G1 X42.0316 Y16.7849
G1 X42.0564 Y16.8041
G1 X42.0824 Y16.8217
G1 X42.1094 Y16.8377
G1 X42.1373 Y16.852
G1 X42.1661 Y16.8644
G1 X42.1956 Y16.8751
G1 X42.2258 Y16.8838
G1 X42.2564 Y16.8907
G1 X42.2874 Y16.8956
G1 X42.3186 Y16.8985
G1 X42.35 Y16.8995
G1 X42.3814 Y16.8985
G1 X42.4126 Y16.8956
G1 X42.4436 Y16.8907
G1 X42.4742 Y16.8838
G1 X42.5044 Y16.8751
G1 X42.5339 Y16.8644
G1 X42.5627 Y16.852
G1 X42.5906 Y16.8377
G1 X42.6176 Y16.8217
G1 X42.6436 Y16.8041
G1 X42.6684 Y16.7849
G1 X42.6919 Y16.7641
G1 X42.7141 Y16.7419
G1 X42.7349 Y16.7184
G1 X42.7541 Y16.6936
G1 X42.7717 Y16.6677
G1 X42.7877 Y16.6406
G1 X42.802 Y16.6127
G1 X42.8144 Y16.5839
G1 X42.8251 Y16.5544
G1 X42.8338 Y16.5242
G1 X42.8407 Y16.4936
G1 X42.8456 Y16.4626
G1 X42.8485 Y16.4314
G1 X42.8495 Y16.4
G1 X42.8485 Y16.3686
G1 X42.8456 Y16.3374
G1 X42.8407 Y16.3064
G1 X42.8338 Y16.2758
G1 X42.8251 Y16.2456
G1 X42.8144 Y16.2161
G1 X42.802 Y16.1873
G1 X42.7877 Y16.1594
G1 X42.7717 Y16.1323
G1 X42.7541 Y16.1064
G1 X42.7349 Y16.0816
G1 X42.7141 Y16.0581
G1 X42.6919 Y16.0359
G1 X42.6684 Y16.0151
G1 X42.6436 Y15.9959
G1 X42.6176 Y15.9783
G1 X42.5906 Y15.9623
G1 X42.5627 Y15.948
G1 X42.5339 Y15.9356
G1 X42.5044 Y15.9249
G1 X42.4742 Y15.9162
G1 X42.4436 Y15.9093
G1 X42.4126 Y15.9044
G1 X42.3814 Y15.9015
G1 X42.35 Y15.9005
G1 X42.3186 Y15.9015
G1 X42.2874 Y15.9044
G1 X42.2564 Y15.9093
G1 X42.2258 Y15.9162
G1 X42.1956 Y15.9249
G1 X42.1661 Y15.9356
G1 X42.1373 Y15.948
G1 X42.1094 Y15.9623
G1 X42.0824 Y15.9783
G1 X42.0564 Y15.9959
G1 X42.0316 Y16.0151
G1 X42.0081 Y16.0359
G1 X41.9859 Y16.0581
( Edge_cutout )
S1000
G0 Z3.0
G0 X5.0 Y3.9
G0 Z1.0
G1 F100.0 Z-0.3
G1 F600.0 X17.0
G3 X17.8987 Y5.6344 I0.0 J1.1
G1 X5.8987 Y22.6344
G3 X3.9 Y22.0 I-0.8987 J-0.6344
G1 Y5.0
G3 X5.0 Y3.9 I1.1 J0.0
G1 F100.0 Z-0.6
G1 F600.0 X17.0
G3 X17.8987 Y5.6344 I0.0 J1.1
G1 X5.8987 Y22.6344
G3 X3.9 Y22.0 I-0.8987 J-0.6344
G1 Y5.0
G3 X5.0 Y3.9 I1.1 J0.0
G1 F100.0 Z-0.9
G1 F600.0 X17.0
G3 X17.8987 Y5.6344 I0.0 J1.1
G1 X5.8987 Y22.6344
G3 X3.9 Y22.0 I-0.8987 J-0.6344
G1 Y5.0
G3 X5.0 Y3.9 I1.1 J0.0
G1 F100.0 Z-1.2
G1 F600.0 X17.0
G3 X17.8987 Y5.6344 I0.0 J1.1
G1 X5.8987 Y22.6344
G3 X3.9 Y22.0 I-0.8987 J-0.6344
G1 Y5.0
G3 X5.0 Y3.9 I1.1 J0.0
G1 F100.0 Z-1.5
G1 F600.0 X17.0
G3 X17.8987 Y5.6344 I0.0 J1.1
G1 X5.8987 Y22.6344
G3 X3.9 Y22.0 I-0.8987 J-0.6344
G1 Y5.0
G3 X5.0 Y3.9 I1.1 J0.0
G1 F100.0 Z-1.8
G1 F600.0 X17.0
G3 X17.8987 Y5.6344 I0.0 J1.1
G1 X5.8987 Y22.6344
G3 X3.9 Y22.0 I-0.8987 J-0.6344
G1 Y5.0
G3 X5.0 Y3.9 I1.1 J0.0
G1 F100.0 Z-2.1
G1 F600.0 X17.0
G3 X17.8987 Y5.6344 I0.0 J1.1
G1 X5.8987 Y22.6344
G3 X3.9 Y22.0 I-0.8987 J-0.6344
G1 Y5.0
G3 X5.0 Y3.9 I1.1 J0.0
G1 F100.0 Z-2.4
G1 F600.0 X17.0
G3 X17.8987 Y5.6344 I0.0 J1.1
G1 X5.8987 Y22.6344
G3 X3.9 Y22.0 I-0.8987 J-0.6344
G1 Y5.0
G3 X5.0 Y3.9 I1.1 J0.0
G1 F100.0 Z-2.7
G1 F600.0 X9.25
G1 X10.0 Z-2.6
G1 X12.0
G1 X12.75 Z-2.7
G1 X17.0
G3 X17.8987 Y5.6344 I0.0 J1.1
G1 X12.8663 Y12.7635
G1 X12.4338 Y13.3763 Z-2.6
G1 X11.2804 Y15.0102
G1 X10.8479 Y15.6229 Z-2.7
G1 X5.8987 Y22.6344
G3 X3.9 Y22.0 I-0.8987 J-0.6344
G1 Y14.75
G1 Y14.0 Z-2.6
G1 Y12.0
G1 Y11.25 Z-2.7
G1 Y5.0
G3 X5.0 Y3.9 I1.1 J0.0
G1 F100.0 Z-3.0
G1 F600.0 X9.25
G1 X10.0 Z-2.6
G1 X12.0
G1 X12.75 Z-3.0
G1 X17.0
G3 X17.8987 Y5.6344 I0.0 J1.1
G1 X12.8663 Y12.7635
