( Made using CamBam - http://www.cambam.co.uk )
( ssc_plexi_Back_Panel 2/27/2021 8:34:34 PM )
( T4 : 2.5 )
( CUTVIEWER )
( FROM/0,0,5 )
( Select dummy tool to avoid warnings )
( TOOL/MILL,1,0,20.0,0 )
( STOCK/BLOCK,170.0,80.0,4.0,0.0,0.0,4.0 )
G21 G90 G91.1 G64 G40
G0 Z3.0
( T4 : 2.5 )
( Tool Taper coming soon )
( TOOL/MILL,2.5,0.0,0.0,0 )
T4 M6
( DC_pocket )
G17
M3 S1000
G0 X17.8529 Y16.6366
G0 Z1.0
G1 F200.0 Z0.0
G1 F700.0 X17.8763 Y16.6401 Z-0.0047
G1 X17.9 Y16.6413 Z-0.0094
G1 X17.9237 Y16.6401 Z-0.0141
G1 X17.9471 Y16.6366 Z-0.0187
G1 X17.97 Y16.6309 Z-0.0234
G1 X17.9923 Y16.6229 Z-0.0281
G1 X18.0137 Y16.6128 Z-0.0328
G1 X18.034 Y16.6006 Z-0.0375
G1 X18.0531 Y16.5865 Z-0.0422
G1 X18.0706 Y16.5706 Z-0.0469
G1 X18.0865 Y16.5531 Z-0.0516
G1 X18.1006 Y16.534 Z-0.0563
G1 X18.1128 Y16.5137 Z-0.0609
G1 X18.1229 Y16.4923 Z-0.0656
G1 X18.1309 Y16.47 Z-0.0703
G1 X18.1366 Y16.4471 Z-0.075
G1 X18.1401 Y16.4236 Z-0.0797
G1 X18.1413 Y16.4 Z-0.0844
G1 X18.1401 Y16.3764 Z-0.0891
G1 X18.1366 Y16.3529 Z-0.0938
G1 X18.1309 Y16.33 Z-0.0984
G1 X18.1229 Y16.3077 Z-0.1031
G1 X18.1128 Y16.2863 Z-0.1078
G1 X18.1006 Y16.266 Z-0.1125
G1 X18.0865 Y16.2469 Z-0.1172
G1 X18.0706 Y16.2294 Z-0.1219
G1 X18.0531 Y16.2135 Z-0.1266
G1 X18.034 Y16.1994 Z-0.1313
G1 X18.0137 Y16.1872 Z-0.1359
G1 X17.9923 Y16.1771 Z-0.1406
G1 X17.97 Y16.1691 Z-0.1453
G1 X17.9471 Y16.1634 Z-0.15
G1 X17.9236 Y16.1599 Z-0.1547
G1 X17.9 Y16.1587 Z-0.1594
G1 X17.8764 Y16.1599 Z-0.1641
G1 X17.8529 Y16.1634 Z-0.1687
G1 X17.83 Y16.1691 Z-0.1734
G1 X17.8077 Y16.1771 Z-0.1781
G1 X17.7863 Y16.1872 Z-0.1828
G1 X17.766 Y16.1994 Z-0.1875
G1 X17.747 Y16.2135 Z-0.1922
G1 X17.7294 Y16.2294 Z-0.1969
G1 X17.7135 Y16.247 Z-0.2016
G1 X17.6994 Y16.266 Z-0.2063
G1 X17.6872 Y16.2863 Z-0.2109
G1 X17.6771 Y16.3077 Z-0.2156
G1 X17.6691 Y16.33 Z-0.2203
G1 X17.6634 Y16.3529 Z-0.225
G1 X17.6599 Y16.3764 Z-0.2297
G1 X17.6587 Y16.4 Z-0.2344
G1 X17.6599 Y16.4236 Z-0.2391
G1 X17.6634 Y16.4471 Z-0.2438
G1 X17.6691 Y16.47 Z-0.2484
G1 X17.6771 Y16.4923 Z-0.2531
G1 X17.6872 Y16.5138 Z-0.2578
G1 X17.6994 Y16.534 Z-0.2625
G1 X17.7135 Y16.553 Z-0.2672
G1 X17.7294 Y16.5706 Z-0.2719
G1 X17.747 Y16.5865 Z-0.2766
G1 X17.766 Y16.6006 Z-0.2813
G1 X17.7863 Y16.6128 Z-0.2859
G1 X17.8077 Y16.6229 Z-0.2906
G1 X17.83 Y16.6309 Z-0.2953
G1 X17.8529 Y16.6366 Z-0.3
G1 F200.0 X17.7062 Y17.6258
G1 F700.0 X17.7782 Y17.6365
G1 X17.9 Y17.6425
G1 X18.0218 Y17.6365
G1 X18.1424 Y17.6186
G1 X18.2607 Y17.589
G1 X18.3755 Y17.5479
G1 X18.4857 Y17.4958
G1 X18.5903 Y17.4331
G1 X18.6882 Y17.3604
G1 X18.7786 Y17.2786
G1 X18.8604 Y17.1882
G1 X18.9331 Y17.0903
G1 X18.9958 Y16.9857
G1 X19.0479 Y16.8755
G1 X19.089 Y16.7607
G1 X19.1186 Y16.6424
G1 X19.1365 Y16.5218
G1 X19.1425 Y16.4
G1 X19.1365 Y16.2782
G1 X19.1186 Y16.1576
G1 X19.089 Y16.0393
G1 X19.0479 Y15.9245
G1 X18.9958 Y15.8143
G1 X18.9331 Y15.7097
G1 X18.8604 Y15.6118
G1 X18.7786 Y15.5214
G1 X18.6882 Y15.4396
G1 X18.5903 Y15.3669
G1 X18.4857 Y15.3043
G1 X18.3755 Y15.2521
G1 X18.2607 Y15.211
G1 X18.1424 Y15.1814
G1 X18.0218 Y15.1635
G1 X17.9 Y15.1575
G1 X17.7782 Y15.1635
G1 X17.6576 Y15.1814
G1 X17.5393 Y15.211
G1 X17.4245 Y15.2521
G1 X17.3143 Y15.3043
G1 X17.2097 Y15.3669
G1 X17.1118 Y15.4396
G1 X17.0214 Y15.5214
G1 X16.9396 Y15.6118
G1 X16.8669 Y15.7097
G1 X16.8043 Y15.8143
G1 X16.7521 Y15.9245
G1 X16.711 Y16.0393
G1 X16.6814 Y16.1576
G1 X16.6635 Y16.2782
G1 X16.6575 Y16.4
G1 X16.6635 Y16.5218
G1 X16.6814 Y16.6424
G1 X16.711 Y16.7607
G1 X16.7521 Y16.8755
G1 X16.8043 Y16.9857
G1 X16.8669 Y17.0903
G1 X16.9396 Y17.1882
G1 X17.0215 Y17.2786
G1 X17.1118 Y17.3604
G1 X17.2097 Y17.4331
G1 X17.3143 Y17.4958
G1 X17.4245 Y17.5479
G1 X17.5393 Y17.589
G1 X17.6576 Y17.6186
G1 X17.7062 Y17.6258
G1 F200.0 X17.5595 Y18.615
G1 F700.0 X17.6801 Y18.6329
G1 X17.9 Y18.6437
G1 X18.1199 Y18.6329
G1 X18.3377 Y18.6006
G1 X18.5513 Y18.5471
G1 X18.7586 Y18.4729
G1 X18.9577 Y18.3787
G1 X19.1465 Y18.2655
G1 X19.3234 Y18.1344
G1 X19.4865 Y17.9865
G1 X19.6344 Y17.8234
G1 X19.7655 Y17.6465
G1 X19.8787 Y17.4577
G1 X19.9729 Y17.2586
G1 X20.0471 Y17.0513
G1 X20.1006 Y16.8377
G1 X20.1329 Y16.6199
G1 X20.1437 Y16.4
G1 X20.1329 Y16.1801
G1 X20.1006 Y15.9623
G1 X20.0471 Y15.7487
G1 X19.9729 Y15.5414
G1 X19.8787 Y15.3423
G1 X19.7655 Y15.1535
G1 X19.6344 Y14.9766
G1 X19.4865 Y14.8135
G1 X19.3234 Y14.6656
G1 X19.1465 Y14.5345
G1 X18.9577 Y14.4213
G1 X18.7586 Y14.3271
G1 X18.5513 Y14.2529
G1 X18.3377 Y14.1994
G1 X18.1199 Y14.1671
G1 X17.9 Y14.1563
G1 X17.6801 Y14.1671
G1 X17.4623 Y14.1994
G1 X17.2487 Y14.2529
G1 X17.0414 Y14.3271
G1 X16.8423 Y14.4213
G1 X16.6535 Y14.5345
G1 X16.4766 Y14.6656
G1 X16.3135 Y14.8135
G1 X16.1656 Y14.9766
G1 X16.0345 Y15.1535
G1 X15.9213 Y15.3423
G1 X15.8271 Y15.5414
G1 X15.7529 Y15.7487
G1 X15.6994 Y15.9623
G1 X15.6671 Y16.1801
G1 X15.6563 Y16.4
G1 X15.6671 Y16.6199
G1 X15.6994 Y16.8377
G1 X15.7529 Y17.0513
G1 X15.8271 Y17.2586
G1 X15.9213 Y17.4577
G1 X16.0345 Y17.6465
G1 X16.1656 Y17.8234
G1 X16.3135 Y17.9865
G1 X16.4766 Y18.1344
G1 X16.6535 Y18.2655
G1 X16.8423 Y18.3787
G1 X17.0414 Y18.4729
G1 X17.2487 Y18.5471
G1 X17.4623 Y18.6006
G1 X17.5595 Y18.615
G1 F200.0 X17.4127 Y19.6042
G1 F700.0 X17.5819 Y19.6293
G1 X17.9 Y19.6449
G1 X18.2181 Y19.6293
G1 X18.533 Y19.5825
G1 X18.8419 Y19.5052
G1 X19.1418 Y19.3979
G1 X19.4296 Y19.2617
G1 X19.7028 Y19.098
G1 X19.9585 Y18.9083
G1 X20.1945 Y18.6945
G1 X20.4083 Y18.4585
G1 X20.598 Y18.2028
G1 X20.7617 Y17.9296
G1 X20.8979 Y17.6418
G1 X21.0052 Y17.3419
G1 X21.0825 Y17.0331
G1 X21.1293 Y16.7181
G1 X21.1449 Y16.4
G1 X21.1293 Y16.082
G1 X21.0825 Y15.767
G1 X21.0052 Y15.4581
G1 X20.8979 Y15.1582
G1 X20.7617 Y14.8704
G1 X20.598 Y14.5972
G1 X20.4083 Y14.3415
G1 X20.1945 Y14.1055
G1 X19.9585 Y13.8917
G1 X19.7028 Y13.702
G1 X19.4296 Y13.5383
G1 X19.1418 Y13.4021
G1 X18.8419 Y13.2949
G1 X18.533 Y13.2175
G1 X18.2181 Y13.1708
G1 X17.9 Y13.1551
G1 X17.5819 Y13.1708
G1 X17.267 Y13.2175
G1 X16.9581 Y13.2949
G1 X16.6582 Y13.4021
G1 X16.3704 Y13.5383
G1 X16.0973 Y13.702
G1 X15.8415 Y13.8917
G1 X15.6055 Y14.1055
G1 X15.3917 Y14.3415
G1 X15.202 Y14.5972
G1 X15.0383 Y14.8704
G1 X14.9021 Y15.1582
G1 X14.7948 Y15.4581
G1 X14.7175 Y15.7669
G1 X14.6708 Y16.082
G1 X14.6551 Y16.4
G1 X14.6708 Y16.7181
G1 X14.7175 Y17.0331
G1 X14.7948 Y17.3419
G1 X14.9021 Y17.6418
G1 X15.0383 Y17.9296
G1 X15.202 Y18.2028
G1 X15.3917 Y18.4585
G1 X15.6055 Y18.6945
G1 X15.8415 Y18.9083
G1 X16.0972 Y19.098
G1 X16.3704 Y19.2617
G1 X16.6582 Y19.3979
G1 X16.9581 Y19.5052
G1 X17.267 Y19.5825
G1 X17.4127 Y19.6042
G1 F200.0 X17.266 Y20.5933
G1 F700.0 X17.4838 Y20.6256
G1 X17.9 Y20.6461
G1 X18.3162 Y20.6256
G1 X18.7284 Y20.5645
G1 X19.1326 Y20.4632
G1 X19.5249 Y20.3229
G1 X19.9016 Y20.1447
G1 X20.259 Y19.9305
G1 X20.5937 Y19.6823
G1 X20.9024 Y19.4024
G1 X21.1823 Y19.0937
G1 X21.4305 Y18.759
G1 X21.6447 Y18.4016
G1 X21.8229 Y18.0249
G1 X21.9632 Y17.6326
G1 X22.0645 Y17.2284
G1 X22.1256 Y16.8162
G1 X22.1461 Y16.4
G1 X22.1256 Y15.9838
G1 X22.0645 Y15.5716
G1 X21.9632 Y15.1674
G1 X21.8229 Y14.7751
G1 X21.6447 Y14.3984
G1 X21.4305 Y14.041
G1 X21.1823 Y13.7063
G1 X20.9024 Y13.3976
G1 X20.5937 Y13.1177
G1 X20.259 Y12.8695
G1 X19.9016 Y12.6553
G1 X19.5249 Y12.4771
G1 X19.1326 Y12.3368
G1 X18.7284 Y12.2355
G1 X18.3162 Y12.1744
G1 X17.9 Y12.1539
G1 X17.4838 Y12.1744
G1 X17.0716 Y12.2355
G1 X16.6674 Y12.3368
G1 X16.2751 Y12.4771
G1 X15.8984 Y12.6553
G1 X15.541 Y12.8695
G1 X15.2063 Y13.1177
G1 X14.8976 Y13.3976
G1 X14.6177 Y13.7063
G1 X14.3695 Y14.041
G1 X14.1553 Y14.3984
G1 X13.9771 Y14.7751
G1 X13.8368 Y15.1674
G1 X13.7355 Y15.5716
G1 X13.6744 Y15.9838
G1 X13.6539 Y16.4
G1 X13.6744 Y16.8162
G1 X13.7355 Y17.2284
G1 X13.8368 Y17.6326
G1 X13.9771 Y18.0249
G1 X14.1553 Y18.4016
G1 X14.3695 Y18.759
G1 X14.6177 Y19.0937
G1 X14.8976 Y19.4024
G1 X15.2063 Y19.6823
G1 X15.541 Y19.9305
G1 X15.8984 Y20.1447
G1 X16.2751 Y20.3229
G1 X16.6674 Y20.4632
G1 X17.0716 Y20.5645
G1 X17.266 Y20.5933
G1 F200.0 X17.1193 Y21.5825
G1 F700.0 X17.3857 Y21.622
G1 X17.9 Y21.6473
G1 X18.4143 Y21.622
G1 X18.9237 Y21.5465
G1 X19.4232 Y21.4213
G1 X19.9081 Y21.2479
G1 X20.3736 Y21.0277
G1 X20.8152 Y20.763
G1 X21.2288 Y20.4562
G1 X21.6104 Y20.1104
G1 X21.9562 Y19.7288
G1 X22.263 Y19.3152
G1 X22.5277 Y18.8736
G1 X22.7479 Y18.408
G1 X22.9213 Y17.9232
G1 X23.0465 Y17.4237
G1 X23.122 Y16.9143
G1 X23.1473 Y16.4
G1 X23.122 Y15.8857
G1 X23.0465 Y15.3763
G1 X22.9213 Y14.8768
G1 X22.7479 Y14.392
G1 X22.5277 Y13.9264
G1 X22.263 Y13.4848
G1 X21.9562 Y13.0712
G1 X21.6104 Y12.6896
G1 X21.2288 Y12.3438
G1 X20.8152 Y12.037
G1 X20.3736 Y11.7723
G1 X19.9081 Y11.5521
G1 X19.4232 Y11.3787
G1 X18.9237 Y11.2535
G1 X18.4143 Y11.178
G1 X17.9 Y11.1527
G1 X17.3857 Y11.178
G1 X16.8763 Y11.2535
G1 X16.3768 Y11.3787
G1 X15.8919 Y11.5521
G1 X15.4264 Y11.7723
G1 X14.9848 Y12.037
G1 X14.5712 Y12.3438
G1 X14.1896 Y12.6896
G1 X13.8438 Y13.0712
G1 X13.537 Y13.4848
G1 X13.2723 Y13.9264
G1 X13.0521 Y14.392
G1 X12.8787 Y14.8768
G1 X12.7535 Y15.3763
G1 X12.678 Y15.8857
G1 X12.6527 Y16.4
G1 X12.678 Y16.9143
G1 X12.7535 Y17.4237
G1 X12.8787 Y17.9232
G1 X13.0521 Y18.408
G1 X13.2723 Y18.8736
G1 X13.537 Y19.3152
G1 X13.8438 Y19.7288
G1 X14.1896 Y20.1104
G1 X14.5712 Y20.4562
G1 X14.9848 Y20.763
G1 X15.4264 Y21.0277
G1 X15.892 Y21.2479
G1 X16.3768 Y21.4213
G1 X16.8763 Y21.5465
G1 X17.1193 Y21.5825
G1 F200.0 X16.9726 Y22.5717
G1 F700.0 X17.2875 Y22.6184
G1 X17.9 Y22.6485
G1 X18.5125 Y22.6184
G1 X19.119 Y22.5284
G1 X19.7138 Y22.3794
G1 X20.2912 Y22.1729
G1 X20.8455 Y21.9107
G1 X21.3715 Y21.5954
G1 X21.864 Y21.2302
G1 X22.3184 Y20.8184
G1 X22.7301 Y20.364
G1 X23.0954 Y19.8715
G1 X23.4107 Y19.3455
G1 X23.6729 Y18.7912
G1 X23.8794 Y18.2138
G1 X24.0284 Y17.619
G1 X24.1184 Y17.0125
G1 X24.1485 Y16.4
G1 X24.1184 Y15.7875
G1 X24.0284 Y15.181
G1 X23.8794 Y14.5862
G1 X23.6729 Y14.0088
G1 X23.4107 Y13.4545
G1 X23.0954 Y12.9285
G1 X22.7301 Y12.436
G1 X22.3184 Y11.9817
G1 X21.864 Y11.5699
G1 X21.3715 Y11.2046
G1 X20.8455 Y10.8893
G1 X20.2912 Y10.6271
G1 X19.7138 Y10.4206
G1 X19.119 Y10.2716
G1 X18.5125 Y10.1816
G1 X17.9 Y10.1515
G1 X17.2875 Y10.1816
G1 X16.681 Y10.2716
G1 X16.0862 Y10.4206
G1 X15.5088 Y10.6271
G1 X14.9545 Y10.8893
G1 X14.4285 Y11.2046
G1 X13.936 Y11.5699
G1 X13.4817 Y11.9817
G1 X13.0699 Y12.436
G1 X12.7046 Y12.9285
G1 X12.3893 Y13.4545
G1 X12.1272 Y14.0088
G1 X11.9206 Y14.5862
G1 X11.7716 Y15.181
G1 X11.6816 Y15.7875
G1 X11.6515 Y16.4
G1 X11.6816 Y17.0125
G1 X11.7716 Y17.619
G1 X11.9206 Y18.2138
G1 X12.1272 Y18.7912
G1 X12.3893 Y19.3455
G1 X12.7046 Y19.8715
G1 X13.0699 Y20.364
G1 X13.4817 Y20.8184
G1 X13.936 Y21.2302
G1 X14.4285 Y21.5954
G1 X14.9545 Y21.9107
G1 X15.5088 Y22.1729
G1 X16.0862 Y22.3794
G1 X16.681 Y22.5284
G1 X16.9726 Y22.5717
G0 Z3.0
G0 X17.8529 Y16.6366
G0 Z0.7
G1 F200.0 Z-0.3
G1 F700.0 X17.8763 Y16.6401 Z-0.3047
G1 X17.9 Y16.6413 Z-0.3094
G1 X17.9237 Y16.6401 Z-0.3141
G1 X17.9471 Y16.6366 Z-0.3187
G1 X17.97 Y16.6309 Z-0.3234
G1 X17.9923 Y16.6229 Z-0.3281
G1 X18.0137 Y16.6128 Z-0.3328
G1 X18.034 Y16.6006 Z-0.3375
G1 X18.0531 Y16.5865 Z-0.3422
G1 X18.0706 Y16.5706 Z-0.3469
G1 X18.0865 Y16.5531 Z-0.3516
G1 X18.1006 Y16.534 Z-0.3563
G1 X18.1128 Y16.5137 Z-0.3609
G1 X18.1229 Y16.4923 Z-0.3656
G1 X18.1309 Y16.47 Z-0.3703
G1 X18.1366 Y16.4471 Z-0.375
G1 X18.1401 Y16.4236 Z-0.3797
G1 X18.1413 Y16.4 Z-0.3844
G1 X18.1401 Y16.3764 Z-0.3891
G1 X18.1366 Y16.3529 Z-0.3938
G1 X18.1309 Y16.33 Z-0.3984
G1 X18.1229 Y16.3077 Z-0.4031
G1 X18.1128 Y16.2863 Z-0.4078
G1 X18.1006 Y16.266 Z-0.4125
G1 X18.0865 Y16.2469 Z-0.4172
G1 X18.0706 Y16.2294 Z-0.4219
G1 X18.0531 Y16.2135 Z-0.4266
G1 X18.034 Y16.1994 Z-0.4313
G1 X18.0137 Y16.1872 Z-0.4359
G1 X17.9923 Y16.1771 Z-0.4406
G1 X17.97 Y16.1691 Z-0.4453
G1 X17.9471 Y16.1634 Z-0.45
G1 X17.9236 Y16.1599 Z-0.4547
G1 X17.9 Y16.1587 Z-0.4594
G1 X17.8764 Y16.1599 Z-0.4641
G1 X17.8529 Y16.1634 Z-0.4687
G1 X17.83 Y16.1691 Z-0.4734
G1 X17.8077 Y16.1771 Z-0.4781
G1 X17.7863 Y16.1872 Z-0.4828
G1 X17.766 Y16.1994 Z-0.4875
G1 X17.747 Y16.2135 Z-0.4922
G1 X17.7294 Y16.2294 Z-0.4969
G1 X17.7135 Y16.247 Z-0.5016
G1 X17.6994 Y16.266 Z-0.5063
G1 X17.6872 Y16.2863 Z-0.5109
G1 X17.6771 Y16.3077 Z-0.5156
G1 X17.6691 Y16.33 Z-0.5203
G1 X17.6634 Y16.3529 Z-0.525
G1 X17.6599 Y16.3764 Z-0.5297
G1 X17.6587 Y16.4 Z-0.5344
G1 X17.6599 Y16.4236 Z-0.5391
G1 X17.6634 Y16.4471 Z-0.5438
G1 X17.6691 Y16.47 Z-0.5484
G1 X17.6771 Y16.4923 Z-0.5531
G1 X17.6872 Y16.5138 Z-0.5578
G1 X17.6994 Y16.534 Z-0.5625
G1 X17.7135 Y16.553 Z-0.5672
G1 X17.7294 Y16.5706 Z-0.5719
G1 X17.747 Y16.5865 Z-0.5766
G1 X17.766 Y16.6006 Z-0.5813
G1 X17.7863 Y16.6128 Z-0.5859
G1 X17.8077 Y16.6229 Z-0.5906
G1 X17.83 Y16.6309 Z-0.5953
G1 X17.8529 Y16.6366 Z-0.6
G1 F200.0 X17.7062 Y17.6258
G1 F700.0 X17.7782 Y17.6365
G1 X17.9 Y17.6425
G1 X18.0218 Y17.6365
G1 X18.1424 Y17.6186
G1 X18.2607 Y17.589
G1 X18.3755 Y17.5479
G1 X18.4857 Y17.4958
G1 X18.5903 Y17.4331
G1 X18.6882 Y17.3604
G1 X18.7786 Y17.2786
G1 X18.8604 Y17.1882
G1 X18.9331 Y17.0903
G1 X18.9958 Y16.9857
G1 X19.0479 Y16.8755
G1 X19.089 Y16.7607
G1 X19.1186 Y16.6424
G1 X19.1365 Y16.5218
G1 X19.1425 Y16.4
G1 X19.1365 Y16.2782
G1 X19.1186 Y16.1576
G1 X19.089 Y16.0393
G1 X19.0479 Y15.9245
G1 X18.9958 Y15.8143
G1 X18.9331 Y15.7097
G1 X18.8604 Y15.6118
G1 X18.7786 Y15.5214
G1 X18.6882 Y15.4396
G1 X18.5903 Y15.3669
G1 X18.4857 Y15.3043
G1 X18.3755 Y15.2521
G1 X18.2607 Y15.211
G1 X18.1424 Y15.1814
G1 X18.0218 Y15.1635
G1 X17.9 Y15.1575
G1 X17.7782 Y15.1635
G1 X17.6576 Y15.1814
G1 X17.5393 Y15.211
G1 X17.4245 Y15.2521
G1 X17.3143 Y15.3043
G1 X17.2097 Y15.3669
G1 X17.1118 Y15.4396
G1 X17.0214 Y15.5214
G1 X16.9396 Y15.6118
G1 X16.8669 Y15.7097
G1 X16.8043 Y15.8143
G1 X16.7521 Y15.9245
G1 X16.711 Y16.0393
G1 X16.6814 Y16.1576
G1 X16.6635 Y16.2782
G1 X16.6575 Y16.4
G1 X16.6635 Y16.5218
G1 X16.6814 Y16.6424
G1 X16.711 Y16.7607
G1 X16.7521 Y16.8755
G1 X16.8043 Y16.9857
G1 X16.8669 Y17.0903
G1 X16.9396 Y17.1882
G1 X17.0215 Y17.2786
G1 X17.1118 Y17.3604
G1 X17.2097 Y17.4331
G1 X17.3143 Y17.4958
G1 X17.4245 Y17.5479
G1 X17.5393 Y17.589
G1 X17.6576 Y17.6186
G1 X17.7062 Y17.6258
G1 F200.0 X17.5595 Y18.615
G1 F700.0 X17.6801 Y18.6329
G1 X17.9 Y18.6437
G1 X18.1199 Y18.6329
G1 X18.3377 Y18.6006
G1 X18.5513 Y18.5471
G1 X18.7586 Y18.4729
G1 X18.9577 Y18.3787
G1 X19.1465 Y18.2655
G1 X19.3234 Y18.1344
G1 X19.4865 Y17.9865
G1 X19.6344 Y17.8234
G1 X19.7655 Y17.6465
G1 X19.8787 Y17.4577
G1 X19.9729 Y17.2586
G1 X20.0471 Y17.0513
G1 X20.1006 Y16.8377
G1 X20.1329 Y16.6199
G1 X20.1437 Y16.4
G1 X20.1329 Y16.1801
G1 X20.1006 Y15.9623
G1 X20.0471 Y15.7487
G1 X19.9729 Y15.5414
G1 X19.8787 Y15.3423
G1 X19.7655 Y15.1535
G1 X19.6344 Y14.9766
G1 X19.4865 Y14.8135
G1 X19.3234 Y14.6656
G1 X19.1465 Y14.5345
G1 X18.9577 Y14.4213
G1 X18.7586 Y14.3271
G1 X18.5513 Y14.2529
G1 X18.3377 Y14.1994
G1 X18.1199 Y14.1671
G1 X17.9 Y14.1563
G1 X17.6801 Y14.1671
G1 X17.4623 Y14.1994
G1 X17.2487 Y14.2529
G1 X17.0414 Y14.3271
G1 X16.8423 Y14.4213
G1 X16.6535 Y14.5345
G1 X16.4766 Y14.6656
G1 X16.3135 Y14.8135
G1 X16.1656 Y14.9766
G1 X16.0345 Y15.1535
G1 X15.9213 Y15.3423
G1 X15.8271 Y15.5414
G1 X15.7529 Y15.7487
G1 X15.6994 Y15.9623
G1 X15.6671 Y16.1801
G1 X15.6563 Y16.4
G1 X15.6671 Y16.6199
G1 X15.6994 Y16.8377
G1 X15.7529 Y17.0513
G1 X15.8271 Y17.2586
G1 X15.9213 Y17.4577
G1 X16.0345 Y17.6465
G1 X16.1656 Y17.8234
G1 X16.3135 Y17.9865
G1 X16.4766 Y18.1344
G1 X16.6535 Y18.2655
G1 X16.8423 Y18.3787
G1 X17.0414 Y18.4729
G1 X17.2487 Y18.5471
G1 X17.4623 Y18.6006
G1 X17.5595 Y18.615
G1 F200.0 X17.4127 Y19.6042
G1 F700.0 X17.5819 Y19.6293
G1 X17.9 Y19.6449
G1 X18.2181 Y19.6293
G1 X18.533 Y19.5825
G1 X18.8419 Y19.5052
G1 X19.1418 Y19.3979
G1 X19.4296 Y19.2617
G1 X19.7028 Y19.098
G1 X19.9585 Y18.9083
G1 X20.1945 Y18.6945
G1 X20.4083 Y18.4585
G1 X20.598 Y18.2028
G1 X20.7617 Y17.9296
G1 X20.8979 Y17.6418
G1 X21.0052 Y17.3419
G1 X21.0825 Y17.0331
G1 X21.1293 Y16.7181
G1 X21.1449 Y16.4
G1 X21.1293 Y16.082
G1 X21.0825 Y15.767
G1 X21.0052 Y15.4581
G1 X20.8979 Y15.1582
G1 X20.7617 Y14.8704
G1 X20.598 Y14.5972
G1 X20.4083 Y14.3415
G1 X20.1945 Y14.1055
G1 X19.9585 Y13.8917
G1 X19.7028 Y13.702
G1 X19.4296 Y13.5383
G1 X19.1418 Y13.4021
G1 X18.8419 Y13.2949
G1 X18.533 Y13.2175
G1 X18.2181 Y13.1708
G1 X17.9 Y13.1551
G1 X17.5819 Y13.1708
G1 X17.267 Y13.2175
G1 X16.9581 Y13.2949
G1 X16.6582 Y13.4021
G1 X16.3704 Y13.5383
G1 X16.0973 Y13.702
G1 X15.8415 Y13.8917
G1 X15.6055 Y14.1055
G1 X15.3917 Y14.3415
G1 X15.202 Y14.5972
G1 X15.0383 Y14.8704
G1 X14.9021 Y15.1582
G1 X14.7948 Y15.4581
G1 X14.7175 Y15.7669
G1 X14.6708 Y16.082
G1 X14.6551 Y16.4
G1 X14.6708 Y16.7181
G1 X14.7175 Y17.0331
G1 X14.7948 Y17.3419
G1 X14.9021 Y17.6418
G1 X15.0383 Y17.9296
G1 X15.202 Y18.2028
G1 X15.3917 Y18.4585
G1 X15.6055 Y18.6945
G1 X15.8415 Y18.9083
G1 X16.0972 Y19.098
G1 X16.3704 Y19.2617
G1 X16.6582 Y19.3979
G1 X16.9581 Y19.5052
G1 X17.267 Y19.5825
G1 X17.4127 Y19.6042
G1 F200.0 X17.266 Y20.5933
G1 F700.0 X17.4838 Y20.6256
G1 X17.9 Y20.6461
G1 X18.3162 Y20.6256
G1 X18.7284 Y20.5645
G1 X19.1326 Y20.4632
G1 X19.5249 Y20.3229
G1 X19.9016 Y20.1447
G1 X20.259 Y19.9305
G1 X20.5937 Y19.6823
G1 X20.9024 Y19.4024
G1 X21.1823 Y19.0937
G1 X21.4305 Y18.759
G1 X21.6447 Y18.4016
G1 X21.8229 Y18.0249
G1 X21.9632 Y17.6326
G1 X22.0645 Y17.2284
G1 X22.1256 Y16.8162
G1 X22.1461 Y16.4
G1 X22.1256 Y15.9838
G1 X22.0645 Y15.5716
G1 X21.9632 Y15.1674
G1 X21.8229 Y14.7751
G1 X21.6447 Y14.3984
G1 X21.4305 Y14.041
G1 X21.1823 Y13.7063
G1 X20.9024 Y13.3976
G1 X20.5937 Y13.1177
G1 X20.259 Y12.8695
G1 X19.9016 Y12.6553
G1 X19.5249 Y12.4771
G1 X19.1326 Y12.3368
G1 X18.7284 Y12.2355
G1 X18.3162 Y12.1744
G1 X17.9 Y12.1539
G1 X17.4838 Y12.1744
G1 X17.0716 Y12.2355
G1 X16.6674 Y12.3368
G1 X16.2751 Y12.4771
G1 X15.8984 Y12.6553
G1 X15.541 Y12.8695
G1 X15.2063 Y13.1177
G1 X14.8976 Y13.3976
G1 X14.6177 Y13.7063
G1 X14.3695 Y14.041
G1 X14.1553 Y14.3984
G1 X13.9771 Y14.7751
G1 X13.8368 Y15.1674
G1 X13.7355 Y15.5716
G1 X13.6744 Y15.9838
G1 X13.6539 Y16.4
G1 X13.6744 Y16.8162
G1 X13.7355 Y17.2284
G1 X13.8368 Y17.6326
G1 X13.9771 Y18.0249
G1 X14.1553 Y18.4016
G1 X14.3695 Y18.759
G1 X14.6177 Y19.0937
G1 X14.8976 Y19.4024
G1 X15.2063 Y19.6823
G1 X15.541 Y19.9305
G1 X15.8984 Y20.1447
G1 X16.2751 Y20.3229
G1 X16.6674 Y20.4632
G1 X17.0716 Y20.5645
G1 X17.266 Y20.5933
G1 F200.0 X17.1193 Y21.5825
G1 F700.0 X17.3857 Y21.622
G1 X17.9 Y21.6473
G1 X18.4143 Y21.622
G1 X18.9237 Y21.5465
G1 X19.4232 Y21.4213
G1 X19.9081 Y21.2479
G1 X20.3736 Y21.0277
G1 X20.8152 Y20.763
G1 X21.2288 Y20.4562
G1 X21.6104 Y20.1104
G1 X21.9562 Y19.7288
G1 X22.263 Y19.3152
G1 X22.5277 Y18.8736
G1 X22.7479 Y18.408
G1 X22.9213 Y17.9232
G1 X23.0465 Y17.4237
G1 X23.122 Y16.9143
G1 X23.1473 Y16.4
G1 X23.122 Y15.8857
G1 X23.0465 Y15.3763
G1 X22.9213 Y14.8768
G1 X22.7479 Y14.392
G1 X22.5277 Y13.9264
G1 X22.263 Y13.4848
G1 X21.9562 Y13.0712
G1 X21.6104 Y12.6896
G1 X21.2288 Y12.3438
G1 X20.8152 Y12.037
G1 X20.3736 Y11.7723
G1 X19.9081 Y11.5521
G1 X19.4232 Y11.3787
G1 X18.9237 Y11.2535
G1 X18.4143 Y11.178
G1 X17.9 Y11.1527
G1 X17.3857 Y11.178
G1 X16.8763 Y11.2535
G1 X16.3768 Y11.3787
G1 X15.8919 Y11.5521
G1 X15.4264 Y11.7723
G1 X14.9848 Y12.037
G1 X14.5712 Y12.3438
G1 X14.1896 Y12.6896
G1 X13.8438 Y13.0712
G1 X13.537 Y13.4848
G1 X13.2723 Y13.9264
G1 X13.0521 Y14.392
G1 X12.8787 Y14.8768
G1 X12.7535 Y15.3763
G1 X12.678 Y15.8857
G1 X12.6527 Y16.4
G1 X12.678 Y16.9143
G1 X12.7535 Y17.4237
G1 X12.8787 Y17.9232
G1 X13.0521 Y18.408
G1 X13.2723 Y18.8736
G1 X13.537 Y19.3152
G1 X13.8438 Y19.7288
G1 X14.1896 Y20.1104
G1 X14.5712 Y20.4562
G1 X14.9848 Y20.763
G1 X15.4264 Y21.0277
G1 X15.892 Y21.2479
G1 X16.3768 Y21.4213
G1 X16.8763 Y21.5465
G1 X17.1193 Y21.5825
G1 F200.0 X16.9726 Y22.5717
G1 F700.0 X17.2875 Y22.6184
G1 X17.9 Y22.6485
G1 X18.5125 Y22.6184
G1 X19.119 Y22.5284
G1 X19.7138 Y22.3794
G1 X20.2912 Y22.1729
G1 X20.8455 Y21.9107
G1 X21.3715 Y21.5954
G1 X21.864 Y21.2302
G1 X22.3184 Y20.8184
G1 X22.7301 Y20.364
G1 X23.0954 Y19.8715
G1 X23.4107 Y19.3455
G1 X23.6729 Y18.7912
G1 X23.8794 Y18.2138
G1 X24.0284 Y17.619
G1 X24.1184 Y17.0125
G1 X24.1485 Y16.4
G1 X24.1184 Y15.7875
G1 X24.0284 Y15.181
G1 X23.8794 Y14.5862
G1 X23.6729 Y14.0088
G1 X23.4107 Y13.4545
G1 X23.0954 Y12.9285
G1 X22.7301 Y12.436
G1 X22.3184 Y11.9817
G1 X21.864 Y11.5699
G1 X21.3715 Y11.2046
G1 X20.8455 Y10.8893
G1 X20.2912 Y10.6271
G1 X19.7138 Y10.4206
G1 X19.119 Y10.2716
G1 X18.5125 Y10.1816
G1 X17.9 Y10.1515
G1 X17.2875 Y10.1816
G1 X16.681 Y10.2716
G1 X16.0862 Y10.4206
G1 X15.5088 Y10.6271
G1 X14.9545 Y10.8893
G1 X14.4285 Y11.2046
G1 X13.936 Y11.5699
G1 X13.4817 Y11.9817
G1 X13.0699 Y12.436
G1 X12.7046 Y12.9285
G1 X12.3893 Y13.4545
G1 X12.1272 Y14.0088
G1 X11.9206 Y14.5862
G1 X11.7716 Y15.181
G1 X11.6816 Y15.7875
G1 X11.6515 Y16.4
G1 X11.6816 Y17.0125
G1 X11.7716 Y17.619
G1 X11.9206 Y18.2138
G1 X12.1272 Y18.7912
G1 X12.3893 Y19.3455
G1 X12.7046 Y19.8715
G1 X13.0699 Y20.364
G1 X13.4817 Y20.8184
G1 X13.936 Y21.2302
G1 X14.4285 Y21.5954
G1 X14.9545 Y21.9107
G1 X15.5088 Y22.1729
G1 X16.0862 Y22.3794
G1 X16.681 Y22.5284
G1 X16.9726 Y22.5717
G0 Z3.0
G0 X17.8529 Y16.6366
G0 Z0.4
G1 F200.0 Z-0.6
G1 F700.0 X17.8763 Y16.6401 Z-0.6047
G1 X17.9 Y16.6413 Z-0.6094
G1 X17.9237 Y16.6401 Z-0.6141
G1 X17.9471 Y16.6366 Z-0.6187
G1 X17.97 Y16.6309 Z-0.6234
G1 X17.9923 Y16.6229 Z-0.6281
G1 X18.0137 Y16.6128 Z-0.6328
G1 X18.034 Y16.6006 Z-0.6375
G1 X18.0531 Y16.5865 Z-0.6422
G1 X18.0706 Y16.5706 Z-0.6469
G1 X18.0865 Y16.5531 Z-0.6516
G1 X18.1006 Y16.534 Z-0.6563
G1 X18.1128 Y16.5137 Z-0.6609
G1 X18.1229 Y16.4923 Z-0.6656
G1 X18.1309 Y16.47 Z-0.6703
G1 X18.1366 Y16.4471 Z-0.675
G1 X18.1401 Y16.4236 Z-0.6797
G1 X18.1413 Y16.4 Z-0.6844
G1 X18.1401 Y16.3764 Z-0.6891
G1 X18.1366 Y16.3529 Z-0.6938
G1 X18.1309 Y16.33 Z-0.6984
G1 X18.1229 Y16.3077 Z-0.7031
G1 X18.1128 Y16.2863 Z-0.7078
G1 X18.1006 Y16.266 Z-0.7125
G1 X18.0865 Y16.2469 Z-0.7172
G1 X18.0706 Y16.2294 Z-0.7219
G1 X18.0531 Y16.2135 Z-0.7266
G1 X18.034 Y16.1994 Z-0.7313
G1 X18.0137 Y16.1872 Z-0.7359
G1 X17.9923 Y16.1771 Z-0.7406
G1 X17.97 Y16.1691 Z-0.7453
G1 X17.9471 Y16.1634 Z-0.75
G1 X17.9236 Y16.1599 Z-0.7547
G1 X17.9 Y16.1587 Z-0.7594
G1 X17.8764 Y16.1599 Z-0.7641
G1 X17.8529 Y16.1634 Z-0.7687
G1 X17.83 Y16.1691 Z-0.7734
G1 X17.8077 Y16.1771 Z-0.7781
G1 X17.7863 Y16.1872 Z-0.7828
G1 X17.766 Y16.1994 Z-0.7875
G1 X17.747 Y16.2135 Z-0.7922
G1 X17.7294 Y16.2294 Z-0.7969
G1 X17.7135 Y16.247 Z-0.8016
G1 X17.6994 Y16.266 Z-0.8063
G1 X17.6872 Y16.2863 Z-0.8109
G1 X17.6771 Y16.3077 Z-0.8156
G1 X17.6691 Y16.33 Z-0.8203
G1 X17.6634 Y16.3529 Z-0.825
G1 X17.6599 Y16.3764 Z-0.8297
G1 X17.6587 Y16.4 Z-0.8344
G1 X17.6599 Y16.4236 Z-0.8391
G1 X17.6634 Y16.4471 Z-0.8438
G1 X17.6691 Y16.47 Z-0.8484
G1 X17.6771 Y16.4923 Z-0.8531
G1 X17.6872 Y16.5138 Z-0.8578
G1 X17.6994 Y16.534 Z-0.8625
G1 X17.7135 Y16.553 Z-0.8672
G1 X17.7294 Y16.5706 Z-0.8719
G1 X17.747 Y16.5865 Z-0.8766
G1 X17.766 Y16.6006 Z-0.8813
G1 X17.7863 Y16.6128 Z-0.8859
G1 X17.8077 Y16.6229 Z-0.8906
G1 X17.83 Y16.6309 Z-0.8953
G1 X17.8529 Y16.6366 Z-0.9
G1 F200.0 X17.7062 Y17.6258
G1 F700.0 X17.7782 Y17.6365
G1 X17.9 Y17.6425
G1 X18.0218 Y17.6365
G1 X18.1424 Y17.6186
G1 X18.2607 Y17.589
G1 X18.3755 Y17.5479
G1 X18.4857 Y17.4958
G1 X18.5903 Y17.4331
G1 X18.6882 Y17.3604
G1 X18.7786 Y17.2786
G1 X18.8604 Y17.1882
G1 X18.9331 Y17.0903
G1 X18.9958 Y16.9857
G1 X19.0479 Y16.8755
G1 X19.089 Y16.7607
G1 X19.1186 Y16.6424
G1 X19.1365 Y16.5218
G1 X19.1425 Y16.4
G1 X19.1365 Y16.2782
G1 X19.1186 Y16.1576
G1 X19.089 Y16.0393
G1 X19.0479 Y15.9245
G1 X18.9958 Y15.8143
G1 X18.9331 Y15.7097
G1 X18.8604 Y15.6118
G1 X18.7786 Y15.5214
G1 X18.6882 Y15.4396
G1 X18.5903 Y15.3669
G1 X18.4857 Y15.3043
G1 X18.3755 Y15.2521
G1 X18.2607 Y15.211
G1 X18.1424 Y15.1814
G1 X18.0218 Y15.1635
G1 X17.9 Y15.1575
G1 X17.7782 Y15.1635
G1 X17.6576 Y15.1814
G1 X17.5393 Y15.211
G1 X17.4245 Y15.2521
G1 X17.3143 Y15.3043
G1 X17.2097 Y15.3669
G1 X17.1118 Y15.4396
G1 X17.0214 Y15.5214
G1 X16.9396 Y15.6118
G1 X16.8669 Y15.7097
G1 X16.8043 Y15.8143
G1 X16.7521 Y15.9245
G1 X16.711 Y16.0393
G1 X16.6814 Y16.1576
G1 X16.6635 Y16.2782
G1 X16.6575 Y16.4
G1 X16.6635 Y16.5218
G1 X16.6814 Y16.6424
G1 X16.711 Y16.7607
G1 X16.7521 Y16.8755
G1 X16.8043 Y16.9857
G1 X16.8669 Y17.0903
G1 X16.9396 Y17.1882
G1 X17.0215 Y17.2786
G1 X17.1118 Y17.3604
G1 X17.2097 Y17.4331
G1 X17.3143 Y17.4958
G1 X17.4245 Y17.5479
G1 X17.5393 Y17.589
G1 X17.6576 Y17.6186
G1 X17.7062 Y17.6258
G1 F200.0 X17.5595 Y18.615
G1 F700.0 X17.6801 Y18.6329
G1 X17.9 Y18.6437
G1 X18.1199 Y18.6329
G1 X18.3377 Y18.6006
G1 X18.5513 Y18.5471
G1 X18.7586 Y18.4729
G1 X18.9577 Y18.3787
G1 X19.1465 Y18.2655
G1 X19.3234 Y18.1344
G1 X19.4865 Y17.9865
G1 X19.6344 Y17.8234
G1 X19.7655 Y17.6465
G1 X19.8787 Y17.4577
G1 X19.9729 Y17.2586
G1 X20.0471 Y17.0513
G1 X20.1006 Y16.8377
G1 X20.1329 Y16.6199
G1 X20.1437 Y16.4
G1 X20.1329 Y16.1801
G1 X20.1006 Y15.9623
G1 X20.0471 Y15.7487
G1 X19.9729 Y15.5414
G1 X19.8787 Y15.3423
G1 X19.7655 Y15.1535
G1 X19.6344 Y14.9766
G1 X19.4865 Y14.8135
G1 X19.3234 Y14.6656
G1 X19.1465 Y14.5345
G1 X18.9577 Y14.4213
G1 X18.7586 Y14.3271
G1 X18.5513 Y14.2529
G1 X18.3377 Y14.1994
G1 X18.1199 Y14.1671
G1 X17.9 Y14.1563
G1 X17.6801 Y14.1671
G1 X17.4623 Y14.1994
G1 X17.2487 Y14.2529
G1 X17.0414 Y14.3271
G1 X16.8423 Y14.4213
G1 X16.6535 Y14.5345
G1 X16.4766 Y14.6656
G1 X16.3135 Y14.8135
G1 X16.1656 Y14.9766
G1 X16.0345 Y15.1535
G1 X15.9213 Y15.3423
G1 X15.8271 Y15.5414
G1 X15.7529 Y15.7487
G1 X15.6994 Y15.9623
G1 X15.6671 Y16.1801
G1 X15.6563 Y16.4
G1 X15.6671 Y16.6199
G1 X15.6994 Y16.8377
G1 X15.7529 Y17.0513
G1 X15.8271 Y17.2586
G1 X15.9213 Y17.4577
G1 X16.0345 Y17.6465
G1 X16.1656 Y17.8234
G1 X16.3135 Y17.9865
G1 X16.4766 Y18.1344
G1 X16.6535 Y18.2655
G1 X16.8423 Y18.3787
G1 X17.0414 Y18.4729
G1 X17.2487 Y18.5471
G1 X17.4623 Y18.6006
G1 X17.5595 Y18.615
G1 F200.0 X17.4127 Y19.6042
G1 F700.0 X17.5819 Y19.6293
G1 X17.9 Y19.6449
G1 X18.2181 Y19.6293
G1 X18.533 Y19.5825
G1 X18.8419 Y19.5052
G1 X19.1418 Y19.3979
G1 X19.4296 Y19.2617
G1 X19.7028 Y19.098
G1 X19.9585 Y18.9083
G1 X20.1945 Y18.6945
G1 X20.4083 Y18.4585
G1 X20.598 Y18.2028
G1 X20.7617 Y17.9296
G1 X20.8979 Y17.6418
G1 X21.0052 Y17.3419
G1 X21.0825 Y17.0331
G1 X21.1293 Y16.7181
G1 X21.1449 Y16.4
G1 X21.1293 Y16.082
G1 X21.0825 Y15.767
G1 X21.0052 Y15.4581
G1 X20.8979 Y15.1582
G1 X20.7617 Y14.8704
G1 X20.598 Y14.5972
G1 X20.4083 Y14.3415
G1 X20.1945 Y14.1055
G1 X19.9585 Y13.8917
G1 X19.7028 Y13.702
G1 X19.4296 Y13.5383
G1 X19.1418 Y13.4021
G1 X18.8419 Y13.2949
G1 X18.533 Y13.2175
G1 X18.2181 Y13.1708
G1 X17.9 Y13.1551
G1 X17.5819 Y13.1708
G1 X17.267 Y13.2175
G1 X16.9581 Y13.2949
G1 X16.6582 Y13.4021
G1 X16.3704 Y13.5383
G1 X16.0973 Y13.702
G1 X15.8415 Y13.8917
G1 X15.6055 Y14.1055
G1 X15.3917 Y14.3415
G1 X15.202 Y14.5972
G1 X15.0383 Y14.8704
G1 X14.9021 Y15.1582
G1 X14.7948 Y15.4581
G1 X14.7175 Y15.7669
G1 X14.6708 Y16.082
G1 X14.6551 Y16.4
G1 X14.6708 Y16.7181
G1 X14.7175 Y17.0331
G1 X14.7948 Y17.3419
G1 X14.9021 Y17.6418
G1 X15.0383 Y17.9296
G1 X15.202 Y18.2028
G1 X15.3917 Y18.4585
G1 X15.6055 Y18.6945
G1 X15.8415 Y18.9083
G1 X16.0972 Y19.098
G1 X16.3704 Y19.2617
G1 X16.6582 Y19.3979
G1 X16.9581 Y19.5052
G1 X17.267 Y19.5825
G1 X17.4127 Y19.6042
G1 F200.0 X17.266 Y20.5933
G1 F700.0 X17.4838 Y20.6256
G1 X17.9 Y20.6461
G1 X18.3162 Y20.6256
G1 X18.7284 Y20.5645
G1 X19.1326 Y20.4632
G1 X19.5249 Y20.3229
G1 X19.9016 Y20.1447
G1 X20.259 Y19.9305
G1 X20.5937 Y19.6823
G1 X20.9024 Y19.4024
G1 X21.1823 Y19.0937
G1 X21.4305 Y18.759
G1 X21.6447 Y18.4016
G1 X21.8229 Y18.0249
G1 X21.9632 Y17.6326
G1 X22.0645 Y17.2284
G1 X22.1256 Y16.8162
G1 X22.1461 Y16.4
G1 X22.1256 Y15.9838
G1 X22.0645 Y15.5716
G1 X21.9632 Y15.1674
G1 X21.8229 Y14.7751
G1 X21.6447 Y14.3984
G1 X21.4305 Y14.041
G1 X21.1823 Y13.7063
G1 X20.9024 Y13.3976
G1 X20.5937 Y13.1177
G1 X20.259 Y12.8695
G1 X19.9016 Y12.6553
G1 X19.5249 Y12.4771
G1 X19.1326 Y12.3368
G1 X18.7284 Y12.2355
G1 X18.3162 Y12.1744
G1 X17.9 Y12.1539
G1 X17.4838 Y12.1744
G1 X17.0716 Y12.2355
G1 X16.6674 Y12.3368
G1 X16.2751 Y12.4771
G1 X15.8984 Y12.6553
G1 X15.541 Y12.8695
G1 X15.2063 Y13.1177
G1 X14.8976 Y13.3976
G1 X14.6177 Y13.7063
G1 X14.3695 Y14.041
G1 X14.1553 Y14.3984
G1 X13.9771 Y14.7751
G1 X13.8368 Y15.1674
G1 X13.7355 Y15.5716
G1 X13.6744 Y15.9838
G1 X13.6539 Y16.4
G1 X13.6744 Y16.8162
G1 X13.7355 Y17.2284
G1 X13.8368 Y17.6326
G1 X13.9771 Y18.0249
G1 X14.1553 Y18.4016
G1 X14.3695 Y18.759
G1 X14.6177 Y19.0937
G1 X14.8976 Y19.4024
G1 X15.2063 Y19.6823
G1 X15.541 Y19.9305
G1 X15.8984 Y20.1447
G1 X16.2751 Y20.3229
G1 X16.6674 Y20.4632
G1 X17.0716 Y20.5645
G1 X17.266 Y20.5933
G1 F200.0 X17.1193 Y21.5825
G1 F700.0 X17.3857 Y21.622
G1 X17.9 Y21.6473
G1 X18.4143 Y21.622
G1 X18.9237 Y21.5465
G1 X19.4232 Y21.4213
G1 X19.9081 Y21.2479
G1 X20.3736 Y21.0277
G1 X20.8152 Y20.763
G1 X21.2288 Y20.4562
G1 X21.6104 Y20.1104
G1 X21.9562 Y19.7288
G1 X22.263 Y19.3152
G1 X22.5277 Y18.8736
G1 X22.7479 Y18.408
G1 X22.9213 Y17.9232
G1 X23.0465 Y17.4237
G1 X23.122 Y16.9143
G1 X23.1473 Y16.4
G1 X23.122 Y15.8857
G1 X23.0465 Y15.3763
G1 X22.9213 Y14.8768
G1 X22.7479 Y14.392
G1 X22.5277 Y13.9264
G1 X22.263 Y13.4848
G1 X21.9562 Y13.0712
G1 X21.6104 Y12.6896
G1 X21.2288 Y12.3438
G1 X20.8152 Y12.037
G1 X20.3736 Y11.7723
G1 X19.9081 Y11.5521
G1 X19.4232 Y11.3787
G1 X18.9237 Y11.2535
G1 X18.4143 Y11.178
G1 X17.9 Y11.1527
G1 X17.3857 Y11.178
G1 X16.8763 Y11.2535
G1 X16.3768 Y11.3787
G1 X15.8919 Y11.5521
G1 X15.4264 Y11.7723
G1 X14.9848 Y12.037
G1 X14.5712 Y12.3438
G1 X14.1896 Y12.6896
G1 X13.8438 Y13.0712
G1 X13.537 Y13.4848
G1 X13.2723 Y13.9264
G1 X13.0521 Y14.392
G1 X12.8787 Y14.8768
G1 X12.7535 Y15.3763
G1 X12.678 Y15.8857
G1 X12.6527 Y16.4
G1 X12.678 Y16.9143
G1 X12.7535 Y17.4237
G1 X12.8787 Y17.9232
G1 X13.0521 Y18.408
G1 X13.2723 Y18.8736
G1 X13.537 Y19.3152
G1 X13.8438 Y19.7288
G1 X14.1896 Y20.1104
G1 X14.5712 Y20.4562
G1 X14.9848 Y20.763
G1 X15.4264 Y21.0277
G1 X15.892 Y21.2479
G1 X16.3768 Y21.4213
G1 X16.8763 Y21.5465
G1 X17.1193 Y21.5825
G1 F200.0 X16.9726 Y22.5717
G1 F700.0 X17.2875 Y22.6184
G1 X17.9 Y22.6485
G1 X18.5125 Y22.6184
G1 X19.119 Y22.5284
G1 X19.7138 Y22.3794
G1 X20.2912 Y22.1729
G1 X20.8455 Y21.9107
G1 X21.3715 Y21.5954
G1 X21.864 Y21.2302
G1 X22.3184 Y20.8184
G1 X22.7301 Y20.364
G1 X23.0954 Y19.8715
G1 X23.4107 Y19.3455
G1 X23.6729 Y18.7912
G1 X23.8794 Y18.2138
G1 X24.0284 Y17.619
G1 X24.1184 Y17.0125
G1 X24.1485 Y16.4
G1 X24.1184 Y15.7875
G1 X24.0284 Y15.181
G1 X23.8794 Y14.5862
G1 X23.6729 Y14.0088
G1 X23.4107 Y13.4545
G1 X23.0954 Y12.9285
G1 X22.7301 Y12.436
G1 X22.3184 Y11.9817
G1 X21.864 Y11.5699
G1 X21.3715 Y11.2046
G1 X20.8455 Y10.8893
G1 X20.2912 Y10.6271
G1 X19.7138 Y10.4206
G1 X19.119 Y10.2716
G1 X18.5125 Y10.1816
G1 X17.9 Y10.1515
G1 X17.2875 Y10.1816
G1 X16.681 Y10.2716
G1 X16.0862 Y10.4206
G1 X15.5088 Y10.6271
G1 X14.9545 Y10.8893
G1 X14.4285 Y11.2046
G1 X13.936 Y11.5699
G1 X13.4817 Y11.9817
G1 X13.0699 Y12.436
G1 X12.7046 Y12.9285
G1 X12.3893 Y13.4545
G1 X12.1272 Y14.0088
G1 X11.9206 Y14.5862
G1 X11.7716 Y15.181
G1 X11.6816 Y15.7875
G1 X11.6515 Y16.4
G1 X11.6816 Y17.0125
G1 X11.7716 Y17.619
G1 X11.9206 Y18.2138
G1 X12.1272 Y18.7912
G1 X12.3893 Y19.3455
G1 X12.7046 Y19.8715
G1 X13.0699 Y20.364
G1 X13.4817 Y20.8184
G1 X13.936 Y21.2302
G1 X14.4285 Y21.5954
G1 X14.9545 Y21.9107
G1 X15.5088 Y22.1729
G1 X16.0862 Y22.3794
G1 X16.681 Y22.5284
G1 X16.9726 Y22.5717
G0 Z3.0
G0 X17.8529 Y16.6366
G1 F200.0 Z-0.9
G1 F700.0 X17.8763 Y16.6401 Z-0.9047
G1 X17.9 Y16.6413 Z-0.9094
G1 X17.9237 Y16.6401 Z-0.9141
G1 X17.9471 Y16.6366 Z-0.9187
G1 X17.97 Y16.6309 Z-0.9234
G1 X17.9923 Y16.6229 Z-0.9281
G1 X18.0137 Y16.6128 Z-0.9328
G1 X18.034 Y16.6006 Z-0.9375
G1 X18.0531 Y16.5865 Z-0.9422
G1 X18.0706 Y16.5706 Z-0.9469
G1 X18.0865 Y16.5531 Z-0.9516
G1 X18.1006 Y16.534 Z-0.9563
G1 X18.1128 Y16.5137 Z-0.9609
G1 X18.1229 Y16.4923 Z-0.9656
G1 X18.1309 Y16.47 Z-0.9703
G1 X18.1366 Y16.4471 Z-0.975
G1 X18.1401 Y16.4236 Z-0.9797
G1 X18.1413 Y16.4 Z-0.9844
G1 X18.1401 Y16.3764 Z-0.9891
G1 X18.1366 Y16.3529 Z-0.9938
G1 X18.1309 Y16.33 Z-0.9984
G1 X18.1229 Y16.3077 Z-1.0031
G1 X18.1128 Y16.2863 Z-1.0078
G1 X18.1006 Y16.266 Z-1.0125
G1 X18.0865 Y16.2469 Z-1.0172
G1 X18.0706 Y16.2294 Z-1.0219
G1 X18.0531 Y16.2135 Z-1.0266
G1 X18.034 Y16.1994 Z-1.0313
G1 X18.0137 Y16.1872 Z-1.0359
G1 X17.9923 Y16.1771 Z-1.0406
G1 X17.97 Y16.1691 Z-1.0453
G1 X17.9471 Y16.1634 Z-1.05
G1 X17.9236 Y16.1599 Z-1.0547
G1 X17.9 Y16.1587 Z-1.0594
G1 X17.8764 Y16.1599 Z-1.0641
G1 X17.8529 Y16.1634 Z-1.0687
G1 X17.83 Y16.1691 Z-1.0734
G1 X17.8077 Y16.1771 Z-1.0781
G1 X17.7863 Y16.1872 Z-1.0828
G1 X17.766 Y16.1994 Z-1.0875
G1 X17.747 Y16.2135 Z-1.0922
G1 X17.7294 Y16.2294 Z-1.0969
G1 X17.7135 Y16.247 Z-1.1016
G1 X17.6994 Y16.266 Z-1.1063
G1 X17.6872 Y16.2863 Z-1.1109
G1 X17.6771 Y16.3077 Z-1.1156
G1 X17.6691 Y16.33 Z-1.1203
G1 X17.6634 Y16.3529 Z-1.125
G1 X17.6599 Y16.3764 Z-1.1297
G1 X17.6587 Y16.4 Z-1.1344
G1 X17.6599 Y16.4236 Z-1.1391
G1 X17.6634 Y16.4471 Z-1.1438
G1 X17.6691 Y16.47 Z-1.1484
G1 X17.6771 Y16.4923 Z-1.1531
G1 X17.6872 Y16.5138 Z-1.1578
G1 X17.6994 Y16.534 Z-1.1625
G1 X17.7135 Y16.553 Z-1.1672
G1 X17.7294 Y16.5706 Z-1.1719
G1 X17.747 Y16.5865 Z-1.1766
G1 X17.766 Y16.6006 Z-1.1813
G1 X17.7863 Y16.6128 Z-1.1859
G1 X17.8077 Y16.6229 Z-1.1906
G1 X17.83 Y16.6309 Z-1.1953
G1 X17.8529 Y16.6366 Z-1.2
G1 F200.0 X17.7062 Y17.6258
G1 F700.0 X17.7782 Y17.6365
G1 X17.9 Y17.6425
G1 X18.0218 Y17.6365
G1 X18.1424 Y17.6186
G1 X18.2607 Y17.589
G1 X18.3755 Y17.5479
G1 X18.4857 Y17.4958
G1 X18.5903 Y17.4331
G1 X18.6882 Y17.3604
G1 X18.7786 Y17.2786
G1 X18.8604 Y17.1882
G1 X18.9331 Y17.0903
G1 X18.9958 Y16.9857
G1 X19.0479 Y16.8755
G1 X19.089 Y16.7607
G1 X19.1186 Y16.6424
G1 X19.1365 Y16.5218
G1 X19.1425 Y16.4
G1 X19.1365 Y16.2782
G1 X19.1186 Y16.1576
G1 X19.089 Y16.0393
G1 X19.0479 Y15.9245
G1 X18.9958 Y15.8143
G1 X18.9331 Y15.7097
G1 X18.8604 Y15.6118
G1 X18.7786 Y15.5214
G1 X18.6882 Y15.4396
G1 X18.5903 Y15.3669
G1 X18.4857 Y15.3043
G1 X18.3755 Y15.2521
G1 X18.2607 Y15.211
G1 X18.1424 Y15.1814
G1 X18.0218 Y15.1635
G1 X17.9 Y15.1575
G1 X17.7782 Y15.1635
G1 X17.6576 Y15.1814
G1 X17.5393 Y15.211
G1 X17.4245 Y15.2521
G1 X17.3143 Y15.3043
G1 X17.2097 Y15.3669
G1 X17.1118 Y15.4396
G1 X17.0214 Y15.5214
G1 X16.9396 Y15.6118
G1 X16.8669 Y15.7097
G1 X16.8043 Y15.8143
G1 X16.7521 Y15.9245
G1 X16.711 Y16.0393
G1 X16.6814 Y16.1576
G1 X16.6635 Y16.2782
G1 X16.6575 Y16.4
G1 X16.6635 Y16.5218
G1 X16.6814 Y16.6424
G1 X16.711 Y16.7607
G1 X16.7521 Y16.8755
G1 X16.8043 Y16.9857
G1 X16.8669 Y17.0903
G1 X16.9396 Y17.1882
G1 X17.0215 Y17.2786
G1 X17.1118 Y17.3604
G1 X17.2097 Y17.4331
G1 X17.3143 Y17.4958
G1 X17.4245 Y17.5479
G1 X17.5393 Y17.589
G1 X17.6576 Y17.6186
G1 X17.7062 Y17.6258
G1 F200.0 X17.5595 Y18.615
G1 F700.0 X17.6801 Y18.6329
G1 X17.9 Y18.6437
G1 X18.1199 Y18.6329
G1 X18.3377 Y18.6006
G1 X18.5513 Y18.5471
G1 X18.7586 Y18.4729
G1 X18.9577 Y18.3787
G1 X19.1465 Y18.2655
G1 X19.3234 Y18.1344
G1 X19.4865 Y17.9865
G1 X19.6344 Y17.8234
G1 X19.7655 Y17.6465
G1 X19.8787 Y17.4577
G1 X19.9729 Y17.2586
G1 X20.0471 Y17.0513
G1 X20.1006 Y16.8377
G1 X20.1329 Y16.6199
G1 X20.1437 Y16.4
G1 X20.1329 Y16.1801
G1 X20.1006 Y15.9623
G1 X20.0471 Y15.7487
G1 X19.9729 Y15.5414
G1 X19.8787 Y15.3423
G1 X19.7655 Y15.1535
G1 X19.6344 Y14.9766
G1 X19.4865 Y14.8135
G1 X19.3234 Y14.6656
G1 X19.1465 Y14.5345
G1 X18.9577 Y14.4213
G1 X18.7586 Y14.3271
G1 X18.5513 Y14.2529
G1 X18.3377 Y14.1994
G1 X18.1199 Y14.1671
G1 X17.9 Y14.1563
G1 X17.6801 Y14.1671
G1 X17.4623 Y14.1994
G1 X17.2487 Y14.2529
G1 X17.0414 Y14.3271
G1 X16.8423 Y14.4213
G1 X16.6535 Y14.5345
G1 X16.4766 Y14.6656
G1 X16.3135 Y14.8135
G1 X16.1656 Y14.9766
G1 X16.0345 Y15.1535
G1 X15.9213 Y15.3423
G1 X15.8271 Y15.5414
G1 X15.7529 Y15.7487
G1 X15.6994 Y15.9623
G1 X15.6671 Y16.1801
G1 X15.6563 Y16.4
G1 X15.6671 Y16.6199
G1 X15.6994 Y16.8377
G1 X15.7529 Y17.0513
G1 X15.8271 Y17.2586
G1 X15.9213 Y17.4577
G1 X16.0345 Y17.6465
G1 X16.1656 Y17.8234
G1 X16.3135 Y17.9865
G1 X16.4766 Y18.1344
G1 X16.6535 Y18.2655
G1 X16.8423 Y18.3787
G1 X17.0414 Y18.4729
G1 X17.2487 Y18.5471
G1 X17.4623 Y18.6006
G1 X17.5595 Y18.615
G1 F200.0 X17.4127 Y19.6042
G1 F700.0 X17.5819 Y19.6293
G1 X17.9 Y19.6449
G1 X18.2181 Y19.6293
G1 X18.533 Y19.5825
G1 X18.8419 Y19.5052
G1 X19.1418 Y19.3979
G1 X19.4296 Y19.2617
G1 X19.7028 Y19.098
G1 X19.9585 Y18.9083
G1 X20.1945 Y18.6945
G1 X20.4083 Y18.4585
G1 X20.598 Y18.2028
G1 X20.7617 Y17.9296
G1 X20.8979 Y17.6418
G1 X21.0052 Y17.3419
G1 X21.0825 Y17.0331
G1 X21.1293 Y16.7181
G1 X21.1449 Y16.4
G1 X21.1293 Y16.082
G1 X21.0825 Y15.767
G1 X21.0052 Y15.4581
G1 X20.8979 Y15.1582
G1 X20.7617 Y14.8704
G1 X20.598 Y14.5972
G1 X20.4083 Y14.3415
G1 X20.1945 Y14.1055
G1 X19.9585 Y13.8917
G1 X19.7028 Y13.702
G1 X19.4296 Y13.5383
G1 X19.1418 Y13.4021
G1 X18.8419 Y13.2949
G1 X18.533 Y13.2175
G1 X18.2181 Y13.1708
G1 X17.9 Y13.1551
G1 X17.5819 Y13.1708
G1 X17.267 Y13.2175
G1 X16.9581 Y13.2949
G1 X16.6582 Y13.4021
G1 X16.3704 Y13.5383
G1 X16.0973 Y13.702
G1 X15.8415 Y13.8917
G1 X15.6055 Y14.1055
G1 X15.3917 Y14.3415
G1 X15.202 Y14.5972
G1 X15.0383 Y14.8704
G1 X14.9021 Y15.1582
G1 X14.7948 Y15.4581
G1 X14.7175 Y15.7669
G1 X14.6708 Y16.082
G1 X14.6551 Y16.4
G1 X14.6708 Y16.7181
G1 X14.7175 Y17.0331
G1 X14.7948 Y17.3419
G1 X14.9021 Y17.6418
G1 X15.0383 Y17.9296
G1 X15.202 Y18.2028
G1 X15.3917 Y18.4585
G1 X15.6055 Y18.6945
G1 X15.8415 Y18.9083
G1 X16.0972 Y19.098
G1 X16.3704 Y19.2617
G1 X16.6582 Y19.3979
G1 X16.9581 Y19.5052
G1 X17.267 Y19.5825
G1 X17.4127 Y19.6042
G1 F200.0 X17.266 Y20.5933
G1 F700.0 X17.4838 Y20.6256
G1 X17.9 Y20.6461
G1 X18.3162 Y20.6256
G1 X18.7284 Y20.5645
G1 X19.1326 Y20.4632
G1 X19.5249 Y20.3229
G1 X19.9016 Y20.1447
G1 X20.259 Y19.9305
G1 X20.5937 Y19.6823
G1 X20.9024 Y19.4024
G1 X21.1823 Y19.0937
G1 X21.4305 Y18.759
G1 X21.6447 Y18.4016
G1 X21.8229 Y18.0249
G1 X21.9632 Y17.6326
G1 X22.0645 Y17.2284
G1 X22.1256 Y16.8162
G1 X22.1461 Y16.4
G1 X22.1256 Y15.9838
G1 X22.0645 Y15.5716
G1 X21.9632 Y15.1674
G1 X21.8229 Y14.7751
G1 X21.6447 Y14.3984
G1 X21.4305 Y14.041
G1 X21.1823 Y13.7063
G1 X20.9024 Y13.3976
G1 X20.5937 Y13.1177
G1 X20.259 Y12.8695
G1 X19.9016 Y12.6553
G1 X19.5249 Y12.4771
G1 X19.1326 Y12.3368
G1 X18.7284 Y12.2355
G1 X18.3162 Y12.1744
G1 X17.9 Y12.1539
G1 X17.4838 Y12.1744
G1 X17.0716 Y12.2355
G1 X16.6674 Y12.3368
G1 X16.2751 Y12.4771
G1 X15.8984 Y12.6553
G1 X15.541 Y12.8695
G1 X15.2063 Y13.1177
G1 X14.8976 Y13.3976
G1 X14.6177 Y13.7063
G1 X14.3695 Y14.041
G1 X14.1553 Y14.3984
G1 X13.9771 Y14.7751
G1 X13.8368 Y15.1674
G1 X13.7355 Y15.5716
G1 X13.6744 Y15.9838
G1 X13.6539 Y16.4
G1 X13.6744 Y16.8162
G1 X13.7355 Y17.2284
G1 X13.8368 Y17.6326
G1 X13.9771 Y18.0249
G1 X14.1553 Y18.4016
G1 X14.3695 Y18.759
G1 X14.6177 Y19.0937
G1 X14.8976 Y19.4024
G1 X15.2063 Y19.6823
G1 X15.541 Y19.9305
G1 X15.8984 Y20.1447
G1 X16.2751 Y20.3229
G1 X16.6674 Y20.4632
G1 X17.0716 Y20.5645
G1 X17.266 Y20.5933
G1 F200.0 X17.1193 Y21.5825
G1 F700.0 X17.3857 Y21.622
G1 X17.9 Y21.6473
G1 X18.4143 Y21.622
G1 X18.9237 Y21.5465
G1 X19.4232 Y21.4213
G1 X19.9081 Y21.2479
G1 X20.3736 Y21.0277
G1 X20.8152 Y20.763
G1 X21.2288 Y20.4562
G1 X21.6104 Y20.1104
G1 X21.9562 Y19.7288
G1 X22.263 Y19.3152
G1 X22.5277 Y18.8736
G1 X22.7479 Y18.408
G1 X22.9213 Y17.9232
G1 X23.0465 Y17.4237
G1 X23.122 Y16.9143
G1 X23.1473 Y16.4
G1 X23.122 Y15.8857
G1 X23.0465 Y15.3763
G1 X22.9213 Y14.8768
G1 X22.7479 Y14.392
G1 X22.5277 Y13.9264
G1 X22.263 Y13.4848
G1 X21.9562 Y13.0712
G1 X21.6104 Y12.6896
G1 X21.2288 Y12.3438
G1 X20.8152 Y12.037
G1 X20.3736 Y11.7723
G1 X19.9081 Y11.5521
G1 X19.4232 Y11.3787
G1 X18.9237 Y11.2535
G1 X18.4143 Y11.178
G1 X17.9 Y11.1527
G1 X17.3857 Y11.178
G1 X16.8763 Y11.2535
G1 X16.3768 Y11.3787
G1 X15.8919 Y11.5521
G1 X15.4264 Y11.7723
G1 X14.9848 Y12.037
G1 X14.5712 Y12.3438
G1 X14.1896 Y12.6896
G1 X13.8438 Y13.0712
G1 X13.537 Y13.4848
G1 X13.2723 Y13.9264
G1 X13.0521 Y14.392
G1 X12.8787 Y14.8768
G1 X12.7535 Y15.3763
G1 X12.678 Y15.8857
G1 X12.6527 Y16.4
G1 X12.678 Y16.9143
G1 X12.7535 Y17.4237
G1 X12.8787 Y17.9232
G1 X13.0521 Y18.408
G1 X13.2723 Y18.8736
G1 X13.537 Y19.3152
G1 X13.8438 Y19.7288
G1 X14.1896 Y20.1104
G1 X14.5712 Y20.4562
G1 X14.9848 Y20.763
G1 X15.4264 Y21.0277
G1 X15.892 Y21.2479
G1 X16.3768 Y21.4213
G1 X16.8763 Y21.5465
G1 X17.1193 Y21.5825
G1 F200.0 X16.9726 Y22.5717
G1 F700.0 X17.2875 Y22.6184
G1 X17.9 Y22.6485
G1 X18.5125 Y22.6184
G1 X19.119 Y22.5284
G1 X19.7138 Y22.3794
G1 X20.2912 Y22.1729
G1 X20.8455 Y21.9107
G1 X21.3715 Y21.5954
G1 X21.864 Y21.2302
G1 X22.3184 Y20.8184
G1 X22.7301 Y20.364
G1 X23.0954 Y19.8715
G1 X23.4107 Y19.3455
G1 X23.6729 Y18.7912
G1 X23.8794 Y18.2138
G1 X24.0284 Y17.619
G1 X24.1184 Y17.0125
G1 X24.1485 Y16.4
G1 X24.1184 Y15.7875
G1 X24.0284 Y15.181
G1 X23.8794 Y14.5862
G1 X23.6729 Y14.0088
G1 X23.4107 Y13.4545
G1 X23.0954 Y12.9285
G1 X22.7301 Y12.436
G1 X22.3184 Y11.9817
G1 X21.864 Y11.5699
G1 X21.3715 Y11.2046
G1 X20.8455 Y10.8893
G1 X20.2912 Y10.6271
G1 X19.7138 Y10.4206
G1 X19.119 Y10.2716
G1 X18.5125 Y10.1816
G1 X17.9 Y10.1515
G1 X17.2875 Y10.1816
G1 X16.681 Y10.2716
G1 X16.0862 Y10.4206
G1 X15.5088 Y10.6271
G1 X14.9545 Y10.8893
G1 X14.4285 Y11.2046
G1 X13.936 Y11.5699
G1 X13.4817 Y11.9817
G1 X13.0699 Y12.436
G1 X12.7046 Y12.9285
G1 X12.3893 Y13.4545
G1 X12.1272 Y14.0088
G1 X11.9206 Y14.5862
G1 X11.7716 Y15.181
G1 X11.6816 Y15.7875
G1 X11.6515 Y16.4
G1 X11.6816 Y17.0125
G1 X11.7716 Y17.619
G1 X11.9206 Y18.2138
G1 X12.1272 Y18.7912
G1 X12.3893 Y19.3455
G1 X12.7046 Y19.8715
G1 X13.0699 Y20.364
G1 X13.4817 Y20.8184
G1 X13.936 Y21.2302
G1 X14.4285 Y21.5954
G1 X14.9545 Y21.9107
G1 X15.5088 Y22.1729
G1 X16.0862 Y22.3794
G1 X16.681 Y22.5284
G1 X16.9726 Y22.5717
G0 Z3.0
G0 X17.8529 Y16.6366
G0 Z-0.2
G1 F200.0 Z-1.2
G1 F700.0 X17.8763 Y16.6401 Z-1.2047
G1 X17.9 Y16.6413 Z-1.2094
G1 X17.9237 Y16.6401 Z-1.2141
G1 X17.9471 Y16.6366 Z-1.2187
G1 X17.97 Y16.6309 Z-1.2234
G1 X17.9923 Y16.6229 Z-1.2281
G1 X18.0137 Y16.6128 Z-1.2328
G1 X18.034 Y16.6006 Z-1.2375
G1 X18.0531 Y16.5865 Z-1.2422
G1 X18.0706 Y16.5706 Z-1.2469
G1 X18.0865 Y16.5531 Z-1.2516
G1 X18.1006 Y16.534 Z-1.2563
G1 X18.1128 Y16.5137 Z-1.2609
G1 X18.1229 Y16.4923 Z-1.2656
G1 X18.1309 Y16.47 Z-1.2703
G1 X18.1366 Y16.4471 Z-1.275
G1 X18.1401 Y16.4236 Z-1.2797
G1 X18.1413 Y16.4 Z-1.2844
G1 X18.1401 Y16.3764 Z-1.2891
G1 X18.1366 Y16.3529 Z-1.2938
G1 X18.1309 Y16.33 Z-1.2984
G1 X18.1229 Y16.3077 Z-1.3031
G1 X18.1128 Y16.2863 Z-1.3078
G1 X18.1006 Y16.266 Z-1.3125
G1 X18.0865 Y16.2469 Z-1.3172
G1 X18.0706 Y16.2294 Z-1.3219
G1 X18.0531 Y16.2135 Z-1.3266
G1 X18.034 Y16.1994 Z-1.3313
G1 X18.0137 Y16.1872 Z-1.3359
G1 X17.9923 Y16.1771 Z-1.3406
G1 X17.97 Y16.1691 Z-1.3453
G1 X17.9471 Y16.1634 Z-1.35
G1 X17.9236 Y16.1599 Z-1.3547
G1 X17.9 Y16.1587 Z-1.3594
G1 X17.8764 Y16.1599 Z-1.3641
G1 X17.8529 Y16.1634 Z-1.3687
G1 X17.83 Y16.1691 Z-1.3734
G1 X17.8077 Y16.1771 Z-1.3781
G1 X17.7863 Y16.1872 Z-1.3828
G1 X17.766 Y16.1994 Z-1.3875
G1 X17.747 Y16.2135 Z-1.3922
G1 X17.7294 Y16.2294 Z-1.3969
G1 X17.7135 Y16.247 Z-1.4016
G1 X17.6994 Y16.266 Z-1.4063
G1 X17.6872 Y16.2863 Z-1.4109
G1 X17.6771 Y16.3077 Z-1.4156
G1 X17.6691 Y16.33 Z-1.4203
G1 X17.6634 Y16.3529 Z-1.425
G1 X17.6599 Y16.3764 Z-1.4297
G1 X17.6587 Y16.4 Z-1.4344
G1 X17.6599 Y16.4236 Z-1.4391
G1 X17.6634 Y16.4471 Z-1.4438
G1 X17.6691 Y16.47 Z-1.4484
G1 X17.6771 Y16.4923 Z-1.4531
G1 X17.6872 Y16.5138 Z-1.4578
G1 X17.6994 Y16.534 Z-1.4625
G1 X17.7135 Y16.553 Z-1.4672
G1 X17.7294 Y16.5706 Z-1.4719
G1 X17.747 Y16.5865 Z-1.4766
G1 X17.766 Y16.6006 Z-1.4813
G1 X17.7863 Y16.6128 Z-1.4859
G1 X17.8077 Y16.6229 Z-1.4906
G1 X17.83 Y16.6309 Z-1.4953
G1 X17.8529 Y16.6366 Z-1.5
G1 X17.8763 Y16.6401
G1 X17.9 Y16.6413
G1 X17.9237 Y16.6401
G1 X17.9471 Y16.6366
G1 X17.97 Y16.6309
G1 X17.9923 Y16.6229
G1 X18.0137 Y16.6128
G1 X18.034 Y16.6006
G1 X18.0531 Y16.5865
G1 X18.0706 Y16.5706
G1 X18.0865 Y16.5531
G1 X18.1006 Y16.534
G1 X18.1128 Y16.5137
G1 X18.1229 Y16.4923
G1 X18.1309 Y16.47
G1 X18.1366 Y16.4471
G1 X18.1401 Y16.4236
G1 X18.1413 Y16.4
G1 X18.1401 Y16.3764
G1 X18.1366 Y16.3529
G1 X18.1309 Y16.33
G1 X18.1229 Y16.3077
G1 X18.1128 Y16.2863
G1 X18.1006 Y16.266
G1 X18.0865 Y16.2469
G1 X18.0706 Y16.2294
G1 X18.0531 Y16.2135
G1 X18.034 Y16.1994
G1 X18.0137 Y16.1872
G1 X17.9923 Y16.1771
G1 X17.97 Y16.1691
G1 X17.9471 Y16.1634
G1 X17.9236 Y16.1599
G1 X17.9 Y16.1587
G1 X17.8764 Y16.1599
G1 X17.8529 Y16.1634
G1 X17.83 Y16.1691
G1 X17.8077 Y16.1771
G1 X17.7863 Y16.1872
G1 X17.766 Y16.1994
G1 X17.747 Y16.2135
G1 X17.7294 Y16.2294
G1 X17.7135 Y16.247
G1 X17.6994 Y16.266
G1 X17.6872 Y16.2863
G1 X17.6771 Y16.3077
G1 X17.6691 Y16.33
G1 X17.6634 Y16.3529
G1 X17.6599 Y16.3764
G1 X17.6587 Y16.4
G1 X17.6599 Y16.4236
G1 X17.6634 Y16.4471
G1 X17.6691 Y16.47
G1 X17.6771 Y16.4923
G1 X17.6872 Y16.5138
G1 X17.6994 Y16.534
G1 X17.7135 Y16.553
G1 X17.7294 Y16.5706
G1 X17.747 Y16.5865
G1 X17.766 Y16.6006
G1 X17.7863 Y16.6128
G1 X17.8077 Y16.6229
G1 X17.83 Y16.6309
G1 X17.8529 Y16.6366
G1 F200.0 X17.7062 Y17.6258
G1 F700.0 X17.7782 Y17.6365
G1 X17.9 Y17.6425
G1 X18.0218 Y17.6365
G1 X18.1424 Y17.6186
G1 X18.2607 Y17.589
G1 X18.3755 Y17.5479
G1 X18.4857 Y17.4958
G1 X18.5903 Y17.4331
G1 X18.6882 Y17.3604
G1 X18.7786 Y17.2786
G1 X18.8604 Y17.1882
G1 X18.9331 Y17.0903
G1 X18.9958 Y16.9857
G1 X19.0479 Y16.8755
G1 X19.089 Y16.7607
G1 X19.1186 Y16.6424
G1 X19.1365 Y16.5218
G1 X19.1425 Y16.4
G1 X19.1365 Y16.2782
G1 X19.1186 Y16.1576
G1 X19.089 Y16.0393
G1 X19.0479 Y15.9245
G1 X18.9958 Y15.8143
G1 X18.9331 Y15.7097
G1 X18.8604 Y15.6118
G1 X18.7786 Y15.5214
G1 X18.6882 Y15.4396
G1 X18.5903 Y15.3669
G1 X18.4857 Y15.3043
G1 X18.3755 Y15.2521
G1 X18.2607 Y15.211
G1 X18.1424 Y15.1814
G1 X18.0218 Y15.1635
G1 X17.9 Y15.1575
G1 X17.7782 Y15.1635
G1 X17.6576 Y15.1814
G1 X17.5393 Y15.211
G1 X17.4245 Y15.2521
G1 X17.3143 Y15.3043
G1 X17.2097 Y15.3669
G1 X17.1118 Y15.4396
G1 X17.0214 Y15.5214
G1 X16.9396 Y15.6118
G1 X16.8669 Y15.7097
G1 X16.8043 Y15.8143
G1 X16.7521 Y15.9245
G1 X16.711 Y16.0393
G1 X16.6814 Y16.1576
G1 X16.6635 Y16.2782
G1 X16.6575 Y16.4
G1 X16.6635 Y16.5218
G1 X16.6814 Y16.6424
G1 X16.711 Y16.7607
G1 X16.7521 Y16.8755
G1 X16.8043 Y16.9857
G1 X16.8669 Y17.0903
G1 X16.9396 Y17.1882
G1 X17.0215 Y17.2786
G1 X17.1118 Y17.3604
G1 X17.2097 Y17.4331
G1 X17.3143 Y17.4958
G1 X17.4245 Y17.5479
G1 X17.5393 Y17.589
G1 X17.6576 Y17.6186
G1 X17.7062 Y17.6258
G1 F200.0 X17.5595 Y18.615
G1 F700.0 X17.6801 Y18.6329
G1 X17.9 Y18.6437
G1 X18.1199 Y18.6329
G1 X18.3377 Y18.6006
G1 X18.5513 Y18.5471
G1 X18.7586 Y18.4729
G1 X18.9577 Y18.3787
G1 X19.1465 Y18.2655
G1 X19.3234 Y18.1344
G1 X19.4865 Y17.9865
G1 X19.6344 Y17.8234
G1 X19.7655 Y17.6465
G1 X19.8787 Y17.4577
G1 X19.9729 Y17.2586
G1 X20.0471 Y17.0513
G1 X20.1006 Y16.8377
G1 X20.1329 Y16.6199
G1 X20.1437 Y16.4
G1 X20.1329 Y16.1801
G1 X20.1006 Y15.9623
G1 X20.0471 Y15.7487
G1 X19.9729 Y15.5414
G1 X19.8787 Y15.3423
G1 X19.7655 Y15.1535
G1 X19.6344 Y14.9766
G1 X19.4865 Y14.8135
G1 X19.3234 Y14.6656
G1 X19.1465 Y14.5345
G1 X18.9577 Y14.4213
G1 X18.7586 Y14.3271
G1 X18.5513 Y14.2529
G1 X18.3377 Y14.1994
G1 X18.1199 Y14.1671
G1 X17.9 Y14.1563
G1 X17.6801 Y14.1671
G1 X17.4623 Y14.1994
G1 X17.2487 Y14.2529
G1 X17.0414 Y14.3271
G1 X16.8423 Y14.4213
G1 X16.6535 Y14.5345
G1 X16.4766 Y14.6656
G1 X16.3135 Y14.8135
G1 X16.1656 Y14.9766
G1 X16.0345 Y15.1535
G1 X15.9213 Y15.3423
G1 X15.8271 Y15.5414
G1 X15.7529 Y15.7487
G1 X15.6994 Y15.9623
G1 X15.6671 Y16.1801
G1 X15.6563 Y16.4
G1 X15.6671 Y16.6199
G1 X15.6994 Y16.8377
G1 X15.7529 Y17.0513
G1 X15.8271 Y17.2586
G1 X15.9213 Y17.4577
G1 X16.0345 Y17.6465
G1 X16.1656 Y17.8234
G1 X16.3135 Y17.9865
G1 X16.4766 Y18.1344
G1 X16.6535 Y18.2655
G1 X16.8423 Y18.3787
G1 X17.0414 Y18.4729
G1 X17.2487 Y18.5471
G1 X17.4623 Y18.6006
G1 X17.5595 Y18.615
G1 F200.0 X17.4127 Y19.6042
G1 F700.0 X17.5819 Y19.6293
G1 X17.9 Y19.6449
G1 X18.2181 Y19.6293
G1 X18.533 Y19.5825
G1 X18.8419 Y19.5052
G1 X19.1418 Y19.3979
G1 X19.4296 Y19.2617
G1 X19.7028 Y19.098
G1 X19.9585 Y18.9083
G1 X20.1945 Y18.6945
G1 X20.4083 Y18.4585
G1 X20.598 Y18.2028
G1 X20.7617 Y17.9296
G1 X20.8979 Y17.6418
G1 X21.0052 Y17.3419
G1 X21.0825 Y17.0331
G1 X21.1293 Y16.7181
G1 X21.1449 Y16.4
G1 X21.1293 Y16.082
G1 X21.0825 Y15.767
G1 X21.0052 Y15.4581
G1 X20.8979 Y15.1582
G1 X20.7617 Y14.8704
G1 X20.598 Y14.5972
G1 X20.4083 Y14.3415
G1 X20.1945 Y14.1055
G1 X19.9585 Y13.8917
G1 X19.7028 Y13.702
G1 X19.4296 Y13.5383
G1 X19.1418 Y13.4021
G1 X18.8419 Y13.2949
G1 X18.533 Y13.2175
G1 X18.2181 Y13.1708
G1 X17.9 Y13.1551
G1 X17.5819 Y13.1708
G1 X17.267 Y13.2175
G1 X16.9581 Y13.2949
G1 X16.6582 Y13.4021
G1 X16.3704 Y13.5383
G1 X16.0973 Y13.702
G1 X15.8415 Y13.8917
G1 X15.6055 Y14.1055
G1 X15.3917 Y14.3415
G1 X15.202 Y14.5972
G1 X15.0383 Y14.8704
G1 X14.9021 Y15.1582
G1 X14.7948 Y15.4581
G1 X14.7175 Y15.7669
G1 X14.6708 Y16.082
G1 X14.6551 Y16.4
G1 X14.6708 Y16.7181
G1 X14.7175 Y17.0331
G1 X14.7948 Y17.3419
G1 X14.9021 Y17.6418
G1 X15.0383 Y17.9296
G1 X15.202 Y18.2028
G1 X15.3917 Y18.4585
G1 X15.6055 Y18.6945
G1 X15.8415 Y18.9083
G1 X16.0972 Y19.098
G1 X16.3704 Y19.2617
G1 X16.6582 Y19.3979
G1 X16.9581 Y19.5052
G1 X17.267 Y19.5825
G1 X17.4127 Y19.6042
G1 F200.0 X17.266 Y20.5933
G1 F700.0 X17.4838 Y20.6256
G1 X17.9 Y20.6461
G1 X18.3162 Y20.6256
G1 X18.7284 Y20.5645
G1 X19.1326 Y20.4632
G1 X19.5249 Y20.3229
G1 X19.9016 Y20.1447
G1 X20.259 Y19.9305
G1 X20.5937 Y19.6823
G1 X20.9024 Y19.4024
G1 X21.1823 Y19.0937
G1 X21.4305 Y18.759
G1 X21.6447 Y18.4016
G1 X21.8229 Y18.0249
G1 X21.9632 Y17.6326
G1 X22.0645 Y17.2284
G1 X22.1256 Y16.8162
G1 X22.1461 Y16.4
G1 X22.1256 Y15.9838
G1 X22.0645 Y15.5716
G1 X21.9632 Y15.1674
G1 X21.8229 Y14.7751
G1 X21.6447 Y14.3984
G1 X21.4305 Y14.041
G1 X21.1823 Y13.7063
G1 X20.9024 Y13.3976
G1 X20.5937 Y13.1177
G1 X20.259 Y12.8695
G1 X19.9016 Y12.6553
G1 X19.5249 Y12.4771
G1 X19.1326 Y12.3368
G1 X18.7284 Y12.2355
G1 X18.3162 Y12.1744
G1 X17.9 Y12.1539
G1 X17.4838 Y12.1744
G1 X17.0716 Y12.2355
G1 X16.6674 Y12.3368
G1 X16.2751 Y12.4771
G1 X15.8984 Y12.6553
G1 X15.541 Y12.8695
G1 X15.2063 Y13.1177
G1 X14.8976 Y13.3976
G1 X14.6177 Y13.7063
G1 X14.3695 Y14.041
G1 X14.1553 Y14.3984
G1 X13.9771 Y14.7751
G1 X13.8368 Y15.1674
G1 X13.7355 Y15.5716
G1 X13.6744 Y15.9838
G1 X13.6539 Y16.4
G1 X13.6744 Y16.8162
G1 X13.7355 Y17.2284
G1 X13.8368 Y17.6326
G1 X13.9771 Y18.0249
G1 X14.1553 Y18.4016
G1 X14.3695 Y18.759
G1 X14.6177 Y19.0937
G1 X14.8976 Y19.4024
G1 X15.2063 Y19.6823
G1 X15.541 Y19.9305
G1 X15.8984 Y20.1447
G1 X16.2751 Y20.3229
G1 X16.6674 Y20.4632
G1 X17.0716 Y20.5645
G1 X17.266 Y20.5933
G1 F200.0 X17.1193 Y21.5825
G1 F700.0 X17.3857 Y21.622
G1 X17.9 Y21.6473
G1 X18.4143 Y21.622
G1 X18.9237 Y21.5465
G1 X19.4232 Y21.4213
G1 X19.9081 Y21.2479
G1 X20.3736 Y21.0277
G1 X20.8152 Y20.763
G1 X21.2288 Y20.4562
G1 X21.6104 Y20.1104
G1 X21.9562 Y19.7288
G1 X22.263 Y19.3152
G1 X22.5277 Y18.8736
G1 X22.7479 Y18.408
G1 X22.9213 Y17.9232
G1 X23.0465 Y17.4237
G1 X23.122 Y16.9143
G1 X23.1473 Y16.4
G1 X23.122 Y15.8857
G1 X23.0465 Y15.3763
G1 X22.9213 Y14.8768
G1 X22.7479 Y14.392
G1 X22.5277 Y13.9264
G1 X22.263 Y13.4848
G1 X21.9562 Y13.0712
G1 X21.6104 Y12.6896
G1 X21.2288 Y12.3438
G1 X20.8152 Y12.037
G1 X20.3736 Y11.7723
G1 X19.9081 Y11.5521
G1 X19.4232 Y11.3787
G1 X18.9237 Y11.2535
G1 X18.4143 Y11.178
G1 X17.9 Y11.1527
G1 X17.3857 Y11.178
G1 X16.8763 Y11.2535
G1 X16.3768 Y11.3787
G1 X15.8919 Y11.5521
G1 X15.4264 Y11.7723
G1 X14.9848 Y12.037
G1 X14.5712 Y12.3438
G1 X14.1896 Y12.6896
G1 X13.8438 Y13.0712
G1 X13.537 Y13.4848
G1 X13.2723 Y13.9264
G1 X13.0521 Y14.392
G1 X12.8787 Y14.8768
G1 X12.7535 Y15.3763
G1 X12.678 Y15.8857
G1 X12.6527 Y16.4
G1 X12.678 Y16.9143
G1 X12.7535 Y17.4237
G1 X12.8787 Y17.9232
G1 X13.0521 Y18.408
G1 X13.2723 Y18.8736
G1 X13.537 Y19.3152
G1 X13.8438 Y19.7288
G1 X14.1896 Y20.1104
G1 X14.5712 Y20.4562
G1 X14.9848 Y20.763
G1 X15.4264 Y21.0277
G1 X15.892 Y21.2479
G1 X16.3768 Y21.4213
G1 X16.8763 Y21.5465
G1 X17.1193 Y21.5825
G1 F200.0 X16.9726 Y22.5717
G1 F700.0 X17.2875 Y22.6184
G1 X17.9 Y22.6485
G1 X18.5125 Y22.6184
G1 X19.119 Y22.5284
G1 X19.7138 Y22.3794
G1 X20.2912 Y22.1729
G1 X20.8455 Y21.9107
G1 X21.3715 Y21.5954
G1 X21.864 Y21.2302
G1 X22.3184 Y20.8184
G1 X22.7301 Y20.364
G1 X23.0954 Y19.8715
G1 X23.4107 Y19.3455
G1 X23.6729 Y18.7912
G1 X23.8794 Y18.2138
G1 X24.0284 Y17.619
G1 X24.1184 Y17.0125
G1 X24.1485 Y16.4
G1 X24.1184 Y15.7875
G1 X24.0284 Y15.181
G1 X23.8794 Y14.5862
G1 X23.6729 Y14.0088
G1 X23.4107 Y13.4545
G1 X23.0954 Y12.9285
G1 X22.7301 Y12.436
G1 X22.3184 Y11.9817
G1 X21.864 Y11.5699
G1 X21.3715 Y11.2046
G1 X20.8455 Y10.8893
G1 X20.2912 Y10.6271
G1 X19.7138 Y10.4206
G1 X19.119 Y10.2716
G1 X18.5125 Y10.1816
G1 X17.9 Y10.1515
G1 X17.2875 Y10.1816
G1 X16.681 Y10.2716
G1 X16.0862 Y10.4206
G1 X15.5088 Y10.6271
G1 X14.9545 Y10.8893
G1 X14.4285 Y11.2046
G1 X13.936 Y11.5699
G1 X13.4817 Y11.9817
G1 X13.0699 Y12.436
G1 X12.7046 Y12.9285
G1 X12.3893 Y13.4545
G1 X12.1272 Y14.0088
G1 X11.9206 Y14.5862
G1 X11.7716 Y15.181
G1 X11.6816 Y15.7875
G1 X11.6515 Y16.4
G1 X11.6816 Y17.0125
G1 X11.7716 Y17.619
G1 X11.9206 Y18.2138
G1 X12.1272 Y18.7912
G1 X12.3893 Y19.3455
G1 X12.7046 Y19.8715
G1 X13.0699 Y20.364
G1 X13.4817 Y20.8184
G1 X13.936 Y21.2302
G1 X14.4285 Y21.5954
G1 X14.9545 Y21.9107
G1 X15.5088 Y22.1729
G1 X16.0862 Y22.3794
G1 X16.681 Y22.5284
G1 X16.9726 Y22.5717
( DC.pocket_hole )
S1000
G0 Z3.0
G0 X17.8053 Y16.2582
G0 Z-0.4
G1 F200.0 Z-1.4
G1 F700.0 X17.7919 Y16.2682 Z-1.4047
G1 X17.7794 Y16.2795 Z-1.4094
G1 X17.7682 Y16.2919 Z-1.4141
G1 X17.7583 Y16.3053 Z-1.4188
G1 X17.7497 Y16.3196 Z-1.4234
G1 X17.7425 Y16.3348 Z-1.4281
G1 X17.7369 Y16.3505 Z-1.4328
G1 X17.7328 Y16.3667 Z-1.4375
G1 X17.7303 Y16.3833 Z-1.4422
G1 X17.7295 Y16.4 Z-1.4469
G1 X17.7303 Y16.4167 Z-1.4516
G1 X17.7328 Y16.4333 Z-1.4563
G1 X17.7369 Y16.4495 Z-1.4609
G1 X17.7425 Y16.4652 Z-1.4656
G1 X17.7497 Y16.4804 Z-1.4703
G1 X17.7583 Y16.4947 Z-1.475
G1 X17.7682 Y16.5081 Z-1.4797
G1 X17.7795 Y16.5205 Z-1.4844
G1 X17.7919 Y16.5318 Z-1.4891
G1 X17.8053 Y16.5418 Z-1.4938
G1 X17.8196 Y16.5503 Z-1.4984
G1 X17.8348 Y16.5575 Z-1.5031
G1 X17.8505 Y16.5631 Z-1.5078
G1 X17.8667 Y16.5672 Z-1.5125
G1 X17.8833 Y16.5697 Z-1.5172
G1 X17.9 Y16.5705 Z-1.5219
G1 X17.9167 Y16.5697 Z-1.5266
G1 X17.9333 Y16.5672 Z-1.5313
G1 X17.9495 Y16.5631 Z-1.5359
G1 X17.9652 Y16.5575 Z-1.5406
G1 X17.9804 Y16.5503 Z-1.5453
G1 X17.9947 Y16.5418 Z-1.55
G1 X18.0082 Y16.5318 Z-1.5547
G1 X18.0205 Y16.5205 Z-1.5594
G1 X18.0318 Y16.5081 Z-1.5641
G1 X18.0417 Y16.4947 Z-1.5688
G1 X18.0504 Y16.4804 Z-1.5734
G1 X18.0575 Y16.4652 Z-1.5781
G1 X18.0631 Y16.4495 Z-1.5828
G1 X18.0672 Y16.4332 Z-1.5875
G1 X18.0697 Y16.4167 Z-1.5922
G1 X18.0705 Y16.4 Z-1.5969
G1 X18.0697 Y16.3833 Z-1.6016
G1 X18.0672 Y16.3668 Z-1.6063
G1 X18.0631 Y16.3505 Z-1.6109
G1 X18.0575 Y16.3348 Z-1.6156
G1 X18.0504 Y16.3196 Z-1.6203
G1 X18.0417 Y16.3053 Z-1.625
G1 X18.0318 Y16.2919 Z-1.6297
G1 X18.0205 Y16.2795 Z-1.6344
G1 X18.0082 Y16.2682 Z-1.6391
G1 X17.9947 Y16.2583 Z-1.6438
G1 X17.9804 Y16.2497 Z-1.6484
G1 X17.9653 Y16.2425 Z-1.6531
G1 X17.9495 Y16.2369 Z-1.6578
G1 X17.9333 Y16.2328 Z-1.6625
G1 X17.9167 Y16.2303 Z-1.6672
G1 X17.9 Y16.2295 Z-1.6719
G1 X17.8833 Y16.2303 Z-1.6766
G1 X17.8667 Y16.2328 Z-1.6813
G1 X17.8505 Y16.2369 Z-1.6859
G1 X17.8348 Y16.2425 Z-1.6906
G1 X17.8196 Y16.2497 Z-1.6953
G1 X17.8053 Y16.2582 Z-1.7
G1 F200.0 X17.5483 Y15.8294
G1 F700.0 X17.5272 Y15.842
G1 X17.4743 Y15.8813
G1 X17.4255 Y15.9255
G1 X17.3812 Y15.9743
G1 X17.342 Y16.0272
G1 X17.3082 Y16.0837
G1 X17.28 Y16.1432
G1 X17.2578 Y16.2052
G1 X17.2418 Y16.2691
G1 X17.2322 Y16.3343
G1 X17.2289 Y16.4
G1 X17.2322 Y16.4658
G1 X17.2418 Y16.5309
G1 X17.2578 Y16.5948
G1 X17.28 Y16.6568
G1 X17.3082 Y16.7163
G1 X17.342 Y16.7728
G1 X17.3812 Y16.8257
G1 X17.4255 Y16.8745
G1 X17.4743 Y16.9188
G1 X17.5272 Y16.958
G1 X17.5837 Y16.9918
G1 X17.6432 Y17.02
G1 X17.7052 Y17.0422
G1 X17.7691 Y17.0582
G1 X17.8342 Y17.0679
G1 X17.9 Y17.0711
G1 X17.9658 Y17.0679
G1 X18.0309 Y17.0582
G1 X18.0948 Y17.0422
G1 X18.1568 Y17.02
G1 X18.2163 Y16.9918
G1 X18.2728 Y16.958
G1 X18.3257 Y16.9188
G1 X18.3745 Y16.8745
G1 X18.4188 Y16.8257
G1 X18.458 Y16.7728
G1 X18.4918 Y16.7163
G1 X18.52 Y16.6568
G1 X18.5422 Y16.5948
G1 X18.5582 Y16.5309
G1 X18.5679 Y16.4658
G1 X18.5711 Y16.4
G1 X18.5679 Y16.3342
G1 X18.5582 Y16.2691
G1 X18.5422 Y16.2052
G1 X18.52 Y16.1432
G1 X18.4918 Y16.0837
G1 X18.458 Y16.0272
G1 X18.4188 Y15.9743
G1 X18.3745 Y15.9255
G1 X18.3257 Y15.8813
G1 X18.2728 Y15.842
G1 X18.2163 Y15.8082
G1 X18.1568 Y15.78
G1 X18.0948 Y15.7578
G1 X18.0309 Y15.7418
G1 X17.9658 Y15.7322
G1 X17.9 Y15.7289
G1 X17.8342 Y15.7322
G1 X17.7691 Y15.7418
G1 X17.7052 Y15.7578
G1 X17.6432 Y15.78
G1 X17.5837 Y15.8082
G1 X17.5483 Y15.8294
G1 F200.0 X17.0341 Y14.9717
G1 F700.0 X16.9709 Y15.0095
G1 X16.8391 Y15.1073
G1 X16.7175 Y15.2175
G1 X16.6073 Y15.3391
G1 X16.5095 Y15.4709
G1 X16.4252 Y15.6117
G1 X16.355 Y15.76
G1 X16.2997 Y15.9146
G1 X16.2599 Y16.0738
G1 X16.2358 Y16.2361
G1 X16.2277 Y16.4
G1 X16.2358 Y16.5639
G1 X16.2599 Y16.7263
G1 X16.2997 Y16.8855
G1 X16.355 Y17.04
G1 X16.4252 Y17.1883
G1 X16.5095 Y17.3291
G1 X16.6073 Y17.4609
G1 X16.7175 Y17.5825
G1 X16.8391 Y17.6927
G1 X16.9709 Y17.7905
G1 X17.1117 Y17.8748
G1 X17.26 Y17.945
G1 X17.4146 Y18.0003
G1 X17.5738 Y18.0402
G1 X17.7361 Y18.0642
G1 X17.9 Y18.0723
G1 X18.0639 Y18.0642
G1 X18.2262 Y18.0402
G1 X18.3854 Y18.0003
G1 X18.54 Y17.945
G1 X18.6883 Y17.8748
G1 X18.8291 Y17.7905
G1 X18.9609 Y17.6927
G1 X19.0825 Y17.5825
G1 X19.1927 Y17.4609
G1 X19.2905 Y17.3291
G1 X19.3748 Y17.1883
G1 X19.445 Y17.04
G1 X19.5003 Y16.8854
G1 X19.5402 Y16.7262
G1 X19.5642 Y16.5639
G1 X19.5723 Y16.4
G1 X19.5642 Y16.2361
G1 X19.5402 Y16.0738
G1 X19.5003 Y15.9146
G1 X19.445 Y15.76
G1 X19.3748 Y15.6117
G1 X19.2905 Y15.4709
G1 X19.1927 Y15.3391
G1 X19.0825 Y15.2175
G1 X18.9609 Y15.1073
G1 X18.8291 Y15.0095
G1 X18.6883 Y14.9252
G1 X18.54 Y14.855
G1 X18.3854 Y14.7997
G1 X18.2262 Y14.7598
G1 X18.0639 Y14.7358
G1 X17.9 Y14.7277
G1 X17.7361 Y14.7358
G1 X17.5738 Y14.7598
G1 X17.4146 Y14.7997
G1 X17.26 Y14.855
G1 X17.1117 Y14.9252
G1 X17.0341 Y14.9717
G1 F200.0 X16.52 Y14.1139
G1 F700.0 X16.4147 Y14.1771
G1 X16.204 Y14.3334
G1 X16.0096 Y14.5096
G1 X15.8334 Y14.704
G1 X15.6771 Y14.9147
G1 X15.5422 Y15.1397
G1 X15.43 Y15.3769
G1 X15.3416 Y15.6239
G1 X15.2779 Y15.8784
G1 X15.2394 Y16.138
G1 X15.2265 Y16.4
G1 X15.2394 Y16.662
G1 X15.2779 Y16.9216
G1 X15.3416 Y17.1761
G1 X15.43 Y17.4231
G1 X15.5422 Y17.6603
G1 X15.6771 Y17.8853
G1 X15.8334 Y18.096
G1 X16.0096 Y18.2904
G1 X16.204 Y18.4666
G1 X16.4147 Y18.6229
G1 X16.6397 Y18.7578
G1 X16.8769 Y18.87
G1 X17.1239 Y18.9584
G1 X17.3784 Y19.0221
G1 X17.638 Y19.0606
G1 X17.9 Y19.0735
G1 X18.1621 Y19.0606
G1 X18.4216 Y19.0221
G1 X18.6761 Y18.9584
G1 X18.9231 Y18.87
G1 X19.1603 Y18.7578
G1 X19.3853 Y18.6229
G1 X19.596 Y18.4666
G1 X19.7904 Y18.2904
G1 X19.9666 Y18.096
G1 X20.1229 Y17.8853
G1 X20.2578 Y17.6603
G1 X20.37 Y17.4231
G1 X20.4584 Y17.1761
G1 X20.5221 Y16.9216
G1 X20.5606 Y16.6621
G1 X20.5735 Y16.4
G1 X20.5606 Y16.138
G1 X20.5221 Y15.8784
G1 X20.4584 Y15.6239
G1 X20.37 Y15.3769
G1 X20.2578 Y15.1397
G1 X20.1229 Y14.9147
G1 X19.9666 Y14.704
G1 X19.7904 Y14.5096
G1 X19.596 Y14.3334
G1 X19.3853 Y14.1771
G1 X19.1603 Y14.0422
G1 X18.9231 Y13.93
G1 X18.6761 Y13.8416
G1 X18.4216 Y13.7779
G1 X18.1621 Y13.7394
G1 X17.9 Y13.7265
G1 X17.6379 Y13.7394
G1 X17.3784 Y13.7779
G1 X17.1239 Y13.8416
G1 X16.8769 Y13.93
G1 X16.6397 Y14.0422
G1 X16.52 Y14.1139
G0 Z3.0
G0 X17.8053 Y16.2582
G0 Z-0.7
G1 F200.0 Z-1.7
G1 F700.0 X17.7919 Y16.2682 Z-1.7047
G1 X17.7794 Y16.2795 Z-1.7094
G1 X17.7682 Y16.2919 Z-1.7141
G1 X17.7583 Y16.3053 Z-1.7188
G1 X17.7497 Y16.3196 Z-1.7234
G1 X17.7425 Y16.3348 Z-1.7281
G1 X17.7369 Y16.3505 Z-1.7328
G1 X17.7328 Y16.3667 Z-1.7375
G1 X17.7303 Y16.3833 Z-1.7422
G1 X17.7295 Y16.4 Z-1.7469
G1 X17.7303 Y16.4167 Z-1.7516
G1 X17.7328 Y16.4333 Z-1.7563
G1 X17.7369 Y16.4495 Z-1.7609
G1 X17.7425 Y16.4652 Z-1.7656
G1 X17.7497 Y16.4804 Z-1.7703
G1 X17.7583 Y16.4947 Z-1.775
G1 X17.7682 Y16.5081 Z-1.7797
G1 X17.7795 Y16.5205 Z-1.7844
G1 X17.7919 Y16.5318 Z-1.7891
G1 X17.8053 Y16.5418 Z-1.7938
G1 X17.8196 Y16.5503 Z-1.7984
G1 X17.8348 Y16.5575 Z-1.8031
G1 X17.8505 Y16.5631 Z-1.8078
G1 X17.8667 Y16.5672 Z-1.8125
G1 X17.8833 Y16.5697 Z-1.8172
G1 X17.9 Y16.5705 Z-1.8219
G1 X17.9167 Y16.5697 Z-1.8266
G1 X17.9333 Y16.5672 Z-1.8313
G1 X17.9495 Y16.5631 Z-1.8359
G1 X17.9652 Y16.5575 Z-1.8406
G1 X17.9804 Y16.5503 Z-1.8453
G1 X17.9947 Y16.5418 Z-1.85
G1 X18.0082 Y16.5318 Z-1.8547
G1 X18.0205 Y16.5205 Z-1.8594
G1 X18.0318 Y16.5081 Z-1.8641
G1 X18.0417 Y16.4947 Z-1.8688
G1 X18.0504 Y16.4804 Z-1.8734
G1 X18.0575 Y16.4652 Z-1.8781
G1 X18.0631 Y16.4495 Z-1.8828
G1 X18.0672 Y16.4332 Z-1.8875
G1 X18.0697 Y16.4167 Z-1.8922
G1 X18.0705 Y16.4 Z-1.8969
G1 X18.0697 Y16.3833 Z-1.9016
G1 X18.0672 Y16.3668 Z-1.9063
G1 X18.0631 Y16.3505 Z-1.9109
G1 X18.0575 Y16.3348 Z-1.9156
G1 X18.0504 Y16.3196 Z-1.9203
G1 X18.0417 Y16.3053 Z-1.925
G1 X18.0318 Y16.2919 Z-1.9297
G1 X18.0205 Y16.2795 Z-1.9344
G1 X18.0082 Y16.2682 Z-1.9391
G1 X17.9947 Y16.2583 Z-1.9438
G1 X17.9804 Y16.2497 Z-1.9484
G1 X17.9653 Y16.2425 Z-1.9531
G1 X17.9495 Y16.2369 Z-1.9578
G1 X17.9333 Y16.2328 Z-1.9625
G1 X17.9167 Y16.2303 Z-1.9672
G1 X17.9 Y16.2295 Z-1.9719
G1 X17.8833 Y16.2303 Z-1.9766
G1 X17.8667 Y16.2328 Z-1.9813
G1 X17.8505 Y16.2369 Z-1.9859
G1 X17.8348 Y16.2425 Z-1.9906
G1 X17.8196 Y16.2497 Z-1.9953
G1 X17.8053 Y16.2582 Z-2.0
G1 F200.0 X17.5483 Y15.8294
G1 F700.0 X17.5272 Y15.842
G1 X17.4743 Y15.8813
G1 X17.4255 Y15.9255
G1 X17.3812 Y15.9743
G1 X17.342 Y16.0272
G1 X17.3082 Y16.0837
G1 X17.28 Y16.1432
G1 X17.2578 Y16.2052
G1 X17.2418 Y16.2691
G1 X17.2322 Y16.3343
G1 X17.2289 Y16.4
G1 X17.2322 Y16.4658
G1 X17.2418 Y16.5309
G1 X17.2578 Y16.5948
G1 X17.28 Y16.6568
G1 X17.3082 Y16.7163
G1 X17.342 Y16.7728
G1 X17.3812 Y16.8257
G1 X17.4255 Y16.8745
G1 X17.4743 Y16.9188
G1 X17.5272 Y16.958
G1 X17.5837 Y16.9918
G1 X17.6432 Y17.02
G1 X17.7052 Y17.0422
G1 X17.7691 Y17.0582
G1 X17.8342 Y17.0679
G1 X17.9 Y17.0711
G1 X17.9658 Y17.0679
G1 X18.0309 Y17.0582
G1 X18.0948 Y17.0422
G1 X18.1568 Y17.02
G1 X18.2163 Y16.9918
G1 X18.2728 Y16.958
G1 X18.3257 Y16.9188
G1 X18.3745 Y16.8745
G1 X18.4188 Y16.8257
G1 X18.458 Y16.7728
G1 X18.4918 Y16.7163
G1 X18.52 Y16.6568
G1 X18.5422 Y16.5948
G1 X18.5582 Y16.5309
G1 X18.5679 Y16.4658
G1 X18.5711 Y16.4
G1 X18.5679 Y16.3342
G1 X18.5582 Y16.2691
G1 X18.5422 Y16.2052
G1 X18.52 Y16.1432
G1 X18.4918 Y16.0837
G1 X18.458 Y16.0272
G1 X18.4188 Y15.9743
G1 X18.3745 Y15.9255
G1 X18.3257 Y15.8813
G1 X18.2728 Y15.842
G1 X18.2163 Y15.8082
G1 X18.1568 Y15.78
G1 X18.0948 Y15.7578
G1 X18.0309 Y15.7418
G1 X17.9658 Y15.7322
G1 X17.9 Y15.7289
G1 X17.8342 Y15.7322
G1 X17.7691 Y15.7418
G1 X17.7052 Y15.7578
G1 X17.6432 Y15.78
G1 X17.5837 Y15.8082
G1 X17.5483 Y15.8294
G1 F200.0 X17.0341 Y14.9717
G1 F700.0 X16.9709 Y15.0095
G1 X16.8391 Y15.1073
G1 X16.7175 Y15.2175
G1 X16.6073 Y15.3391
G1 X16.5095 Y15.4709
G1 X16.4252 Y15.6117
G1 X16.355 Y15.76
G1 X16.2997 Y15.9146
G1 X16.2599 Y16.0738
G1 X16.2358 Y16.2361
G1 X16.2277 Y16.4
G1 X16.2358 Y16.5639
G1 X16.2599 Y16.7263
G1 X16.2997 Y16.8855
G1 X16.355 Y17.04
G1 X16.4252 Y17.1883
G1 X16.5095 Y17.3291
G1 X16.6073 Y17.4609
G1 X16.7175 Y17.5825
G1 X16.8391 Y17.6927
G1 X16.9709 Y17.7905
G1 X17.1117 Y17.8748
G1 X17.26 Y17.945
G1 X17.4146 Y18.0003
G1 X17.5738 Y18.0402
G1 X17.7361 Y18.0642
G1 X17.9 Y18.0723
G1 X18.0639 Y18.0642
G1 X18.2262 Y18.0402
G1 X18.3854 Y18.0003
G1 X18.54 Y17.945
G1 X18.6883 Y17.8748
G1 X18.8291 Y17.7905
G1 X18.9609 Y17.6927
G1 X19.0825 Y17.5825
G1 X19.1927 Y17.4609
G1 X19.2905 Y17.3291
G1 X19.3748 Y17.1883
G1 X19.445 Y17.04
G1 X19.5003 Y16.8854
G1 X19.5402 Y16.7262
G1 X19.5642 Y16.5639
G1 X19.5723 Y16.4
G1 X19.5642 Y16.2361
G1 X19.5402 Y16.0738
G1 X19.5003 Y15.9146
G1 X19.445 Y15.76
G1 X19.3748 Y15.6117
G1 X19.2905 Y15.4709
G1 X19.1927 Y15.3391
G1 X19.0825 Y15.2175
G1 X18.9609 Y15.1073
G1 X18.8291 Y15.0095
G1 X18.6883 Y14.9252
G1 X18.54 Y14.855
G1 X18.3854 Y14.7997
G1 X18.2262 Y14.7598
G1 X18.0639 Y14.7358
G1 X17.9 Y14.7277
G1 X17.7361 Y14.7358
G1 X17.5738 Y14.7598
G1 X17.4146 Y14.7997
G1 X17.26 Y14.855
G1 X17.1117 Y14.9252
G1 X17.0341 Y14.9717
G1 F200.0 X16.52 Y14.1139
G1 F700.0 X16.4147 Y14.1771
G1 X16.204 Y14.3334
G1 X16.0096 Y14.5096
G1 X15.8334 Y14.704
G1 X15.6771 Y14.9147
G1 X15.5422 Y15.1397
G1 X15.43 Y15.3769
G1 X15.3416 Y15.6239
G1 X15.2779 Y15.8784
G1 X15.2394 Y16.138
G1 X15.2265 Y16.4
G1 X15.2394 Y16.662
G1 X15.2779 Y16.9216
G1 X15.3416 Y17.1761
G1 X15.43 Y17.4231
G1 X15.5422 Y17.6603
G1 X15.6771 Y17.8853
G1 X15.8334 Y18.096
G1 X16.0096 Y18.2904
G1 X16.204 Y18.4666
G1 X16.4147 Y18.6229
G1 X16.6397 Y18.7578
G1 X16.8769 Y18.87
G1 X17.1239 Y18.9584
G1 X17.3784 Y19.0221
G1 X17.638 Y19.0606
G1 X17.9 Y19.0735
G1 X18.1621 Y19.0606
G1 X18.4216 Y19.0221
G1 X18.6761 Y18.9584
G1 X18.9231 Y18.87
G1 X19.1603 Y18.7578
G1 X19.3853 Y18.6229
G1 X19.596 Y18.4666
G1 X19.7904 Y18.2904
G1 X19.9666 Y18.096
G1 X20.1229 Y17.8853
G1 X20.2578 Y17.6603
G1 X20.37 Y17.4231
G1 X20.4584 Y17.1761
G1 X20.5221 Y16.9216
G1 X20.5606 Y16.6621
G1 X20.5735 Y16.4
G1 X20.5606 Y16.138
G1 X20.5221 Y15.8784
G1 X20.4584 Y15.6239
G1 X20.37 Y15.3769
G1 X20.2578 Y15.1397
G1 X20.1229 Y14.9147
G1 X19.9666 Y14.704
G1 X19.7904 Y14.5096
G1 X19.596 Y14.3334
G1 X19.3853 Y14.1771
G1 X19.1603 Y14.0422
G1 X18.9231 Y13.93
G1 X18.6761 Y13.8416
G1 X18.4216 Y13.7779
G1 X18.1621 Y13.7394
G1 X17.9 Y13.7265
G1 X17.6379 Y13.7394
G1 X17.3784 Y13.7779
G1 X17.1239 Y13.8416
G1 X16.8769 Y13.93
G1 X16.6397 Y14.0422
G1 X16.52 Y14.1139
G0 Z3.0
G0 X17.8053 Y16.2582
G0 Z-1.0
G1 F200.0 Z-2.0
G1 F700.0 X17.7919 Y16.2682 Z-2.0047
G1 X17.7794 Y16.2795 Z-2.0094
G1 X17.7682 Y16.2919 Z-2.0141
G1 X17.7583 Y16.3053 Z-2.0188
G1 X17.7497 Y16.3196 Z-2.0234
G1 X17.7425 Y16.3348 Z-2.0281
G1 X17.7369 Y16.3505 Z-2.0328
G1 X17.7328 Y16.3667 Z-2.0375
G1 X17.7303 Y16.3833 Z-2.0422
G1 X17.7295 Y16.4 Z-2.0469
G1 X17.7303 Y16.4167 Z-2.0516
G1 X17.7328 Y16.4333 Z-2.0563
G1 X17.7369 Y16.4495 Z-2.0609
G1 X17.7425 Y16.4652 Z-2.0656
G1 X17.7497 Y16.4804 Z-2.0703
G1 X17.7583 Y16.4947 Z-2.075
G1 X17.7682 Y16.5081 Z-2.0797
G1 X17.7795 Y16.5205 Z-2.0844
G1 X17.7919 Y16.5318 Z-2.0891
G1 X17.8053 Y16.5418 Z-2.0938
G1 X17.8196 Y16.5503 Z-2.0984
G1 X17.8348 Y16.5575 Z-2.1031
G1 X17.8505 Y16.5631 Z-2.1078
G1 X17.8667 Y16.5672 Z-2.1125
G1 X17.8833 Y16.5697 Z-2.1172
G1 X17.9 Y16.5705 Z-2.1219
G1 X17.9167 Y16.5697 Z-2.1266
G1 X17.9333 Y16.5672 Z-2.1313
G1 X17.9495 Y16.5631 Z-2.1359
G1 X17.9652 Y16.5575 Z-2.1406
G1 X17.9804 Y16.5503 Z-2.1453
G1 X17.9947 Y16.5418 Z-2.15
G1 X18.0082 Y16.5318 Z-2.1547
G1 X18.0205 Y16.5205 Z-2.1594
G1 X18.0318 Y16.5081 Z-2.1641
G1 X18.0417 Y16.4947 Z-2.1688
G1 X18.0504 Y16.4804 Z-2.1734
G1 X18.0575 Y16.4652 Z-2.1781
G1 X18.0631 Y16.4495 Z-2.1828
G1 X18.0672 Y16.4332 Z-2.1875
G1 X18.0697 Y16.4167 Z-2.1922
G1 X18.0705 Y16.4 Z-2.1969
G1 X18.0697 Y16.3833 Z-2.2016
G1 X18.0672 Y16.3668 Z-2.2063
G1 X18.0631 Y16.3505 Z-2.2109
G1 X18.0575 Y16.3348 Z-2.2156
G1 X18.0504 Y16.3196 Z-2.2203
G1 X18.0417 Y16.3053 Z-2.225
G1 X18.0318 Y16.2919 Z-2.2297
G1 X18.0205 Y16.2795 Z-2.2344
G1 X18.0082 Y16.2682 Z-2.2391
G1 X17.9947 Y16.2583 Z-2.2438
G1 X17.9804 Y16.2497 Z-2.2484
G1 X17.9653 Y16.2425 Z-2.2531
G1 X17.9495 Y16.2369 Z-2.2578
G1 X17.9333 Y16.2328 Z-2.2625
G1 X17.9167 Y16.2303 Z-2.2672
G1 X17.9 Y16.2295 Z-2.2719
G1 X17.8833 Y16.2303 Z-2.2766
G1 X17.8667 Y16.2328 Z-2.2813
G1 X17.8505 Y16.2369 Z-2.2859
G1 X17.8348 Y16.2425 Z-2.2906
G1 X17.8196 Y16.2497 Z-2.2953
G1 X17.8053 Y16.2582 Z-2.3
G1 F200.0 X17.5483 Y15.8294
G1 F700.0 X17.5272 Y15.842
G1 X17.4743 Y15.8813
G1 X17.4255 Y15.9255
G1 X17.3812 Y15.9743
G1 X17.342 Y16.0272
G1 X17.3082 Y16.0837
G1 X17.28 Y16.1432
G1 X17.2578 Y16.2052
G1 X17.2418 Y16.2691
G1 X17.2322 Y16.3343
G1 X17.2289 Y16.4
G1 X17.2322 Y16.4658
G1 X17.2418 Y16.5309
G1 X17.2578 Y16.5948
G1 X17.28 Y16.6568
G1 X17.3082 Y16.7163
G1 X17.342 Y16.7728
G1 X17.3812 Y16.8257
G1 X17.4255 Y16.8745
G1 X17.4743 Y16.9188
G1 X17.5272 Y16.958
G1 X17.5837 Y16.9918
G1 X17.6432 Y17.02
G1 X17.7052 Y17.0422
G1 X17.7691 Y17.0582
G1 X17.8342 Y17.0679
G1 X17.9 Y17.0711
G1 X17.9658 Y17.0679
G1 X18.0309 Y17.0582
G1 X18.0948 Y17.0422
G1 X18.1568 Y17.02
G1 X18.2163 Y16.9918
G1 X18.2728 Y16.958
G1 X18.3257 Y16.9188
G1 X18.3745 Y16.8745
G1 X18.4188 Y16.8257
G1 X18.458 Y16.7728
G1 X18.4918 Y16.7163
G1 X18.52 Y16.6568
G1 X18.5422 Y16.5948
G1 X18.5582 Y16.5309
G1 X18.5679 Y16.4658
G1 X18.5711 Y16.4
G1 X18.5679 Y16.3342
G1 X18.5582 Y16.2691
G1 X18.5422 Y16.2052
G1 X18.52 Y16.1432
G1 X18.4918 Y16.0837
G1 X18.458 Y16.0272
G1 X18.4188 Y15.9743
G1 X18.3745 Y15.9255
G1 X18.3257 Y15.8813
G1 X18.2728 Y15.842
G1 X18.2163 Y15.8082
G1 X18.1568 Y15.78
G1 X18.0948 Y15.7578
G1 X18.0309 Y15.7418
G1 X17.9658 Y15.7322
G1 X17.9 Y15.7289
G1 X17.8342 Y15.7322
G1 X17.7691 Y15.7418
G1 X17.7052 Y15.7578
G1 X17.6432 Y15.78
G1 X17.5837 Y15.8082
G1 X17.5483 Y15.8294
G1 F200.0 X17.0341 Y14.9717
G1 F700.0 X16.9709 Y15.0095
G1 X16.8391 Y15.1073
G1 X16.7175 Y15.2175
G1 X16.6073 Y15.3391
G1 X16.5095 Y15.4709
G1 X16.4252 Y15.6117
G1 X16.355 Y15.76
G1 X16.2997 Y15.9146
G1 X16.2599 Y16.0738
G1 X16.2358 Y16.2361
G1 X16.2277 Y16.4
G1 X16.2358 Y16.5639
G1 X16.2599 Y16.7263
G1 X16.2997 Y16.8855
G1 X16.355 Y17.04
G1 X16.4252 Y17.1883
G1 X16.5095 Y17.3291
G1 X16.6073 Y17.4609
G1 X16.7175 Y17.5825
G1 X16.8391 Y17.6927
G1 X16.9709 Y17.7905
G1 X17.1117 Y17.8748
G1 X17.26 Y17.945
G1 X17.4146 Y18.0003
G1 X17.5738 Y18.0402
G1 X17.7361 Y18.0642
G1 X17.9 Y18.0723
G1 X18.0639 Y18.0642
G1 X18.2262 Y18.0402
G1 X18.3854 Y18.0003
G1 X18.54 Y17.945
G1 X18.6883 Y17.8748
G1 X18.8291 Y17.7905
G1 X18.9609 Y17.6927
G1 X19.0825 Y17.5825
G1 X19.1927 Y17.4609
G1 X19.2905 Y17.3291
G1 X19.3748 Y17.1883
G1 X19.445 Y17.04
G1 X19.5003 Y16.8854
G1 X19.5402 Y16.7262
G1 X19.5642 Y16.5639
G1 X19.5723 Y16.4
G1 X19.5642 Y16.2361
G1 X19.5402 Y16.0738
G1 X19.5003 Y15.9146
G1 X19.445 Y15.76
G1 X19.3748 Y15.6117
G1 X19.2905 Y15.4709
G1 X19.1927 Y15.3391
G1 X19.0825 Y15.2175
G1 X18.9609 Y15.1073
G1 X18.8291 Y15.0095
G1 X18.6883 Y14.9252
G1 X18.54 Y14.855
G1 X18.3854 Y14.7997
G1 X18.2262 Y14.7598
G1 X18.0639 Y14.7358
G1 X17.9 Y14.7277
G1 X17.7361 Y14.7358
G1 X17.5738 Y14.7598
G1 X17.4146 Y14.7997
G1 X17.26 Y14.855
G1 X17.1117 Y14.9252
G1 X17.0341 Y14.9717
G1 F200.0 X16.52 Y14.1139
G1 F700.0 X16.4147 Y14.1771
G1 X16.204 Y14.3334
G1 X16.0096 Y14.5096
G1 X15.8334 Y14.704
G1 X15.6771 Y14.9147
G1 X15.5422 Y15.1397
G1 X15.43 Y15.3769
G1 X15.3416 Y15.6239
G1 X15.2779 Y15.8784
G1 X15.2394 Y16.138
G1 X15.2265 Y16.4
G1 X15.2394 Y16.662
G1 X15.2779 Y16.9216
G1 X15.3416 Y17.1761
G1 X15.43 Y17.4231
G1 X15.5422 Y17.6603
G1 X15.6771 Y17.8853
G1 X15.8334 Y18.096
G1 X16.0096 Y18.2904
G1 X16.204 Y18.4666
G1 X16.4147 Y18.6229
G1 X16.6397 Y18.7578
G1 X16.8769 Y18.87
G1 X17.1239 Y18.9584
G1 X17.3784 Y19.0221
G1 X17.638 Y19.0606
G1 X17.9 Y19.0735
G1 X18.1621 Y19.0606
G1 X18.4216 Y19.0221
G1 X18.6761 Y18.9584
G1 X18.9231 Y18.87
G1 X19.1603 Y18.7578
G1 X19.3853 Y18.6229
G1 X19.596 Y18.4666
G1 X19.7904 Y18.2904
G1 X19.9666 Y18.096
G1 X20.1229 Y17.8853
G1 X20.2578 Y17.6603
G1 X20.37 Y17.4231
G1 X20.4584 Y17.1761
G1 X20.5221 Y16.9216
G1 X20.5606 Y16.6621
G1 X20.5735 Y16.4
G1 X20.5606 Y16.138
G1 X20.5221 Y15.8784
G1 X20.4584 Y15.6239
G1 X20.37 Y15.3769
G1 X20.2578 Y15.1397
G1 X20.1229 Y14.9147
G1 X19.9666 Y14.704
G1 X19.7904 Y14.5096
G1 X19.596 Y14.3334
G1 X19.3853 Y14.1771
G1 X19.1603 Y14.0422
G1 X18.9231 Y13.93
G1 X18.6761 Y13.8416
G1 X18.4216 Y13.7779
G1 X18.1621 Y13.7394
G1 X17.9 Y13.7265
G1 X17.6379 Y13.7394
G1 X17.3784 Y13.7779
G1 X17.1239 Y13.8416
G1 X16.8769 Y13.93
G1 X16.6397 Y14.0422
G1 X16.52 Y14.1139
G0 Z3.0
G0 X17.8053 Y16.2582
G0 Z-1.3
G1 F200.0 Z-2.3
G1 F700.0 X17.7919 Y16.2682 Z-2.3047
G1 X17.7794 Y16.2795 Z-2.3094
G1 X17.7682 Y16.2919 Z-2.3141
G1 X17.7583 Y16.3053 Z-2.3188
G1 X17.7497 Y16.3196 Z-2.3234
G1 X17.7425 Y16.3348 Z-2.3281
G1 X17.7369 Y16.3505 Z-2.3328
G1 X17.7328 Y16.3667 Z-2.3375
G1 X17.7303 Y16.3833 Z-2.3422
G1 X17.7295 Y16.4 Z-2.3469
G1 X17.7303 Y16.4167 Z-2.3516
G1 X17.7328 Y16.4333 Z-2.3563
G1 X17.7369 Y16.4495 Z-2.3609
G1 X17.7425 Y16.4652 Z-2.3656
G1 X17.7497 Y16.4804 Z-2.3703
G1 X17.7583 Y16.4947 Z-2.375
G1 X17.7682 Y16.5081 Z-2.3797
G1 X17.7795 Y16.5205 Z-2.3844
G1 X17.7919 Y16.5318 Z-2.3891
G1 X17.8053 Y16.5418 Z-2.3938
G1 X17.8196 Y16.5503 Z-2.3984
G1 X17.8348 Y16.5575 Z-2.4031
G1 X17.8505 Y16.5631 Z-2.4078
G1 X17.8667 Y16.5672 Z-2.4125
G1 X17.8833 Y16.5697 Z-2.4172
G1 X17.9 Y16.5705 Z-2.4219
G1 X17.9167 Y16.5697 Z-2.4266
G1 X17.9333 Y16.5672 Z-2.4313
G1 X17.9495 Y16.5631 Z-2.4359
G1 X17.9652 Y16.5575 Z-2.4406
G1 X17.9804 Y16.5503 Z-2.4453
G1 X17.9947 Y16.5418 Z-2.45
G1 X18.0082 Y16.5318 Z-2.4547
G1 X18.0205 Y16.5205 Z-2.4594
G1 X18.0318 Y16.5081 Z-2.4641
G1 X18.0417 Y16.4947 Z-2.4688
G1 X18.0504 Y16.4804 Z-2.4734
G1 X18.0575 Y16.4652 Z-2.4781
G1 X18.0631 Y16.4495 Z-2.4828
G1 X18.0672 Y16.4332 Z-2.4875
G1 X18.0697 Y16.4167 Z-2.4922
G1 X18.0705 Y16.4 Z-2.4969
G1 X18.0697 Y16.3833 Z-2.5016
G1 X18.0672 Y16.3668 Z-2.5063
G1 X18.0631 Y16.3505 Z-2.5109
G1 X18.0575 Y16.3348 Z-2.5156
G1 X18.0504 Y16.3196 Z-2.5203
G1 X18.0417 Y16.3053 Z-2.525
G1 X18.0318 Y16.2919 Z-2.5297
G1 X18.0205 Y16.2795 Z-2.5344
G1 X18.0082 Y16.2682 Z-2.5391
G1 X17.9947 Y16.2583 Z-2.5438
G1 X17.9804 Y16.2497 Z-2.5484
G1 X17.9653 Y16.2425 Z-2.5531
G1 X17.9495 Y16.2369 Z-2.5578
G1 X17.9333 Y16.2328 Z-2.5625
G1 X17.9167 Y16.2303 Z-2.5672
G1 X17.9 Y16.2295 Z-2.5719
G1 X17.8833 Y16.2303 Z-2.5766
G1 X17.8667 Y16.2328 Z-2.5813
G1 X17.8505 Y16.2369 Z-2.5859
G1 X17.8348 Y16.2425 Z-2.5906
G1 X17.8196 Y16.2497 Z-2.5953
G1 X17.8053 Y16.2582 Z-2.6
G1 F200.0 X17.5483 Y15.8294
G1 F700.0 X17.5272 Y15.842
G1 X17.4743 Y15.8813
G1 X17.4255 Y15.9255
G1 X17.3812 Y15.9743
G1 X17.342 Y16.0272
G1 X17.3082 Y16.0837
G1 X17.28 Y16.1432
G1 X17.2578 Y16.2052
G1 X17.2418 Y16.2691
G1 X17.2322 Y16.3343
G1 X17.2289 Y16.4
G1 X17.2322 Y16.4658
G1 X17.2418 Y16.5309
G1 X17.2578 Y16.5948
G1 X17.28 Y16.6568
G1 X17.3082 Y16.7163
G1 X17.342 Y16.7728
G1 X17.3812 Y16.8257
G1 X17.4255 Y16.8745
G1 X17.4743 Y16.9188
G1 X17.5272 Y16.958
G1 X17.5837 Y16.9918
G1 X17.6432 Y17.02
G1 X17.7052 Y17.0422
G1 X17.7691 Y17.0582
G1 X17.8342 Y17.0679
G1 X17.9 Y17.0711
G1 X17.9658 Y17.0679
G1 X18.0309 Y17.0582
G1 X18.0948 Y17.0422
G1 X18.1568 Y17.02
G1 X18.2163 Y16.9918
G1 X18.2728 Y16.958
G1 X18.3257 Y16.9188
G1 X18.3745 Y16.8745
G1 X18.4188 Y16.8257
G1 X18.458 Y16.7728
G1 X18.4918 Y16.7163
G1 X18.52 Y16.6568
G1 X18.5422 Y16.5948
G1 X18.5582 Y16.5309
G1 X18.5679 Y16.4658
G1 X18.5711 Y16.4
G1 X18.5679 Y16.3342
G1 X18.5582 Y16.2691
G1 X18.5422 Y16.2052
G1 X18.52 Y16.1432
G1 X18.4918 Y16.0837
G1 X18.458 Y16.0272
G1 X18.4188 Y15.9743
G1 X18.3745 Y15.9255
G1 X18.3257 Y15.8813
G1 X18.2728 Y15.842
G1 X18.2163 Y15.8082
G1 X18.1568 Y15.78
G1 X18.0948 Y15.7578
G1 X18.0309 Y15.7418
G1 X17.9658 Y15.7322
G1 X17.9 Y15.7289
G1 X17.8342 Y15.7322
G1 X17.7691 Y15.7418
G1 X17.7052 Y15.7578
G1 X17.6432 Y15.78
G1 X17.5837 Y15.8082
G1 X17.5483 Y15.8294
G1 F200.0 X17.0341 Y14.9717
G1 F700.0 X16.9709 Y15.0095
G1 X16.8391 Y15.1073
G1 X16.7175 Y15.2175
G1 X16.6073 Y15.3391
G1 X16.5095 Y15.4709
G1 X16.4252 Y15.6117
G1 X16.355 Y15.76
G1 X16.2997 Y15.9146
G1 X16.2599 Y16.0738
G1 X16.2358 Y16.2361
G1 X16.2277 Y16.4
G1 X16.2358 Y16.5639
G1 X16.2599 Y16.7263
G1 X16.2997 Y16.8855
G1 X16.355 Y17.04
G1 X16.4252 Y17.1883
G1 X16.5095 Y17.3291
G1 X16.6073 Y17.4609
G1 X16.7175 Y17.5825
G1 X16.8391 Y17.6927
G1 X16.9709 Y17.7905
G1 X17.1117 Y17.8748
G1 X17.26 Y17.945
G1 X17.4146 Y18.0003
G1 X17.5738 Y18.0402
G1 X17.7361 Y18.0642
G1 X17.9 Y18.0723
G1 X18.0639 Y18.0642
G1 X18.2262 Y18.0402
G1 X18.3854 Y18.0003
G1 X18.54 Y17.945
G1 X18.6883 Y17.8748
G1 X18.8291 Y17.7905
G1 X18.9609 Y17.6927
G1 X19.0825 Y17.5825
G1 X19.1927 Y17.4609
G1 X19.2905 Y17.3291
G1 X19.3748 Y17.1883
G1 X19.445 Y17.04
G1 X19.5003 Y16.8854
G1 X19.5402 Y16.7262
G1 X19.5642 Y16.5639
G1 X19.5723 Y16.4
G1 X19.5642 Y16.2361
G1 X19.5402 Y16.0738
G1 X19.5003 Y15.9146
G1 X19.445 Y15.76
G1 X19.3748 Y15.6117
G1 X19.2905 Y15.4709
G1 X19.1927 Y15.3391
G1 X19.0825 Y15.2175
G1 X18.9609 Y15.1073
G1 X18.8291 Y15.0095
G1 X18.6883 Y14.9252
G1 X18.54 Y14.855
G1 X18.3854 Y14.7997
G1 X18.2262 Y14.7598
G1 X18.0639 Y14.7358
G1 X17.9 Y14.7277
G1 X17.7361 Y14.7358
G1 X17.5738 Y14.7598
G1 X17.4146 Y14.7997
G1 X17.26 Y14.855
G1 X17.1117 Y14.9252
G1 X17.0341 Y14.9717
G1 F200.0 X16.52 Y14.1139
G1 F700.0 X16.4147 Y14.1771
G1 X16.204 Y14.3334
G1 X16.0096 Y14.5096
G1 X15.8334 Y14.704
G1 X15.6771 Y14.9147
G1 X15.5422 Y15.1397
G1 X15.43 Y15.3769
G1 X15.3416 Y15.6239
G1 X15.2779 Y15.8784
G1 X15.2394 Y16.138
G1 X15.2265 Y16.4
G1 X15.2394 Y16.662
G1 X15.2779 Y16.9216
G1 X15.3416 Y17.1761
G1 X15.43 Y17.4231
G1 X15.5422 Y17.6603
G1 X15.6771 Y17.8853
G1 X15.8334 Y18.096
G1 X16.0096 Y18.2904
G1 X16.204 Y18.4666
G1 X16.4147 Y18.6229
G1 X16.6397 Y18.7578
G1 X16.8769 Y18.87
G1 X17.1239 Y18.9584
G1 X17.3784 Y19.0221
G1 X17.638 Y19.0606
G1 X17.9 Y19.0735
G1 X18.1621 Y19.0606
G1 X18.4216 Y19.0221
G1 X18.6761 Y18.9584
G1 X18.9231 Y18.87
G1 X19.1603 Y18.7578
G1 X19.3853 Y18.6229
G1 X19.596 Y18.4666
G1 X19.7904 Y18.2904
G1 X19.9666 Y18.096
G1 X20.1229 Y17.8853
G1 X20.2578 Y17.6603
G1 X20.37 Y17.4231
G1 X20.4584 Y17.1761
G1 X20.5221 Y16.9216
G1 X20.5606 Y16.6621
G1 X20.5735 Y16.4
G1 X20.5606 Y16.138
G1 X20.5221 Y15.8784
G1 X20.4584 Y15.6239
G1 X20.37 Y15.3769
G1 X20.2578 Y15.1397
G1 X20.1229 Y14.9147
G1 X19.9666 Y14.704
G1 X19.7904 Y14.5096
G1 X19.596 Y14.3334
G1 X19.3853 Y14.1771
G1 X19.1603 Y14.0422
G1 X18.9231 Y13.93
G1 X18.6761 Y13.8416
G1 X18.4216 Y13.7779
G1 X18.1621 Y13.7394
G1 X17.9 Y13.7265
G1 X17.6379 Y13.7394
G1 X17.3784 Y13.7779
G1 X17.1239 Y13.8416
G1 X16.8769 Y13.93
G1 X16.6397 Y14.0422
G1 X16.52 Y14.1139
G0 Z3.0
G0 X17.8053 Y16.2582
G1 F200.0 Z-2.6
G1 F700.0 X17.7919 Y16.2682 Z-2.6047
G1 X17.7794 Y16.2795 Z-2.6094
G1 X17.7682 Y16.2919 Z-2.6141
G1 X17.7583 Y16.3053 Z-2.6188
G1 X17.7497 Y16.3196 Z-2.6234
G1 X17.7425 Y16.3348 Z-2.6281
G1 X17.7369 Y16.3505 Z-2.6328
G1 X17.7328 Y16.3667 Z-2.6375
G1 X17.7303 Y16.3833 Z-2.6422
G1 X17.7295 Y16.4 Z-2.6469
G1 X17.7303 Y16.4167 Z-2.6516
G1 X17.7328 Y16.4333 Z-2.6563
G1 X17.7369 Y16.4495 Z-2.6609
G1 X17.7425 Y16.4652 Z-2.6656
G1 X17.7497 Y16.4804 Z-2.6703
G1 X17.7583 Y16.4947 Z-2.675
G1 X17.7682 Y16.5081 Z-2.6797
G1 X17.7795 Y16.5205 Z-2.6844
G1 X17.7919 Y16.5318 Z-2.6891
G1 X17.8053 Y16.5418 Z-2.6938
G1 X17.8196 Y16.5503 Z-2.6984
G1 X17.8348 Y16.5575 Z-2.7031
G1 X17.8505 Y16.5631 Z-2.7078
G1 X17.8667 Y16.5672 Z-2.7125
G1 X17.8833 Y16.5697 Z-2.7172
G1 X17.9 Y16.5705 Z-2.7219
G1 X17.9167 Y16.5697 Z-2.7266
G1 X17.9333 Y16.5672 Z-2.7313
G1 X17.9495 Y16.5631 Z-2.7359
G1 X17.9652 Y16.5575 Z-2.7406
G1 X17.9804 Y16.5503 Z-2.7453
G1 X17.9947 Y16.5418 Z-2.75
G1 X18.0082 Y16.5318 Z-2.7547
G1 X18.0205 Y16.5205 Z-2.7594
G1 X18.0318 Y16.5081 Z-2.7641
G1 X18.0417 Y16.4947 Z-2.7688
G1 X18.0504 Y16.4804 Z-2.7734
G1 X18.0575 Y16.4652 Z-2.7781
G1 X18.0631 Y16.4495 Z-2.7828
G1 X18.0672 Y16.4332 Z-2.7875
G1 X18.0697 Y16.4167 Z-2.7922
G1 X18.0705 Y16.4 Z-2.7969
G1 X18.0697 Y16.3833 Z-2.8016
G1 X18.0672 Y16.3668 Z-2.8063
G1 X18.0631 Y16.3505 Z-2.8109
G1 X18.0575 Y16.3348 Z-2.8156
G1 X18.0504 Y16.3196 Z-2.8203
G1 X18.0417 Y16.3053 Z-2.825
G1 X18.0318 Y16.2919 Z-2.8297
G1 X18.0205 Y16.2795 Z-2.8344
G1 X18.0082 Y16.2682 Z-2.8391
G1 X17.9947 Y16.2583 Z-2.8438
G1 X17.9804 Y16.2497 Z-2.8484
G1 X17.9653 Y16.2425 Z-2.8531
G1 X17.9495 Y16.2369 Z-2.8578
G1 X17.9333 Y16.2328 Z-2.8625
G1 X17.9167 Y16.2303 Z-2.8672
G1 X17.9 Y16.2295 Z-2.8719
G1 X17.8833 Y16.2303 Z-2.8766
G1 X17.8667 Y16.2328 Z-2.8813
G1 X17.8505 Y16.2369 Z-2.8859
G1 X17.8348 Y16.2425 Z-2.8906
G1 X17.8196 Y16.2497 Z-2.8953
G1 X17.8053 Y16.2582 Z-2.9
G1 F200.0 X17.5483 Y15.8294
G1 F700.0 X17.5272 Y15.842
G1 X17.4743 Y15.8813
G1 X17.4255 Y15.9255
G1 X17.3812 Y15.9743
G1 X17.342 Y16.0272
G1 X17.3082 Y16.0837
G1 X17.28 Y16.1432
G1 X17.2578 Y16.2052
G1 X17.2418 Y16.2691
G1 X17.2322 Y16.3343
G1 X17.2289 Y16.4
G1 X17.2322 Y16.4658
G1 X17.2418 Y16.5309
G1 X17.2578 Y16.5948
G1 X17.28 Y16.6568
G1 X17.3082 Y16.7163
G1 X17.342 Y16.7728
G1 X17.3812 Y16.8257
G1 X17.4255 Y16.8745
G1 X17.4743 Y16.9188
G1 X17.5272 Y16.958
G1 X17.5837 Y16.9918
G1 X17.6432 Y17.02
G1 X17.7052 Y17.0422
G1 X17.7691 Y17.0582
G1 X17.8342 Y17.0679
G1 X17.9 Y17.0711
G1 X17.9658 Y17.0679
G1 X18.0309 Y17.0582
G1 X18.0948 Y17.0422
G1 X18.1568 Y17.02
G1 X18.2163 Y16.9918
G1 X18.2728 Y16.958
G1 X18.3257 Y16.9188
G1 X18.3745 Y16.8745
G1 X18.4188 Y16.8257
G1 X18.458 Y16.7728
G1 X18.4918 Y16.7163
G1 X18.52 Y16.6568
G1 X18.5422 Y16.5948
G1 X18.5582 Y16.5309
G1 X18.5679 Y16.4658
G1 X18.5711 Y16.4
G1 X18.5679 Y16.3342
G1 X18.5582 Y16.2691
G1 X18.5422 Y16.2052
G1 X18.52 Y16.1432
G1 X18.4918 Y16.0837
G1 X18.458 Y16.0272
G1 X18.4188 Y15.9743
G1 X18.3745 Y15.9255
G1 X18.3257 Y15.8813
G1 X18.2728 Y15.842
G1 X18.2163 Y15.8082
G1 X18.1568 Y15.78
G1 X18.0948 Y15.7578
G1 X18.0309 Y15.7418
G1 X17.9658 Y15.7322
G1 X17.9 Y15.7289
G1 X17.8342 Y15.7322
G1 X17.7691 Y15.7418
G1 X17.7052 Y15.7578
G1 X17.6432 Y15.78
G1 X17.5837 Y15.8082
G1 X17.5483 Y15.8294
G1 F200.0 X17.0341 Y14.9717
G1 F700.0 X16.9709 Y15.0095
G1 X16.8391 Y15.1073
G1 X16.7175 Y15.2175
G1 X16.6073 Y15.3391
G1 X16.5095 Y15.4709
G1 X16.4252 Y15.6117
G1 X16.355 Y15.76
G1 X16.2997 Y15.9146
G1 X16.2599 Y16.0738
G1 X16.2358 Y16.2361
G1 X16.2277 Y16.4
G1 X16.2358 Y16.5639
G1 X16.2599 Y16.7263
G1 X16.2997 Y16.8855
G1 X16.355 Y17.04
G1 X16.4252 Y17.1883
G1 X16.5095 Y17.3291
G1 X16.6073 Y17.4609
G1 X16.7175 Y17.5825
G1 X16.8391 Y17.6927
G1 X16.9709 Y17.7905
G1 X17.1117 Y17.8748
G1 X17.26 Y17.945
G1 X17.4146 Y18.0003
G1 X17.5738 Y18.0402
G1 X17.7361 Y18.0642
G1 X17.9 Y18.0723
G1 X18.0639 Y18.0642
G1 X18.2262 Y18.0402
G1 X18.3854 Y18.0003
G1 X18.54 Y17.945
G1 X18.6883 Y17.8748
G1 X18.8291 Y17.7905
G1 X18.9609 Y17.6927
G1 X19.0825 Y17.5825
G1 X19.1927 Y17.4609
G1 X19.2905 Y17.3291
G1 X19.3748 Y17.1883
G1 X19.445 Y17.04
G1 X19.5003 Y16.8854
G1 X19.5402 Y16.7262
G1 X19.5642 Y16.5639
G1 X19.5723 Y16.4
G1 X19.5642 Y16.2361
G1 X19.5402 Y16.0738
G1 X19.5003 Y15.9146
G1 X19.445 Y15.76
G1 X19.3748 Y15.6117
G1 X19.2905 Y15.4709
G1 X19.1927 Y15.3391
G1 X19.0825 Y15.2175
G1 X18.9609 Y15.1073
G1 X18.8291 Y15.0095
G1 X18.6883 Y14.9252
G1 X18.54 Y14.855
G1 X18.3854 Y14.7997
G1 X18.2262 Y14.7598
G1 X18.0639 Y14.7358
G1 X17.9 Y14.7277
G1 X17.7361 Y14.7358
G1 X17.5738 Y14.7598
G1 X17.4146 Y14.7997
G1 X17.26 Y14.855
G1 X17.1117 Y14.9252
G1 X17.0341 Y14.9717
G1 F200.0 X16.52 Y14.1139
G1 F700.0 X16.4147 Y14.1771
G1 X16.204 Y14.3334
G1 X16.0096 Y14.5096
G1 X15.8334 Y14.704
G1 X15.6771 Y14.9147
G1 X15.5422 Y15.1397
G1 X15.43 Y15.3769
G1 X15.3416 Y15.6239
G1 X15.2779 Y15.8784
G1 X15.2394 Y16.138
G1 X15.2265 Y16.4
G1 X15.2394 Y16.662
G1 X15.2779 Y16.9216
G1 X15.3416 Y17.1761
G1 X15.43 Y17.4231
G1 X15.5422 Y17.6603
G1 X15.6771 Y17.8853
G1 X15.8334 Y18.096
G1 X16.0096 Y18.2904
G1 X16.204 Y18.4666
G1 X16.4147 Y18.6229
G1 X16.6397 Y18.7578
G1 X16.8769 Y18.87
G1 X17.1239 Y18.9584
G1 X17.3784 Y19.0221
G1 X17.638 Y19.0606
G1 X17.9 Y19.0735
G1 X18.1621 Y19.0606
G1 X18.4216 Y19.0221
G1 X18.6761 Y18.9584
G1 X18.9231 Y18.87
G1 X19.1603 Y18.7578
G1 X19.3853 Y18.6229
G1 X19.596 Y18.4666
G1 X19.7904 Y18.2904
G1 X19.9666 Y18.096
G1 X20.1229 Y17.8853
G1 X20.2578 Y17.6603
G1 X20.37 Y17.4231
G1 X20.4584 Y17.1761
G1 X20.5221 Y16.9216
G1 X20.5606 Y16.6621
G1 X20.5735 Y16.4
G1 X20.5606 Y16.138
G1 X20.5221 Y15.8784
G1 X20.4584 Y15.6239
G1 X20.37 Y15.3769
G1 X20.2578 Y15.1397
G1 X20.1229 Y14.9147
G1 X19.9666 Y14.704
G1 X19.7904 Y14.5096
G1 X19.596 Y14.3334
G1 X19.3853 Y14.1771
G1 X19.1603 Y14.0422
G1 X18.9231 Y13.93
G1 X18.6761 Y13.8416
G1 X18.4216 Y13.7779
G1 X18.1621 Y13.7394
G1 X17.9 Y13.7265
G1 X17.6379 Y13.7394
G1 X17.3784 Y13.7779
G1 X17.1239 Y13.8416
G1 X16.8769 Y13.93
G1 X16.6397 Y14.0422
G1 X16.52 Y14.1139
G0 Z3.0
G0 X17.8053 Y16.2582
G1 F200.0 Z-2.9
G1 F700.0 X17.7919 Y16.2682 Z-2.9047
G1 X17.7794 Y16.2795 Z-2.9094
G1 X17.7682 Y16.2919 Z-2.9141
G1 X17.7583 Y16.3053 Z-2.9188
G1 X17.7497 Y16.3196 Z-2.9234
G1 X17.7425 Y16.3348 Z-2.9281
G1 X17.7369 Y16.3505 Z-2.9328
G1 X17.7328 Y16.3667 Z-2.9375
G1 X17.7303 Y16.3833 Z-2.9422
G1 X17.7295 Y16.4 Z-2.9469
G1 X17.7303 Y16.4167 Z-2.9516
G1 X17.7328 Y16.4333 Z-2.9563
G1 X17.7369 Y16.4495 Z-2.9609
G1 X17.7425 Y16.4652 Z-2.9656
G1 X17.7497 Y16.4804 Z-2.9703
G1 X17.7583 Y16.4947 Z-2.975
G1 X17.7682 Y16.5081 Z-2.9797
G1 X17.7795 Y16.5205 Z-2.9844
G1 X17.7919 Y16.5318 Z-2.9891
G1 X17.8053 Y16.5418 Z-2.9938
G1 X17.8196 Y16.5503 Z-2.9984
G1 X17.8348 Y16.5575 Z-3.0031
G1 X17.8505 Y16.5631 Z-3.0078
G1 X17.8667 Y16.5672 Z-3.0125
G1 X17.8833 Y16.5697 Z-3.0172
G1 X17.9 Y16.5705 Z-3.0219
G1 X17.9167 Y16.5697 Z-3.0266
G1 X17.9333 Y16.5672 Z-3.0313
G1 X17.9495 Y16.5631 Z-3.0359
G1 X17.9652 Y16.5575 Z-3.0406
G1 X17.9804 Y16.5503 Z-3.0453
G1 X17.9947 Y16.5418 Z-3.05
G1 X18.0082 Y16.5318 Z-3.0547
G1 X18.0205 Y16.5205 Z-3.0594
G1 X18.0318 Y16.5081 Z-3.0641
G1 X18.0417 Y16.4947 Z-3.0688
G1 X18.0504 Y16.4804 Z-3.0734
G1 X18.0575 Y16.4652 Z-3.0781
G1 X18.0631 Y16.4495 Z-3.0828
G1 X18.0672 Y16.4332 Z-3.0875
G1 X18.0697 Y16.4167 Z-3.0922
G1 X18.0705 Y16.4 Z-3.0969
G1 X18.0697 Y16.3833 Z-3.1016
G1 X18.0672 Y16.3668 Z-3.1063
G1 X18.0631 Y16.3505 Z-3.1109
G1 X18.0575 Y16.3348 Z-3.1156
G1 X18.0504 Y16.3196 Z-3.1203
G1 X18.0417 Y16.3053 Z-3.125
G1 X18.0318 Y16.2919 Z-3.1297
G1 X18.0205 Y16.2795 Z-3.1344
G1 X18.0082 Y16.2682 Z-3.1391
G1 X17.9947 Y16.2583 Z-3.1438
G1 X17.9804 Y16.2497 Z-3.1484
G1 X17.9653 Y16.2425 Z-3.1531
G1 X17.9495 Y16.2369 Z-3.1578
G1 X17.9333 Y16.2328 Z-3.1625
G1 X17.9167 Y16.2303 Z-3.1672
G1 X17.9 Y16.2295 Z-3.1719
G1 X17.8833 Y16.2303 Z-3.1766
G1 X17.8667 Y16.2328 Z-3.1813
G1 X17.8505 Y16.2369 Z-3.1859
G1 X17.8348 Y16.2425 Z-3.1906
G1 X17.8196 Y16.2497 Z-3.1953
G1 X17.8053 Y16.2582 Z-3.2
G1 F200.0 X17.5483 Y15.8294
G1 F700.0 X17.5272 Y15.842
G1 X17.4743 Y15.8813
G1 X17.4255 Y15.9255
G1 X17.3812 Y15.9743
G1 X17.342 Y16.0272
G1 X17.3082 Y16.0837
G1 X17.28 Y16.1432
G1 X17.2578 Y16.2052
G1 X17.2418 Y16.2691
G1 X17.2322 Y16.3343
G1 X17.2289 Y16.4
G1 X17.2322 Y16.4658
G1 X17.2418 Y16.5309
G1 X17.2578 Y16.5948
G1 X17.28 Y16.6568
G1 X17.3082 Y16.7163
G1 X17.342 Y16.7728
G1 X17.3812 Y16.8257
G1 X17.4255 Y16.8745
G1 X17.4743 Y16.9188
G1 X17.5272 Y16.958
G1 X17.5837 Y16.9918
G1 X17.6432 Y17.02
G1 X17.7052 Y17.0422
G1 X17.7691 Y17.0582
G1 X17.8342 Y17.0679
G1 X17.9 Y17.0711
G1 X17.9658 Y17.0679
G1 X18.0309 Y17.0582
G1 X18.0948 Y17.0422
G1 X18.1568 Y17.02
G1 X18.2163 Y16.9918
G1 X18.2728 Y16.958
G1 X18.3257 Y16.9188
G1 X18.3745 Y16.8745
G1 X18.4188 Y16.8257
G1 X18.458 Y16.7728
G1 X18.4918 Y16.7163
G1 X18.52 Y16.6568
G1 X18.5422 Y16.5948
G1 X18.5582 Y16.5309
G1 X18.5679 Y16.4658
G1 X18.5711 Y16.4
G1 X18.5679 Y16.3342
G1 X18.5582 Y16.2691
G1 X18.5422 Y16.2052
G1 X18.52 Y16.1432
G1 X18.4918 Y16.0837
G1 X18.458 Y16.0272
G1 X18.4188 Y15.9743
G1 X18.3745 Y15.9255
G1 X18.3257 Y15.8813
G1 X18.2728 Y15.842
G1 X18.2163 Y15.8082
G1 X18.1568 Y15.78
G1 X18.0948 Y15.7578
G1 X18.0309 Y15.7418
G1 X17.9658 Y15.7322
G1 X17.9 Y15.7289
G1 X17.8342 Y15.7322
G1 X17.7691 Y15.7418
G1 X17.7052 Y15.7578
G1 X17.6432 Y15.78
G1 X17.5837 Y15.8082
G1 X17.5483 Y15.8294
G1 F200.0 X17.0341 Y14.9717
G1 F700.0 X16.9709 Y15.0095
G1 X16.8391 Y15.1073
G1 X16.7175 Y15.2175
G1 X16.6073 Y15.3391
G1 X16.5095 Y15.4709
G1 X16.4252 Y15.6117
G1 X16.355 Y15.76
G1 X16.2997 Y15.9146
G1 X16.2599 Y16.0738
G1 X16.2358 Y16.2361
G1 X16.2277 Y16.4
G1 X16.2358 Y16.5639
G1 X16.2599 Y16.7263
G1 X16.2997 Y16.8855
G1 X16.355 Y17.04
G1 X16.4252 Y17.1883
G1 X16.5095 Y17.3291
G1 X16.6073 Y17.4609
G1 X16.7175 Y17.5825
G1 X16.8391 Y17.6927
G1 X16.9709 Y17.7905
G1 X17.1117 Y17.8748
G1 X17.26 Y17.945
G1 X17.4146 Y18.0003
G1 X17.5738 Y18.0402
G1 X17.7361 Y18.0642
G1 X17.9 Y18.0723
G1 X18.0639 Y18.0642
G1 X18.2262 Y18.0402
G1 X18.3854 Y18.0003
G1 X18.54 Y17.945
G1 X18.6883 Y17.8748
G1 X18.8291 Y17.7905
G1 X18.9609 Y17.6927
G1 X19.0825 Y17.5825
G1 X19.1927 Y17.4609
G1 X19.2905 Y17.3291
G1 X19.3748 Y17.1883
G1 X19.445 Y17.04
G1 X19.5003 Y16.8854
G1 X19.5402 Y16.7262
G1 X19.5642 Y16.5639
G1 X19.5723 Y16.4
G1 X19.5642 Y16.2361
G1 X19.5402 Y16.0738
G1 X19.5003 Y15.9146
G1 X19.445 Y15.76
G1 X19.3748 Y15.6117
G1 X19.2905 Y15.4709
G1 X19.1927 Y15.3391
G1 X19.0825 Y15.2175
G1 X18.9609 Y15.1073
G1 X18.8291 Y15.0095
G1 X18.6883 Y14.9252
G1 X18.54 Y14.855
G1 X18.3854 Y14.7997
G1 X18.2262 Y14.7598
G1 X18.0639 Y14.7358
G1 X17.9 Y14.7277
G1 X17.7361 Y14.7358
G1 X17.5738 Y14.7598
G1 X17.4146 Y14.7997
G1 X17.26 Y14.855
G1 X17.1117 Y14.9252
G1 X17.0341 Y14.9717
G1 F200.0 X16.52 Y14.1139
G1 F700.0 X16.4147 Y14.1771
G1 X16.204 Y14.3334
G1 X16.0096 Y14.5096
G1 X15.8334 Y14.704
G1 X15.6771 Y14.9147
G1 X15.5422 Y15.1397
G1 X15.43 Y15.3769
G1 X15.3416 Y15.6239
G1 X15.2779 Y15.8784
G1 X15.2394 Y16.138
G1 X15.2265 Y16.4
G1 X15.2394 Y16.662
G1 X15.2779 Y16.9216
G1 X15.3416 Y17.1761
G1 X15.43 Y17.4231
G1 X15.5422 Y17.6603
G1 X15.6771 Y17.8853
G1 X15.8334 Y18.096
G1 X16.0096 Y18.2904
G1 X16.204 Y18.4666
G1 X16.4147 Y18.6229
G1 X16.6397 Y18.7578
G1 X16.8769 Y18.87
G1 X17.1239 Y18.9584
G1 X17.3784 Y19.0221
G1 X17.638 Y19.0606
G1 X17.9 Y19.0735
G1 X18.1621 Y19.0606
G1 X18.4216 Y19.0221
G1 X18.6761 Y18.9584
G1 X18.9231 Y18.87
G1 X19.1603 Y18.7578
G1 X19.3853 Y18.6229
G1 X19.596 Y18.4666
G1 X19.7904 Y18.2904
G1 X19.9666 Y18.096
G1 X20.1229 Y17.8853
G1 X20.2578 Y17.6603
G1 X20.37 Y17.4231
G1 X20.4584 Y17.1761
G1 X20.5221 Y16.9216
G1 X20.5606 Y16.6621
G1 X20.5735 Y16.4
G1 X20.5606 Y16.138
G1 X20.5221 Y15.8784
G1 X20.4584 Y15.6239
G1 X20.37 Y15.3769
G1 X20.2578 Y15.1397
G1 X20.1229 Y14.9147
G1 X19.9666 Y14.704
G1 X19.7904 Y14.5096
G1 X19.596 Y14.3334
G1 X19.3853 Y14.1771
G1 X19.1603 Y14.0422
G1 X18.9231 Y13.93
G1 X18.6761 Y13.8416
G1 X18.4216 Y13.7779
G1 X18.1621 Y13.7394
G1 X17.9 Y13.7265
G1 X17.6379 Y13.7394
G1 X17.3784 Y13.7779
G1 X17.1239 Y13.8416
G1 X16.8769 Y13.93
G1 X16.6397 Y14.0422
G1 X16.52 Y14.1139
G0 Z3.0
G0 X17.8053 Y16.2582
G1 F200.0 Z-3.2
G1 F700.0 X17.7919 Y16.2682 Z-3.2047
G1 X17.7794 Y16.2795 Z-3.2094
G1 X17.7682 Y16.2919 Z-3.2141
G1 X17.7583 Y16.3053 Z-3.2188
G1 X17.7497 Y16.3196 Z-3.2234
G1 X17.7425 Y16.3348 Z-3.2281
G1 X17.7369 Y16.3505 Z-3.2328
G1 X17.7328 Y16.3667 Z-3.2375
G1 X17.7303 Y16.3833 Z-3.2422
G1 X17.7295 Y16.4 Z-3.2469
G1 X17.7303 Y16.4167 Z-3.2516
G1 X17.7328 Y16.4333 Z-3.2563
G1 X17.7369 Y16.4495 Z-3.2609
G1 X17.7425 Y16.4652 Z-3.2656
G1 X17.7497 Y16.4804 Z-3.2703
G1 X17.7583 Y16.4947 Z-3.275
G1 X17.7682 Y16.5081 Z-3.2797
G1 X17.7795 Y16.5205 Z-3.2844
G1 X17.7919 Y16.5318 Z-3.2891
G1 X17.8053 Y16.5418 Z-3.2938
G1 X17.8196 Y16.5503 Z-3.2984
G1 X17.8348 Y16.5575 Z-3.3031
G1 X17.8505 Y16.5631 Z-3.3078
G1 X17.8667 Y16.5672 Z-3.3125
G1 X17.8833 Y16.5697 Z-3.3172
G1 X17.9 Y16.5705 Z-3.3219
G1 X17.9167 Y16.5697 Z-3.3266
G1 X17.9333 Y16.5672 Z-3.3313
G1 X17.9495 Y16.5631 Z-3.3359
G1 X17.9652 Y16.5575 Z-3.3406
G1 X17.9804 Y16.5503 Z-3.3453
G1 X17.9947 Y16.5418 Z-3.35
G1 X18.0082 Y16.5318 Z-3.3547
G1 X18.0205 Y16.5205 Z-3.3594
G1 X18.0318 Y16.5081 Z-3.3641
G1 X18.0417 Y16.4947 Z-3.3688
G1 X18.0504 Y16.4804 Z-3.3734
G1 X18.0575 Y16.4652 Z-3.3781
G1 X18.0631 Y16.4495 Z-3.3828
G1 X18.0672 Y16.4332 Z-3.3875
G1 X18.0697 Y16.4167 Z-3.3922
G1 X18.0705 Y16.4 Z-3.3969
G1 X18.0697 Y16.3833 Z-3.4016
G1 X18.0672 Y16.3668 Z-3.4063
G1 X18.0631 Y16.3505 Z-3.4109
G1 X18.0575 Y16.3348 Z-3.4156
G1 X18.0504 Y16.3196 Z-3.4203
G1 X18.0417 Y16.3053 Z-3.425
G1 X18.0318 Y16.2919 Z-3.4297
G1 X18.0205 Y16.2795 Z-3.4344
G1 X18.0082 Y16.2682 Z-3.4391
G1 X17.9947 Y16.2583 Z-3.4438
G1 X17.9804 Y16.2497 Z-3.4484
G1 X17.9653 Y16.2425 Z-3.4531
G1 X17.9495 Y16.2369 Z-3.4578
G1 X17.9333 Y16.2328 Z-3.4625
G1 X17.9167 Y16.2303 Z-3.4672
G1 X17.9 Y16.2295 Z-3.4719
G1 X17.8833 Y16.2303 Z-3.4766
G1 X17.8667 Y16.2328 Z-3.4813
G1 X17.8505 Y16.2369 Z-3.4859
G1 X17.8348 Y16.2425 Z-3.4906
G1 X17.8196 Y16.2497 Z-3.4953
G1 X17.8053 Y16.2582 Z-3.5
G1 F200.0 X17.5483 Y15.8294
G1 F700.0 X17.5272 Y15.842
G1 X17.4743 Y15.8813
G1 X17.4255 Y15.9255
G1 X17.3812 Y15.9743
G1 X17.342 Y16.0272
G1 X17.3082 Y16.0837
G1 X17.28 Y16.1432
G1 X17.2578 Y16.2052
G1 X17.2418 Y16.2691
G1 X17.2322 Y16.3343
G1 X17.2289 Y16.4
G1 X17.2322 Y16.4658
G1 X17.2418 Y16.5309
G1 X17.2578 Y16.5948
G1 X17.28 Y16.6568
G1 X17.3082 Y16.7163
G1 X17.342 Y16.7728
G1 X17.3812 Y16.8257
G1 X17.4255 Y16.8745
G1 X17.4743 Y16.9188
G1 X17.5272 Y16.958
G1 X17.5837 Y16.9918
G1 X17.6432 Y17.02
G1 X17.7052 Y17.0422
G1 X17.7691 Y17.0582
G1 X17.8342 Y17.0679
G1 X17.9 Y17.0711
G1 X17.9658 Y17.0679
G1 X18.0309 Y17.0582
G1 X18.0948 Y17.0422
G1 X18.1568 Y17.02
G1 X18.2163 Y16.9918
G1 X18.2728 Y16.958
G1 X18.3257 Y16.9188
G1 X18.3745 Y16.8745
G1 X18.4188 Y16.8257
G1 X18.458 Y16.7728
G1 X18.4918 Y16.7163
G1 X18.52 Y16.6568
G1 X18.5422 Y16.5948
G1 X18.5582 Y16.5309
G1 X18.5679 Y16.4658
G1 X18.5711 Y16.4
G1 X18.5679 Y16.3342
G1 X18.5582 Y16.2691
G1 X18.5422 Y16.2052
G1 X18.52 Y16.1432
G1 X18.4918 Y16.0837
G1 X18.458 Y16.0272
G1 X18.4188 Y15.9743
G1 X18.3745 Y15.9255
G1 X18.3257 Y15.8813
G1 X18.2728 Y15.842
G1 X18.2163 Y15.8082
G1 X18.1568 Y15.78
G1 X18.0948 Y15.7578
G1 X18.0309 Y15.7418
G1 X17.9658 Y15.7322
G1 X17.9 Y15.7289
G1 X17.8342 Y15.7322
G1 X17.7691 Y15.7418
G1 X17.7052 Y15.7578
G1 X17.6432 Y15.78
G1 X17.5837 Y15.8082
G1 X17.5483 Y15.8294
G1 F200.0 X17.0341 Y14.9717
G1 F700.0 X16.9709 Y15.0095
G1 X16.8391 Y15.1073
G1 X16.7175 Y15.2175
G1 X16.6073 Y15.3391
G1 X16.5095 Y15.4709
G1 X16.4252 Y15.6117
G1 X16.355 Y15.76
G1 X16.2997 Y15.9146
G1 X16.2599 Y16.0738
G1 X16.2358 Y16.2361
G1 X16.2277 Y16.4
G1 X16.2358 Y16.5639
G1 X16.2599 Y16.7263
G1 X16.2997 Y16.8855
G1 X16.355 Y17.04
G1 X16.4252 Y17.1883
G1 X16.5095 Y17.3291
G1 X16.6073 Y17.4609
G1 X16.7175 Y17.5825
G1 X16.8391 Y17.6927
G1 X16.9709 Y17.7905
G1 X17.1117 Y17.8748
G1 X17.26 Y17.945
G1 X17.4146 Y18.0003
G1 X17.5738 Y18.0402
G1 X17.7361 Y18.0642
G1 X17.9 Y18.0723
G1 X18.0639 Y18.0642
G1 X18.2262 Y18.0402
G1 X18.3854 Y18.0003
G1 X18.54 Y17.945
G1 X18.6883 Y17.8748
G1 X18.8291 Y17.7905
G1 X18.9609 Y17.6927
G1 X19.0825 Y17.5825
G1 X19.1927 Y17.4609
G1 X19.2905 Y17.3291
G1 X19.3748 Y17.1883
G1 X19.445 Y17.04
G1 X19.5003 Y16.8854
G1 X19.5402 Y16.7262
G1 X19.5642 Y16.5639
G1 X19.5723 Y16.4
G1 X19.5642 Y16.2361
G1 X19.5402 Y16.0738
G1 X19.5003 Y15.9146
G1 X19.445 Y15.76
G1 X19.3748 Y15.6117
G1 X19.2905 Y15.4709
G1 X19.1927 Y15.3391
G1 X19.0825 Y15.2175
G1 X18.9609 Y15.1073
G1 X18.8291 Y15.0095
G1 X18.6883 Y14.9252
G1 X18.54 Y14.855
G1 X18.3854 Y14.7997
G1 X18.2262 Y14.7598
G1 X18.0639 Y14.7358
G1 X17.9 Y14.7277
G1 X17.7361 Y14.7358
G1 X17.5738 Y14.7598
G1 X17.4146 Y14.7997
G1 X17.26 Y14.855
G1 X17.1117 Y14.9252
G1 X17.0341 Y14.9717
G1 F200.0 X16.52 Y14.1139
G1 F700.0 X16.4147 Y14.1771
G1 X16.204 Y14.3334
G1 X16.0096 Y14.5096
G1 X15.8334 Y14.704
G1 X15.6771 Y14.9147
G1 X15.5422 Y15.1397
G1 X15.43 Y15.3769
G1 X15.3416 Y15.6239
G1 X15.2779 Y15.8784
G1 X15.2394 Y16.138
G1 X15.2265 Y16.4
G1 X15.2394 Y16.662
G1 X15.2779 Y16.9216
G1 X15.3416 Y17.1761
G1 X15.43 Y17.4231
G1 X15.5422 Y17.6603
G1 X15.6771 Y17.8853
G1 X15.8334 Y18.096
G1 X16.0096 Y18.2904
G1 X16.204 Y18.4666
G1 X16.4147 Y18.6229
G1 X16.6397 Y18.7578
G1 X16.8769 Y18.87
G1 X17.1239 Y18.9584
G1 X17.3784 Y19.0221
G1 X17.638 Y19.0606
G1 X17.9 Y19.0735
G1 X18.1621 Y19.0606
G1 X18.4216 Y19.0221
G1 X18.6761 Y18.9584
G1 X18.9231 Y18.87
G1 X19.1603 Y18.7578
G1 X19.3853 Y18.6229
G1 X19.596 Y18.4666
G1 X19.7904 Y18.2904
G1 X19.9666 Y18.096
G1 X20.1229 Y17.8853
G1 X20.2578 Y17.6603
G1 X20.37 Y17.4231
G1 X20.4584 Y17.1761
G1 X20.5221 Y16.9216
G1 X20.5606 Y16.6621
G1 X20.5735 Y16.4
G1 X20.5606 Y16.138
G1 X20.5221 Y15.8784
G1 X20.4584 Y15.6239
G1 X20.37 Y15.3769
G1 X20.2578 Y15.1397
G1 X20.1229 Y14.9147
G1 X19.9666 Y14.704
G1 X19.7904 Y14.5096
G1 X19.596 Y14.3334
G1 X19.3853 Y14.1771
G1 X19.1603 Y14.0422
G1 X18.9231 Y13.93
G1 X18.6761 Y13.8416
G1 X18.4216 Y13.7779
G1 X18.1621 Y13.7394
G1 X17.9 Y13.7265
G1 X17.6379 Y13.7394
G1 X17.3784 Y13.7779
G1 X17.1239 Y13.8416
G1 X16.8769 Y13.93
G1 X16.6397 Y14.0422
G1 X16.52 Y14.1139
G0 Z3.0
G0 X17.8053 Y16.2582
G1 F200.0 Z-3.5
G1 F700.0 X17.7919 Y16.2682 Z-3.5047
G1 X17.7794 Y16.2795 Z-3.5094
G1 X17.7682 Y16.2919 Z-3.5141
G1 X17.7583 Y16.3053 Z-3.5188
G1 X17.7497 Y16.3196 Z-3.5234
G1 X17.7425 Y16.3348 Z-3.5281
G1 X17.7369 Y16.3505 Z-3.5328
G1 X17.7328 Y16.3667 Z-3.5375
G1 X17.7303 Y16.3833 Z-3.5422
G1 X17.7295 Y16.4 Z-3.5469
G1 X17.7303 Y16.4167 Z-3.5516
G1 X17.7328 Y16.4333 Z-3.5563
G1 X17.7369 Y16.4495 Z-3.5609
G1 X17.7425 Y16.4652 Z-3.5656
G1 X17.7497 Y16.4804 Z-3.5703
G1 X17.7583 Y16.4947 Z-3.575
G1 X17.7682 Y16.5081 Z-3.5797
G1 X17.7795 Y16.5205 Z-3.5844
G1 X17.7919 Y16.5318 Z-3.5891
G1 X17.8053 Y16.5418 Z-3.5938
G1 X17.8196 Y16.5503 Z-3.5984
G1 X17.8348 Y16.5575 Z-3.6031
G1 X17.8505 Y16.5631 Z-3.6078
G1 X17.8667 Y16.5672 Z-3.6125
G1 X17.8833 Y16.5697 Z-3.6172
G1 X17.9 Y16.5705 Z-3.6219
G1 X17.9167 Y16.5697 Z-3.6266
G1 X17.9333 Y16.5672 Z-3.6313
G1 X17.9495 Y16.5631 Z-3.6359
G1 X17.9652 Y16.5575 Z-3.6406
G1 X17.9804 Y16.5503 Z-3.6453
G1 X17.9947 Y16.5418 Z-3.65
G1 X18.0082 Y16.5318 Z-3.6547
G1 X18.0205 Y16.5205 Z-3.6594
G1 X18.0318 Y16.5081 Z-3.6641
G1 X18.0417 Y16.4947 Z-3.6688
G1 X18.0504 Y16.4804 Z-3.6734
G1 X18.0575 Y16.4652 Z-3.6781
G1 X18.0631 Y16.4495 Z-3.6828
G1 X18.0672 Y16.4332 Z-3.6875
G1 X18.0697 Y16.4167 Z-3.6922
G1 X18.0705 Y16.4 Z-3.6969
G1 X18.0697 Y16.3833 Z-3.7016
G1 X18.0672 Y16.3668 Z-3.7063
G1 X18.0631 Y16.3505 Z-3.7109
G1 X18.0575 Y16.3348 Z-3.7156
G1 X18.0504 Y16.3196 Z-3.7203
G1 X18.0417 Y16.3053 Z-3.725
G1 X18.0318 Y16.2919 Z-3.7297
G1 X18.0205 Y16.2795 Z-3.7344
G1 X18.0082 Y16.2682 Z-3.7391
G1 X17.9947 Y16.2583 Z-3.7438
G1 X17.9804 Y16.2497 Z-3.7484
G1 X17.9653 Y16.2425 Z-3.7531
G1 X17.9495 Y16.2369 Z-3.7578
G1 X17.9333 Y16.2328 Z-3.7625
G1 X17.9167 Y16.2303 Z-3.7672
G1 X17.9 Y16.2295 Z-3.7719
G1 X17.8833 Y16.2303 Z-3.7766
G1 X17.8667 Y16.2328 Z-3.7813
G1 X17.8505 Y16.2369 Z-3.7859
G1 X17.8348 Y16.2425 Z-3.7906
G1 X17.8196 Y16.2497 Z-3.7953
G1 X17.8053 Y16.2582 Z-3.8
G1 F200.0 X17.5483 Y15.8294
G1 F700.0 X17.5272 Y15.842
G1 X17.4743 Y15.8813
G1 X17.4255 Y15.9255
G1 X17.3812 Y15.9743
G1 X17.342 Y16.0272
G1 X17.3082 Y16.0837
G1 X17.28 Y16.1432
G1 X17.2578 Y16.2052
G1 X17.2418 Y16.2691
G1 X17.2322 Y16.3343
G1 X17.2289 Y16.4
G1 X17.2322 Y16.4658
G1 X17.2418 Y16.5309
G1 X17.2578 Y16.5948
G1 X17.28 Y16.6568
G1 X17.3082 Y16.7163
G1 X17.342 Y16.7728
G1 X17.3812 Y16.8257
G1 X17.4255 Y16.8745
G1 X17.4743 Y16.9188
G1 X17.5272 Y16.958
G1 X17.5837 Y16.9918
G1 X17.6432 Y17.02
G1 X17.7052 Y17.0422
G1 X17.7691 Y17.0582
G1 X17.8342 Y17.0679
G1 X17.9 Y17.0711
G1 X17.9658 Y17.0679
G1 X18.0309 Y17.0582
G1 X18.0948 Y17.0422
G1 X18.1568 Y17.02
G1 X18.2163 Y16.9918
G1 X18.2728 Y16.958
G1 X18.3257 Y16.9188
G1 X18.3745 Y16.8745
G1 X18.4188 Y16.8257
G1 X18.458 Y16.7728
G1 X18.4918 Y16.7163
G1 X18.52 Y16.6568
G1 X18.5422 Y16.5948
G1 X18.5582 Y16.5309
G1 X18.5679 Y16.4658
G1 X18.5711 Y16.4
G1 X18.5679 Y16.3342
G1 X18.5582 Y16.2691
G1 X18.5422 Y16.2052
G1 X18.52 Y16.1432
G1 X18.4918 Y16.0837
G1 X18.458 Y16.0272
G1 X18.4188 Y15.9743
G1 X18.3745 Y15.9255
G1 X18.3257 Y15.8813
G1 X18.2728 Y15.842
G1 X18.2163 Y15.8082
G1 X18.1568 Y15.78
G1 X18.0948 Y15.7578
G1 X18.0309 Y15.7418
G1 X17.9658 Y15.7322
G1 X17.9 Y15.7289
G1 X17.8342 Y15.7322
G1 X17.7691 Y15.7418
G1 X17.7052 Y15.7578
G1 X17.6432 Y15.78
G1 X17.5837 Y15.8082
G1 X17.5483 Y15.8294
G1 F200.0 X17.0341 Y14.9717
G1 F700.0 X16.9709 Y15.0095
G1 X16.8391 Y15.1073
G1 X16.7175 Y15.2175
G1 X16.6073 Y15.3391
G1 X16.5095 Y15.4709
G1 X16.4252 Y15.6117
G1 X16.355 Y15.76
G1 X16.2997 Y15.9146
G1 X16.2599 Y16.0738
G1 X16.2358 Y16.2361
G1 X16.2277 Y16.4
G1 X16.2358 Y16.5639
G1 X16.2599 Y16.7263
G1 X16.2997 Y16.8855
G1 X16.355 Y17.04
G1 X16.4252 Y17.1883
G1 X16.5095 Y17.3291
G1 X16.6073 Y17.4609
G1 X16.7175 Y17.5825
G1 X16.8391 Y17.6927
G1 X16.9709 Y17.7905
G1 X17.1117 Y17.8748
G1 X17.26 Y17.945
G1 X17.4146 Y18.0003
G1 X17.5738 Y18.0402
G1 X17.7361 Y18.0642
G1 X17.9 Y18.0723
G1 X18.0639 Y18.0642
G1 X18.2262 Y18.0402
G1 X18.3854 Y18.0003
G1 X18.54 Y17.945
G1 X18.6883 Y17.8748
G1 X18.8291 Y17.7905
G1 X18.9609 Y17.6927
G1 X19.0825 Y17.5825
G1 X19.1927 Y17.4609
G1 X19.2905 Y17.3291
G1 X19.3748 Y17.1883
G1 X19.445 Y17.04
G1 X19.5003 Y16.8854
G1 X19.5402 Y16.7262
G1 X19.5642 Y16.5639
G1 X19.5723 Y16.4
G1 X19.5642 Y16.2361
G1 X19.5402 Y16.0738
G1 X19.5003 Y15.9146
G1 X19.445 Y15.76
G1 X19.3748 Y15.6117
G1 X19.2905 Y15.4709
G1 X19.1927 Y15.3391
G1 X19.0825 Y15.2175
G1 X18.9609 Y15.1073
G1 X18.8291 Y15.0095
G1 X18.6883 Y14.9252
G1 X18.54 Y14.855
G1 X18.3854 Y14.7997
G1 X18.2262 Y14.7598
G1 X18.0639 Y14.7358
G1 X17.9 Y14.7277
G1 X17.7361 Y14.7358
G1 X17.5738 Y14.7598
G1 X17.4146 Y14.7997
G1 X17.26 Y14.855
G1 X17.1117 Y14.9252
G1 X17.0341 Y14.9717
G1 F200.0 X16.52 Y14.1139
G1 F700.0 X16.4147 Y14.1771
G1 X16.204 Y14.3334
G1 X16.0096 Y14.5096
G1 X15.8334 Y14.704
G1 X15.6771 Y14.9147
G1 X15.5422 Y15.1397
G1 X15.43 Y15.3769
G1 X15.3416 Y15.6239
G1 X15.2779 Y15.8784
G1 X15.2394 Y16.138
G1 X15.2265 Y16.4
G1 X15.2394 Y16.662
G1 X15.2779 Y16.9216
G1 X15.3416 Y17.1761
G1 X15.43 Y17.4231
G1 X15.5422 Y17.6603
G1 X15.6771 Y17.8853
