( Made using CamBam - http://www.cambam.co.uk )
( ssc_plexi_COCK_JIGG 2/27/2021 4:41:55 PM )
( T4 : 2.5 )
( CUTVIEWER )
( FROM/0,0,5 )
( Select dummy tool to avoid warnings )
( TOOL/MILL,1,0,20.0,0 )
( STOCK/BLOCK,240.0,125.0,4.0,0.0,0.0,4.0 )
G21 G90 G91.1 G64 G40
G0 Z3.0
( T4 : 2.5 )
( Tool Taper coming soon )
( TOOL/MILL,2.5,0.0,0.0,0 )
T4 M6
( Pocket1 )
G17
M3 S1000
G0 X4.25 Y91.25
G0 Z1.0
G1 F200.0 Z0.0
G1 F700.0 X10.75 Z-0.1393
G1 Y90.75 Z-0.15
G1 X4.25 Z-0.2893
G1 Y91.25 Z-0.3
G1 F200.0 Y91.75
G1 F700.0 X11.25
G1 Y90.25
G1 X3.75
G1 Y91.75
G1 X4.25
G1 F200.0 Y91.25
G1 F700.0 X10.75 Z-0.3929
G1 Y90.75 Z-0.4
G1 X4.25 Z-0.4929
G1 Y91.25 Z-0.5
G1 X10.75
G1 Y90.75
G1 X4.25
G1 Y91.25
G1 F200.0 Y91.75
G1 F700.0 X11.25
G1 Y90.25
G1 X3.75
G1 Y91.75
G1 X4.25
( Pocket2 )
S1000
G0 Z3.0
G0 X10.75 Y48.25
G0 Z1.0
G1 F200.0 Z0.0
G1 F700.0 X4.25 Z-0.1393
G1 Y48.75 Z-0.15
G1 X10.75 Z-0.2893
G1 Y48.25 Z-0.3
G1 F200.0 Y47.75
G1 F700.0 X3.75
G1 Y49.25
G1 X11.25
G1 Y47.75
G1 X10.75
G1 F200.0 Y48.25
G1 F700.0 X4.25 Z-0.3929
G1 Y48.75 Z-0.4
G1 X10.75 Z-0.4929
G1 Y48.25 Z-0.5
G1 X4.25
G1 Y48.75
G1 X10.75
G1 Y48.25
G1 F200.0 Y47.75
G1 F700.0 X3.75
G1 Y49.25
G1 X11.25
G1 Y47.75
G1 X10.75
( Pocket3 )
S1000
G0 Z3.0
G0 X4.25 Y5.75
G0 Z1.0
G1 F200.0 Z0.0
G1 F700.0 Y6.25 Z-0.0107
G1 X10.75 Z-0.15
G1 Y5.75 Z-0.1607
G1 X4.25 Z-0.3
G1 F200.0 X3.75
G1 F700.0 Y6.75
G1 X11.25
G1 Y5.25
G1 X3.75
G1 Y5.75
G1 F200.0 X4.25
G1 F700.0 Y6.25 Z-0.3071
G1 X10.75 Z-0.4
G1 Y5.75 Z-0.4071
G1 X4.25 Z-0.5
G1 Y6.25
G1 X10.75
G1 Y5.75
G1 X4.25
G1 F200.0 X3.75
G1 F700.0 Y6.75
G1 X11.25
G1 Y5.25
G1 X3.75
G1 Y5.75
( Pocket4 )
S1000
G0 Z3.0
G0 X36.75 Y24.75
G0 Z1.0
G1 F200.0 Z0.0
G1 F700.0 X30.25 Z-0.1393
G1 Y25.25 Z-0.15
G1 X36.75 Z-0.2893
G1 Y24.75 Z-0.3
G1 F200.0 Y24.25
G1 F700.0 X29.75
G1 Y25.75
G1 X37.25
G1 Y24.25
G1 X36.75
G1 F200.0 Y24.75
G1 F700.0 X30.25 Z-0.3929
G1 Y25.25 Z-0.4
G1 X36.75 Z-0.4929
G1 Y24.75 Z-0.5
G1 X30.25
G1 Y25.25
G1 X36.75
G1 Y24.75
G1 F200.0 Y24.25
G1 F700.0 X29.75
G1 Y25.75
G1 X37.25
G1 Y24.25
G1 X36.75
( Pocket5 )
S1000
G0 Z3.0
G0 X30.25 Y67.25
G0 Z1.0
G1 F200.0 Z0.0
G1 F700.0 Y67.75 Z-0.0107
G1 X36.75 Z-0.15
G1 Y67.25 Z-0.1607
G1 X30.25 Z-0.3
G1 F200.0 X29.75
G1 F700.0 Y68.25
G1 X37.25
G1 Y66.75
G1 X29.75
G1 Y67.25
G1 F200.0 X30.25
G1 F700.0 Y67.75 Z-0.3071
G1 X36.75 Z-0.4
G1 Y67.25 Z-0.4071
G1 X30.25 Z-0.5
G1 Y67.75
G1 X36.75
G1 Y67.25
G1 X30.25
G1 F200.0 X29.75
G1 F700.0 Y68.25
G1 X37.25
G1 Y66.75
G1 X29.75
G1 Y67.25
( Pocket6 )
S1000
G0 Z3.0
G0 X36.75 Y110.25
G0 Z1.0
G1 F200.0 Z0.0
G1 F700.0 Y109.75 Z-0.0107
G1 X30.25 Z-0.15
G1 Y110.25 Z-0.1607
G1 X36.75 Z-0.3
G1 F200.0 X37.25
G1 F700.0 Y109.25
G1 X29.75
G1 Y110.75
G1 X37.25
G1 Y110.25
G1 F200.0 X36.75
G1 F700.0 Y109.75 Z-0.3071
G1 X30.25 Z-0.4
G1 Y110.25 Z-0.4071
G1 X36.75 Z-0.5
G1 Y109.75
G1 X30.25
G1 Y110.25
G1 X36.75
G1 F200.0 X37.25
G1 F700.0 Y109.25
G1 X29.75
G1 Y110.75
G1 X37.25
G1 Y110.25
( Pocket7 )
S1000
G0 Z3.0
G0 X122.75
G0 Z1.0
G1 F200.0 Z0.0
G1 F700.0 X129.25 Z-0.1393
G1 Y109.75 Z-0.15
G1 X122.75 Z-0.2893
G1 Y110.25 Z-0.3
G1 F200.0 Y110.75
G1 F700.0 X129.75
G1 Y109.25
G1 X122.25
G1 Y110.75
G1 X122.75
G1 F200.0 Y110.25
G1 F700.0 X129.25 Z-0.3929
G1 Y109.75 Z-0.4
G1 X122.75 Z-0.4929
G1 Y110.25 Z-0.5
G1 X129.25
G1 Y109.75
G1 X122.75
G1 Y110.25
G1 F200.0 Y110.75
G1 F700.0 X129.75
G1 Y109.25
G1 X122.25
G1 Y110.75
G1 X122.75
( Pocket8 )
S1000
G0 Z3.0
G0 X221.75 Y110.25
G0 Z1.0
G1 F200.0 Z0.0
G1 F700.0 Y109.75 Z-0.0107
G1 X215.25 Z-0.15
G1 Y110.25 Z-0.1607
G1 X221.75 Z-0.3
G1 F200.0 X222.25
G1 F700.0 Y109.25
G1 X214.75
G1 Y110.75
G1 X222.25
G1 Y110.25
G1 F200.0 X221.75
G1 F700.0 Y109.75 Z-0.3071
G1 X215.25 Z-0.4
G1 Y110.25 Z-0.4071
G1 X221.75 Z-0.5
G1 Y109.75
G1 X215.25
G1 Y110.25
G1 X221.75
G1 F200.0 X222.25
G1 F700.0 Y109.25
G1 X214.75
G1 Y110.75
G1 X222.25
G1 Y110.25
( Pocket9 )
S1000
G0 Z3.0
G0 X189.25 Y91.25
G0 Z1.0
G1 F200.0 Z0.0
G1 F700.0 X195.75 Z-0.1393
G1 Y90.75 Z-0.15
G1 X189.25 Z-0.2893
G1 Y91.25 Z-0.3
G1 F200.0 Y91.75
G1 F700.0 X196.25
G1 Y90.25
G1 X188.75
G1 Y91.75
G1 X189.25
G1 F200.0 Y91.25
G1 F700.0 X195.75 Z-0.3929
G1 Y90.75 Z-0.4
G1 X189.25 Z-0.4929
G1 Y91.25 Z-0.5
G1 X195.75
G1 Y90.75
G1 X189.25
G1 Y91.25
G1 F200.0 Y91.75
G1 F700.0 X196.25
G1 Y90.25
G1 X188.75
G1 Y91.75
G1 X189.25
( Pocket10 )
S1000
G0 Z3.0
G0 X215.25 Y67.75
G0 Z1.0
G1 F200.0 Z0.0
G1 F700.0 X221.75 Z-0.1393
G1 Y67.25 Z-0.15
G1 X215.25 Z-0.2893
G1 Y67.75 Z-0.3
G1 F200.0 X214.75
G1 F700.0 Y68.25
G1 X222.25
G1 Y66.75
G1 X214.75
G1 Y67.75
G1 F200.0 X215.25
G1 F700.0 X221.75 Z-0.3929
G1 Y67.25 Z-0.4
G1 X215.25 Z-0.4929
G1 Y67.75 Z-0.5
G1 X221.75
G1 Y67.25
G1 X215.25
G1 Y67.75
G1 F200.0 X214.75
G1 F700.0 Y68.25
G1 X222.25
G1 Y66.75
G1 X214.75
G1 Y67.75
( Pocket11 )
S1000
G0 Z3.0
G0 X195.75 Y48.75
G0 Z1.0
G1 F200.0 Z0.0
G1 F700.0 Y48.25 Z-0.0107
G1 X189.25 Z-0.15
G1 Y48.75 Z-0.1607
G1 X195.75 Z-0.3
G1 F200.0 X196.25
G1 F700.0 Y47.75
G1 X188.75
G1 Y49.25
G1 X196.25
G1 Y48.75
G1 F200.0 X195.75
G1 F700.0 Y48.25 Z-0.3071
G1 X189.25 Z-0.4
G1 Y48.75 Z-0.4071
G1 X195.75 Z-0.5
G1 Y48.25
G1 X189.25
G1 Y48.75
G1 X195.75
G1 F200.0 X196.25
G1 F700.0 Y47.75
G1 X188.75
G1 Y49.25
G1 X196.25
G1 Y48.75
( Pocket12 )
S1000
G0 Z3.0
G0 X221.75 Y24.75
G0 Z1.0
G1 F200.0 Z0.0
G1 F700.0 X215.25 Z-0.1393
G1 Y25.25 Z-0.15
G1 X221.75 Z-0.2893
G1 Y24.75 Z-0.3
G1 F200.0 X222.25
G1 F700.0 Y24.25
G1 X214.75
G1 Y25.75
G1 X222.25
G1 Y24.75
G1 F200.0 X221.75
G1 F700.0 X215.25 Z-0.3929
G1 Y25.25 Z-0.4
G1 X221.75 Z-0.4929
G1 Y24.75 Z-0.5
G1 X215.25
G1 Y25.25
G1 X221.75
G1 Y24.75
G1 F200.0 X222.25
G1 F700.0 Y24.25
G1 X214.75
G1 Y25.75
G1 X222.25
G1 Y24.75
( Pocket13 )
S1000
G0 Z3.0
G0 X189.25 Y5.75
G0 Z1.0
G1 F200.0 Z0.0
G1 F700.0 Y6.25 Z-0.0107
G1 X195.75 Z-0.15
G1 Y5.75 Z-0.1607
G1 X189.25 Z-0.3
G1 F200.0 X188.75
G1 F700.0 Y6.75
G1 X196.25
G1 Y5.25
G1 X188.75
G1 Y5.75
G1 F200.0 X189.25
G1 F700.0 Y6.25 Z-0.3071
G1 X195.75 Z-0.4
G1 Y5.75 Z-0.4071
G1 X189.25 Z-0.5
G1 Y6.25
G1 X195.75
G1 Y5.75
G1 X189.25
G1 F200.0 X188.75
G1 F700.0 Y6.75
G1 X196.25
G1 Y5.25
G1 X188.75
G1 Y5.75
( Pocket14 )
S1000
G0 Z3.0
G0 X103.25
G0 Z1.0
G1 F200.0 Z0.0
G1 F700.0 X96.75 Z-0.1393
G1 Y6.25 Z-0.15
G1 X103.25 Z-0.2893
G1 Y5.75 Z-0.3
G1 F200.0 Y5.25
G1 F700.0 X96.25
G1 Y6.75
G1 X103.75
G1 Y5.25
G1 X103.25
G1 F200.0 Y5.75
G1 F700.0 X96.75 Z-0.3929
G1 Y6.25 Z-0.4
G1 X103.25 Z-0.4929
G1 Y5.75 Z-0.5
G1 X96.75
G1 Y6.25
G1 X103.25
G1 Y5.75
G1 F200.0 Y5.25
G1 F700.0 X96.25
G1 Y6.75
G1 X103.75
G1 Y5.25
G1 X103.25
( Profile1 )
S1000
G0 Z3.0
G0 X3.75 Y91.75
G1 F200.0 Z0.0
G1 F700.0 X11.25 Z-0.1355
G1 X11.6161 Y92.1161 Z-0.1448
G1 X11.25 Y91.75 Z-0.1542
G1 Y90.25 Z-0.1813
G1 X11.6161 Y89.8839 Z-0.1906
G1 X11.25 Y90.25 Z-0.2
G1 X3.75 Z-0.3355
G1 X3.3839 Y89.8839 Z-0.3448
G1 X3.75 Y90.25 Z-0.3542
G1 Y91.75 Z-0.3813
G1 X3.3839 Y92.1161 Z-0.3906
G1 X3.75 Y91.75 Z-0.4
G1 X11.25 Z-0.4339
G1 X11.6161 Y92.1161 Z-0.4362
G1 X11.25 Y91.75 Z-0.4385
G1 Y90.25 Z-0.4453
G1 X11.6161 Y89.8839 Z-0.4477
G1 X11.25 Y90.25 Z-0.45
G1 X3.75 Z-0.4839
G1 X3.3839 Y89.8839 Z-0.4862
G1 X3.75 Y90.25 Z-0.4885
G1 Y91.75 Z-0.4953
G1 X3.3839 Y92.1161 Z-0.4977
G1 X3.75 Y91.75 Z-0.5
G1 X11.25
G1 X11.6161 Y92.1161
G1 X11.25 Y91.75
G1 Y90.25
G1 X11.6161 Y89.8839
G1 X11.25 Y90.25
G1 X3.75
G1 X3.3839 Y89.8839
G1 X3.75 Y90.25
G1 Y91.75
G1 X3.3839 Y92.1161
G1 X3.75 Y91.75
( Profile2 )
S1000
G0 Z3.0
G0 X11.25 Y47.75
G1 F200.0 Z0.0
G1 F700.0 X3.75 Z-0.1355
G1 X3.3839 Y47.3839 Z-0.1448
G1 X3.75 Y47.75 Z-0.1542
G1 Y49.25 Z-0.1813
G1 X3.3839 Y49.6161 Z-0.1906
G1 X3.75 Y49.25 Z-0.2
G1 X11.25 Z-0.3355
G1 X11.6161 Y49.6161 Z-0.3448
G1 X11.25 Y49.25 Z-0.3542
G1 Y47.75 Z-0.3813
G1 X11.6161 Y47.3839 Z-0.3906
G1 X11.25 Y47.75 Z-0.4
G1 X3.75 Z-0.4339
G1 X3.3839 Y47.3839 Z-0.4362
G1 X3.75 Y47.75 Z-0.4385
G1 Y49.25 Z-0.4453
G1 X3.3839 Y49.6161 Z-0.4477
G1 X3.75 Y49.25 Z-0.45
G1 X11.25 Z-0.4839
G1 X11.6161 Y49.6161 Z-0.4862
G1 X11.25 Y49.25 Z-0.4885
G1 Y47.75 Z-0.4953
G1 X11.6161 Y47.3839 Z-0.4977
G1 X11.25 Y47.75 Z-0.5
G1 X3.75
G1 X3.3839 Y47.3839
G1 X3.75 Y47.75
G1 Y49.25
G1 X3.3839 Y49.6161
G1 X3.75 Y49.25
G1 X11.25
G1 X11.6161 Y49.6161
G1 X11.25 Y49.25
G1 Y47.75
G1 X11.6161 Y47.3839
G1 X11.25 Y47.75
( Profile3 )
S1000
G0 Z3.0
G0 X3.75 Y5.25
G1 F200.0 Z0.0
G1 F700.0 Y6.75 Z-0.0271
G1 X3.3839 Y7.1161 Z-0.0365
G1 X3.75 Y6.75 Z-0.0458
G1 X11.25 Z-0.1813
G1 X11.6161 Y7.1161 Z-0.1906
G1 X11.25 Y6.75 Z-0.2
G1 Y5.25 Z-0.2271
G1 X11.6161 Y4.8839 Z-0.2365
G1 X11.25 Y5.25 Z-0.2458
G1 X3.75 Z-0.3813
G1 X3.3839 Y4.8839 Z-0.3906
G1 X3.75 Y5.25 Z-0.4
G1 Y6.75 Z-0.4068
G1 X3.3839 Y7.1161 Z-0.4091
G1 X3.75 Y6.75 Z-0.4115
G1 X11.25 Z-0.4453
G1 X11.6161 Y7.1161 Z-0.4477
G1 X11.25 Y6.75 Z-0.45
G1 Y5.25 Z-0.4568
G1 X11.6161 Y4.8839 Z-0.4591
G1 X11.25 Y5.25 Z-0.4615
G1 X3.75 Z-0.4953
G1 X3.3839 Y4.8839 Z-0.4977
G1 X3.75 Y5.25 Z-0.5
G1 Y6.75
G1 X3.3839 Y7.1161
G1 X3.75 Y6.75
G1 X11.25
G1 X11.6161 Y7.1161
G1 X11.25 Y6.75
G1 Y5.25
G1 X11.6161 Y4.8839
G1 X11.25 Y5.25
G1 X3.75
G1 X3.3839 Y4.8839
G1 X3.75 Y5.25
( Profile4 )
S1000
G0 Z3.0
G0 X37.25 Y24.25
G1 F200.0 Z0.0
G1 F700.0 X29.75 Z-0.1355
G1 X29.3839 Y23.8839 Z-0.1448
G1 X29.75 Y24.25 Z-0.1542
G1 Y25.75 Z-0.1813
G1 X29.3839 Y26.1161 Z-0.1906
G1 X29.75 Y25.75 Z-0.2
G1 X37.25 Z-0.3355
G1 X37.6161 Y26.1161 Z-0.3448
G1 X37.25 Y25.75 Z-0.3542
G1 Y24.25 Z-0.3813
G1 X37.6161 Y23.8839 Z-0.3906
G1 X37.25 Y24.25 Z-0.4
G1 X29.75 Z-0.4339
G1 X29.3839 Y23.8839 Z-0.4362
G1 X29.75 Y24.25 Z-0.4385
G1 Y25.75 Z-0.4453
G1 X29.3839 Y26.1161 Z-0.4477
G1 X29.75 Y25.75 Z-0.45
G1 X37.25 Z-0.4839
G1 X37.6161 Y26.1161 Z-0.4862
G1 X37.25 Y25.75 Z-0.4885
G1 Y24.25 Z-0.4953
G1 X37.6161 Y23.8839 Z-0.4977
G1 X37.25 Y24.25 Z-0.5
G1 X29.75
G1 X29.3839 Y23.8839
G1 X29.75 Y24.25
G1 Y25.75
G1 X29.3839 Y26.1161
G1 X29.75 Y25.75
G1 X37.25
G1 X37.6161 Y26.1161
G1 X37.25 Y25.75
G1 Y24.25
G1 X37.6161 Y23.8839
G1 X37.25 Y24.25
( Profile5 )
S1000
G0 Z3.0
G0 X29.75 Y66.75
G1 F200.0 Z0.0
G1 F700.0 Y68.25 Z-0.0271
G1 X29.3839 Y68.6161 Z-0.0365
G1 X29.75 Y68.25 Z-0.0458
G1 X37.25 Z-0.1813
G1 X37.6161 Y68.6161 Z-0.1906
G1 X37.25 Y68.25 Z-0.2
G1 Y66.75 Z-0.2271
G1 X37.6161 Y66.3839 Z-0.2365
G1 X37.25 Y66.75 Z-0.2458
G1 X29.75 Z-0.3813
G1 X29.3839 Y66.3839 Z-0.3906
G1 X29.75 Y66.75 Z-0.4
G1 Y68.25 Z-0.4068
G1 X29.3839 Y68.6161 Z-0.4091
G1 X29.75 Y68.25 Z-0.4115
G1 X37.25 Z-0.4453
G1 X37.6161 Y68.6161 Z-0.4477
G1 X37.25 Y68.25 Z-0.45
G1 Y66.75 Z-0.4568
G1 X37.6161 Y66.3839 Z-0.4591
G1 X37.25 Y66.75 Z-0.4615
G1 X29.75 Z-0.4953
G1 X29.3839 Y66.3839 Z-0.4977
G1 X29.75 Y66.75 Z-0.5
G1 Y68.25
G1 X29.3839 Y68.6161
G1 X29.75 Y68.25
G1 X37.25
G1 X37.6161 Y68.6161
G1 X37.25 Y68.25
G1 Y66.75
G1 X37.6161 Y66.3839
G1 X37.25 Y66.75
G1 X29.75
G1 X29.3839 Y66.3839
G1 X29.75 Y66.75
( Profile6 )
S1000
G0 Z3.0
G0 X37.25 Y110.75
G1 F200.0 Z0.0
G1 F700.0 Y109.25 Z-0.0271
G1 X37.6161 Y108.8839 Z-0.0365
G1 X37.25 Y109.25 Z-0.0458
G1 X29.75 Z-0.1813
G1 X29.3839 Y108.8839 Z-0.1906
G1 X29.75 Y109.25 Z-0.2
G1 Y110.75 Z-0.2271
G1 X29.3839 Y111.1161 Z-0.2365
G1 X29.75 Y110.75 Z-0.2458
G1 X37.25 Z-0.3813
G1 X37.6161 Y111.1161 Z-0.3906
G1 X37.25 Y110.75 Z-0.4
G1 Y109.25 Z-0.4068
G1 X37.6161 Y108.8839 Z-0.4091
G1 X37.25 Y109.25 Z-0.4115
G1 X29.75 Z-0.4453
G1 X29.3839 Y108.8839 Z-0.4477
G1 X29.75 Y109.25 Z-0.45
G1 Y110.75 Z-0.4568
G1 X29.3839 Y111.1161 Z-0.4591
G1 X29.75 Y110.75 Z-0.4615
G1 X37.25 Z-0.4953
G1 X37.6161 Y111.1161 Z-0.4977
G1 X37.25 Y110.75 Z-0.5
G1 Y109.25
G1 X37.6161 Y108.8839
G1 X37.25 Y109.25
G1 X29.75
G1 X29.3839 Y108.8839
G1 X29.75 Y109.25
G1 Y110.75
G1 X29.3839 Y111.1161
G1 X29.75 Y110.75
G1 X37.25
G1 X37.6161 Y111.1161
G1 X37.25 Y110.75
( Profile7 )
S1000
G0 Z3.0
G0 X122.25
G1 F200.0 Z0.0
G1 F700.0 X129.75 Z-0.1355
G1 X130.1161 Y111.1161 Z-0.1448
G1 X129.75 Y110.75 Z-0.1542
G1 Y109.25 Z-0.1813
G1 X130.1161 Y108.8839 Z-0.1906
G1 X129.75 Y109.25 Z-0.2
G1 X122.25 Z-0.3355
G1 X121.8839 Y108.8839 Z-0.3448
G1 X122.25 Y109.25 Z-0.3542
G1 Y110.75 Z-0.3813
G1 X121.8839 Y111.1161 Z-0.3906
G1 X122.25 Y110.75 Z-0.4
G1 X129.75 Z-0.4339
G1 X130.1161 Y111.1161 Z-0.4362
G1 X129.75 Y110.75 Z-0.4385
G1 Y109.25 Z-0.4453
G1 X130.1161 Y108.8839 Z-0.4477
G1 X129.75 Y109.25 Z-0.45
G1 X122.25 Z-0.4839
G1 X121.8839 Y108.8839 Z-0.4862
G1 X122.25 Y109.25 Z-0.4885
G1 Y110.75 Z-0.4953
G1 X121.8839 Y111.1161 Z-0.4977
G1 X122.25 Y110.75 Z-0.5
G1 X129.75
G1 X130.1161 Y111.1161
G1 X129.75 Y110.75
G1 Y109.25
G1 X130.1161 Y108.8839
G1 X129.75 Y109.25
G1 X122.25
G1 X121.8839 Y108.8839
G1 X122.25 Y109.25
G1 Y110.75
G1 X121.8839 Y111.1161
G1 X122.25 Y110.75
( Profile8 )
S1000
G0 Z3.0
G0 X222.25
G1 F200.0 Z0.0
G1 F700.0 Y109.25 Z-0.0271
G1 X222.6161 Y108.8839 Z-0.0365
G1 X222.25 Y109.25 Z-0.0458
G1 X214.75 Z-0.1813
G1 X214.3839 Y108.8839 Z-0.1906
G1 X214.75 Y109.25 Z-0.2
G1 Y110.75 Z-0.2271
G1 X214.3839 Y111.1161 Z-0.2365
G1 X214.75 Y110.75 Z-0.2458
G1 X222.25 Z-0.3813
G1 X222.6161 Y111.1161 Z-0.3906
G1 X222.25 Y110.75 Z-0.4
G1 Y109.25 Z-0.4068
G1 X222.6161 Y108.8839 Z-0.4091
G1 X222.25 Y109.25 Z-0.4115
G1 X214.75 Z-0.4453
G1 X214.3839 Y108.8839 Z-0.4477
G1 X214.75 Y109.25 Z-0.45
G1 Y110.75 Z-0.4568
G1 X214.3839 Y111.1161 Z-0.4591
G1 X214.75 Y110.75 Z-0.4615
G1 X222.25 Z-0.4953
G1 X222.6161 Y111.1161 Z-0.4977
G1 X222.25 Y110.75 Z-0.5
G1 Y109.25
G1 X222.6161 Y108.8839
G1 X222.25 Y109.25
G1 X214.75
G1 X214.3839 Y108.8839
G1 X214.75 Y109.25
G1 Y110.75
G1 X214.3839 Y111.1161
G1 X214.75 Y110.75
G1 X222.25
G1 X222.6161 Y111.1161
G1 X222.25 Y110.75
( Profile14 )
S1000
G0 Z3.0
G0 X188.75 Y91.75
G1 F200.0 Z0.0
G1 F700.0 X196.25 Z-0.1016
G1 X196.6161 Y92.1161 Z-0.1086
G1 X196.25 Y91.75 Z-0.1156
G1 Y90.25 Z-0.136
G1 X196.6161 Y89.8839 Z-0.143
G1 X196.25 Y90.25 Z-0.15
G1 X188.75 Z-0.2516
G1 X188.3839 Y89.8839 Z-0.2586
G1 X188.75 Y90.25 Z-0.2656
G1 Y91.75 Z-0.286
G1 X188.3839 Y92.1161 Z-0.293
G1 X188.75 Y91.75 Z-0.3
G1 X196.25 Z-0.3677
G1 X196.6161 Y92.1161 Z-0.3724
G1 X196.25 Y91.75 Z-0.3771
G1 Y90.25 Z-0.3906
G1 X196.6161 Y89.8839 Z-0.3953
G1 X196.25 Y90.25 Z-0.4
G1 X188.75 Z-0.4677
G1 X188.3839 Y89.8839 Z-0.4724
G1 X188.75 Y90.25 Z-0.4771
G1 Y91.75 Z-0.4906
G1 X188.3839 Y92.1161 Z-0.4953
G1 X188.75 Y91.75 Z-0.5
G1 X196.25
G1 X196.6161 Y92.1161
G1 X196.25 Y91.75
G1 Y90.25
G1 X196.6161 Y89.8839
G1 X196.25 Y90.25
G1 X188.75
G1 X188.3839 Y89.8839
G1 X188.75 Y90.25
G1 Y91.75
G1 X188.3839 Y92.1161
G1 X188.75 Y91.75
( Profile9 )
S1000
G0 Z3.0
G0 X214.75 Y68.25
G1 F200.0 Z0.0
G1 F700.0 X222.25 Z-0.1355
G1 X222.6161 Y68.6161 Z-0.1448
G1 X222.25 Y68.25 Z-0.1542
G1 Y66.75 Z-0.1813
G1 X222.6161 Y66.3839 Z-0.1906
G1 X222.25 Y66.75 Z-0.2
G1 X214.75 Z-0.3355
G1 X214.3839 Y66.3839 Z-0.3448
G1 X214.75 Y66.75 Z-0.3542
G1 Y68.25 Z-0.3813
G1 X214.3839 Y68.6161 Z-0.3906
G1 X214.75 Y68.25 Z-0.4
G1 X222.25 Z-0.4339
G1 X222.6161 Y68.6161 Z-0.4362
G1 X222.25 Y68.25 Z-0.4385
G1 Y66.75 Z-0.4453
G1 X222.6161 Y66.3839 Z-0.4477
G1 X222.25 Y66.75 Z-0.45
G1 X214.75 Z-0.4839
G1 X214.3839 Y66.3839 Z-0.4862
G1 X214.75 Y66.75 Z-0.4885
G1 Y68.25 Z-0.4953
G1 X214.3839 Y68.6161 Z-0.4977
G1 X214.75 Y68.25 Z-0.5
G1 X222.25
G1 X222.6161 Y68.6161
G1 X222.25 Y68.25
G1 Y66.75
G1 X222.6161 Y66.3839
G1 X222.25 Y66.75
G1 X214.75
G1 X214.3839 Y66.3839
G1 X214.75 Y66.75
G1 Y68.25
G1 X214.3839 Y68.6161
G1 X214.75 Y68.25
( Profile10 )
S1000
G0 Z3.0
G0 X196.25 Y49.25
G1 F200.0 Z0.0
G1 F700.0 Y47.75 Z-0.0271
G1 X196.6161 Y47.3839 Z-0.0365
G1 X196.25 Y47.75 Z-0.0458
G1 X188.75 Z-0.1813
G1 X188.3839 Y47.3839 Z-0.1906
G1 X188.75 Y47.75 Z-0.2
G1 Y49.25 Z-0.2271
G1 X188.3839 Y49.6161 Z-0.2365
G1 X188.75 Y49.25 Z-0.2458
G1 X196.25 Z-0.3813
G1 X196.6161 Y49.6161 Z-0.3906
G1 X196.25 Y49.25 Z-0.4
G1 Y47.75 Z-0.4068
G1 X196.6161 Y47.3839 Z-0.4091
G1 X196.25 Y47.75 Z-0.4115
G1 X188.75 Z-0.4453
G1 X188.3839 Y47.3839 Z-0.4477
G1 X188.75 Y47.75 Z-0.45
G1 Y49.25 Z-0.4568
G1 X188.3839 Y49.6161 Z-0.4591
G1 X188.75 Y49.25 Z-0.4615
G1 X196.25 Z-0.4953
G1 X196.6161 Y49.6161 Z-0.4977
G1 X196.25 Y49.25 Z-0.5
G1 Y47.75
G1 X196.6161 Y47.3839
G1 X196.25 Y47.75
G1 X188.75
G1 X188.3839 Y47.3839
G1 X188.75 Y47.75
G1 Y49.25
G1 X188.3839 Y49.6161
G1 X188.75 Y49.25
G1 X196.25
G1 X196.6161 Y49.6161
G1 X196.25 Y49.25
( Profile11 )
S1000
G0 Z3.0
G0 X222.25 Y24.25
G1 F200.0 Z0.0
G1 F700.0 X214.75 Z-0.1355
G1 X214.3839 Y23.8839 Z-0.1448
G1 X214.75 Y24.25 Z-0.1542
G1 Y25.75 Z-0.1813
G1 X214.3839 Y26.1161 Z-0.1906
G1 X214.75 Y25.75 Z-0.2
G1 X222.25 Z-0.3355
G1 X222.6161 Y26.1161 Z-0.3448
G1 X222.25 Y25.75 Z-0.3542
G1 Y24.25 Z-0.3813
G1 X222.6161 Y23.8839 Z-0.3906
G1 X222.25 Y24.25 Z-0.4
G1 X214.75 Z-0.4339
G1 X214.3839 Y23.8839 Z-0.4362
G1 X214.75 Y24.25 Z-0.4385
G1 Y25.75 Z-0.4453
G1 X214.3839 Y26.1161 Z-0.4477
G1 X214.75 Y25.75 Z-0.45
G1 X222.25 Z-0.4839
G1 X222.6161 Y26.1161 Z-0.4862
G1 X222.25 Y25.75 Z-0.4885
G1 Y24.25 Z-0.4953
G1 X222.6161 Y23.8839 Z-0.4977
G1 X222.25 Y24.25 Z-0.5
G1 X214.75
G1 X214.3839 Y23.8839
G1 X214.75 Y24.25
G1 Y25.75
G1 X214.3839 Y26.1161
G1 X214.75 Y25.75
G1 X222.25
G1 X222.6161 Y26.1161
G1 X222.25 Y25.75
G1 Y24.25
G1 X222.6161 Y23.8839
G1 X222.25 Y24.25
( Profile12 )
S1000
G0 Z3.0
G0 X188.75 Y5.25
G1 F200.0 Z0.0
G1 F700.0 Y6.75 Z-0.0271
G1 X188.3839 Y7.1161 Z-0.0365
G1 X188.75 Y6.75 Z-0.0458
G1 X196.25 Z-0.1813
G1 X196.6161 Y7.1161 Z-0.1906
G1 X196.25 Y6.75 Z-0.2
G1 Y5.25 Z-0.2271
G1 X196.6161 Y4.8839 Z-0.2365
G1 X196.25 Y5.25 Z-0.2458
G1 X188.75 Z-0.3813
G1 X188.3839 Y4.8839 Z-0.3906
G1 X188.75 Y5.25 Z-0.4
G1 Y6.75 Z-0.4068
G1 X188.3839 Y7.1161 Z-0.4091
G1 X188.75 Y6.75 Z-0.4115
G1 X196.25 Z-0.4453
G1 X196.6161 Y7.1161 Z-0.4477
G1 X196.25 Y6.75 Z-0.45
G1 Y5.25 Z-0.4568
G1 X196.6161 Y4.8839 Z-0.4591
G1 X196.25 Y5.25 Z-0.4615
G1 X188.75 Z-0.4953
G1 X188.3839 Y4.8839 Z-0.4977
G1 X188.75 Y5.25 Z-0.5
G1 Y6.75
G1 X188.3839 Y7.1161
G1 X188.75 Y6.75
G1 X196.25
G1 X196.6161 Y7.1161
G1 X196.25 Y6.75
G1 Y5.25
G1 X196.6161 Y4.8839
G1 X196.25 Y5.25
G1 X188.75
G1 X188.3839 Y4.8839
G1 X188.75 Y5.25
( Profile13 )
S1000
G0 Z3.0
G0 X103.75
G1 F200.0 Z0.0
G1 F700.0 X96.25 Z-0.1355
G1 X95.8839 Y4.8839 Z-0.1448
G1 X96.25 Y5.25 Z-0.1542
G1 Y6.75 Z-0.1813
G1 X95.8839 Y7.1161 Z-0.1906
G1 X96.25 Y6.75 Z-0.2
G1 X103.75 Z-0.3355
G1 X104.1161 Y7.1161 Z-0.3448
G1 X103.75 Y6.75 Z-0.3542
G1 Y5.25 Z-0.3813
G1 X104.1161 Y4.8839 Z-0.3906
G1 X103.75 Y5.25 Z-0.4
G1 X96.25 Z-0.4339
G1 X95.8839 Y4.8839 Z-0.4362
G1 X96.25 Y5.25 Z-0.4385
G1 Y6.75 Z-0.4453
G1 X95.8839 Y7.1161 Z-0.4477
G1 X96.25 Y6.75 Z-0.45
G1 X103.75 Z-0.4839
G1 X104.1161 Y7.1161 Z-0.4862
G1 X103.75 Y6.75 Z-0.4885
G1 Y5.25 Z-0.4953
G1 X104.1161 Y4.8839 Z-0.4977
G1 X103.75 Y5.25 Z-0.5
G1 X96.25
G1 X95.8839 Y4.8839
G1 X96.25 Y5.25
G1 Y6.75
G1 X95.8839 Y7.1161
G1 X96.25 Y6.75
G1 X103.75
G1 X104.1161 Y7.1161
G1 X103.75 Y6.75
G1 Y5.25
G1 X104.1161 Y4.8839
G1 X103.75 Y5.25
( barscutout )
S1000
G0 Z3.0
G0 X103.0 Y96.45
G0 Z1.0
G1 F200.0 Z0.0
G1 F700.0 X53.0 Z-0.1162
G3 X51.55 Y95.0 Z-0.1215 I0.0 J-1.45
G1 Y85.0 Z-0.1447
G3 X53.0 Y83.55 Z-0.15 I1.45 J0.0
G1 X103.0 Z-0.2662
G3 X104.45 Y85.0 Z-0.2715 I0.0 J1.45
G1 Y95.0 Z-0.2947
G3 X103.0 Y96.45 Z-0.3 I-1.45 J0.0
G1 X53.0 Z-0.4162
G3 X51.55 Y95.0 Z-0.4215 I0.0 J-1.45
G1 Y85.0 Z-0.4447
G3 X53.0 Y83.55 Z-0.45 I1.45 J0.0
G1 X103.0 Z-0.5662
G3 X104.45 Y85.0 Z-0.5715 I0.0 J1.45
G1 Y95.0 Z-0.5947
G3 X103.0 Y96.45 Z-0.6 I-1.45 J0.0
G1 X53.0 Z-0.7162
G3 X51.55 Y95.0 Z-0.7215 I0.0 J-1.45
G1 Y85.0 Z-0.7447
G3 X53.0 Y83.55 Z-0.75 I1.45 J0.0
G1 X103.0 Z-0.8662
G3 X104.45 Y85.0 Z-0.8715 I0.0 J1.45
G1 Y95.0 Z-0.8947
G3 X103.0 Y96.45 Z-0.9 I-1.45 J0.0
G1 X53.0 Z-1.0162
G3 X51.55 Y95.0 Z-1.0215 I0.0 J-1.45
G1 Y85.0 Z-1.0447
G3 X53.0 Y83.55 Z-1.05 I1.45 J0.0
G1 X103.0 Z-1.1662
G3 X104.45 Y85.0 Z-1.1715 I0.0 J1.45
G1 Y95.0 Z-1.1947
G3 X103.0 Y96.45 Z-1.2 I-1.45 J0.0
G1 X53.0 Z-1.3162
G3 X51.55 Y95.0 Z-1.3215 I0.0 J-1.45
G1 Y85.0 Z-1.3447
G3 X53.0 Y83.55 Z-1.35 I1.45 J0.0
G1 X103.0 Z-1.4662
G3 X104.45 Y85.0 Z-1.4715 I0.0 J1.45
G1 Y95.0 Z-1.4947
G3 X103.0 Y96.45 Z-1.5 I-1.45 J0.0
G1 X53.0 Z-1.6162
G3 X51.55 Y95.0 Z-1.6215 I0.0 J-1.45
G1 Y85.0 Z-1.6447
G3 X53.0 Y83.55 Z-1.65 I1.45 J0.0
G1 X103.0 Z-1.7662
G3 X104.45 Y85.0 Z-1.7715 I0.0 J1.45
G1 Y95.0 Z-1.7947
G3 X103.0 Y96.45 Z-1.8 I-1.45 J0.0
G1 X53.0 Z-1.9162
G3 X51.55 Y95.0 Z-1.9215 I0.0 J-1.45
G1 Y85.0 Z-1.9447
G3 X53.0 Y83.55 Z-1.95 I1.45 J0.0
G1 X103.0 Z-2.0662
G3 X104.45 Y85.0 Z-2.0715 I0.0 J1.45
G1 Y95.0 Z-2.0947
G3 X103.0 Y96.45 Z-2.1 I-1.45 J0.0
G1 X53.0 Z-2.2162
G3 X51.55 Y95.0 Z-2.2215 I0.0 J-1.45
G1 Y85.0 Z-2.2447
G3 X53.0 Y83.55 Z-2.25 I1.45 J0.0
G1 X103.0 Z-2.3662
G3 X104.45 Y85.0 Z-2.3715 I0.0 J1.45
G1 Y95.0 Z-2.3947
G3 X103.0 Y96.45 Z-2.4 I-1.45 J0.0
G1 X99.0 Z-2.4093
G1 X98.25 Z-2.411
G1 X95.75 Z-2.4168
G1 X95.0 Z-2.4186
G1 X61.0 Z-2.4976
G1 X60.25 Z-2.4993
G1 X57.75 Z-2.5051
G1 X57.0 Z-2.5069
G1 X53.0 Z-2.5162
G3 X51.55 Y95.0 Z-2.5215 I0.0 J-1.45
G1 Y85.0 Z-2.5447
G3 X53.0 Y83.55 Z-2.55 I1.45 J0.0
G1 X57.0 Z-2.5593
G1 X57.75 Z-2.561
G1 X60.25 Z-2.5668
G1 X61.0 Z-2.5686
G1 X95.0 Z-2.6476
G1 X95.75 Z-2.6
G1 X98.25
G1 X99.0 Z-2.6569
G1 X103.0 Z-2.6662
G3 X104.45 Y85.0 Z-2.6715 I0.0 J1.45
G1 Y95.0 Z-2.6947
G3 X103.0 Y96.45 Z-2.7 I-1.45 J0.0
G1 X99.0 Z-2.7093
G1 X98.25 Z-2.6
G1 X95.75
G1 X95.0 Z-2.7186
G1 X61.0 Z-2.7976
G1 X60.25 Z-2.6
G1 X57.75
G1 X57.0 Z-2.8069
G1 X53.0 Z-2.8162
G3 X51.55 Y95.0 Z-2.8215 I0.0 J-1.45
G1 Y85.0 Z-2.8447
G3 X53.0 Y83.55 Z-2.85 I1.45 J0.0
G1 X57.0 Z-2.8593
G1 X57.75 Z-2.6
G1 X60.25
G1 X61.0 Z-2.8686
G1 X95.0 Z-2.9476
G1 X95.75 Z-2.6
G1 X98.25
G1 X99.0 Z-2.9569
G1 X103.0 Z-2.9662
G3 X104.45 Y85.0 Z-2.9715 I0.0 J1.45
G1 Y95.0 Z-2.9947
G3 X103.0 Y96.45 Z-3.0 I-1.45 J0.0
G1 X99.0 Z-3.0093
G1 X98.25 Z-2.6
G1 X95.75
G1 X95.0 Z-3.0186
G1 X61.0 Z-3.0976
G1 X60.25 Z-2.6
G1 X57.75
G1 X57.0 Z-3.1069
G1 X53.0 Z-3.1162
G3 X51.55 Y95.0 Z-3.1215 I0.0 J-1.45
G1 Y85.0 Z-3.1447
G3 X53.0 Y83.55 Z-3.15 I1.45 J0.0
G1 X57.0 Z-3.1593
G1 X57.75 Z-2.6
G1 X60.25
G1 X61.0 Z-3.1686
G1 X95.0 Z-3.2476
G1 X95.75 Z-2.6
G1 X98.25
G1 X99.0 Z-3.2569
G1 X103.0 Z-3.2662
G3 X104.45 Y85.0 Z-3.2715 I0.0 J1.45
G1 Y95.0 Z-3.2947
G3 X103.0 Y96.45 Z-3.3 I-1.45 J0.0
G1 X99.0 Z-3.3093
G1 X98.25 Z-2.6
G1 X95.75
G1 X95.0 Z-3.3186
G1 X61.0 Z-3.3976
G1 X60.25 Z-2.6
G1 X57.75
G1 X57.0 Z-3.4069
G1 X53.0 Z-3.4162
G3 X51.55 Y95.0 Z-3.4215 I0.0 J-1.45
G1 Y85.0 Z-3.4447
G3 X53.0 Y83.55 Z-3.45 I1.45 J0.0
G1 X57.0 Z-3.4593
G1 X57.75 Z-2.6
G1 X60.25
G1 X61.0 Z-3.4686
G1 X95.0 Z-3.5476
G1 X95.75 Z-2.6
G1 X98.25
G1 X99.0 Z-3.5569
G1 X103.0 Z-3.5662
G3 X104.45 Y85.0 Z-3.5715 I0.0 J1.45
G1 Y95.0 Z-3.5947
G3 X103.0 Y96.45 Z-3.6 I-1.45 J0.0
G1 X99.0 Z-3.6093
G1 X98.25 Z-2.6
G1 X95.75
G1 X95.0 Z-3.6186
G1 X61.0 Z-3.6976
G1 X60.25 Z-2.6
G1 X57.75
G1 X57.0 Z-3.7069
G1 X53.0 Z-3.7162
G3 X51.55 Y95.0 Z-3.7215 I0.0 J-1.45
G1 Y85.0 Z-3.7447
G3 X53.0 Y83.55 Z-3.75 I1.45 J0.0
G1 X57.0 Z-3.7593
G1 X57.75 Z-2.6
G1 X60.25
G1 X61.0 Z-3.7686
G1 X95.0 Z-3.8476
G1 X95.75 Z-2.6
G1 X98.25
G1 X99.0 Z-3.8569
G1 X103.0 Z-3.8662
G3 X104.45 Y85.0 Z-3.8715 I0.0 J1.45
G1 Y95.0 Z-3.8947
G3 X103.0 Y96.45 Z-3.9 I-1.45 J0.0
G1 X99.0 Z-3.9062
G1 X98.25 Z-2.6
G1 X95.75
G1 X95.0 Z-3.9124
G1 X61.0 Z-3.9651
G1 X60.25 Z-2.6
G1 X57.75
G1 X57.0 Z-3.9713
G1 X53.0 Z-3.9775
G3 X51.55 Y95.0 Z-3.981 I0.0 J-1.45
G1 Y85.0 Z-3.9965
G3 X53.0 Y83.55 Z-4.0 I1.45 J0.0
G1 X57.0 Z-4.0062
G1 X57.75 Z-2.6
G1 X60.25
G1 X61.0 Z-4.0124
G1 X95.0 Z-4.0651
G1 X95.75 Z-2.6
G1 X98.25
G1 X99.0 Z-4.0713
G1 X103.0 Z-4.0775
G3 X104.45 Y85.0 Z-4.081 I0.0 J1.45
G1 Y95.0 Z-4.0965
G3 X103.0 Y96.45 Z-4.1 I-1.45 J0.0
G1 X99.0
G1 X98.25 Z-2.6
G1 X95.75
G1 X95.0 Z-4.1
G1 X61.0
G1 X60.25 Z-2.6
G1 X57.75
G1 X57.0 Z-4.1
G1 X53.0
G3 X51.55 Y95.0 I0.0 J-1.45
G1 Y85.0
G3 X53.0 Y83.55 I1.45 J0.0
G1 X57.0
G1 X57.75 Z-2.6
G1 X60.25
G1 X61.0 Z-4.1
G1 X95.0
G1 X95.75 Z-2.6
G1 X98.25
G1 X99.0 Z-4.1
G1 X103.0
G3 X104.45 Y85.0 I0.0 J1.45
G1 Y95.0
G3 X103.0 Y96.45 I-1.45 J0.0
G0 Z3.0
G0 X118.5552 Y95.1232
G0 Z1.0
G1 F200.0 Z0.0
G3 F700.0 X118.55 Y95.0 Z-0.0003 I1.4448 J-0.1232
G1 Y85.0 Z-0.0235
G3 X120.0 Y83.55 Z-0.0288 I1.45 J0.0
G1 X170.0 Z-0.145
G3 X171.45 Y85.0 Z-0.1503 I0.0 J1.45
G1 Y95.0 Z-0.1735
G3 X170.0 Y96.45 Z-0.1788 I-1.45 J0.0
G1 X120.0 Z-0.295
G3 X118.5552 Y95.1232 Z-0.3 I0.0 J-1.45
G3 X118.55 Y95.0 Z-0.3003 I1.4448 J-0.1232
G1 Y85.0 Z-0.3235
G3 X120.0 Y83.55 Z-0.3288 I1.45 J0.0
G1 X170.0 Z-0.445
G3 X171.45 Y85.0 Z-0.4503 I0.0 J1.45
G1 Y95.0 Z-0.4735
G3 X170.0 Y96.45 Z-0.4788 I-1.45 J0.0
G1 X120.0 Z-0.595
G3 X118.5552 Y95.1232 Z-0.6 I0.0 J-1.45
G3 X118.55 Y95.0 Z-0.6003 I1.4448 J-0.1232
G1 Y85.0 Z-0.6235
G3 X120.0 Y83.55 Z-0.6288 I1.45 J0.0
G1 X170.0 Z-0.745
G3 X171.45 Y85.0 Z-0.7503 I0.0 J1.45
G1 Y95.0 Z-0.7735
G3 X170.0 Y96.45 Z-0.7788 I-1.45 J0.0
G1 X120.0 Z-0.895
G3 X118.5552 Y95.1232 Z-0.9 I0.0 J-1.45
G3 X118.55 Y95.0 Z-0.9003 I1.4448 J-0.1232
G1 Y85.0 Z-0.9235
G3 X120.0 Y83.55 Z-0.9288 I1.45 J0.0
G1 X170.0 Z-1.045
G3 X171.45 Y85.0 Z-1.0503 I0.0 J1.45
G1 Y95.0 Z-1.0735
G3 X170.0 Y96.45 Z-1.0788 I-1.45 J0.0
G1 X120.0 Z-1.195
G3 X118.5552 Y95.1232 Z-1.2 I0.0 J-1.45
G3 X118.55 Y95.0 Z-1.2003 I1.4448 J-0.1232
G1 Y85.0 Z-1.2235
G3 X120.0 Y83.55 Z-1.2288 I1.45 J0.0
G1 X170.0 Z-1.345
G3 X171.45 Y85.0 Z-1.3503 I0.0 J1.45
G1 Y95.0 Z-1.3735
G3 X170.0 Y96.45 Z-1.3788 I-1.45 J0.0
G1 X120.0 Z-1.495
G3 X118.5552 Y95.1232 Z-1.5 I0.0 J-1.45
G3 X118.55 Y95.0 Z-1.5003 I1.4448 J-0.1232
G1 Y85.0 Z-1.5235
G3 X120.0 Y83.55 Z-1.5288 I1.45 J0.0
G1 X170.0 Z-1.645
G3 X171.45 Y85.0 Z-1.6503 I0.0 J1.45
G1 Y95.0 Z-1.6735
G3 X170.0 Y96.45 Z-1.6788 I-1.45 J0.0
G1 X120.0 Z-1.795
G3 X118.5552 Y95.1232 Z-1.8 I0.0 J-1.45
G3 X118.55 Y95.0 Z-1.8003 I1.4448 J-0.1232
G1 Y85.0 Z-1.8235
G3 X120.0 Y83.55 Z-1.8288 I1.45 J0.0
G1 X170.0 Z-1.945
G3 X171.45 Y85.0 Z-1.9503 I0.0 J1.45
G1 Y95.0 Z-1.9735
G3 X170.0 Y96.45 Z-1.9788 I-1.45 J0.0
G1 X120.0 Z-2.095
G3 X118.5552 Y95.1232 Z-2.1 I0.0 J-1.45
G3 X118.55 Y95.0 Z-2.1003 I1.4448 J-0.1232
G1 Y85.0 Z-2.1235
G3 X120.0 Y83.55 Z-2.1288 I1.45 J0.0
G1 X170.0 Z-2.245
G3 X171.45 Y85.0 Z-2.2503 I0.0 J1.45
G1 Y95.0 Z-2.2735
G3 X170.0 Y96.45 Z-2.2788 I-1.45 J0.0
G1 X120.0 Z-2.395
G3 X118.5552 Y95.1232 Z-2.4 I0.0 J-1.45
G3 X118.55 Y95.0 Z-2.4003 I1.4448 J-0.1232
G1 Y85.0 Z-2.4235
G3 X120.0 Y83.55 Z-2.4288 I1.45 J0.0
G1 X123.0 Z-2.4358
G1 X123.75 Z-2.4375
G1 X126.25 Z-2.4433
G1 X127.0 Z-2.4451
G1 X163.0 Z-2.5287
G1 X163.75 Z-2.5305
G1 X166.25 Z-2.5363
G1 X167.0 Z-2.538
G1 X170.0 Z-2.545
G3 X171.45 Y85.0 Z-2.5503 I0.0 J1.45
G1 Y95.0 Z-2.5735
G3 X170.0 Y96.45 Z-2.5788 I-1.45 J0.0
G1 X167.0 Z-2.5858
G1 X166.25 Z-2.5875
G1 X163.75 Z-2.5933
G1 X163.0 Z-2.5951
G1 X127.0 Z-2.6787
G1 X126.25 Z-2.6
G1 X123.75
G1 X123.0 Z-2.688
G1 X120.0 Z-2.695
G3 X118.5552 Y95.1232 Z-2.7 I0.0 J-1.45
G3 X118.55 Y95.0 Z-2.7003 I1.4448 J-0.1232
G1 Y85.0 Z-2.7235
G3 X120.0 Y83.55 Z-2.7288 I1.45 J0.0
G1 X123.0 Z-2.7358
G1 X123.75 Z-2.6
G1 X126.25
G1 X127.0 Z-2.7451
G1 X163.0 Z-2.8287
G1 X163.75 Z-2.6
G1 X166.25
G1 X167.0 Z-2.838
G1 X170.0 Z-2.845
G3 X171.45 Y85.0 Z-2.8503 I0.0 J1.45
G1 Y95.0 Z-2.8735
G3 X170.0 Y96.45 Z-2.8788 I-1.45 J0.0
G1 X167.0 Z-2.8858
G1 X166.25 Z-2.6
G1 X163.75
G1 X163.0 Z-2.8951
G1 X127.0 Z-2.9787
G1 X126.25 Z-2.6
G1 X123.75
G1 X123.0 Z-2.988
G1 X120.0 Z-2.995
G3 X118.5552 Y95.1232 Z-3.0 I0.0 J-1.45
G3 X118.55 Y95.0 Z-3.0003 I1.4448 J-0.1232
G1 Y85.0 Z-3.0235
G3 X120.0 Y83.55 Z-3.0288 I1.45 J0.0
G1 X123.0 Z-3.0358
G1 X123.75 Z-2.6
G1 X126.25
G1 X127.0 Z-3.0451
G1 X163.0 Z-3.1287
G1 X163.75 Z-2.6
G1 X166.25
G1 X167.0 Z-3.138
G1 X170.0 Z-3.145
G3 X171.45 Y85.0 Z-3.1503 I0.0 J1.45
G1 Y95.0 Z-3.1735
G3 X170.0 Y96.45 Z-3.1788 I-1.45 J0.0
G1 X167.0 Z-3.1858
G1 X166.25 Z-2.6
G1 X163.75
G1 X163.0 Z-3.1951
G1 X127.0 Z-3.2787
G1 X126.25 Z-2.6
G1 X123.75
G1 X123.0 Z-3.288
G1 X120.0 Z-3.295
G3 X118.5552 Y95.1232 Z-3.3 I0.0 J-1.45
G3 X118.55 Y95.0 Z-3.3003 I1.4448 J-0.1232
G1 Y85.0 Z-3.3235
G3 X120.0 Y83.55 Z-3.3288 I1.45 J0.0
G1 X123.0 Z-3.3358
G1 X123.75 Z-2.6
G1 X126.25
G1 X127.0 Z-3.3451
G1 X163.0 Z-3.4287
G1 X163.75 Z-2.6
G1 X166.25
G1 X167.0 Z-3.438
G1 X170.0 Z-3.445
G3 X171.45 Y85.0 Z-3.4503 I0.0 J1.45
G1 Y95.0 Z-3.4735
G3 X170.0 Y96.45 Z-3.4788 I-1.45 J0.0
G1 X167.0 Z-3.4858
G1 X166.25 Z-2.6
G1 X163.75
G1 X163.0 Z-3.4951
G1 X127.0 Z-3.5787
G1 X126.25 Z-2.6
G1 X123.75
G1 X123.0 Z-3.588
G1 X120.0 Z-3.595
G3 X118.5552 Y95.1232 Z-3.6 I0.0 J-1.45
G3 X118.55 Y95.0 Z-3.6003 I1.4448 J-0.1232
G1 Y85.0 Z-3.6235
G3 X120.0 Y83.55 Z-3.6288 I1.45 J0.0
G1 X123.0 Z-3.6358
G1 X123.75 Z-2.6
G1 X126.25
G1 X127.0 Z-3.6451
G1 X163.0 Z-3.7287
G1 X163.75 Z-2.6
G1 X166.25
G1 X167.0 Z-3.738
G1 X170.0 Z-3.745
G3 X171.45 Y85.0 Z-3.7503 I0.0 J1.45
G1 Y95.0 Z-3.7735
G3 X170.0 Y96.45 Z-3.7788 I-1.45 J0.0
G1 X167.0 Z-3.7858
G1 X166.25 Z-2.6
G1 X163.75
G1 X163.0 Z-3.7951
G1 X127.0 Z-3.8787
G1 X126.25 Z-2.6
G1 X123.75
G1 X123.0 Z-3.888
G1 X120.0 Z-3.895
G3 X118.5552 Y95.1232 Z-3.9 I0.0 J-1.45
G3 X118.55 Y95.0 Z-3.9002 I1.4448 J-0.1232
G1 Y85.0 Z-3.9157
G3 X120.0 Y83.55 Z-3.9192 I1.45 J0.0
G1 X123.0 Z-3.9239
G1 X123.75 Z-2.6
G1 X126.25
G1 X127.0 Z-3.9301
G1 X163.0 Z-3.9858
G1 X163.75 Z-2.6
G1 X166.25
G1 X167.0 Z-3.992
G1 X170.0 Z-3.9967
G3 X171.45 Y85.0 Z-4.0002 I0.0 J1.45
G1 Y95.0 Z-4.0157
G3 X170.0 Y96.45 Z-4.0192 I-1.45 J0.0
G1 X167.0 Z-4.0239
G1 X166.25 Z-2.6
G1 X163.75
G1 X163.0 Z-4.0301
G1 X127.0 Z-4.0858
G1 X126.25 Z-2.6
G1 X123.75
G1 X123.0 Z-4.092
G1 X120.0 Z-4.0967
G3 X118.5552 Y95.1232 Z-4.1 I0.0 J-1.45
G3 X118.55 Y95.0 I1.4448 J-0.1232
G1 Y85.0
G3 X120.0 Y83.55 I1.45 J0.0
G1 X123.0
G1 X123.75 Z-2.6
G1 X126.25
G1 X127.0 Z-4.1
G1 X163.0
G1 X163.75 Z-2.6
G1 X166.25
G1 X167.0 Z-4.1
G1 X170.0
G3 X171.45 Y85.0 I0.0 J1.45
G1 Y95.0
G3 X170.0 Y96.45 I-1.45 J0.0
G1 X167.0
G1 X166.25 Z-2.6
G1 X163.75
G1 X163.0 Z-4.1
G1 X127.0
G1 X126.25 Z-2.6
G1 X123.75
G1 X123.0 Z-4.1
G1 X120.0
G3 X118.5552 Y95.1232 I0.0 J-1.45
G0 Z3.0
G0 X119.8962 Y76.4463
G0 Z1.0
G1 F200.0 Z0.0
G3 F700.0 X118.55 Y75.0 Z-0.0051 I0.1038 J-1.4463
G1 Y65.0 Z-0.0283
G3 X120.0 Y63.55 Z-0.0336 I1.45 J0.0
G1 X170.0 Z-0.1498
G3 X171.45 Y65.0 Z-0.1551 I0.0 J1.45
G1 Y75.0 Z-0.1783
G3 X170.0 Y76.45 Z-0.1836 I-1.45 J0.0
G1 X120.0 Z-0.2998
G3 X119.8962 Y76.4463 Z-0.3 I0.0 J-1.45
G3 X118.55 Y75.0 Z-0.3051 I0.1038 J-1.4463
G1 Y65.0 Z-0.3283
G3 X120.0 Y63.55 Z-0.3336 I1.45 J0.0
G1 X170.0 Z-0.4498
G3 X171.45 Y65.0 Z-0.4551 I0.0 J1.45
G1 Y75.0 Z-0.4783
G3 X170.0 Y76.45 Z-0.4836 I-1.45 J0.0
G1 X120.0 Z-0.5998
G3 X119.8962 Y76.4463 Z-0.6 I0.0 J-1.45
G3 X118.55 Y75.0 Z-0.6051 I0.1038 J-1.4463
G1 Y65.0 Z-0.6283
G3 X120.0 Y63.55 Z-0.6336 I1.45 J0.0
G1 X170.0 Z-0.7498
G3 X171.45 Y65.0 Z-0.7551 I0.0 J1.45
G1 Y75.0 Z-0.7783
G3 X170.0 Y76.45 Z-0.7836 I-1.45 J0.0
G1 X120.0 Z-0.8998
G3 X119.8962 Y76.4463 Z-0.9 I0.0 J-1.45
G3 X118.55 Y75.0 Z-0.9051 I0.1038 J-1.4463
G1 Y65.0 Z-0.9283
G3 X120.0 Y63.55 Z-0.9336 I1.45 J0.0
G1 X170.0 Z-1.0498
G3 X171.45 Y65.0 Z-1.0551 I0.0 J1.45
G1 Y75.0 Z-1.0783
G3 X170.0 Y76.45 Z-1.0836 I-1.45 J0.0
G1 X120.0 Z-1.1998
G3 X119.8962 Y76.4463 Z-1.2 I0.0 J-1.45
G3 X118.55 Y75.0 Z-1.2051 I0.1038 J-1.4463
G1 Y65.0 Z-1.2283
G3 X120.0 Y63.55 Z-1.2336 I1.45 J0.0
G1 X170.0 Z-1.3498
G3 X171.45 Y65.0 Z-1.3551 I0.0 J1.45
G1 Y75.0 Z-1.3783
G3 X170.0 Y76.45 Z-1.3836 I-1.45 J0.0
G1 X120.0 Z-1.4998
G3 X119.8962 Y76.4463 Z-1.5 I0.0 J-1.45
G3 X118.55 Y75.0 Z-1.5051 I0.1038 J-1.4463
G1 Y65.0 Z-1.5283
G3 X120.0 Y63.55 Z-1.5336 I1.45 J0.0
G1 X170.0 Z-1.6498
G3 X171.45 Y65.0 Z-1.6551 I0.0 J1.45
G1 Y75.0 Z-1.6783
G3 X170.0 Y76.45 Z-1.6836 I-1.45 J0.0
G1 X120.0 Z-1.7998
G3 X119.8962 Y76.4463 Z-1.8 I0.0 J-1.45
G3 X118.55 Y75.0 Z-1.8051 I0.1038 J-1.4463
G1 Y65.0 Z-1.8283
G3 X120.0 Y63.55 Z-1.8336 I1.45 J0.0
G1 X170.0 Z-1.9498
G3 X171.45 Y65.0 Z-1.9551 I0.0 J1.45
G1 Y75.0 Z-1.9783
G3 X170.0 Y76.45 Z-1.9836 I-1.45 J0.0
G1 X120.0 Z-2.0998
G3 X119.8962 Y76.4463 Z-2.1 I0.0 J-1.45
G3 X118.55 Y75.0 Z-2.1051 I0.1038 J-1.4463
G1 Y65.0 Z-2.1283
G3 X120.0 Y63.55 Z-2.1336 I1.45 J0.0
G1 X170.0 Z-2.2498
G3 X171.45 Y65.0 Z-2.2551 I0.0 J1.45
G1 Y75.0 Z-2.2783
G3 X170.0 Y76.45 Z-2.2836 I-1.45 J0.0
G1 X120.0 Z-2.3998
G3 X119.8962 Y76.4463 Z-2.4 I0.0 J-1.45
G3 X118.55 Y75.0 Z-2.4051 I0.1038 J-1.4463
G1 Y65.0 Z-2.4283
G3 X120.0 Y63.55 Z-2.4336 I1.45 J0.0
G1 X123.0 Z-2.4405
G1 X123.75 Z-2.4423
G1 X126.25 Z-2.4481
G1 X127.0 Z-2.4498
G1 X163.0 Z-2.5335
G1 X163.75 Z-2.5352
G1 X166.25 Z-2.541
G1 X167.0 Z-2.5428
G1 X170.0 Z-2.5498
G3 X171.45 Y65.0 Z-2.5551 I0.0 J1.45
G1 Y75.0 Z-2.5783
G3 X170.0 Y76.45 Z-2.5836 I-1.45 J0.0
G1 X167.0 Z-2.5905
G1 X166.25 Z-2.5923
G1 X163.75 Z-2.5981
G1 X163.0 Z-2.5998
G1 X127.0 Z-2.6835
G1 X126.25 Z-2.6
G1 X123.75
G1 X123.0 Z-2.6928
G1 X120.0 Z-2.6998
G3 X119.8962 Y76.4463 Z-2.7 I0.0 J-1.45
G3 X118.55 Y75.0 Z-2.7051 I0.1038 J-1.4463
G1 Y65.0 Z-2.7283
G3 X120.0 Y63.55 Z-2.7336 I1.45 J0.0
G1 X123.0 Z-2.7405
G1 X123.75 Z-2.6
G1 X126.25
G1 X127.0 Z-2.7498
G1 X163.0 Z-2.8335
G1 X163.75 Z-2.6
G1 X166.25
G1 X167.0 Z-2.8428
G1 X170.0 Z-2.8498
G3 X171.45 Y65.0 Z-2.8551 I0.0 J1.45
G1 Y75.0 Z-2.8783
G3 X170.0 Y76.45 Z-2.8836 I-1.45 J0.0
G1 X167.0 Z-2.8905
G1 X166.25 Z-2.6
G1 X163.75
G1 X163.0 Z-2.8998
G1 X127.0 Z-2.9835
G1 X126.25 Z-2.6
G1 X123.75
G1 X123.0 Z-2.9928
G1 X120.0 Z-2.9998
G3 X119.8962 Y76.4463 Z-3.0 I0.0 J-1.45
G3 X118.55 Y75.0 Z-3.0051 I0.1038 J-1.4463
G1 Y65.0 Z-3.0283
G3 X120.0 Y63.55 Z-3.0336 I1.45 J0.0
G1 X123.0 Z-3.0405
G1 X123.75 Z-2.6
G1 X126.25
G1 X127.0 Z-3.0498
G1 X163.0 Z-3.1335
G1 X163.75 Z-2.6
G1 X166.25
G1 X167.0 Z-3.1428
G1 X170.0 Z-3.1498
G3 X171.45 Y65.0 Z-3.1551 I0.0 J1.45
G1 Y75.0 Z-3.1783
G3 X170.0 Y76.45 Z-3.1836 I-1.45 J0.0
G1 X167.0 Z-3.1905
G1 X166.25 Z-2.6
G1 X163.75
G1 X163.0 Z-3.1998
G1 X127.0 Z-3.2835
G1 X126.25 Z-2.6
G1 X123.75
G1 X123.0 Z-3.2928
G1 X120.0 Z-3.2998
G3 X119.8962 Y76.4463 Z-3.3 I0.0 J-1.45
G3 X118.55 Y75.0 Z-3.3051 I0.1038 J-1.4463
G1 Y65.0 Z-3.3283
G3 X120.0 Y63.55 Z-3.3336 I1.45 J0.0
G1 X123.0 Z-3.3405
G1 X123.75 Z-2.6
G1 X126.25
G1 X127.0 Z-3.3498
G1 X163.0 Z-3.4335
G1 X163.75 Z-2.6
G1 X166.25
G1 X167.0 Z-3.4428
G1 X170.0 Z-3.4498
G3 X171.45 Y65.0 Z-3.4551 I0.0 J1.45
G1 Y75.0 Z-3.4783
G3 X170.0 Y76.45 Z-3.4836 I-1.45 J0.0
G1 X167.0 Z-3.4905
G1 X166.25 Z-2.6
G1 X163.75
G1 X163.0 Z-3.4998
G1 X127.0 Z-3.5835
G1 X126.25 Z-2.6
G1 X123.75
G1 X123.0 Z-3.5928
G1 X120.0 Z-3.5998
G3 X119.8962 Y76.4463 Z-3.6 I0.0 J-1.45
G3 X118.55 Y75.0 Z-3.6051 I0.1038 J-1.4463
G1 Y65.0 Z-3.6283
G3 X120.0 Y63.55 Z-3.6336 I1.45 J0.0
G1 X123.0 Z-3.6405
G1 X123.75 Z-2.6
G1 X126.25
G1 X127.0 Z-3.6498
G1 X163.0 Z-3.7335
G1 X163.75 Z-2.6
G1 X166.25
G1 X167.0 Z-3.7428
G1 X170.0 Z-3.7498
G3 X171.45 Y65.0 Z-3.7551 I0.0 J1.45
G1 Y75.0 Z-3.7783
G3 X170.0 Y76.45 Z-3.7836 I-1.45 J0.0
G1 X167.0 Z-3.7905
G1 X166.25 Z-2.6
G1 X163.75
G1 X163.0 Z-3.7998
G1 X127.0 Z-3.8835
G1 X126.25 Z-2.6
G1 X123.75
G1 X123.0 Z-3.8928
G1 X120.0 Z-3.8998
G3 X119.8962 Y76.4463 Z-3.9 I0.0 J-1.45
G3 X118.55 Y75.0 Z-3.9034 I0.1038 J-1.4463
G1 Y65.0 Z-3.9189
G3 X120.0 Y63.55 Z-3.9224 I1.45 J0.0
G1 X123.0 Z-3.927
G1 X123.75 Z-2.6
G1 X126.25
G1 X127.0 Z-3.9332
G1 X163.0 Z-3.989
G1 X163.75 Z-2.6
G1 X166.25
G1 X167.0 Z-3.9952
G1 X170.0 Z-3.9998
G3 X171.45 Y65.0 Z-4.0034 I0.0 J1.45
G1 Y75.0 Z-4.0189
G3 X170.0 Y76.45 Z-4.0224 I-1.45 J0.0
G1 X167.0 Z-4.027
G1 X166.25 Z-2.6
G1 X163.75
G1 X163.0 Z-4.0332
G1 X127.0 Z-4.089
G1 X126.25 Z-2.6
G1 X123.75
G1 X123.0 Z-4.0952
G1 X120.0 Z-4.0998
G3 X119.8962 Y76.4463 Z-4.1 I0.0 J-1.45
G3 X118.55 Y75.0 I0.1038 J-1.4463
G1 Y65.0
G3 X120.0 Y63.55 I1.45 J0.0
G1 X123.0
G1 X123.75 Z-2.6
G1 X126.25
G1 X127.0 Z-4.1
G1 X163.0
G1 X163.75 Z-2.6
G1 X166.25
G1 X167.0 Z-4.1
G1 X170.0
G3 X171.45 Y65.0 I0.0 J1.45
G1 Y75.0
G3 X170.0 Y76.45 I-1.45 J0.0
G1 X167.0
G1 X166.25 Z-2.6
G1 X163.75
G1 X163.0 Z-4.1
G1 X127.0
G1 X126.25 Z-2.6
G1 X123.75
G1 X123.0 Z-4.1
G1 X120.0
G3 X119.8962 Y76.4463 I0.0 J-1.45
G0 Z3.0
G0 X104.4447 Y75.1237
G0 Z1.0
G1 F200.0 Z0.0
G3 F700.0 X103.0 Y76.45 Z-0.005 I-1.4447 J-0.1237
G1 X53.0 Z-0.1212
G3 X51.55 Y75.0 Z-0.1265 I0.0 J-1.45
G1 Y65.0 Z-0.1497
G3 X53.0 Y63.55 Z-0.155 I1.45 J0.0
G1 X103.0 Z-0.2712
G3 X104.45 Y65.0 Z-0.2765 I0.0 J1.45
G1 Y75.0 Z-0.2997
G3 X104.4447 Y75.1237 Z-0.3 I-1.45 J0.0
G3 X103.0 Y76.45 Z-0.305 I-1.4447 J-0.1237
G1 X53.0 Z-0.4212
G3 X51.55 Y75.0 Z-0.4265 I0.0 J-1.45
G1 Y65.0 Z-0.4497
G3 X53.0 Y63.55 Z-0.455 I1.45 J0.0
G1 X103.0 Z-0.5712
G3 X104.45 Y65.0 Z-0.5765 I0.0 J1.45
G1 Y75.0 Z-0.5997
G3 X104.4447 Y75.1237 Z-0.6 I-1.45 J0.0
G3 X103.0 Y76.45 Z-0.605 I-1.4447 J-0.1237
G1 X53.0 Z-0.7212
G3 X51.55 Y75.0 Z-0.7265 I0.0 J-1.45
G1 Y65.0 Z-0.7497
G3 X53.0 Y63.55 Z-0.755 I1.45 J0.0
G1 X103.0 Z-0.8712
G3 X104.45 Y65.0 Z-0.8765 I0.0 J1.45
G1 Y75.0 Z-0.8997
G3 X104.4447 Y75.1237 Z-0.9 I-1.45 J0.0
G3 X103.0 Y76.45 Z-0.905 I-1.4447 J-0.1237
G1 X53.0 Z-1.0212
G3 X51.55 Y75.0 Z-1.0265 I0.0 J-1.45
G1 Y65.0 Z-1.0497
G3 X53.0 Y63.55 Z-1.055 I1.45 J0.0
G1 X103.0 Z-1.1712
G3 X104.45 Y65.0 Z-1.1765 I0.0 J1.45
G1 Y75.0 Z-1.1997
G3 X104.4447 Y75.1237 Z-1.2 I-1.45 J0.0
G3 X103.0 Y76.45 Z-1.205 I-1.4447 J-0.1237
G1 X53.0 Z-1.3212
G3 X51.55 Y75.0 Z-1.3265 I0.0 J-1.45
G1 Y65.0 Z-1.3497
G3 X53.0 Y63.55 Z-1.355 I1.45 J0.0
G1 X103.0 Z-1.4712
G3 X104.45 Y65.0 Z-1.4765 I0.0 J1.45
G1 Y75.0 Z-1.4997
G3 X104.4447 Y75.1237 Z-1.5 I-1.45 J0.0
G3 X103.0 Y76.45 Z-1.505 I-1.4447 J-0.1237
G1 X53.0 Z-1.6212
G3 X51.55 Y75.0 Z-1.6265 I0.0 J-1.45
G1 Y65.0 Z-1.6497
G3 X53.0 Y63.55 Z-1.655 I1.45 J0.0
G1 X103.0 Z-1.7712
G3 X104.45 Y65.0 Z-1.7765 I0.0 J1.45
G1 Y75.0 Z-1.7997
G3 X104.4447 Y75.1237 Z-1.8 I-1.45 J0.0
G3 X103.0 Y76.45 Z-1.805 I-1.4447 J-0.1237
G1 X53.0 Z-1.9212
G3 X51.55 Y75.0 Z-1.9265 I0.0 J-1.45
G1 Y65.0 Z-1.9497
G3 X53.0 Y63.55 Z-1.955 I1.45 J0.0
G1 X103.0 Z-2.0712
G3 X104.45 Y65.0 Z-2.0765 I0.0 J1.45
G1 Y75.0 Z-2.0997
G3 X104.4447 Y75.1237 Z-2.1 I-1.45 J0.0
G3 X103.0 Y76.45 Z-2.105 I-1.4447 J-0.1237
G1 X53.0 Z-2.2212
G3 X51.55 Y75.0 Z-2.2265 I0.0 J-1.45
G1 Y65.0 Z-2.2497
G3 X53.0 Y63.55 Z-2.255 I1.45 J0.0
G1 X103.0 Z-2.3712
G3 X104.45 Y65.0 Z-2.3765 I0.0 J1.45
G1 Y75.0 Z-2.3997
G3 X104.4447 Y75.1237 Z-2.4 I-1.45 J0.0
G3 X103.0 Y76.45 Z-2.405 I-1.4447 J-0.1237
G1 X99.0 Z-2.4143
G1 X98.25 Z-2.416
G1 X95.75 Z-2.4219
G1 X95.0 Z-2.4236
G1 X60.0 Z-2.5049
G1 X59.25 Z-2.5067
G1 X56.75 Z-2.5125
G1 X56.0 Z-2.5142
G1 X53.0 Z-2.5212
G3 X51.55 Y75.0 Z-2.5265 I0.0 J-1.45
G1 Y65.0 Z-2.5497
G3 X53.0 Y63.55 Z-2.555 I1.45 J0.0
G1 X56.0 Z-2.562
G1 X56.75 Z-2.5637
G1 X59.25 Z-2.5695
G1 X60.0 Z-2.5713
G1 X96.0 Z-2.6549
G1 X96.75 Z-2.6
G1 X99.25
G1 X100.0 Z-2.6642
G1 X103.0 Z-2.6712
G3 X104.45 Y65.0 Z-2.6765 I0.0 J1.45
G1 Y75.0 Z-2.6997
G3 X104.4447 Y75.1237 Z-2.7 I-1.45 J0.0
G3 X103.0 Y76.45 Z-2.705 I-1.4447 J-0.1237
G1 X99.0 Z-2.7143
G1 X98.25 Z-2.6
G1 X95.75
G1 X95.0 Z-2.7236
G1 X60.0 Z-2.8049
G1 X59.25 Z-2.6
G1 X56.75
G1 X56.0 Z-2.8142
G1 X53.0 Z-2.8212
G3 X51.55 Y75.0 Z-2.8265 I0.0 J-1.45
G1 Y65.0 Z-2.8497
G3 X53.0 Y63.55 Z-2.855 I1.45 J0.0
G1 X56.0 Z-2.862
G1 X56.75 Z-2.6
G1 X59.25
G1 X60.0 Z-2.8713
G1 X96.0 Z-2.9549
G1 X96.75 Z-2.6
G1 X99.25
G1 X100.0 Z-2.9642
G1 X103.0 Z-2.9712
G3 X104.45 Y65.0 Z-2.9765 I0.0 J1.45
G1 Y75.0 Z-2.9997
G3 X104.4447 Y75.1237 Z-3.0 I-1.45 J0.0
G3 X103.0 Y76.45 Z-3.005 I-1.4447 J-0.1237
G1 X99.0 Z-3.0143
G1 X98.25 Z-2.6
G1 X95.75
G1 X95.0 Z-3.0236
G1 X60.0 Z-3.1049
G1 X59.25 Z-2.6
G1 X56.75
G1 X56.0 Z-3.1142
G1 X53.0 Z-3.1212
G3 X51.55 Y75.0 Z-3.1265 I0.0 J-1.45
G1 Y65.0 Z-3.1497
G3 X53.0 Y63.55 Z-3.155 I1.45 J0.0
G1 X56.0 Z-3.162
G1 X56.75 Z-2.6
G1 X59.25
G1 X60.0 Z-3.1713
G1 X96.0 Z-3.2549
G1 X96.75 Z-2.6
G1 X99.25
G1 X100.0 Z-3.2642
G1 X103.0 Z-3.2712
G3 X104.45 Y65.0 Z-3.2765 I0.0 J1.45
G1 Y75.0 Z-3.2997
G3 X104.4447 Y75.1237 Z-3.3 I-1.45 J0.0
G3 X103.0 Y76.45 Z-3.305 I-1.4447 J-0.1237
G1 X99.0 Z-3.3143
G1 X98.25 Z-2.6
G1 X95.75
G1 X95.0 Z-3.3236
G1 X60.0 Z-3.4049
G1 X59.25 Z-2.6
G1 X56.75
G1 X56.0 Z-3.4142
G1 X53.0 Z-3.4212
G3 X51.55 Y75.0 Z-3.4265 I0.0 J-1.45
G1 Y65.0 Z-3.4497
G3 X53.0 Y63.55 Z-3.455 I1.45 J0.0
G1 X56.0 Z-3.462
G1 X56.75 Z-2.6
G1 X59.25
G1 X60.0 Z-3.4713
G1 X96.0 Z-3.5549
G1 X96.75 Z-2.6
G1 X99.25
G1 X100.0 Z-3.5642
G1 X103.0 Z-3.5712
G3 X104.45 Y65.0 Z-3.5765 I0.0 J1.45
G1 Y75.0 Z-3.5997
G3 X104.4447 Y75.1237 Z-3.6 I-1.45 J0.0
G3 X103.0 Y76.45 Z-3.605 I-1.4447 J-0.1237
G1 X99.0 Z-3.6143
G1 X98.25 Z-2.6
G1 X95.75
G1 X95.0 Z-3.6236
G1 X60.0 Z-3.7049
G1 X59.25 Z-2.6
G1 X56.75
G1 X56.0 Z-3.7142
G1 X53.0 Z-3.7212
G3 X51.55 Y75.0 Z-3.7265 I0.0 J-1.45
G1 Y65.0 Z-3.7497
G3 X53.0 Y63.55 Z-3.755 I1.45 J0.0
G1 X56.0 Z-3.762
G1 X56.75 Z-2.6
G1 X59.25
G1 X60.0 Z-3.7713
G1 X96.0 Z-3.8549
G1 X96.75 Z-2.6
G1 X99.25
G1 X100.0 Z-3.8642
G1 X103.0 Z-3.8712
G3 X104.45 Y65.0 Z-3.8765 I0.0 J1.45
G1 Y75.0 Z-3.8997
G3 X104.4447 Y75.1237 Z-3.9 I-1.45 J0.0
G3 X103.0 Y76.45 Z-3.9033 I-1.4447 J-0.1237
G1 X99.0 Z-3.9095
G1 X98.25 Z-2.6
G1 X95.75
G1 X95.0 Z-3.9157
G1 X60.0 Z-3.9699
G1 X59.25 Z-2.6
G1 X56.75
G1 X56.0 Z-3.9761
G1 X53.0 Z-3.9808
G3 X51.55 Y75.0 Z-3.9843 I0.0 J-1.45
G1 Y65.0 Z-3.9998
G3 X53.0 Y63.55 Z-4.0033 I1.45 J0.0
G1 X56.0 Z-4.008
G1 X56.75 Z-2.6
G1 X59.25
G1 X60.0 Z-4.0142
G1 X96.0 Z-4.0699
G1 X96.75 Z-2.6
G1 X99.25
G1 X100.0 Z-4.0761
G1 X103.0 Z-4.0808
G3 X104.45 Y65.0 Z-4.0843 I0.0 J1.45
G1 Y75.0 Z-4.0998
G3 X104.4447 Y75.1237 Z-4.1 I-1.45 J0.0
G3 X103.0 Y76.45 I-1.4447 J-0.1237
G1 X99.0
G1 X98.25 Z-2.6
G1 X95.75
G1 X95.0 Z-4.1
G1 X60.0
G1 X59.25 Z-2.6
G1 X56.75
G1 X56.0 Z-4.1
G1 X53.0
G3 X51.55 Y75.0 I0.0 J-1.45
G1 Y65.0
G3 X53.0 Y63.55 I1.45 J0.0
G1 X56.0
G1 X56.75 Z-2.6
G1 X59.25
G1 X60.0 Z-4.1
G1 X96.0
G1 X96.75 Z-2.6
G1 X99.25
G1 X100.0 Z-4.1
G1 X103.0
G3 X104.45 Y65.0 I0.0 J1.45
G1 Y75.0
G3 X104.4447 Y75.1237 I-1.45 J0.0
G0 Z3.0
G0 X103.0945 Y54.4469
G0 Z1.0
G1 F200.0 Z0.0
G3 F700.0 X103.0 Y54.45 Z-0.0002 I-0.0945 J-1.4469
G1 X53.0 Z-0.1164
G3 X51.55 Y53.0 Z-0.1217 I0.0 J-1.45
G1 Y43.0 Z-0.1449
G3 X53.0 Y41.55 Z-0.1502 I1.45 J0.0
G1 X103.0 Z-0.2664
G3 X104.45 Y43.0 Z-0.2717 I0.0 J1.45
G1 Y53.0 Z-0.2949
G3 X103.0945 Y54.4469 Z-0.3 I-1.45 J0.0
G3 X103.0 Y54.45 Z-0.3002 I-0.0945 J-1.4469
G1 X53.0 Z-0.4164
G3 X51.55 Y53.0 Z-0.4217 I0.0 J-1.45
G1 Y43.0 Z-0.4449
G3 X53.0 Y41.55 Z-0.4502 I1.45 J0.0
G1 X103.0 Z-0.5664
G3 X104.45 Y43.0 Z-0.5717 I0.0 J1.45
G1 Y53.0 Z-0.5949
G3 X103.0945 Y54.4469 Z-0.6 I-1.45 J0.0
G3 X103.0 Y54.45 Z-0.6002 I-0.0945 J-1.4469
G1 X53.0 Z-0.7164
G3 X51.55 Y53.0 Z-0.7217 I0.0 J-1.45
G1 Y43.0 Z-0.7449
G3 X53.0 Y41.55 Z-0.7502 I1.45 J0.0
G1 X103.0 Z-0.8664
G3 X104.45 Y43.0 Z-0.8717 I0.0 J1.45
G1 Y53.0 Z-0.8949
G3 X103.0945 Y54.4469 Z-0.9 I-1.45 J0.0
G3 X103.0 Y54.45 Z-0.9002 I-0.0945 J-1.4469
G1 X53.0 Z-1.0164
G3 X51.55 Y53.0 Z-1.0217 I0.0 J-1.45
G1 Y43.0 Z-1.0449
G3 X53.0 Y41.55 Z-1.0502 I1.45 J0.0
G1 X103.0 Z-1.1664
G3 X104.45 Y43.0 Z-1.1717 I0.0 J1.45
G1 Y53.0 Z-1.1949
G3 X103.0945 Y54.4469 Z-1.2 I-1.45 J0.0
G3 X103.0 Y54.45 Z-1.2002 I-0.0945 J-1.4469
G1 X53.0 Z-1.3164
G3 X51.55 Y53.0 Z-1.3217 I0.0 J-1.45
G1 Y43.0 Z-1.3449
G3 X53.0 Y41.55 Z-1.3502 I1.45 J0.0
G1 X103.0 Z-1.4664
G3 X104.45 Y43.0 Z-1.4717 I0.0 J1.45
G1 Y53.0 Z-1.4949
G3 X103.0945 Y54.4469 Z-1.5 I-1.45 J0.0
G3 X103.0 Y54.45 Z-1.5002 I-0.0945 J-1.4469
G1 X53.0 Z-1.6164
G3 X51.55 Y53.0 Z-1.6217 I0.0 J-1.45
G1 Y43.0 Z-1.6449
G3 X53.0 Y41.55 Z-1.6502 I1.45 J0.0
G1 X103.0 Z-1.7664
G3 X104.45 Y43.0 Z-1.7717 I0.0 J1.45
G1 Y53.0 Z-1.7949
G3 X103.0945 Y54.4469 Z-1.8 I-1.45 J0.0
G3 X103.0 Y54.45 Z-1.8002 I-0.0945 J-1.4469
G1 X53.0 Z-1.9164
G3 X51.55 Y53.0 Z-1.9217 I0.0 J-1.45
G1 Y43.0 Z-1.9449
G3 X53.0 Y41.55 Z-1.9502 I1.45 J0.0
G1 X103.0 Z-2.0664
G3 X104.45 Y43.0 Z-2.0717 I0.0 J1.45
G1 Y53.0 Z-2.0949
G3 X103.0945 Y54.4469 Z-2.1 I-1.45 J0.0
G3 X103.0 Y54.45 Z-2.1002 I-0.0945 J-1.4469
G1 X53.0 Z-2.2164
G3 X51.55 Y53.0 Z-2.2217 I0.0 J-1.45
G1 Y43.0 Z-2.2449
G3 X53.0 Y41.55 Z-2.2502 I1.45 J0.0
G1 X103.0 Z-2.3664
G3 X104.45 Y43.0 Z-2.3717 I0.0 J1.45
G1 Y53.0 Z-2.3949
G3 X103.0945 Y54.4469 Z-2.4 I-1.45 J0.0
G3 X103.0 Y54.45 Z-2.4002 I-0.0945 J-1.4469
G1 X100.0 Z-2.4072
G1 X99.25 Z-2.4089
G1 X96.75 Z-2.4147
G1 X96.0 Z-2.4165
G1 X60.0 Z-2.5001
G1 X59.25 Z-2.5019
G1 X56.75 Z-2.5077
G1 X56.0 Z-2.5094
G1 X53.0 Z-2.5164
G3 X51.55 Y53.0 Z-2.5217 I0.0 J-1.45
G1 Y43.0 Z-2.5449
G3 X53.0 Y41.55 Z-2.5502 I1.45 J0.0
G1 X56.0 Z-2.5572
G1 X56.75 Z-2.5589
G1 X59.25 Z-2.5647
G1 X60.0 Z-2.5665
G1 X96.0 Z-2.6501
G1 X96.75 Z-2.6
G1 X99.25
G1 X100.0 Z-2.6594
G1 X103.0 Z-2.6664
G3 X104.45 Y43.0 Z-2.6717 I0.0 J1.45
G1 Y53.0 Z-2.6949
G3 X103.0945 Y54.4469 Z-2.7 I-1.45 J0.0
G3 X103.0 Y54.45 Z-2.7002 I-0.0945 J-1.4469
G1 X100.0 Z-2.7072
G1 X99.25 Z-2.6
G1 X96.75
G1 X96.0 Z-2.7165
G1 X60.0 Z-2.8001
G1 X59.25 Z-2.6
G1 X56.75
G1 X56.0 Z-2.8094
G1 X53.0 Z-2.8164
G3 X51.55 Y53.0 Z-2.8217 I0.0 J-1.45
G1 Y43.0 Z-2.8449
G3 X53.0 Y41.55 Z-2.8502 I1.45 J0.0
G1 X56.0 Z-2.8572
G1 X56.75 Z-2.6
G1 X59.25
G1 X60.0 Z-2.8665
G1 X96.0 Z-2.9501
G1 X96.75 Z-2.6
G1 X99.25
G1 X100.0 Z-2.9594
G1 X103.0 Z-2.9664
G3 X104.45 Y43.0 Z-2.9717 I0.0 J1.45
G1 Y53.0 Z-2.9949
G3 X103.0945 Y54.4469 Z-3.0 I-1.45 J0.0
G3 X103.0 Y54.45 Z-3.0002 I-0.0945 J-1.4469
G1 X100.0 Z-3.0072
G1 X99.25 Z-2.6
G1 X96.75
G1 X96.0 Z-3.0165
G1 X60.0 Z-3.1001
G1 X59.25 Z-2.6
G1 X56.75
G1 X56.0 Z-3.1094
G1 X53.0 Z-3.1164
G3 X51.55 Y53.0 Z-3.1217 I0.0 J-1.45
G1 Y43.0 Z-3.1449
G3 X53.0 Y41.55 Z-3.1502 I1.45 J0.0
G1 X56.0 Z-3.1572
G1 X56.75 Z-2.6
G1 X59.25
G1 X60.0 Z-3.1665
G1 X96.0 Z-3.2501
G1 X96.75 Z-2.6
G1 X99.25
G1 X100.0 Z-3.2594
G1 X103.0 Z-3.2664
G3 X104.45 Y43.0 Z-3.2717 I0.0 J1.45
G1 Y53.0 Z-3.2949
G3 X103.0945 Y54.4469 Z-3.3 I-1.45 J0.0
G3 X103.0 Y54.45 Z-3.3002 I-0.0945 J-1.4469
G1 X100.0 Z-3.3072
G1 X99.25 Z-2.6
G1 X96.75
G1 X96.0 Z-3.3165
G1 X60.0 Z-3.4001
G1 X59.25 Z-2.6
G1 X56.75
G1 X56.0 Z-3.4094
G1 X53.0 Z-3.4164
G3 X51.55 Y53.0 Z-3.4217 I0.0 J-1.45
G1 Y43.0 Z-3.4449
G3 X53.0 Y41.55 Z-3.4502 I1.45 J0.0
G1 X56.0 Z-3.4572
G1 X56.75 Z-2.6
G1 X59.25
G1 X60.0 Z-3.4665
G1 X96.0 Z-3.5501
G1 X96.75 Z-2.6
G1 X99.25
G1 X100.0 Z-3.5594
G1 X103.0 Z-3.5664
G3 X104.45 Y43.0 Z-3.5717 I0.0 J1.45
G1 Y53.0 Z-3.5949
G3 X103.0945 Y54.4469 Z-3.6 I-1.45 J0.0
G3 X103.0 Y54.45 Z-3.6002 I-0.0945 J-1.4469
G1 X100.0 Z-3.6072
G1 X99.25 Z-2.6
G1 X96.75
G1 X96.0 Z-3.6165
G1 X60.0 Z-3.7001
G1 X59.25 Z-2.6
G1 X56.75
G1 X56.0 Z-3.7094
G1 X53.0 Z-3.7164
G3 X51.55 Y53.0 Z-3.7217 I0.0 J-1.45
G1 Y43.0 Z-3.7449
G3 X53.0 Y41.55 Z-3.7502 I1.45 J0.0
G1 X56.0 Z-3.7572
G1 X56.75 Z-2.6
G1 X59.25
G1 X60.0 Z-3.7665
G1 X96.0 Z-3.8501
G1 X96.75 Z-2.6
G1 X99.25
G1 X100.0 Z-3.8594
G1 X103.0 Z-3.8664
G3 X104.45 Y43.0 Z-3.8717 I0.0 J1.45
G1 Y53.0 Z-3.8949
G3 X103.0945 Y54.4469 Z-3.9 I-1.45 J0.0
G3 X103.0 Y54.45 Z-3.9001 I-0.0945 J-1.4469
G1 X100.0 Z-3.9048
G1 X99.25 Z-2.6
G1 X96.75
G1 X96.0 Z-3.911
G1 X60.0 Z-3.9668
G1 X59.25 Z-2.6
G1 X56.75
G1 X56.0 Z-3.973
G1 X53.0 Z-3.9776
G3 X51.55 Y53.0 Z-3.9811 I0.0 J-1.45
G1 Y43.0 Z-3.9966
G3 X53.0 Y41.55 Z-4.0001 I1.45 J0.0
G1 X56.0 Z-4.0048
G1 X56.75 Z-2.6
G1 X59.25
G1 X60.0 Z-4.011
G1 X96.0 Z-4.0668
G1 X96.75 Z-2.6
G1 X99.25
G1 X100.0 Z-4.073
G1 X103.0 Z-4.0776
G3 X104.45 Y43.0 Z-4.0811 I0.0 J1.45
G1 Y53.0 Z-4.0966
G3 X103.0945 Y54.4469 Z-4.1 I-1.45 J0.0
G3 X103.0 Y54.45 I-0.0945 J-1.4469
G1 X100.0
G1 X99.25 Z-2.6
G1 X96.75
G1 X96.0 Z-4.1
G1 X60.0
G1 X59.25 Z-2.6
G1 X56.75
G1 X56.0 Z-4.1
G1 X53.0
G3 X51.55 Y53.0 I0.0 J-1.45
G1 Y43.0
G3 X53.0 Y41.55 I1.45 J0.0
G1 X56.0
G1 X56.75 Z-2.6
G1 X59.25
G1 X60.0 Z-4.1
G1 X96.0
G1 X96.75 Z-2.6
G1 X99.25
G1 X100.0 Z-4.1
G1 X103.0
G3 X104.45 Y43.0 I0.0 J1.45
G1 Y53.0
G3 X103.0945 Y54.4469 I-1.45 J0.0
G0 Z3.0
G0 X118.5553 Y53.1237
G0 Z1.0
G1 F200.0 Z0.0
G3 F700.0 X118.55 Y53.0 Z-0.0003 I1.4447 J-0.1237
G1 Y43.0 Z-0.0235
G3 X120.0 Y41.55 Z-0.0288 I1.45 J0.0
G1 X170.0 Z-0.145
G3 X171.45 Y43.0 Z-0.1503 I0.0 J1.45
G1 Y53.0 Z-0.1735
G3 X170.0 Y54.45 Z-0.1788 I-1.45 J0.0
G1 X120.0 Z-0.295
G3 X118.5553 Y53.1237 Z-0.3 I0.0 J-1.45
G3 X118.55 Y53.0 Z-0.3003 I1.4447 J-0.1237
G1 Y43.0 Z-0.3235
G3 X120.0 Y41.55 Z-0.3288 I1.45 J0.0
G1 X170.0 Z-0.445
G3 X171.45 Y43.0 Z-0.4503 I0.0 J1.45
G1 Y53.0 Z-0.4735
G3 X170.0 Y54.45 Z-0.4788 I-1.45 J0.0
G1 X120.0 Z-0.595
G3 X118.5553 Y53.1237 Z-0.6 I0.0 J-1.45
G3 X118.55 Y53.0 Z-0.6003 I1.4447 J-0.1237
G1 Y43.0 Z-0.6235
G3 X120.0 Y41.55 Z-0.6288 I1.45 J0.0
G1 X170.0 Z-0.745
G3 X171.45 Y43.0 Z-0.7503 I0.0 J1.45
G1 Y53.0 Z-0.7735
G3 X170.0 Y54.45 Z-0.7788 I-1.45 J0.0
G1 X120.0 Z-0.895
G3 X118.5553 Y53.1237 Z-0.9 I0.0 J-1.45
G3 X118.55 Y53.0 Z-0.9003 I1.4447 J-0.1237
G1 Y43.0 Z-0.9235
G3 X120.0 Y41.55 Z-0.9288 I1.45 J0.0
G1 X170.0 Z-1.045
G3 X171.45 Y43.0 Z-1.0503 I0.0 J1.45
G1 Y53.0 Z-1.0735
G3 X170.0 Y54.45 Z-1.0788 I-1.45 J0.0
G1 X120.0 Z-1.195
G3 X118.5553 Y53.1237 Z-1.2 I0.0 J-1.45
G3 X118.55 Y53.0 Z-1.2003 I1.4447 J-0.1237
G1 Y43.0 Z-1.2235
G3 X120.0 Y41.55 Z-1.2288 I1.45 J0.0
G1 X170.0 Z-1.345
G3 X171.45 Y43.0 Z-1.3503 I0.0 J1.45
G1 Y53.0 Z-1.3735
G3 X170.0 Y54.45 Z-1.3788 I-1.45 J0.0
G1 X120.0 Z-1.495
G3 X118.5553 Y53.1237 Z-1.5 I0.0 J-1.45
G3 X118.55 Y53.0 Z-1.5003 I1.4447 J-0.1237
G1 Y43.0 Z-1.5235
G3 X120.0 Y41.55 Z-1.5288 I1.45 J0.0
G1 X170.0 Z-1.645
G3 X171.45 Y43.0 Z-1.6503 I0.0 J1.45
G1 Y53.0 Z-1.6735
G3 X170.0 Y54.45 Z-1.6788 I-1.45 J0.0
G1 X120.0 Z-1.795
G3 X118.5553 Y53.1237 Z-1.8 I0.0 J-1.45
G3 X118.55 Y53.0 Z-1.8003 I1.4447 J-0.1237
G1 Y43.0 Z-1.8235
G3 X120.0 Y41.55 Z-1.8288 I1.45 J0.0
G1 X170.0 Z-1.945
G3 X171.45 Y43.0 Z-1.9503 I0.0 J1.45
G1 Y53.0 Z-1.9735
G3 X170.0 Y54.45 Z-1.9788 I-1.45 J0.0
G1 X120.0 Z-2.095
G3 X118.5553 Y53.1237 Z-2.1 I0.0 J-1.45
G3 X118.55 Y53.0 Z-2.1003 I1.4447 J-0.1237
G1 Y43.0 Z-2.1235
G3 X120.0 Y41.55 Z-2.1288 I1.45 J0.0
G1 X170.0 Z-2.245
G3 X171.45 Y43.0 Z-2.2503 I0.0 J1.45
G1 Y53.0 Z-2.2735
G3 X170.0 Y54.45 Z-2.2788 I-1.45 J0.0
G1 X120.0 Z-2.395
G3 X118.5553 Y53.1237 Z-2.4 I0.0 J-1.45
G3 X118.55 Y53.0 Z-2.4003 I1.4447 J-0.1237
G1 Y43.0 Z-2.4235
G3 X120.0 Y41.55 Z-2.4288 I1.45 J0.0
G1 X123.0 Z-2.4358
G1 X123.75 Z-2.4375
G1 X126.25 Z-2.4433
G1 X127.0 Z-2.4451
G1 X163.0 Z-2.5287
G1 X163.75 Z-2.5305
G1 X166.25 Z-2.5363
G1 X167.0 Z-2.538
G1 X170.0 Z-2.545
G3 X171.45 Y43.0 Z-2.5503 I0.0 J1.45
G1 Y53.0 Z-2.5735
G3 X170.0 Y54.45 Z-2.5788 I-1.45 J0.0
G1 X167.0 Z-2.5858
G1 X166.25 Z-2.5875
G1 X163.75 Z-2.5933
G1 X163.0 Z-2.5951
G1 X127.0 Z-2.6787
G1 X126.25 Z-2.6
G1 X123.75
G1 X123.0 Z-2.688
G1 X120.0 Z-2.695
G3 X118.5553 Y53.1237 Z-2.7 I0.0 J-1.45
G3 X118.55 Y53.0 Z-2.7003 I1.4447 J-0.1237
G1 Y43.0 Z-2.7235
G3 X120.0 Y41.55 Z-2.7288 I1.45 J0.0
G1 X123.0 Z-2.7358
G1 X123.75 Z-2.6
G1 X126.25
G1 X127.0 Z-2.7451
G1 X163.0 Z-2.8287
G1 X163.75 Z-2.6
G1 X166.25
G1 X167.0 Z-2.838
G1 X170.0 Z-2.845
G3 X171.45 Y43.0 Z-2.8503 I0.0 J1.45
G1 Y53.0 Z-2.8735
G3 X170.0 Y54.45 Z-2.8788 I-1.45 J0.0
G1 X167.0 Z-2.8858
G1 X166.25 Z-2.6
G1 X163.75
G1 X163.0 Z-2.8951
G1 X127.0 Z-2.9787
G1 X126.25 Z-2.6
G1 X123.75
G1 X123.0 Z-2.988
G1 X120.0 Z-2.995
G3 X118.5553 Y53.1237 Z-3.0 I0.0 J-1.45
G3 X118.55 Y53.0 Z-3.0003 I1.4447 J-0.1237
G1 Y43.0 Z-3.0235
G3 X120.0 Y41.55 Z-3.0288 I1.45 J0.0
G1 X123.0 Z-3.0358
G1 X123.75 Z-2.6
G1 X126.25
G1 X127.0 Z-3.0451
G1 X163.0 Z-3.1287
G1 X163.75 Z-2.6
G1 X166.25
G1 X167.0 Z-3.138
G1 X170.0 Z-3.145
G3 X171.45 Y43.0 Z-3.1503 I0.0 J1.45
G1 Y53.0 Z-3.1735
G3 X170.0 Y54.45 Z-3.1788 I-1.45 J0.0
G1 X167.0 Z-3.1858
G1 X166.25 Z-2.6
G1 X163.75
G1 X163.0 Z-3.1951
G1 X127.0 Z-3.2787
G1 X126.25 Z-2.6
G1 X123.75
G1 X123.0 Z-3.288
G1 X120.0 Z-3.295
G3 X118.5553 Y53.1237 Z-3.3 I0.0 J-1.45
G3 X118.55 Y53.0 Z-3.3003 I1.4447 J-0.1237
G1 Y43.0 Z-3.3235
G3 X120.0 Y41.55 Z-3.3288 I1.45 J0.0
G1 X123.0 Z-3.3358
G1 X123.75 Z-2.6
G1 X126.25
G1 X127.0 Z-3.3451
G1 X163.0 Z-3.4287
G1 X163.75 Z-2.6
G1 X166.25
G1 X167.0 Z-3.438
G1 X170.0 Z-3.445
G3 X171.45 Y43.0 Z-3.4503 I0.0 J1.45
G1 Y53.0 Z-3.4735
G3 X170.0 Y54.45 Z-3.4788 I-1.45 J0.0
G1 X167.0 Z-3.4858
G1 X166.25 Z-2.6
G1 X163.75
G1 X163.0 Z-3.4951
G1 X127.0 Z-3.5787
G1 X126.25 Z-2.6
G1 X123.75
G1 X123.0 Z-3.588
G1 X120.0 Z-3.595
G3 X118.5553 Y53.1237 Z-3.6 I0.0 J-1.45
G3 X118.55 Y53.0 Z-3.6003 I1.4447 J-0.1237
G1 Y43.0 Z-3.6235
G3 X120.0 Y41.55 Z-3.6288 I1.45 J0.0
G1 X123.0 Z-3.6358
G1 X123.75 Z-2.6
G1 X126.25
G1 X127.0 Z-3.6451
G1 X163.0 Z-3.7287
G1 X163.75 Z-2.6
G1 X166.25
G1 X167.0 Z-3.738
G1 X170.0 Z-3.745
G3 X171.45 Y43.0 Z-3.7503 I0.0 J1.45
G1 Y53.0 Z-3.7735
G3 X170.0 Y54.45 Z-3.7788 I-1.45 J0.0
G1 X167.0 Z-3.7858
G1 X166.25 Z-2.6
G1 X163.75
G1 X163.0 Z-3.7951
G1 X127.0 Z-3.8787
G1 X126.25 Z-2.6
G1 X123.75
G1 X123.0 Z-3.888
G1 X120.0 Z-3.895
G3 X118.5553 Y53.1237 Z-3.9 I0.0 J-1.45
G3 X118.55 Y53.0 Z-3.9002 I1.4447 J-0.1237
G1 Y43.0 Z-3.9157
G3 X120.0 Y41.55 Z-3.9192 I1.45 J0.0
G1 X123.0 Z-3.9239
G1 X123.75 Z-2.6
G1 X126.25
G1 X127.0 Z-3.9301
G1 X163.0 Z-3.9858
G1 X163.75 Z-2.6
G1 X166.25
G1 X167.0 Z-3.992
G1 X170.0 Z-3.9967
G3 X171.45 Y43.0 Z-4.0002 I0.0 J1.45
G1 Y53.0 Z-4.0157
G3 X170.0 Y54.45 Z-4.0192 I-1.45 J0.0
G1 X167.0 Z-4.0239
G1 X166.25 Z-2.6
G1 X163.75
G1 X163.0 Z-4.0301
G1 X127.0 Z-4.0858
G1 X126.25 Z-2.6
G1 X123.75
G1 X123.0 Z-4.092
G1 X120.0 Z-4.0967
G3 X118.5553 Y53.1237 Z-4.1 I0.0 J-1.45
G3 X118.55 Y53.0 I1.4447 J-0.1237
G1 Y43.0
G3 X120.0 Y41.55 I1.45 J0.0
G1 X123.0
G1 X123.75 Z-2.6
G1 X126.25
G1 X127.0 Z-4.1
G1 X163.0
G1 X163.75 Z-2.6
G1 X166.25
G1 X167.0 Z-4.1
G1 X170.0
G3 X171.45 Y43.0 I0.0 J1.45
G1 Y53.0
G3 X170.0 Y54.45 I-1.45 J0.0
G1 X167.0
G1 X166.25 Z-2.6
G1 X163.75
G1 X163.0 Z-4.1
G1 X127.0
G1 X126.25 Z-2.6
G1 X123.75
G1 X123.0 Z-4.1
G1 X120.0
G3 X118.5553 Y53.1237 I0.0 J-1.45
G0 Z3.0
G0 X119.8962 Y34.4463
G0 Z1.0
G1 F200.0 Z0.0
G3 F700.0 X118.55 Y33.0 Z-0.0051 I0.1038 J-1.4463
G1 Y23.0 Z-0.0283
G3 X120.0 Y21.55 Z-0.0336 I1.45 J0.0
G1 X170.0 Z-0.1498
G3 X171.45 Y23.0 Z-0.1551 I0.0 J1.45
G1 Y33.0 Z-0.1783
G3 X170.0 Y34.45 Z-0.1836 I-1.45 J0.0
G1 X120.0 Z-0.2998
G3 X119.8962 Y34.4463 Z-0.3 I0.0 J-1.45
G3 X118.55 Y33.0 Z-0.3051 I0.1038 J-1.4463
G1 Y23.0 Z-0.3283
G3 X120.0 Y21.55 Z-0.3336 I1.45 J0.0
G1 X170.0 Z-0.4498
G3 X171.45 Y23.0 Z-0.4551 I0.0 J1.45
G1 Y33.0 Z-0.4783
G3 X170.0 Y34.45 Z-0.4836 I-1.45 J0.0
G1 X120.0 Z-0.5998
G3 X119.8962 Y34.4463 Z-0.6 I0.0 J-1.45
G3 X118.55 Y33.0 Z-0.6051 I0.1038 J-1.4463
G1 Y23.0 Z-0.6283
G3 X120.0 Y21.55 Z-0.6336 I1.45 J0.0
G1 X170.0 Z-0.7498
G3 X171.45 Y23.0 Z-0.7551 I0.0 J1.45
G1 Y33.0 Z-0.7783
G3 X170.0 Y34.45 Z-0.7836 I-1.45 J0.0
G1 X120.0 Z-0.8998
G3 X119.8962 Y34.4463 Z-0.9 I0.0 J-1.45
G3 X118.55 Y33.0 Z-0.9051 I0.1038 J-1.4463
G1 Y23.0 Z-0.9283
G3 X120.0 Y21.55 Z-0.9336 I1.45 J0.0
G1 X170.0 Z-1.0498
G3 X171.45 Y23.0 Z-1.0551 I0.0 J1.45
G1 Y33.0 Z-1.0783
G3 X170.0 Y34.45 Z-1.0836 I-1.45 J0.0
G1 X120.0 Z-1.1998
G3 X119.8962 Y34.4463 Z-1.2 I0.0 J-1.45
G3 X118.55 Y33.0 Z-1.2051 I0.1038 J-1.4463
G1 Y23.0 Z-1.2283
G3 X120.0 Y21.55 Z-1.2336 I1.45 J0.0
G1 X170.0 Z-1.3498
G3 X171.45 Y23.0 Z-1.3551 I0.0 J1.45
G1 Y33.0 Z-1.3783
G3 X170.0 Y34.45 Z-1.3836 I-1.45 J0.0
G1 X120.0 Z-1.4998
G3 X119.8962 Y34.4463 Z-1.5 I0.0 J-1.45
G3 X118.55 Y33.0 Z-1.5051 I0.1038 J-1.4463
G1 Y23.0 Z-1.5283
G3 X120.0 Y21.55 Z-1.5336 I1.45 J0.0
G1 X170.0 Z-1.6498
G3 X171.45 Y23.0 Z-1.6551 I0.0 J1.45
G1 Y33.0 Z-1.6783
G3 X170.0 Y34.45 Z-1.6836 I-1.45 J0.0
G1 X120.0 Z-1.7998
G3 X119.8962 Y34.4463 Z-1.8 I0.0 J-1.45
G3 X118.55 Y33.0 Z-1.8051 I0.1038 J-1.4463
G1 Y23.0 Z-1.8283
G3 X120.0 Y21.55 Z-1.8336 I1.45 J0.0
G1 X170.0 Z-1.9498
G3 X171.45 Y23.0 Z-1.9551 I0.0 J1.45
G1 Y33.0 Z-1.9783
G3 X170.0 Y34.45 Z-1.9836 I-1.45 J0.0
G1 X120.0 Z-2.0998
G3 X119.8962 Y34.4463 Z-2.1 I0.0 J-1.45
G3 X118.55 Y33.0 Z-2.1051 I0.1038 J-1.4463
G1 Y23.0 Z-2.1283
G3 X120.0 Y21.55 Z-2.1336 I1.45 J0.0
G1 X170.0 Z-2.2498
G3 X171.45 Y23.0 Z-2.2551 I0.0 J1.45
G1 Y33.0 Z-2.2783
G3 X170.0 Y34.45 Z-2.2836 I-1.45 J0.0
G1 X120.0 Z-2.3998
G3 X119.8962 Y34.4463 Z-2.4 I0.0 J-1.45
G3 X118.55 Y33.0 Z-2.4051 I0.1038 J-1.4463
G1 Y23.0 Z-2.4283
G3 X120.0 Y21.55 Z-2.4336 I1.45 J0.0
G1 X123.0 Z-2.4405
G1 X123.75 Z-2.4423
G1 X126.25 Z-2.4481
G1 X127.0 Z-2.4498
G1 X163.0 Z-2.5335
G1 X163.75 Z-2.5352
G1 X166.25 Z-2.541
G1 X167.0 Z-2.5428
G1 X170.0 Z-2.5498
G3 X171.45 Y23.0 Z-2.5551 I0.0 J1.45
G1 Y33.0 Z-2.5783
G3 X170.0 Y34.45 Z-2.5836 I-1.45 J0.0
G1 X167.0 Z-2.5905
G1 X166.25 Z-2.5923
G1 X163.75 Z-2.5981
G1 X163.0 Z-2.5998
G1 X127.0 Z-2.6835
G1 X126.25 Z-2.6
G1 X123.75
G1 X123.0 Z-2.6928
G1 X120.0 Z-2.6998
G3 X119.8962 Y34.4463 Z-2.7 I0.0 J-1.45
G3 X118.55 Y33.0 Z-2.7051 I0.1038 J-1.4463
G1 Y23.0 Z-2.7283
G3 X120.0 Y21.55 Z-2.7336 I1.45 J0.0
G1 X123.0 Z-2.7405
G1 X123.75 Z-2.6
G1 X126.25
G1 X127.0 Z-2.7498
G1 X163.0 Z-2.8335
G1 X163.75 Z-2.6
G1 X166.25
G1 X167.0 Z-2.8428
G1 X170.0 Z-2.8498
G3 X171.45 Y23.0 Z-2.8551 I0.0 J1.45
G1 Y33.0 Z-2.8783
G3 X170.0 Y34.45 Z-2.8836 I-1.45 J0.0
G1 X167.0 Z-2.8905
G1 X166.25 Z-2.6
G1 X163.75
G1 X163.0 Z-2.8998
G1 X127.0 Z-2.9835
G1 X126.25 Z-2.6
G1 X123.75
G1 X123.0 Z-2.9928
G1 X120.0 Z-2.9998
G3 X119.8962 Y34.4463 Z-3.0 I0.0 J-1.45
G3 X118.55 Y33.0 Z-3.0051 I0.1038 J-1.4463
G1 Y23.0 Z-3.0283
G3 X120.0 Y21.55 Z-3.0336 I1.45 J0.0
G1 X123.0 Z-3.0405
G1 X123.75 Z-2.6
G1 X126.25
G1 X127.0 Z-3.0498
G1 X163.0 Z-3.1335
G1 X163.75 Z-2.6
G1 X166.25
G1 X167.0 Z-3.1428
G1 X170.0 Z-3.1498
G3 X171.45 Y23.0 Z-3.1551 I0.0 J1.45
G1 Y33.0 Z-3.1783
G3 X170.0 Y34.45 Z-3.1836 I-1.45 J0.0
G1 X167.0 Z-3.1905
G1 X166.25 Z-2.6
G1 X163.75
G1 X163.0 Z-3.1998
G1 X127.0 Z-3.2835
G1 X126.25 Z-2.6
G1 X123.75
G1 X123.0 Z-3.2928
G1 X120.0 Z-3.2998
G3 X119.8962 Y34.4463 Z-3.3 I0.0 J-1.45
G3 X118.55 Y33.0 Z-3.3051 I0.1038 J-1.4463
G1 Y23.0 Z-3.3283
G3 X120.0 Y21.55 Z-3.3336 I1.45 J0.0
G1 X123.0 Z-3.3405
G1 X123.75 Z-2.6
G1 X126.25
G1 X127.0 Z-3.3498
G1 X163.0 Z-3.4335
G1 X163.75 Z-2.6
G1 X166.25
G1 X167.0 Z-3.4428
G1 X170.0 Z-3.4498
G3 X171.45 Y23.0 Z-3.4551 I0.0 J1.45
G1 Y33.0 Z-3.4783
G3 X170.0 Y34.45 Z-3.4836 I-1.45 J0.0
G1 X167.0 Z-3.4905
G1 X166.25 Z-2.6
G1 X163.75
G1 X163.0 Z-3.4998
G1 X127.0 Z-3.5835
G1 X126.25 Z-2.6
G1 X123.75
G1 X123.0 Z-3.5928
G1 X120.0 Z-3.5998
G3 X119.8962 Y34.4463 Z-3.6 I0.0 J-1.45
G3 X118.55 Y33.0 Z-3.6051 I0.1038 J-1.4463
G1 Y23.0 Z-3.6283
G3 X120.0 Y21.55 Z-3.6336 I1.45 J0.0
G1 X123.0 Z-3.6405
G1 X123.75 Z-2.6
G1 X126.25
G1 X127.0 Z-3.6498
G1 X163.0 Z-3.7335
G1 X163.75 Z-2.6
G1 X166.25
G1 X167.0 Z-3.7428
G1 X170.0 Z-3.7498
G3 X171.45 Y23.0 Z-3.7551 I0.0 J1.45
G1 Y33.0 Z-3.7783
G3 X170.0 Y34.45 Z-3.7836 I-1.45 J0.0
G1 X167.0 Z-3.7905
G1 X166.25 Z-2.6
G1 X163.75
G1 X163.0 Z-3.7998
G1 X127.0 Z-3.8835
G1 X126.25 Z-2.6
G1 X123.75
G1 X123.0 Z-3.8928
G1 X120.0 Z-3.8998
G3 X119.8962 Y34.4463 Z-3.9 I0.0 J-1.45
G3 X118.55 Y33.0 Z-3.9034 I0.1038 J-1.4463
G1 Y23.0 Z-3.9189
G3 X120.0 Y21.55 Z-3.9224 I1.45 J0.0
G1 X123.0 Z-3.927
G1 X123.75 Z-2.6
G1 X126.25
G1 X127.0 Z-3.9332
G1 X163.0 Z-3.989
G1 X163.75 Z-2.6
G1 X166.25
G1 X167.0 Z-3.9952
G1 X170.0 Z-3.9998
G3 X171.45 Y23.0 Z-4.0034 I0.0 J1.45
G1 Y33.0 Z-4.0189
G3 X170.0 Y34.45 Z-4.0224 I-1.45 J0.0
G1 X167.0 Z-4.027
G1 X166.25 Z-2.6
G1 X163.75
G1 X163.0 Z-4.0332
G1 X127.0 Z-4.089
G1 X126.25 Z-2.6
G1 X123.75
G1 X123.0 Z-4.0952
G1 X120.0 Z-4.0998
G3 X119.8962 Y34.4463 Z-4.1 I0.0 J-1.45
G3 X118.55 Y33.0 I0.1038 J-1.4463
G1 Y23.0
G3 X120.0 Y21.55 I1.45 J0.0
G1 X123.0
G1 X123.75 Z-2.6
G1 X126.25
G1 X127.0 Z-4.1
G1 X163.0
G1 X163.75 Z-2.6
G1 X166.25
G1 X167.0 Z-4.1
G1 X170.0
G3 X171.45 Y23.0 I0.0 J1.45
G1 Y33.0
G3 X170.0 Y34.45 I-1.45 J0.0
G1 X167.0
G1 X166.25 Z-2.6
G1 X163.75
G1 X163.0 Z-4.1
G1 X127.0
G1 X126.25 Z-2.6
G1 X123.75
G1 X123.0 Z-4.1
G1 X120.0
G3 X119.8962 Y34.4463 I0.0 J-1.45
G0 Z3.0
G0 X104.4447 Y33.1237
G0 Z1.0
G1 F200.0 Z0.0
G3 F700.0 X103.0 Y34.45 Z-0.005 I-1.4447 J-0.1237
G1 X53.0 Z-0.1212
G3 X51.55 Y33.0 Z-0.1265 I0.0 J-1.45
G1 Y23.0 Z-0.1497
G3 X53.0 Y21.55 Z-0.155 I1.45 J0.0
G1 X103.0 Z-0.2712
G3 X104.45 Y23.0 Z-0.2765 I0.0 J1.45
G1 Y33.0 Z-0.2997
G3 X104.4447 Y33.1237 Z-0.3 I-1.45 J0.0
G3 X103.0 Y34.45 Z-0.305 I-1.4447 J-0.1237
G1 X53.0 Z-0.4212
G3 X51.55 Y33.0 Z-0.4265 I0.0 J-1.45
G1 Y23.0 Z-0.4497
G3 X53.0 Y21.55 Z-0.455 I1.45 J0.0
G1 X103.0 Z-0.5712
G3 X104.45 Y23.0 Z-0.5765 I0.0 J1.45
G1 Y33.0 Z-0.5997
G3 X104.4447 Y33.1237 Z-0.6 I-1.45 J0.0
G3 X103.0 Y34.45 Z-0.605 I-1.4447 J-0.1237
G1 X53.0 Z-0.7212
G3 X51.55 Y33.0 Z-0.7265 I0.0 J-1.45
G1 Y23.0 Z-0.7497
G3 X53.0 Y21.55 Z-0.755 I1.45 J0.0
G1 X103.0 Z-0.8712
G3 X104.45 Y23.0 Z-0.8765 I0.0 J1.45
G1 Y33.0 Z-0.8997
G3 X104.4447 Y33.1237 Z-0.9 I-1.45 J0.0
G3 X103.0 Y34.45 Z-0.905 I-1.4447 J-0.1237
G1 X53.0 Z-1.0212
G3 X51.55 Y33.0 Z-1.0265 I0.0 J-1.45
G1 Y23.0 Z-1.0497
G3 X53.0 Y21.55 Z-1.055 I1.45 J0.0
G1 X103.0 Z-1.1712
G3 X104.45 Y23.0 Z-1.1765 I0.0 J1.45
G1 Y33.0 Z-1.1997
G3 X104.4447 Y33.1237 Z-1.2 I-1.45 J0.0
G3 X103.0 Y34.45 Z-1.205 I-1.4447 J-0.1237
G1 X53.0 Z-1.3212
G3 X51.55 Y33.0 Z-1.3265 I0.0 J-1.45
G1 Y23.0 Z-1.3497
G3 X53.0 Y21.55 Z-1.355 I1.45 J0.0
G1 X103.0 Z-1.4712
G3 X104.45 Y23.0 Z-1.4765 I0.0 J1.45
G1 Y33.0 Z-1.4997
G3 X104.4447 Y33.1237 Z-1.5 I-1.45 J0.0
G3 X103.0 Y34.45 Z-1.505 I-1.4447 J-0.1237
G1 X53.0 Z-1.6212
G3 X51.55 Y33.0 Z-1.6265 I0.0 J-1.45
G1 Y23.0 Z-1.6497
G3 X53.0 Y21.55 Z-1.655 I1.45 J0.0
G1 X103.0 Z-1.7712
G3 X104.45 Y23.0 Z-1.7765 I0.0 J1.45
G1 Y33.0 Z-1.7997
G3 X104.4447 Y33.1237 Z-1.8 I-1.45 J0.0
G3 X103.0 Y34.45 Z-1.805 I-1.4447 J-0.1237
G1 X53.0 Z-1.9212
G3 X51.55 Y33.0 Z-1.9265 I0.0 J-1.45
G1 Y23.0 Z-1.9497
G3 X53.0 Y21.55 Z-1.955 I1.45 J0.0
G1 X103.0 Z-2.0712
G3 X104.45 Y23.0 Z-2.0765 I0.0 J1.45
G1 Y33.0 Z-2.0997
G3 X104.4447 Y33.1237 Z-2.1 I-1.45 J0.0
G3 X103.0 Y34.45 Z-2.105 I-1.4447 J-0.1237
G1 X53.0 Z-2.2212
G3 X51.55 Y33.0 Z-2.2265 I0.0 J-1.45
G1 Y23.0 Z-2.2497
G3 X53.0 Y21.55 Z-2.255 I1.45 J0.0
G1 X103.0 Z-2.3712
G3 X104.45 Y23.0 Z-2.3765 I0.0 J1.45
G1 Y33.0 Z-2.3997
G3 X104.4447 Y33.1237 Z-2.4 I-1.45 J0.0
G3 X103.0 Y34.45 Z-2.405 I-1.4447 J-0.1237
G1 X100.0 Z-2.412
G1 X99.25 Z-2.4137
G1 X96.75 Z-2.4195
G1 X96.0 Z-2.4213
G1 X60.0 Z-2.5049
G1 X59.25 Z-2.5067
G1 X56.75 Z-2.5125
G1 X56.0 Z-2.5142
G1 X53.0 Z-2.5212
G3 X51.55 Y33.0 Z-2.5265 I0.0 J-1.45
G1 Y23.0 Z-2.5497
G3 X53.0 Y21.55 Z-2.555 I1.45 J0.0
G1 X56.0 Z-2.562
G1 X56.75 Z-2.5637
G1 X59.25 Z-2.5695
G1 X60.0 Z-2.5713
G1 X96.0 Z-2.6549
G1 X96.75 Z-2.6
G1 X99.25
G1 X100.0 Z-2.6642
G1 X103.0 Z-2.6712
G3 X104.45 Y23.0 Z-2.6765 I0.0 J1.45
G1 Y33.0 Z-2.6997
G3 X104.4447 Y33.1237 Z-2.7 I-1.45 J0.0
G3 X103.0 Y34.45 Z-2.705 I-1.4447 J-0.1237
G1 X100.0 Z-2.712
G1 X99.25 Z-2.6
G1 X96.75
G1 X96.0 Z-2.7213
G1 X60.0 Z-2.8049
G1 X59.25 Z-2.6
G1 X56.75
G1 X56.0 Z-2.8142
G1 X53.0 Z-2.8212
G3 X51.55 Y33.0 Z-2.8265 I0.0 J-1.45
G1 Y23.0 Z-2.8497
G3 X53.0 Y21.55 Z-2.855 I1.45 J0.0
G1 X56.0 Z-2.862
G1 X56.75 Z-2.6
G1 X59.25
G1 X60.0 Z-2.8713
G1 X96.0 Z-2.9549
G1 X96.75 Z-2.6
G1 X99.25
G1 X100.0 Z-2.9642
G1 X103.0 Z-2.9712
G3 X104.45 Y23.0 Z-2.9765 I0.0 J1.45
G1 Y33.0 Z-2.9997
G3 X104.4447 Y33.1237 Z-3.0 I-1.45 J0.0
G3 X103.0 Y34.45 Z-3.005 I-1.4447 J-0.1237
G1 X100.0 Z-3.012
G1 X99.25 Z-2.6
G1 X96.75
G1 X96.0 Z-3.0213
G1 X60.0 Z-3.1049
G1 X59.25 Z-2.6
G1 X56.75
G1 X56.0 Z-3.1142
G1 X53.0 Z-3.1212
G3 X51.55 Y33.0 Z-3.1265 I0.0 J-1.45
G1 Y23.0 Z-3.1497
G3 X53.0 Y21.55 Z-3.155 I1.45 J0.0
G1 X56.0 Z-3.162
G1 X56.75 Z-2.6
G1 X59.25
G1 X60.0 Z-3.1713
G1 X96.0 Z-3.2549
G1 X96.75 Z-2.6
G1 X99.25
G1 X100.0 Z-3.2642
G1 X103.0 Z-3.2712
G3 X104.45 Y23.0 Z-3.2765 I0.0 J1.45
G1 Y33.0 Z-3.2997
G3 X104.4447 Y33.1237 Z-3.3 I-1.45 J0.0
G3 X103.0 Y34.45 Z-3.305 I-1.4447 J-0.1237
G1 X100.0 Z-3.312
G1 X99.25 Z-2.6
G1 X96.75
G1 X96.0 Z-3.3213
G1 X60.0 Z-3.4049
G1 X59.25 Z-2.6
G1 X56.75
G1 X56.0 Z-3.4142
G1 X53.0 Z-3.4212
G3 X51.55 Y33.0 Z-3.4265 I0.0 J-1.45
G1 Y23.0 Z-3.4497
G3 X53.0 Y21.55 Z-3.455 I1.45 J0.0
G1 X56.0 Z-3.462
G1 X56.75 Z-2.6
G1 X59.25
G1 X60.0 Z-3.4713
G1 X96.0 Z-3.5549
G1 X96.75 Z-2.6
G1 X99.25
G1 X100.0 Z-3.5642
G1 X103.0 Z-3.5712
G3 X104.45 Y23.0 Z-3.5765 I0.0 J1.45
G1 Y33.0 Z-3.5997
G3 X104.4447 Y33.1237 Z-3.6 I-1.45 J0.0
G3 X103.0 Y34.45 Z-3.605 I-1.4447 J-0.1237
G1 X100.0 Z-3.612
G1 X99.25 Z-2.6
G1 X96.75
G1 X96.0 Z-3.6213
G1 X60.0 Z-3.7049
G1 X59.25 Z-2.6
G1 X56.75
G1 X56.0 Z-3.7142
G1 X53.0 Z-3.7212
G3 X51.55 Y33.0 Z-3.7265 I0.0 J-1.45
G1 Y23.0 Z-3.7497
G3 X53.0 Y21.55 Z-3.755 I1.45 J0.0
G1 X56.0 Z-3.762
G1 X56.75 Z-2.6
G1 X59.25
G1 X60.0 Z-3.7713
G1 X96.0 Z-3.8549
G1 X96.75 Z-2.6
G1 X99.25
G1 X100.0 Z-3.8642
G1 X103.0 Z-3.8712
G3 X104.45 Y23.0 Z-3.8765 I0.0 J1.45
G1 Y33.0 Z-3.8997
G3 X104.4447 Y33.1237 Z-3.9 I-1.45 J0.0
G3 X103.0 Y34.45 Z-3.9033 I-1.4447 J-0.1237
G1 X100.0 Z-3.908
G1 X99.25 Z-2.6
G1 X96.75
G1 X96.0 Z-3.9142
G1 X60.0 Z-3.9699
G1 X59.25 Z-2.6
G1 X56.75
G1 X56.0 Z-3.9761
G1 X53.0 Z-3.9808
G3 X51.55 Y33.0 Z-3.9843 I0.0 J-1.45
G1 Y23.0 Z-3.9998
G3 X53.0 Y21.55 Z-4.0033 I1.45 J0.0
G1 X56.0 Z-4.008
G1 X56.75 Z-2.6
G1 X59.25
G1 X60.0 Z-4.0142
G1 X96.0 Z-4.0699
G1 X96.75 Z-2.6
G1 X99.25
G1 X100.0 Z-4.0761
G1 X103.0 Z-4.0808
G3 X104.45 Y23.0 Z-4.0843 I0.0 J1.45
G1 Y33.0 Z-4.0998
G3 X104.4447 Y33.1237 Z-4.1 I-1.45 J0.0
G3 X103.0 Y34.45 I-1.4447 J-0.1237
G1 X100.0
G1 X99.25 Z-2.6
G1 X96.75
G1 X96.0 Z-4.1
G1 X60.0
G1 X59.25 Z-2.6
G1 X56.75
G1 X56.0 Z-4.1
G1 X53.0
G3 X51.55 Y33.0 I0.0 J-1.45
G1 Y23.0
G3 X53.0 Y21.55 I1.45 J0.0
G1 X56.0
G1 X56.75 Z-2.6
G1 X59.25
G1 X60.0 Z-4.1
G1 X96.0
G1 X96.75 Z-2.6
G1 X99.25
G1 X100.0 Z-4.1
G1 X103.0
G3 X104.45 Y23.0 I0.0 J1.45
G1 Y33.0
G3 X104.4447 Y33.1237 I-1.45 J0.0
( jigg_1 )
S1000
G0 Z3.0
G0 X182.75 Y96.0
G0 Z1.0
G1 F200.0 Z0.0
G1 F700.0 Y12.25 Z-0.0329
G1 X17.25 Z-0.098
G1 Y96.0 Z-0.131
G3 X16.0 Y97.25 Z-0.1317 I-1.25 J0.0
G1 X1.0 Z-0.1376
G3 X-0.25 Y96.0 Z-0.1384 I0.0 J-1.25
G1 Y1.0 Z-0.1758
G3 X1.0 Y-0.25 Z-0.1765 I1.25 J0.0
G1 X199.0 Z-0.2544
G3 X200.25 Y1.0 Z-0.2552 I0.0 J1.25
G1 Y96.0 Z-0.2926
G3 X199.0 Y97.25 Z-0.2933 I-1.25 J0.0
G1 X184.0 Z-0.2992
G3 X182.75 Y96.0 Z-0.3 I0.0 J-1.25
G1 Y12.25 Z-0.3329
G1 X17.25 Z-0.398
G1 Y96.0 Z-0.431
G3 X16.0 Y97.25 Z-0.4317 I-1.25 J0.0
G1 X1.0 Z-0.4376
G3 X-0.25 Y96.0 Z-0.4384 I0.0 J-1.25
G1 Y1.0 Z-0.4758
G3 X1.0 Y-0.25 Z-0.4765 I1.25 J0.0
G1 X199.0 Z-0.5544
G3 X200.25 Y1.0 Z-0.5552 I0.0 J1.25
G1 Y96.0 Z-0.5926
G3 X199.0 Y97.25 Z-0.5933 I-1.25 J0.0
G1 X184.0 Z-0.5992
G3 X182.75 Y96.0 Z-0.6 I0.0 J-1.25
G1 Y12.25 Z-0.6329
G1 X17.25 Z-0.698
G1 Y96.0 Z-0.731
G3 X16.0 Y97.25 Z-0.7317 I-1.25 J0.0
G1 X1.0 Z-0.7376
G3 X-0.25 Y96.0 Z-0.7384 I0.0 J-1.25
G1 Y1.0 Z-0.7758
G3 X1.0 Y-0.25 Z-0.7765 I1.25 J0.0
G1 X199.0 Z-0.8544
G3 X200.25 Y1.0 Z-0.8552 I0.0 J1.25
G1 Y96.0 Z-0.8926
G3 X199.0 Y97.25 Z-0.8933 I-1.25 J0.0
G1 X184.0 Z-0.8992
G3 X182.75 Y96.0 Z-0.9 I0.0 J-1.25
G1 Y12.25 Z-0.9329
G1 X17.25 Z-0.998
G1 Y96.0 Z-1.031
G3 X16.0 Y97.25 Z-1.0317 I-1.25 J0.0
G1 X1.0 Z-1.0376
G3 X-0.25 Y96.0 Z-1.0384 I0.0 J-1.25
G1 Y1.0 Z-1.0758
G3 X1.0 Y-0.25 Z-1.0765 I1.25 J0.0
G1 X199.0 Z-1.1544
G3 X200.25 Y1.0 Z-1.1552 I0.0 J1.25
G1 Y96.0 Z-1.1926
G3 X199.0 Y97.25 Z-1.1933 I-1.25 J0.0
G1 X184.0 Z-1.1992
G3 X182.75 Y96.0 Z-1.2 I0.0 J-1.25
G1 Y12.25 Z-1.2329
G1 X17.25 Z-1.298
G1 Y96.0 Z-1.331
G3 X16.0 Y97.25 Z-1.3317 I-1.25 J0.0
G1 X1.0 Z-1.3376
G3 X-0.25 Y96.0 Z-1.3384 I0.0 J-1.25
G1 Y1.0 Z-1.3758
G3 X1.0 Y-0.25 Z-1.3765 I1.25 J0.0
G1 X199.0 Z-1.4544
G3 X200.25 Y1.0 Z-1.4552 I0.0 J1.25
G1 Y96.0 Z-1.4926
G3 X199.0 Y97.25 Z-1.4933 I-1.25 J0.0
G1 X184.0 Z-1.4992
G3 X182.75 Y96.0 Z-1.5 I0.0 J-1.25
G1 Y12.25 Z-1.5329
G1 X17.25 Z-1.598
G1 Y96.0 Z-1.631
G3 X16.0 Y97.25 Z-1.6317 I-1.25 J0.0
G1 X1.0 Z-1.6376
G3 X-0.25 Y96.0 Z-1.6384 I0.0 J-1.25
G1 Y1.0 Z-1.6758
G3 X1.0 Y-0.25 Z-1.6765 I1.25 J0.0
G1 X199.0 Z-1.7544
G3 X200.25 Y1.0 Z-1.7552 I0.0 J1.25
G1 Y96.0 Z-1.7926
G3 X199.0 Y97.25 Z-1.7933 I-1.25 J0.0
G1 X184.0 Z-1.7992
G3 X182.75 Y96.0 Z-1.8 I0.0 J-1.25
G1 Y12.25 Z-1.8329
G1 X17.25 Z-1.898
G1 Y96.0 Z-1.931
G3 X16.0 Y97.25 Z-1.9317 I-1.25 J0.0
G1 X1.0 Z-1.9376
G3 X-0.25 Y96.0 Z-1.9384 I0.0 J-1.25
G1 Y92.25 Z-1.9399
G1 Y91.25 Z-1.9403
G1 Y88.75 Z-1.9413
G1 Y87.75 Z-1.9417
G1 Y10.25 Z-1.9721
G1 Y9.25 Z-1.9725
G1 Y6.75 Z-1.9735
G1 Y5.75 Z-1.9739
G1 Y1.0 Z-1.9758
G3 X1.0 Y-0.25 Z-1.9765 I1.25 J0.0
G1 X4.75 Z-1.978
G1 X5.75 Z-1.9784
G1 X8.25 Z-1.9794
G1 X9.25 Z-1.9798
G1 X189.75 Z-2.0508
G1 X190.75 Z-2.0512
G1 X193.25 Z-2.0522
G1 X194.25 Z-2.0526
G1 X199.0 Z-2.0544
G3 X200.25 Y1.0 Z-2.0552 I0.0 J1.25
G1 Y4.75 Z-2.0567
G1 Y5.75 Z-2.0571
G1 Y8.25 Z-2.058
G1 Y9.25 Z-2.0584
G1 Y88.75 Z-2.0897
G1 Y89.75 Z-2.0901
G1 Y92.25 Z-2.0911
G1 Y93.25 Z-2.0915
G1 Y96.0 Z-2.0926
G3 X199.0 Y97.25 Z-2.0933 I-1.25 J0.0
G1 X184.0 Z-2.0992
G3 X182.75 Y96.0 Z-2.1 I0.0 J-1.25
G1 Y12.25 Z-2.1329
G1 X17.25 Z-2.198
G1 Y96.0 Z-2.231
G3 X16.0 Y97.25 Z-2.2317 I-1.25 J0.0
G1 X1.0 Z-2.2376
G3 X-0.25 Y96.0 Z-2.2384 I0.0 J-1.25
G1 Y92.25 Z-2.2399
G1 Y91.25 Z-2.1
G1 Y88.75
G1 Y87.75 Z-2.2417
G1 Y10.25 Z-2.2721
G1 Y9.25 Z-2.1
G1 Y6.75
G1 Y5.75 Z-2.2739
G1 Y1.0 Z-2.2758
G3 X1.0 Y-0.25 Z-2.2765 I1.25 J0.0
G1 X4.75 Z-2.278
G1 X5.75 Z-2.1
G1 X8.25
G1 X9.25 Z-2.2798
G1 X189.75 Z-2.3508
G1 X190.75 Z-2.1
G1 X193.25
G1 X194.25 Z-2.3526
G1 X199.0 Z-2.3544
G3 X200.25 Y1.0 Z-2.3552 I0.0 J1.25
G1 Y4.75 Z-2.3567
G1 Y5.75 Z-2.1
G1 Y8.25
G1 Y9.25 Z-2.3584
G1 Y88.75 Z-2.3897
G1 Y89.75 Z-2.1
G1 Y92.25
G1 Y93.25 Z-2.3915
G1 Y96.0 Z-2.3926
G3 X199.0 Y97.25 Z-2.3933 I-1.25 J0.0
G1 X184.0 Z-2.3992
G3 X182.75 Y96.0 Z-2.4 I0.0 J-1.25
G1 Y12.25 Z-2.4329
G1 X17.25 Z-2.498
G1 Y96.0 Z-2.531
G3 X16.0 Y97.25 Z-2.5317 I-1.25 J0.0
G1 X1.0 Z-2.5376
G3 X-0.25 Y96.0 Z-2.5384 I0.0 J-1.25
G1 Y92.25 Z-2.5399
G1 Y91.25 Z-2.1
G1 Y88.75
G1 Y87.75 Z-2.5417
G1 Y10.25 Z-2.5721
G1 Y9.25 Z-2.1
G1 Y6.75
G1 Y5.75 Z-2.5739
G1 Y1.0 Z-2.5758
G3 X1.0 Y-0.25 Z-2.5765 I1.25 J0.0
G1 X4.75 Z-2.578
G1 X5.75 Z-2.1
G1 X8.25
G1 X9.25 Z-2.5798
G1 X189.75 Z-2.6508
G1 X190.75 Z-2.1
G1 X193.25
G1 X194.25 Z-2.6526
G1 X199.0 Z-2.6544
G3 X200.25 Y1.0 Z-2.6552 I0.0 J1.25
G1 Y4.75 Z-2.6567
G1 Y5.75 Z-2.1
G1 Y8.25
G1 Y9.25 Z-2.6584
G1 Y88.75 Z-2.6897
G1 Y89.75 Z-2.1
G1 Y92.25
G1 Y93.25 Z-2.6915
G1 Y96.0 Z-2.6926
G3 X199.0 Y97.25 Z-2.6933 I-1.25 J0.0
G1 X184.0 Z-2.6992
G3 X182.75 Y96.0 Z-2.7 I0.0 J-1.25
G1 Y12.25 Z-2.7329
G1 X17.25 Z-2.798
G1 Y96.0 Z-2.831
G3 X16.0 Y97.25 Z-2.8317 I-1.25 J0.0
G1 X1.0 Z-2.8376
G3 X-0.25 Y96.0 Z-2.8384 I0.0 J-1.25
G1 Y92.25 Z-2.8399
G1 Y91.25 Z-2.1
G1 Y88.75
G1 Y87.75 Z-2.8417
G1 Y10.25 Z-2.8721
G1 Y9.25 Z-2.1
G1 Y6.75
G1 Y5.75 Z-2.8739
G1 Y1.0 Z-2.8758
G3 X1.0 Y-0.25 Z-2.8765 I1.25 J0.0
G1 X4.75 Z-2.878
G1 X5.75 Z-2.1
G1 X8.25
G1 X9.25 Z-2.8798
G1 X189.75 Z-2.9508
G1 X190.75 Z-2.1
G1 X193.25
G1 X194.25 Z-2.9526
G1 X199.0 Z-2.9544
G3 X200.25 Y1.0 Z-2.9552 I0.0 J1.25
G1 Y4.75 Z-2.9567
G1 Y5.75 Z-2.1
G1 Y8.25
G1 Y9.25 Z-2.9584
G1 Y88.75 Z-2.9897
G1 Y89.75 Z-2.1
G1 Y92.25
G1 Y93.25 Z-2.9915
G1 Y96.0 Z-2.9926
G3 X199.0 Y97.25 Z-2.9933 I-1.25 J0.0
G1 X184.0 Z-2.9992
G3 X182.75 Y96.0 Z-3.0 I0.0 J-1.25
G1 Y12.25 Z-3.0329
G1 X17.25 Z-3.098
G1 Y96.0 Z-3.131
G3 X16.0 Y97.25 Z-3.1317 I-1.25 J0.0
G1 X1.0 Z-3.1376
G3 X-0.25 Y96.0 Z-3.1384 I0.0 J-1.25
G1 Y92.25 Z-3.1399
G1 Y91.25 Z-2.1
G1 Y88.75
G1 Y87.75 Z-3.1417
G1 Y10.25 Z-3.1721
G1 Y9.25 Z-2.1
G1 Y6.75
G1 Y5.75 Z-3.1739
G1 Y1.0 Z-3.1758
G3 X1.0 Y-0.25 Z-3.1765 I1.25 J0.0
G1 X4.75 Z-3.178
G1 X5.75 Z-2.1
G1 X8.25
G1 X9.25 Z-3.1798
G1 X189.75 Z-3.2508
G1 X190.75 Z-2.1
G1 X193.25
G1 X194.25 Z-3.2526
G1 X199.0 Z-3.2544
G3 X200.25 Y1.0 Z-3.2552 I0.0 J1.25
G1 Y4.75 Z-3.2567
G1 Y5.75 Z-2.1
G1 Y8.25
G1 Y9.25 Z-3.2584
G1 Y88.75 Z-3.2897
G1 Y89.75 Z-2.1
G1 Y92.25
G1 Y93.25 Z-3.2915
G1 Y96.0 Z-3.2926
G3 X199.0 Y97.25 Z-3.2933 I-1.25 J0.0
G1 X184.0 Z-3.2992
G3 X182.75 Y96.0 Z-3.3 I0.0 J-1.25
G1 Y12.25 Z-3.3329
G1 X17.25 Z-3.398
G1 Y96.0 Z-3.431
G3 X16.0 Y97.25 Z-3.4317 I-1.25 J0.0
G1 X1.0 Z-3.4376
G3 X-0.25 Y96.0 Z-3.4384 I0.0 J-1.25
G1 Y92.25 Z-3.4399
G1 Y91.25 Z-2.1
G1 Y88.75
G1 Y87.75 Z-3.4417
G1 Y10.25 Z-3.4721
G1 Y9.25 Z-2.1
G1 Y6.75
G1 Y5.75 Z-3.4739
G1 Y1.0 Z-3.4758
G3 X1.0 Y-0.25 Z-3.4765 I1.25 J0.0
G1 X4.75 Z-3.478
G1 X5.75 Z-2.1
G1 X8.25
G1 X9.25 Z-3.4798
G1 X189.75 Z-3.5508
G1 X190.75 Z-2.1
G1 X193.25
G1 X194.25 Z-3.5526
G1 X199.0 Z-3.5544
G3 X200.25 Y1.0 Z-3.5552 I0.0 J1.25
G1 Y4.75 Z-3.5567
G1 Y5.75 Z-2.1
G1 Y8.25
G1 Y9.25 Z-3.5584
G1 Y88.75 Z-3.5897
G1 Y89.75 Z-2.1
G1 Y92.25
G1 Y93.25 Z-3.5915
G1 Y96.0 Z-3.5926
G3 X199.0 Y97.25 Z-3.5933 I-1.25 J0.0
G1 X184.0 Z-3.5992
G3 X182.75 Y96.0 Z-3.6 I0.0 J-1.25
G1 Y12.25 Z-3.6329
G1 X17.25 Z-3.698
G1 Y96.0 Z-3.731
G3 X16.0 Y97.25 Z-3.7317 I-1.25 J0.0
G1 X1.0 Z-3.7376
G3 X-0.25 Y96.0 Z-3.7384 I0.0 J-1.25
G1 Y92.25 Z-3.7399
G1 Y91.25 Z-2.1
G1 Y88.75
G1 Y87.75 Z-3.7417
G1 Y10.25 Z-3.7721
G1 Y9.25 Z-2.1
G1 Y6.75
G1 Y5.75 Z-3.7739
G1 Y1.0 Z-3.7758
G3 X1.0 Y-0.25 Z-3.7765 I1.25 J0.0
G1 X4.75 Z-3.778
G1 X5.75 Z-2.1
G1 X8.25
G1 X9.25 Z-3.7798
G1 X189.75 Z-3.8508
G1 X190.75 Z-2.1
G1 X193.25
G1 X194.25 Z-3.8526
G1 X199.0 Z-3.8544
G3 X200.25 Y1.0 Z-3.8552 I0.0 J1.25
G1 Y4.75 Z-3.8567
G1 Y5.75 Z-2.1
G1 Y8.25
G1 Y9.25 Z-3.8584
G1 Y88.75 Z-3.8897
G1 Y89.75 Z-2.1
G1 Y92.25
G1 Y93.25 Z-3.8915
G1 Y96.0 Z-3.8926
G3 X199.0 Y97.25 Z-3.8933 I-1.25 J0.0
G1 X184.0 Z-3.8992
G3 X182.75 Y96.0 Z-3.9 I0.0 J-1.25
G1 Y12.25 Z-3.922
G1 X17.25 Z-3.9654
G1 Y96.0 Z-3.9873
G3 X16.0 Y97.25 Z-3.9878 I-1.25 J0.0
G1 X1.0 Z-3.9918
G3 X-0.25 Y96.0 Z-3.9923 I0.0 J-1.25
G1 Y92.25 Z-3.9933
G1 Y91.25 Z-2.1
G1 Y88.75
G1 Y87.75 Z-3.9944
G1 Y10.25 Z-4.0148
G1 Y9.25 Z-2.1
G1 Y6.75
G1 Y5.75 Z-4.0159
G1 Y1.0 Z-4.0172
G3 X1.0 Y-0.25 Z-4.0177 I1.25 J0.0
G1 X4.75 Z-4.0187
G1 X5.75 Z-2.1
G1 X8.25
G1 X9.25 Z-4.0199
G1 X189.75 Z-4.0672
G1 X190.75 Z-2.1
G1 X193.25
G1 X194.25 Z-4.0684
G1 X199.0 Z-4.0696
G3 X200.25 Y1.0 Z-4.0701 I0.0 J1.25
G1 Y4.75 Z-4.0711
G1 Y5.75 Z-2.1
G1 Y8.25
G1 Y9.25 Z-4.0723
G1 Y88.75 Z-4.0931
G1 Y89.75 Z-2.1
G1 Y92.25
G1 Y93.25 Z-4.0943
G1 Y96.0 Z-4.095
G3 X199.0 Y97.25 Z-4.0956 I-1.25 J0.0
G1 X184.0 Z-4.0995
G3 X182.75 Y96.0 Z-4.1 I0.0 J-1.25
G1 Y12.25
G1 X17.25
G1 Y96.0
G3 X16.0 Y97.25 I-1.25 J0.0
G1 X1.0
G3 X-0.25 Y96.0 I0.0 J-1.25
G1 Y92.25
G1 Y91.25 Z-2.1
G1 Y88.75
G1 Y87.75 Z-4.1
G1 Y10.25
G1 Y9.25 Z-2.1
G1 Y6.75
G1 Y5.75 Z-4.1
G1 Y1.0
G3 X1.0 Y-0.25 I1.25 J0.0
G1 X4.75
G1 X5.75 Z-2.1
G1 X8.25
G1 X9.25 Z-4.1
G1 X189.75
G1 X190.75 Z-2.1
G1 X193.25
G1 X194.25 Z-4.1
G1 X199.0
G3 X200.25 Y1.0 I0.0 J1.25
G1 Y4.75
G1 Y5.75 Z-2.1
G1 Y8.25
G1 Y9.25 Z-4.1
G1 Y88.75
G1 Y89.75 Z-2.1
G1 Y92.25
G1 Y93.25 Z-4.1
G1 Y96.0
G3 X199.0 Y97.25 I-1.25 J0.0
G1 X184.0
G3 X182.75 Y96.0 I0.0 J-1.25
( jigg_2 )
S1000
G0 Z3.0
G0 X43.25 Y20.0
G0 Z1.0
G1 F200.0 Z0.0
G1 F700.0 Y103.75 Z-0.0329
G1 X208.75 Z-0.098
G1 Y20.0 Z-0.131
G3 X210.0 Y18.75 Z-0.1317 I1.25 J0.0
G1 X225.0 Z-0.1376
G3 X226.25 Y20.0 Z-0.1384 I0.0 J1.25
G1 Y115.0 Z-0.1758
G3 X225.0 Y116.25 Z-0.1765 I-1.25 J0.0
G1 X27.0 Z-0.2544
G3 X25.75 Y115.0 Z-0.2552 I0.0 J-1.25
G1 Y20.0 Z-0.2926
G3 X27.0 Y18.75 Z-0.2933 I1.25 J0.0
G1 X42.0 Z-0.2992
G3 X43.25 Y20.0 Z-0.3 I0.0 J1.25
G1 Y103.75 Z-0.3329
G1 X208.75 Z-0.398
G1 Y20.0 Z-0.431
G3 X210.0 Y18.75 Z-0.4317 I1.25 J0.0
G1 X225.0 Z-0.4376
G3 X226.25 Y20.0 Z-0.4384 I0.0 J1.25
G1 Y115.0 Z-0.4758
G3 X225.0 Y116.25 Z-0.4765 I-1.25 J0.0
G1 X27.0 Z-0.5544
G3 X25.75 Y115.0 Z-0.5552 I0.0 J-1.25
G1 Y20.0 Z-0.5926
G3 X27.0 Y18.75 Z-0.5933 I1.25 J0.0
G1 X42.0 Z-0.5992
G3 X43.25 Y20.0 Z-0.6 I0.0 J1.25
G1 Y103.75 Z-0.6329
G1 X208.75 Z-0.698
G1 Y20.0 Z-0.731
G3 X210.0 Y18.75 Z-0.7317 I1.25 J0.0
G1 X225.0 Z-0.7376
G3 X226.25 Y20.0 Z-0.7384 I0.0 J1.25
G1 Y115.0 Z-0.7758
G3 X225.0 Y116.25 Z-0.7765 I-1.25 J0.0
G1 X27.0 Z-0.8544
G3 X25.75 Y115.0 Z-0.8552 I0.0 J-1.25
G1 Y20.0 Z-0.8926
G3 X27.0 Y18.75 Z-0.8933 I1.25 J0.0
G1 X42.0 Z-0.8992
G3 X43.25 Y20.0 Z-0.9 I0.0 J1.25
G1 Y103.75 Z-0.9329
G1 X208.75 Z-0.998
G1 Y20.0 Z-1.031
G3 X210.0 Y18.75 Z-1.0317 I1.25 J0.0
G1 X225.0 Z-1.0376
G3 X226.25 Y20.0 Z-1.0384 I0.0 J1.25
G1 Y115.0 Z-1.0758
G3 X225.0 Y116.25 Z-1.0765 I-1.25 J0.0
G1 X27.0 Z-1.1544
G3 X25.75 Y115.0 Z-1.1552 I0.0 J-1.25
G1 Y20.0 Z-1.1926
G3 X27.0 Y18.75 Z-1.1933 I1.25 J0.0
G1 X42.0 Z-1.1992
G3 X43.25 Y20.0 Z-1.2 I0.0 J1.25
G1 Y103.75 Z-1.2329
G1 X208.75 Z-1.298
G1 Y20.0 Z-1.331
G3 X210.0 Y18.75 Z-1.3317 I1.25 J0.0
G1 X225.0 Z-1.3376
G3 X226.25 Y20.0 Z-1.3384 I0.0 J1.25
G1 Y115.0 Z-1.3758
G3 X225.0 Y116.25 Z-1.3765 I-1.25 J0.0
G1 X27.0 Z-1.4544
G3 X25.75 Y115.0 Z-1.4552 I0.0 J-1.25
G1 Y20.0 Z-1.4926
G3 X27.0 Y18.75 Z-1.4933 I1.25 J0.0
G1 X42.0 Z-1.4992
G3 X43.25 Y20.0 Z-1.5 I0.0 J1.25
G1 Y103.75 Z-1.5329
G1 X208.75 Z-1.598
G1 Y20.0 Z-1.631
G3 X210.0 Y18.75 Z-1.6317 I1.25 J0.0
G1 X225.0 Z-1.6376
G3 X226.25 Y20.0 Z-1.6384 I0.0 J1.25
G1 Y115.0 Z-1.6758
G3 X225.0 Y116.25 Z-1.6765 I-1.25 J0.0
G1 X27.0 Z-1.7544
G3 X25.75 Y115.0 Z-1.7552 I0.0 J-1.25
G1 Y20.0 Z-1.7926
G3 X27.0 Y18.75 Z-1.7933 I1.25 J0.0
G1 X42.0 Z-1.7992
G3 X43.25 Y20.0 Z-1.8 I0.0 J1.25
G1 Y103.75 Z-1.8329
G1 X208.75 Z-1.898
G1 Y20.0 Z-1.931
G3 X210.0 Y18.75 Z-1.9317 I1.25 J0.0
G1 X225.0 Z-1.9376
G3 X226.25 Y20.0 Z-1.9384 I0.0 J1.25
G1 Y22.75 Z-1.9395
G1 Y23.75 Z-1.9399
G1 Y26.25 Z-1.9409
G1 Y27.25 Z-1.9413
G1 Y105.75 Z-1.9721
G1 Y106.75 Z-1.9725
G1 Y109.25 Z-1.9735
G1 Y110.25 Z-1.9739
G1 Y115.0 Z-1.9758
G3 X225.0 Y116.25 Z-1.9765 I-1.25 J0.0
G1 X221.25 Z-1.978
G1 X220.25 Z-1.9784
G1 X217.75 Z-1.9794
G1 X216.75 Z-1.9798
G1 X36.25 Z-2.0508
G1 X35.25 Z-2.0512
G1 X32.75 Z-2.0522
G1 X31.75 Z-2.0526
G1 X27.0 Z-2.0544
G3 X25.75 Y115.0 Z-2.0552 I0.0 J-1.25
G1 Y111.25 Z-2.0567
G1 Y110.25 Z-2.0571
G1 Y107.75 Z-2.058
G1 Y106.75 Z-2.0584
G1 Y27.25 Z-2.0897
G1 Y26.25 Z-2.0901
G1 Y23.75 Z-2.0911
G1 Y22.75 Z-2.0915
G1 Y20.0 Z-2.0926
G3 X27.0 Y18.75 Z-2.0933 I1.25 J0.0
G1 X42.0 Z-2.0992
G3 X43.25 Y20.0 Z-2.1 I0.0 J1.25
G1 Y103.75 Z-2.1329
G1 X208.75 Z-2.198
G1 Y20.0 Z-2.231
G3 X210.0 Y18.75 Z-2.2317 I1.25 J0.0
G1 X225.0 Z-2.2376
G3 X226.25 Y20.0 Z-2.2384 I0.0 J1.25
G1 Y22.75 Z-2.2395
G1 Y23.75 Z-2.1
G1 Y26.25
G1 Y27.25 Z-2.2413
G1 Y105.75 Z-2.2721
G1 Y106.75 Z-2.1
G1 Y109.25
G1 Y110.25 Z-2.2739
G1 Y115.0 Z-2.2758
G3 X225.0 Y116.25 Z-2.2765 I-1.25 J0.0
G1 X221.25 Z-2.278
G1 X220.25 Z-2.1
G1 X217.75
G1 X216.75 Z-2.2798
G1 X36.25 Z-2.3508
G1 X35.25 Z-2.1
G1 X32.75
G1 X31.75 Z-2.3526
G1 X27.0 Z-2.3544
G3 X25.75 Y115.0 Z-2.3552 I0.0 J-1.25
G1 Y111.25 Z-2.3567
G1 Y110.25 Z-2.1
G1 Y107.75
G1 Y106.75 Z-2.3584
G1 Y27.25 Z-2.3897
G1 Y26.25 Z-2.1
G1 Y23.75
G1 Y22.75 Z-2.3915
G1 Y20.0 Z-2.3926
G3 X27.0 Y18.75 Z-2.3933 I1.25 J0.0
G1 X42.0 Z-2.3992
G3 X43.25 Y20.0 Z-2.4 I0.0 J1.25
G1 Y103.75 Z-2.4329
G1 X208.75 Z-2.498
G1 Y20.0 Z-2.531
G3 X210.0 Y18.75 Z-2.5317 I1.25 J0.0
G1 X225.0 Z-2.5376
G3 X226.25 Y20.0 Z-2.5384 I0.0 J1.25
G1 Y22.75 Z-2.5395
G1 Y23.75 Z-2.1
G1 Y26.25
G1 Y27.25 Z-2.5413
G1 Y105.75 Z-2.5721
G1 Y106.75 Z-2.1
G1 Y109.25
G1 Y110.25 Z-2.5739
G1 Y115.0 Z-2.5758
G3 X225.0 Y116.25 Z-2.5765 I-1.25 J0.0
G1 X221.25 Z-2.578
G1 X220.25 Z-2.1
G1 X217.75
G1 X216.75 Z-2.5798
G1 X36.25 Z-2.6508
G1 X35.25 Z-2.1
G1 X32.75
G1 X31.75 Z-2.6526
G1 X27.0 Z-2.6544
G3 X25.75 Y115.0 Z-2.6552 I0.0 J-1.25
G1 Y111.25 Z-2.6567
G1 Y110.25 Z-2.1
G1 Y107.75
G1 Y106.75 Z-2.6584
G1 Y27.25 Z-2.6897
G1 Y26.25 Z-2.1
G1 Y23.75
G1 Y22.75 Z-2.6915
G1 Y20.0 Z-2.6926
G3 X27.0 Y18.75 Z-2.6933 I1.25 J0.0
G1 X42.0 Z-2.6992
G3 X43.25 Y20.0 Z-2.7 I0.0 J1.25
G1 Y103.75 Z-2.7329
G1 X208.75 Z-2.798
G1 Y20.0 Z-2.831
G3 X210.0 Y18.75 Z-2.8317 I1.25 J0.0
G1 X225.0 Z-2.8376
G3 X226.25 Y20.0 Z-2.8384 I0.0 J1.25
G1 Y22.75 Z-2.8395
G1 Y23.75 Z-2.1
G1 Y26.25
G1 Y27.25 Z-2.8413
G1 Y105.75 Z-2.8721
G1 Y106.75 Z-2.1
G1 Y109.25
G1 Y110.25 Z-2.8739
G1 Y115.0 Z-2.8758
G3 X225.0 Y116.25 Z-2.8765 I-1.25 J0.0
G1 X221.25 Z-2.878
G1 X220.25 Z-2.1
G1 X217.75
G1 X216.75 Z-2.8798
G1 X36.25 Z-2.9508
G1 X35.25 Z-2.1
G1 X32.75
G1 X31.75 Z-2.9526
G1 X27.0 Z-2.9544
G3 X25.75 Y115.0 Z-2.9552 I0.0 J-1.25
G1 Y111.25 Z-2.9567
G1 Y110.25 Z-2.1
G1 Y107.75
G1 Y106.75 Z-2.9584
G1 Y27.25 Z-2.9897
G1 Y26.25 Z-2.1
G1 Y23.75
G1 Y22.75 Z-2.9915
G1 Y20.0 Z-2.9926
G3 X27.0 Y18.75 Z-2.9933 I1.25 J0.0
G1 X42.0 Z-2.9992
G3 X43.25 Y20.0 Z-3.0 I0.0 J1.25
G1 Y103.75 Z-3.0329
G1 X208.75 Z-3.098
G1 Y20.0 Z-3.131
G3 X210.0 Y18.75 Z-3.1317 I1.25 J0.0
G1 X225.0 Z-3.1376
G3 X226.25 Y20.0 Z-3.1384 I0.0 J1.25
G1 Y22.75 Z-3.1395
G1 Y23.75 Z-2.1
G1 Y26.25
G1 Y27.25 Z-3.1413
G1 Y105.75 Z-3.1721
G1 Y106.75 Z-2.1
G1 Y109.25
G1 Y110.25 Z-3.1739
G1 Y115.0 Z-3.1758
G3 X225.0 Y116.25 Z-3.1765 I-1.25 J0.0
G1 X221.25 Z-3.178
G1 X220.25 Z-2.1
G1 X217.75
G1 X216.75 Z-3.1798
G1 X36.25 Z-3.2508
G1 X35.25 Z-2.1
G1 X32.75
G1 X31.75 Z-3.2526
G1 X27.0 Z-3.2544
G3 X25.75 Y115.0 Z-3.2552 I0.0 J-1.25
G1 Y111.25 Z-3.2567
G1 Y110.25 Z-2.1
G1 Y107.75
G1 Y106.75 Z-3.2584
G1 Y27.25 Z-3.2897
G1 Y26.25 Z-2.1
G1 Y23.75
G1 Y22.75 Z-3.2915
G1 Y20.0 Z-3.2926
G3 X27.0 Y18.75 Z-3.2933 I1.25 J0.0
G1 X42.0 Z-3.2992
G3 X43.25 Y20.0 Z-3.3 I0.0 J1.25
G1 Y103.75 Z-3.3329
G1 X208.75 Z-3.398
G1 Y20.0 Z-3.431
G3 X210.0 Y18.75 Z-3.4317 I1.25 J0.0
G1 X225.0 Z-3.4376
G3 X226.25 Y20.0 Z-3.4384 I0.0 J1.25
G1 Y22.75 Z-3.4395
G1 Y23.75 Z-2.1
G1 Y26.25
G1 Y27.25 Z-3.4413
G1 Y105.75 Z-3.4721
G1 Y106.75 Z-2.1
G1 Y109.25
G1 Y110.25 Z-3.4739
G1 Y115.0 Z-3.4758
G3 X225.0 Y116.25 Z-3.4765 I-1.25 J0.0
G1 X221.25 Z-3.478
G1 X220.25 Z-2.1
G1 X217.75
G1 X216.75 Z-3.4798
G1 X36.25 Z-3.5508
G1 X35.25 Z-2.1
G1 X32.75
G1 X31.75 Z-3.5526
G1 X27.0 Z-3.5544
G3 X25.75 Y115.0 Z-3.5552 I0.0 J-1.25
G1 Y111.25 Z-3.5567
G1 Y110.25 Z-2.1
G1 Y107.75
G1 Y106.75 Z-3.5584
G1 Y27.25 Z-3.5897
G1 Y26.25 Z-2.1
G1 Y23.75
G1 Y22.75 Z-3.5915
G1 Y20.0 Z-3.5926
G3 X27.0 Y18.75 Z-3.5933 I1.25 J0.0
G1 X42.0 Z-3.5992
G3 X43.25 Y20.0 Z-3.6 I0.0 J1.25
G1 Y103.75 Z-3.6329
G1 X208.75 Z-3.698
G1 Y20.0 Z-3.731
G3 X210.0 Y18.75 Z-3.7317 I1.25 J0.0
G1 X225.0 Z-3.7376
G3 X226.25 Y20.0 Z-3.7384 I0.0 J1.25
G1 Y22.75 Z-3.7395
G1 Y23.75 Z-2.1
G1 Y26.25
G1 Y27.25 Z-3.7413
G1 Y105.75 Z-3.7721
G1 Y106.75 Z-2.1
G1 Y109.25
G1 Y110.25 Z-3.7739
G1 Y115.0 Z-3.7758
G3 X225.0 Y116.25 Z-3.7765 I-1.25 J0.0
G1 X221.25 Z-3.778
G1 X220.25 Z-2.1
G1 X217.75
G1 X216.75 Z-3.7798
G1 X36.25 Z-3.8508
G1 X35.25 Z-2.1
G1 X32.75
G1 X31.75 Z-3.8526
G1 X27.0 Z-3.8544
G3 X25.75 Y115.0 Z-3.8552 I0.0 J-1.25
G1 Y111.25 Z-3.8567
G1 Y110.25 Z-2.1
G1 Y107.75
G1 Y106.75 Z-3.8584
G1 Y27.25 Z-3.8897
G1 Y26.25 Z-2.1
G1 Y23.75
G1 Y22.75 Z-3.8915
G1 Y20.0 Z-3.8926
G3 X27.0 Y18.75 Z-3.8933 I1.25 J0.0
G1 X42.0 Z-3.8992
G3 X43.25 Y20.0 Z-3.9 I0.0 J1.25
G1 Y103.75 Z-3.922
G1 X208.75 Z-3.9654
G1 Y20.0 Z-3.9873
G3 X210.0 Y18.75 Z-3.9878 I1.25 J0.0
G1 X225.0 Z-3.9918
G3 X226.25 Y20.0 Z-3.9923 I0.0 J1.25
G1 Y22.75 Z-3.993
G1 Y23.75 Z-2.1
G1 Y26.25
G1 Y27.25 Z-3.9942
G1 Y105.75 Z-4.0148
G1 Y106.75 Z-2.1
G1 Y109.25
G1 Y110.25 Z-4.0159
G1 Y115.0 Z-4.0172
G3 X225.0 Y116.25 Z-4.0177 I-1.25 J0.0
G1 X221.25 Z-4.0187
G1 X220.25 Z-2.1
G1 X217.75
G1 X216.75 Z-4.0199
G1 X36.25 Z-4.0672
G1 X35.25 Z-2.1
G1 X32.75
G1 X31.75 Z-4.0684
G1 X27.0 Z-4.0696
G3 X25.75 Y115.0 Z-4.0701 I0.0 J-1.25
G1 Y111.25 Z-4.0711
G1 Y110.25 Z-2.1
G1 Y107.75
G1 Y106.75 Z-4.0723
G1 Y27.25 Z-4.0931
G1 Y26.25 Z-2.1
G1 Y23.75
G1 Y22.75 Z-4.0943
G1 Y20.0 Z-4.095
G3 X27.0 Y18.75 Z-4.0956 I1.25 J0.0
G1 X42.0 Z-4.0995
G3 X43.25 Y20.0 Z-4.1 I0.0 J1.25
G1 Y103.75
G1 X208.75
G1 Y20.0
G3 X210.0 Y18.75 I1.25 J0.0
G1 X225.0
G3 X226.25 Y20.0 I0.0 J1.25
G1 Y22.75
G1 Y23.75 Z-2.1
G1 Y26.25
G1 Y27.25 Z-4.1
G1 Y105.75
G1 Y106.75 Z-2.1
G1 Y109.25
G1 Y110.25 Z-4.1
G1 Y115.0
G3 X225.0 Y116.25 I-1.25 J0.0
G1 X221.25
G1 X220.25 Z-2.1
G1 X217.75
G1 X216.75 Z-4.1
G1 X36.25
G1 X35.25 Z-2.1
G1 X32.75
G1 X31.75 Z-4.1
G1 X27.0
G3 X25.75 Y115.0 I0.0 J-1.25
G1 Y111.25
G1 Y110.25 Z-2.1
G1 Y107.75
G1 Y106.75 Z-4.1
G1 Y27.25
G1 Y26.25 Z-2.1
G1 Y23.75
G1 Y22.75 Z-4.1
G1 Y20.0
G3 X27.0 Y18.75 I1.25 J0.0
G1 X42.0
G3 X43.25 Y20.0 I0.0 J1.25
G0 Z3.0
M5
M30
