( Made using CamBam - http://www.cambam.co.uk )
( ssc_plexi_COCK_JIGG 2/26/2021 9:12:10 PM )
( T2 : 2.0 )
( CUTVIEWER )
( FROM/0,0,5 )
( Select dummy tool to avoid warnings )
( TOOL/MILL,1,0,20.0,0 )
( STOCK/BLOCK,220.0,125.0,4.0,0.0,0.0,4.0 )
G21 G90 G91.1 G64 G40
G0 Z3.0
( T2 : 2.0 )
( Tool Taper coming soon )
( TOOL/MILL,2.0,0.0,0.0,0 )
T2 M6
( bars_cutout )
G17
M3 S1000
G0 X71.9 Y88.0
G0 Z1.0
G1 F300.0 Z0.0
G1 F700.0 Y38.0 Z-0.1182
G3 X73.0 Y36.9 Z-0.1223 I1.1 J0.0
G1 X83.0 Z-0.1459
G3 X84.1 Y38.0 Z-0.15 I0.0 J1.1
G1 Y88.0 Z-0.2682
G3 X83.0 Y89.1 Z-0.2723 I-1.1 J0.0
G1 X73.0 Z-0.2959
G3 X71.9 Y88.0 Z-0.3 I0.0 J-1.1
G1 Y38.0 Z-0.4182
G3 X73.0 Y36.9 Z-0.4223 I1.1 J0.0
G1 X83.0 Z-0.4459
G3 X84.1 Y38.0 Z-0.45 I0.0 J1.1
G1 Y88.0 Z-0.5682
G3 X83.0 Y89.1 Z-0.5723 I-1.1 J0.0
G1 X73.0 Z-0.5959
G3 X71.9 Y88.0 Z-0.6 I0.0 J-1.1
G1 Y38.0 Z-0.7182
G3 X73.0 Y36.9 Z-0.7223 I1.1 J0.0
G1 X83.0 Z-0.7459
G3 X84.1 Y38.0 Z-0.75 I0.0 J1.1
G1 Y88.0 Z-0.8682
G3 X83.0 Y89.1 Z-0.8723 I-1.1 J0.0
G1 X73.0 Z-0.8959
G3 X71.9 Y88.0 Z-0.9 I0.0 J-1.1
G1 Y38.0 Z-1.0182
G3 X73.0 Y36.9 Z-1.0223 I1.1 J0.0
G1 X83.0 Z-1.0459
G3 X84.1 Y38.0 Z-1.05 I0.0 J1.1
G1 Y88.0 Z-1.1682
G3 X83.0 Y89.1 Z-1.1723 I-1.1 J0.0
G1 X73.0 Z-1.1959
G3 X71.9 Y88.0 Z-1.2 I0.0 J-1.1
G1 Y38.0 Z-1.3182
G3 X73.0 Y36.9 Z-1.3223 I1.1 J0.0
G1 X83.0 Z-1.3459
G3 X84.1 Y38.0 Z-1.35 I0.0 J1.1
G1 Y88.0 Z-1.4682
G3 X83.0 Y89.1 Z-1.4723 I-1.1 J0.0
G1 X73.0 Z-1.4959
G3 X71.9 Y88.0 Z-1.5 I0.0 J-1.1
G1 Y38.0 Z-1.6182
G3 X73.0 Y36.9 Z-1.6223 I1.1 J0.0
G1 X83.0 Z-1.6459
G3 X84.1 Y38.0 Z-1.65 I0.0 J1.1
G1 Y88.0 Z-1.7682
G3 X83.0 Y89.1 Z-1.7723 I-1.1 J0.0
G1 X73.0 Z-1.7959
G3 X71.9 Y88.0 Z-1.8 I0.0 J-1.1
G1 Y38.0 Z-1.9182
G3 X73.0 Y36.9 Z-1.9223 I1.1 J0.0
G1 X83.0 Z-1.9459
G3 X84.1 Y38.0 Z-1.95 I0.0 J1.1
G1 Y88.0 Z-2.0682
G3 X83.0 Y89.1 Z-2.0723 I-1.1 J0.0
G1 X73.0 Z-2.0959
G3 X71.9 Y88.0 Z-2.1 I0.0 J-1.1
G1 Y69.75 Z-2.1431
G1 Y69.0 Z-2.1449
G1 Y67.0 Z-2.1496
G1 Y66.25 Z-2.1514
G1 Y44.75 Z-2.2022
G1 Y44.0 Z-2.2
G1 Y42.0
G1 Y41.25 Z-2.2105
G1 Y38.0 Z-2.2182
G3 X73.0 Y36.9 Z-2.2223 I1.1 J0.0
G1 X83.0 Z-2.2459
G3 X84.1 Y38.0 Z-2.25 I0.0 J1.1
G1 Y51.25 Z-2.2813
G1 Y52.0 Z-2.2
G1 Y54.0
G1 Y54.75 Z-2.2896
G1 Y76.25 Z-2.3404
G1 Y77.0 Z-2.2
G1 Y79.0
G1 Y79.75 Z-2.3487
G1 Y88.0 Z-2.3682
G3 X83.0 Y89.1 Z-2.3723 I-1.1 J0.0
G1 X73.0 Z-2.3959
G3 X71.9 Y88.0 Z-2.4 I0.0 J-1.1
G1 Y69.75 Z-2.4431
G1 Y69.0 Z-2.2
G1 Y67.0
G1 Y66.25 Z-2.4514
G1 Y44.75 Z-2.5022
G1 Y44.0 Z-2.2
G1 Y42.0
G1 Y41.25 Z-2.5105
G1 Y38.0 Z-2.5182
G3 X73.0 Y36.9 Z-2.5223 I1.1 J0.0
G1 X83.0 Z-2.5459
G3 X84.1 Y38.0 Z-2.55 I0.0 J1.1
G1 Y51.25 Z-2.5813
G1 Y52.0 Z-2.2
G1 Y54.0
G1 Y54.75 Z-2.5896
G1 Y76.25 Z-2.6404
G1 Y77.0 Z-2.2
G1 Y79.0
G1 Y79.75 Z-2.6487
G1 Y88.0 Z-2.6682
G3 X83.0 Y89.1 Z-2.6723 I-1.1 J0.0
G1 X73.0 Z-2.6959
G3 X71.9 Y88.0 Z-2.7 I0.0 J-1.1
G1 Y69.75 Z-2.7431
G1 Y69.0 Z-2.2
G1 Y67.0
G1 Y66.25 Z-2.7514
G1 Y44.75 Z-2.8022
G1 Y44.0 Z-2.2
G1 Y42.0
G1 Y41.25 Z-2.8105
G1 Y38.0 Z-2.8182
G3 X73.0 Y36.9 Z-2.8223 I1.1 J0.0
G1 X83.0 Z-2.8459
G3 X84.1 Y38.0 Z-2.85 I0.0 J1.1
G1 Y51.25 Z-2.8813
G1 Y52.0 Z-2.2
G1 Y54.0
G1 Y54.75 Z-2.8896
G1 Y76.25 Z-2.9404
G1 Y77.0 Z-2.2
G1 Y79.0
G1 Y79.75 Z-2.9487
G1 Y88.0 Z-2.9682
G3 X83.0 Y89.1 Z-2.9723 I-1.1 J0.0
G1 X73.0 Z-2.9959
G3 X71.9 Y88.0 Z-3.0 I0.0 J-1.1
G1 Y69.75 Z-3.0431
G1 Y69.0 Z-2.2
G1 Y67.0
G1 Y66.25 Z-3.0514
G1 Y44.75 Z-3.1022
G1 Y44.0 Z-2.2
G1 Y42.0
G1 Y41.25 Z-3.1105
G1 Y38.0 Z-3.1182
G3 X73.0 Y36.9 Z-3.1223 I1.1 J0.0
G1 X83.0 Z-3.1459
G3 X84.1 Y38.0 Z-3.15 I0.0 J1.1
G1 Y51.25 Z-3.1813
G1 Y52.0 Z-2.2
G1 Y54.0
G1 Y54.75 Z-3.1896
G1 Y76.25 Z-3.2404
G1 Y77.0 Z-2.2
G1 Y79.0
G1 Y79.75 Z-3.2487
G1 Y88.0 Z-3.2682
G3 X83.0 Y89.1 Z-3.2723 I-1.1 J0.0
G1 X73.0 Z-3.2959
G3 X71.9 Y88.0 Z-3.3 I0.0 J-1.1
G1 Y69.75 Z-3.3431
G1 Y69.0 Z-2.2
G1 Y67.0
G1 Y66.25 Z-3.3514
G1 Y44.75 Z-3.4022
G1 Y44.0 Z-2.2
G1 Y42.0
G1 Y41.25 Z-3.4105
G1 Y38.0 Z-3.4182
G3 X73.0 Y36.9 Z-3.4223 I1.1 J0.0
G1 X83.0 Z-3.4459
G3 X84.1 Y38.0 Z-3.45 I0.0 J1.1
G1 Y51.25 Z-3.4813
G1 Y52.0 Z-2.2
G1 Y54.0
G1 Y54.75 Z-3.4896
G1 Y76.25 Z-3.5404
G1 Y77.0 Z-2.2
G1 Y79.0
G1 Y79.75 Z-3.5487
G1 Y88.0 Z-3.5682
G3 X83.0 Y89.1 Z-3.5723 I-1.1 J0.0
G1 X73.0 Z-3.5959
G3 X71.9 Y88.0 Z-3.6 I0.0 J-1.1
G1 Y69.75 Z-3.6431
G1 Y69.0 Z-2.2
G1 Y67.0
G1 Y66.25 Z-3.6514
G1 Y44.75 Z-3.7022
G1 Y44.0 Z-2.2
G1 Y42.0
G1 Y41.25 Z-3.7105
G1 Y38.0 Z-3.7182
G3 X73.0 Y36.9 Z-3.7223 I1.1 J0.0
G1 X83.0 Z-3.7459
G3 X84.1 Y38.0 Z-3.75 I0.0 J1.1
G1 Y51.25 Z-3.7813
G1 Y52.0 Z-2.2
G1 Y54.0
G1 Y54.75 Z-3.7896
G1 Y76.25 Z-3.8404
G1 Y77.0 Z-2.2
G1 Y79.0
G1 Y79.75 Z-3.8487
G1 Y88.0 Z-3.8682
G3 X83.0 Y89.1 Z-3.8723 I-1.1 J0.0
G1 X73.0 Z-3.8959
G3 X71.9 Y88.0 Z-3.9 I0.0 J-1.1
G1 Y69.75 Z-3.9431
G1 Y69.0 Z-2.2
G1 Y67.0
G1 Y66.25 Z-3.9514
G1 Y44.75 Z-4.0022
G1 Y44.0 Z-2.2
G1 Y42.0
G1 Y41.25 Z-4.0105
G1 Y38.0 Z-4.0182
G3 X73.0 Y36.9 Z-4.0223 I1.1 J0.0
G1 X83.0 Z-4.0459
G3 X84.1 Y38.0 Z-4.05 I0.0 J1.1
G1 Y51.25 Z-4.0813
G1 Y52.0 Z-2.2
G1 Y54.0
G1 Y54.75 Z-4.0896
G1 Y76.25 Z-4.1404
G1 Y77.0 Z-2.2
G1 Y79.0
G1 Y79.75 Z-4.1487
G1 Y88.0 Z-4.1682
G3 X83.0 Y89.1 Z-4.1723 I-1.1 J0.0
G1 X73.0 Z-4.1959
G3 X71.9 Y88.0 Z-4.2 I0.0 J-1.1
G1 Y69.75
G1 Y69.0 Z-2.2
G1 Y67.0
G1 Y66.25 Z-4.2
G1 Y44.75
G1 Y44.0 Z-2.2
G1 Y42.0
G1 Y41.25 Z-4.2
G1 Y38.0
G3 X73.0 Y36.9 I1.1 J0.0
G1 X83.0
G3 X84.1 Y38.0 I0.0 J1.1
G1 Y51.25
G1 Y52.0 Z-2.2
G1 Y54.0
G1 Y54.75 Z-4.2
G1 Y76.25
G1 Y77.0 Z-2.2
G1 Y79.0
G1 Y79.75 Z-4.2
G1 Y88.0
G3 X83.0 Y89.1 I-1.1 J0.0
G1 X73.0
G3 X71.9 Y88.0 I0.0 J-1.1
G0 Z3.0
G0 X90.9
G0 Z1.0
G1 F300.0 Z0.0
G1 F700.0 Y38.0 Z-0.1182
G3 X92.0 Y36.9 Z-0.1223 I1.1 J0.0
G1 X102.0 Z-0.1459
G3 X103.1 Y38.0 Z-0.15 I0.0 J1.1
G1 Y88.0 Z-0.2682
G3 X102.0 Y89.1 Z-0.2723 I-1.1 J0.0
G1 X92.0 Z-0.2959
G3 X90.9 Y88.0 Z-0.3 I0.0 J-1.1
G1 Y38.0 Z-0.4182
G3 X92.0 Y36.9 Z-0.4223 I1.1 J0.0
G1 X102.0 Z-0.4459
G3 X103.1 Y38.0 Z-0.45 I0.0 J1.1
G1 Y88.0 Z-0.5682
G3 X102.0 Y89.1 Z-0.5723 I-1.1 J0.0
G1 X92.0 Z-0.5959
G3 X90.9 Y88.0 Z-0.6 I0.0 J-1.1
G1 Y38.0 Z-0.7182
G3 X92.0 Y36.9 Z-0.7223 I1.1 J0.0
G1 X102.0 Z-0.7459
G3 X103.1 Y38.0 Z-0.75 I0.0 J1.1
G1 Y88.0 Z-0.8682
G3 X102.0 Y89.1 Z-0.8723 I-1.1 J0.0
G1 X92.0 Z-0.8959
G3 X90.9 Y88.0 Z-0.9 I0.0 J-1.1
G1 Y38.0 Z-1.0182
G3 X92.0 Y36.9 Z-1.0223 I1.1 J0.0
G1 X102.0 Z-1.0459
G3 X103.1 Y38.0 Z-1.05 I0.0 J1.1
G1 Y88.0 Z-1.1682
G3 X102.0 Y89.1 Z-1.1723 I-1.1 J0.0
G1 X92.0 Z-1.1959
G3 X90.9 Y88.0 Z-1.2 I0.0 J-1.1
G1 Y38.0 Z-1.3182
G3 X92.0 Y36.9 Z-1.3223 I1.1 J0.0
G1 X102.0 Z-1.3459
G3 X103.1 Y38.0 Z-1.35 I0.0 J1.1
G1 Y88.0 Z-1.4682
G3 X102.0 Y89.1 Z-1.4723 I-1.1 J0.0
G1 X92.0 Z-1.4959
G3 X90.9 Y88.0 Z-1.5 I0.0 J-1.1
G1 Y38.0 Z-1.6182
G3 X92.0 Y36.9 Z-1.6223 I1.1 J0.0
G1 X102.0 Z-1.6459
G3 X103.1 Y38.0 Z-1.65 I0.0 J1.1
G1 Y88.0 Z-1.7682
G3 X102.0 Y89.1 Z-1.7723 I-1.1 J0.0
G1 X92.0 Z-1.7959
G3 X90.9 Y88.0 Z-1.8 I0.0 J-1.1
G1 Y38.0 Z-1.9182
G3 X92.0 Y36.9 Z-1.9223 I1.1 J0.0
G1 X102.0 Z-1.9459
G3 X103.1 Y38.0 Z-1.95 I0.0 J1.1
G1 Y88.0 Z-2.0682
G3 X102.0 Y89.1 Z-2.0723 I-1.1 J0.0
G1 X92.0 Z-2.0959
G3 X90.9 Y88.0 Z-2.1 I0.0 J-1.1
G1 Y69.75 Z-2.1431
G1 Y69.0 Z-2.1449
G1 Y67.0 Z-2.1496
G1 Y66.25 Z-2.1514
G1 Y44.75 Z-2.2022
G1 Y44.0 Z-2.2
G1 Y42.0
G1 Y41.25 Z-2.2105
G1 Y38.0 Z-2.2182
G3 X92.0 Y36.9 Z-2.2223 I1.1 J0.0
G1 X102.0 Z-2.2459
G3 X103.1 Y38.0 Z-2.25 I0.0 J1.1
G1 Y51.25 Z-2.2813
G1 Y52.0 Z-2.2
G1 Y54.0
G1 Y54.75 Z-2.2896
G1 Y76.25 Z-2.3404
G1 Y77.0 Z-2.2
G1 Y79.0
G1 Y79.75 Z-2.3487
G1 Y88.0 Z-2.3682
G3 X102.0 Y89.1 Z-2.3723 I-1.1 J0.0
G1 X92.0 Z-2.3959
G3 X90.9 Y88.0 Z-2.4 I0.0 J-1.1
G1 Y69.75 Z-2.4431
G1 Y69.0 Z-2.2
G1 Y67.0
G1 Y66.25 Z-2.4514
G1 Y44.75 Z-2.5022
G1 Y44.0 Z-2.2
G1 Y42.0
G1 Y41.25 Z-2.5105
G1 Y38.0 Z-2.5182
G3 X92.0 Y36.9 Z-2.5223 I1.1 J0.0
G1 X102.0 Z-2.5459
G3 X103.1 Y38.0 Z-2.55 I0.0 J1.1
G1 Y51.25 Z-2.5813
G1 Y52.0 Z-2.2
G1 Y54.0
G1 Y54.75 Z-2.5896
G1 Y76.25 Z-2.6404
G1 Y77.0 Z-2.2
G1 Y79.0
G1 Y79.75 Z-2.6487
G1 Y88.0 Z-2.6682
G3 X102.0 Y89.1 Z-2.6723 I-1.1 J0.0
G1 X92.0 Z-2.6959
G3 X90.9 Y88.0 Z-2.7 I0.0 J-1.1
G1 Y69.75 Z-2.7431
G1 Y69.0 Z-2.2
G1 Y67.0
G1 Y66.25 Z-2.7514
G1 Y44.75 Z-2.8022
G1 Y44.0 Z-2.2
G1 Y42.0
G1 Y41.25 Z-2.8105
G1 Y38.0 Z-2.8182
G3 X92.0 Y36.9 Z-2.8223 I1.1 J0.0
G1 X102.0 Z-2.8459
G3 X103.1 Y38.0 Z-2.85 I0.0 J1.1
G1 Y51.25 Z-2.8813
G1 Y52.0 Z-2.2
G1 Y54.0
G1 Y54.75 Z-2.8896
G1 Y76.25 Z-2.9404
G1 Y77.0 Z-2.2
G1 Y79.0
G1 Y79.75 Z-2.9487
G1 Y88.0 Z-2.9682
G3 X102.0 Y89.1 Z-2.9723 I-1.1 J0.0
G1 X92.0 Z-2.9959
G3 X90.9 Y88.0 Z-3.0 I0.0 J-1.1
G1 Y69.75 Z-3.0431
G1 Y69.0 Z-2.2
G1 Y67.0
G1 Y66.25 Z-3.0514
G1 Y44.75 Z-3.1022
G1 Y44.0 Z-2.2
G1 Y42.0
G1 Y41.25 Z-3.1105
G1 Y38.0 Z-3.1182
G3 X92.0 Y36.9 Z-3.1223 I1.1 J0.0
G1 X102.0 Z-3.1459
G3 X103.1 Y38.0 Z-3.15 I0.0 J1.1
G1 Y51.25 Z-3.1813
G1 Y52.0 Z-2.2
G1 Y54.0
G1 Y54.75 Z-3.1896
G1 Y76.25 Z-3.2404
G1 Y77.0 Z-2.2
G1 Y79.0
G1 Y79.75 Z-3.2487
G1 Y88.0 Z-3.2682
G3 X102.0 Y89.1 Z-3.2723 I-1.1 J0.0
G1 X92.0 Z-3.2959
G3 X90.9 Y88.0 Z-3.3 I0.0 J-1.1
G1 Y69.75 Z-3.3431
G1 Y69.0 Z-2.2
G1 Y67.0
G1 Y66.25 Z-3.3514
G1 Y44.75 Z-3.4022
G1 Y44.0 Z-2.2
G1 Y42.0
G1 Y41.25 Z-3.4105
G1 Y38.0 Z-3.4182
G3 X92.0 Y36.9 Z-3.4223 I1.1 J0.0
G1 X102.0 Z-3.4459
G3 X103.1 Y38.0 Z-3.45 I0.0 J1.1
G1 Y51.25 Z-3.4813
G1 Y52.0 Z-2.2
G1 Y54.0
G1 Y54.75 Z-3.4896
G1 Y76.25 Z-3.5404
G1 Y77.0 Z-2.2
G1 Y79.0
G1 Y79.75 Z-3.5487
G1 Y88.0 Z-3.5682
G3 X102.0 Y89.1 Z-3.5723 I-1.1 J0.0
G1 X92.0 Z-3.5959
G3 X90.9 Y88.0 Z-3.6 I0.0 J-1.1
G1 Y69.75 Z-3.6431
G1 Y69.0 Z-2.2
G1 Y67.0
G1 Y66.25 Z-3.6514
G1 Y44.75 Z-3.7022
G1 Y44.0 Z-2.2
G1 Y42.0
G1 Y41.25 Z-3.7105
G1 Y38.0 Z-3.7182
G3 X92.0 Y36.9 Z-3.7223 I1.1 J0.0
G1 X102.0 Z-3.7459
G3 X103.1 Y38.0 Z-3.75 I0.0 J1.1
G1 Y51.25 Z-3.7813
G1 Y52.0 Z-2.2
G1 Y54.0
G1 Y54.75 Z-3.7896
G1 Y76.25 Z-3.8404
G1 Y77.0 Z-2.2
G1 Y79.0
G1 Y79.75 Z-3.8487
G1 Y88.0 Z-3.8682
G3 X102.0 Y89.1 Z-3.8723 I-1.1 J0.0
G1 X92.0 Z-3.8959
G3 X90.9 Y88.0 Z-3.9 I0.0 J-1.1
G1 Y69.75 Z-3.9431
G1 Y69.0 Z-2.2
G1 Y67.0
G1 Y66.25 Z-3.9514
G1 Y44.75 Z-4.0022
G1 Y44.0 Z-2.2
G1 Y42.0
G1 Y41.25 Z-4.0105
G1 Y38.0 Z-4.0182
G3 X92.0 Y36.9 Z-4.0223 I1.1 J0.0
G1 X102.0 Z-4.0459
G3 X103.1 Y38.0 Z-4.05 I0.0 J1.1
G1 Y51.25 Z-4.0813
G1 Y52.0 Z-2.2
G1 Y54.0
G1 Y54.75 Z-4.0896
G1 Y76.25 Z-4.1404
G1 Y77.0 Z-2.2
G1 Y79.0
G1 Y79.75 Z-4.1487
G1 Y88.0 Z-4.1682
G3 X102.0 Y89.1 Z-4.1723 I-1.1 J0.0
G1 X92.0 Z-4.1959
G3 X90.9 Y88.0 Z-4.2 I0.0 J-1.1
G1 Y69.75
G1 Y69.0 Z-2.2
G1 Y67.0
G1 Y66.25 Z-4.2
G1 Y44.75
G1 Y44.0 Z-2.2
G1 Y42.0
G1 Y41.25 Z-4.2
G1 Y38.0
G3 X92.0 Y36.9 I1.1 J0.0
G1 X102.0
G3 X103.1 Y38.0 I0.0 J1.1
G1 Y51.25
G1 Y52.0 Z-2.2
G1 Y54.0
G1 Y54.75 Z-4.2
G1 Y76.25
G1 Y77.0 Z-2.2
G1 Y79.0
G1 Y79.75 Z-4.2
G1 Y88.0
G3 X102.0 Y89.1 I-1.1 J0.0
G1 X92.0
G3 X90.9 Y88.0 I0.0 J-1.1
G0 Z3.0
G0 X107.9
G0 Z1.0
G1 F300.0 Z0.0
G1 F700.0 Y38.0 Z-0.1182
G3 X109.0 Y36.9 Z-0.1223 I1.1 J0.0
G1 X119.0 Z-0.1459
G3 X120.1 Y38.0 Z-0.15 I0.0 J1.1
G1 Y88.0 Z-0.2682
G3 X119.0 Y89.1 Z-0.2723 I-1.1 J0.0
G1 X109.0 Z-0.2959
G3 X107.9 Y88.0 Z-0.3 I0.0 J-1.1
G1 Y38.0 Z-0.4182
G3 X109.0 Y36.9 Z-0.4223 I1.1 J0.0
G1 X119.0 Z-0.4459
G3 X120.1 Y38.0 Z-0.45 I0.0 J1.1
G1 Y88.0 Z-0.5682
G3 X119.0 Y89.1 Z-0.5723 I-1.1 J0.0
G1 X109.0 Z-0.5959
G3 X107.9 Y88.0 Z-0.6 I0.0 J-1.1
G1 Y38.0 Z-0.7182
G3 X109.0 Y36.9 Z-0.7223 I1.1 J0.0
G1 X119.0 Z-0.7459
G3 X120.1 Y38.0 Z-0.75 I0.0 J1.1
G1 Y88.0 Z-0.8682
G3 X119.0 Y89.1 Z-0.8723 I-1.1 J0.0
G1 X109.0 Z-0.8959
G3 X107.9 Y88.0 Z-0.9 I0.0 J-1.1
G1 Y38.0 Z-1.0182
G3 X109.0 Y36.9 Z-1.0223 I1.1 J0.0
G1 X119.0 Z-1.0459
G3 X120.1 Y38.0 Z-1.05 I0.0 J1.1
G1 Y88.0 Z-1.1682
G3 X119.0 Y89.1 Z-1.1723 I-1.1 J0.0
G1 X109.0 Z-1.1959
G3 X107.9 Y88.0 Z-1.2 I0.0 J-1.1
G1 Y38.0 Z-1.3182
G3 X109.0 Y36.9 Z-1.3223 I1.1 J0.0
G1 X119.0 Z-1.3459
G3 X120.1 Y38.0 Z-1.35 I0.0 J1.1
G1 Y88.0 Z-1.4682
G3 X119.0 Y89.1 Z-1.4723 I-1.1 J0.0
G1 X109.0 Z-1.4959
G3 X107.9 Y88.0 Z-1.5 I0.0 J-1.1
G1 Y38.0 Z-1.6182
G3 X109.0 Y36.9 Z-1.6223 I1.1 J0.0
G1 X119.0 Z-1.6459
G3 X120.1 Y38.0 Z-1.65 I0.0 J1.1
G1 Y88.0 Z-1.7682
G3 X119.0 Y89.1 Z-1.7723 I-1.1 J0.0
G1 X109.0 Z-1.7959
G3 X107.9 Y88.0 Z-1.8 I0.0 J-1.1
G1 Y38.0 Z-1.9182
G3 X109.0 Y36.9 Z-1.9223 I1.1 J0.0
G1 X119.0 Z-1.9459
G3 X120.1 Y38.0 Z-1.95 I0.0 J1.1
G1 Y88.0 Z-2.0682
G3 X119.0 Y89.1 Z-2.0723 I-1.1 J0.0
G1 X109.0 Z-2.0959
G3 X107.9 Y88.0 Z-2.1 I0.0 J-1.1
G1 Y69.75 Z-2.1431
G1 Y69.0 Z-2.1449
G1 Y67.0 Z-2.1496
G1 Y66.25 Z-2.1514
G1 Y44.75 Z-2.2022
G1 Y44.0 Z-2.2
G1 Y42.0
G1 Y41.25 Z-2.2105
G1 Y38.0 Z-2.2182
G3 X109.0 Y36.9 Z-2.2223 I1.1 J0.0
G1 X119.0 Z-2.2459
G3 X120.1 Y38.0 Z-2.25 I0.0 J1.1
G1 Y51.25 Z-2.2813
G1 Y52.0 Z-2.2
G1 Y54.0
G1 Y54.75 Z-2.2896
G1 Y76.25 Z-2.3404
G1 Y77.0 Z-2.2
G1 Y79.0
G1 Y79.75 Z-2.3487
G1 Y88.0 Z-2.3682
G3 X119.0 Y89.1 Z-2.3723 I-1.1 J0.0
G1 X109.0 Z-2.3959
G3 X107.9 Y88.0 Z-2.4 I0.0 J-1.1
G1 Y69.75 Z-2.4431
G1 Y69.0 Z-2.2
G1 Y67.0
G1 Y66.25 Z-2.4514
G1 Y44.75 Z-2.5022
G1 Y44.0 Z-2.2
G1 Y42.0
G1 Y41.25 Z-2.5105
G1 Y38.0 Z-2.5182
G3 X109.0 Y36.9 Z-2.5223 I1.1 J0.0
G1 X119.0 Z-2.5459
G3 X120.1 Y38.0 Z-2.55 I0.0 J1.1
G1 Y51.25 Z-2.5813
G1 Y52.0 Z-2.2
G1 Y54.0
G1 Y54.75 Z-2.5896
G1 Y76.25 Z-2.6404
G1 Y77.0 Z-2.2
G1 Y79.0
G1 Y79.75 Z-2.6487
G1 Y88.0 Z-2.6682
G3 X119.0 Y89.1 Z-2.6723 I-1.1 J0.0
G1 X109.0 Z-2.6959
G3 X107.9 Y88.0 Z-2.7 I0.0 J-1.1
G1 Y69.75 Z-2.7431
G1 Y69.0 Z-2.2
G1 Y67.0
G1 Y66.25 Z-2.7514
G1 Y44.75 Z-2.8022
G1 Y44.0 Z-2.2
G1 Y42.0
G1 Y41.25 Z-2.8105
G1 Y38.0 Z-2.8182
G3 X109.0 Y36.9 Z-2.8223 I1.1 J0.0
G1 X119.0 Z-2.8459
G3 X120.1 Y38.0 Z-2.85 I0.0 J1.1
G1 Y51.25 Z-2.8813
G1 Y52.0 Z-2.2
G1 Y54.0
G1 Y54.75 Z-2.8896
G1 Y76.25 Z-2.9404
G1 Y77.0 Z-2.2
G1 Y79.0
G1 Y79.75 Z-2.9487
G1 Y88.0 Z-2.9682
G3 X119.0 Y89.1 Z-2.9723 I-1.1 J0.0
G1 X109.0 Z-2.9959
G3 X107.9 Y88.0 Z-3.0 I0.0 J-1.1
G1 Y69.75 Z-3.0431
G1 Y69.0 Z-2.2
G1 Y67.0
G1 Y66.25 Z-3.0514
G1 Y44.75 Z-3.1022
G1 Y44.0 Z-2.2
G1 Y42.0
G1 Y41.25 Z-3.1105
G1 Y38.0 Z-3.1182
G3 X109.0 Y36.9 Z-3.1223 I1.1 J0.0
G1 X119.0 Z-3.1459
G3 X120.1 Y38.0 Z-3.15 I0.0 J1.1
G1 Y51.25 Z-3.1813
G1 Y52.0 Z-2.2
G1 Y54.0
G1 Y54.75 Z-3.1896
G1 Y76.25 Z-3.2404
G1 Y77.0 Z-2.2
G1 Y79.0
G1 Y79.75 Z-3.2487
G1 Y88.0 Z-3.2682
G3 X119.0 Y89.1 Z-3.2723 I-1.1 J0.0
G1 X109.0 Z-3.2959
G3 X107.9 Y88.0 Z-3.3 I0.0 J-1.1
G1 Y69.75 Z-3.3431
G1 Y69.0 Z-2.2
G1 Y67.0
G1 Y66.25 Z-3.3514
G1 Y44.75 Z-3.4022
G1 Y44.0 Z-2.2
G1 Y42.0
G1 Y41.25 Z-3.4105
G1 Y38.0 Z-3.4182
G3 X109.0 Y36.9 Z-3.4223 I1.1 J0.0
G1 X119.0 Z-3.4459
G3 X120.1 Y38.0 Z-3.45 I0.0 J1.1
G1 Y51.25 Z-3.4813
G1 Y52.0 Z-2.2
G1 Y54.0
G1 Y54.75 Z-3.4896
G1 Y76.25 Z-3.5404
G1 Y77.0 Z-2.2
G1 Y79.0
G1 Y79.75 Z-3.5487
G1 Y88.0 Z-3.5682
G3 X119.0 Y89.1 Z-3.5723 I-1.1 J0.0
G1 X109.0 Z-3.5959
G3 X107.9 Y88.0 Z-3.6 I0.0 J-1.1
G1 Y69.75 Z-3.6431
G1 Y69.0 Z-2.2
G1 Y67.0
G1 Y66.25 Z-3.6514
G1 Y44.75 Z-3.7022
G1 Y44.0 Z-2.2
G1 Y42.0
G1 Y41.25 Z-3.7105
G1 Y38.0 Z-3.7182
G3 X109.0 Y36.9 Z-3.7223 I1.1 J0.0
G1 X119.0 Z-3.7459
G3 X120.1 Y38.0 Z-3.75 I0.0 J1.1
G1 Y51.25 Z-3.7813
G1 Y52.0 Z-2.2
G1 Y54.0
G1 Y54.75 Z-3.7896
G1 Y76.25 Z-3.8404
G1 Y77.0 Z-2.2
G1 Y79.0
G1 Y79.75 Z-3.8487
G1 Y88.0 Z-3.8682
G3 X119.0 Y89.1 Z-3.8723 I-1.1 J0.0
G1 X109.0 Z-3.8959
G3 X107.9 Y88.0 Z-3.9 I0.0 J-1.1
G1 Y69.75 Z-3.9431
G1 Y69.0 Z-2.2
G1 Y67.0
G1 Y66.25 Z-3.9514
G1 Y44.75 Z-4.0022
G1 Y44.0 Z-2.2
G1 Y42.0
G1 Y41.25 Z-4.0105
G1 Y38.0 Z-4.0182
G3 X109.0 Y36.9 Z-4.0223 I1.1 J0.0
G1 X119.0 Z-4.0459
G3 X120.1 Y38.0 Z-4.05 I0.0 J1.1
G1 Y51.25 Z-4.0813
G1 Y52.0 Z-2.2
G1 Y54.0
G1 Y54.75 Z-4.0896
G1 Y76.25 Z-4.1404
G1 Y77.0 Z-2.2
G1 Y79.0
G1 Y79.75 Z-4.1487
G1 Y88.0 Z-4.1682
G3 X119.0 Y89.1 Z-4.1723 I-1.1 J0.0
G1 X109.0 Z-4.1959
G3 X107.9 Y88.0 Z-4.2 I0.0 J-1.1
G1 Y69.75
G1 Y69.0 Z-2.2
G1 Y67.0
G1 Y66.25 Z-4.2
G1 Y44.75
G1 Y44.0 Z-2.2
G1 Y42.0
G1 Y41.25 Z-4.2
G1 Y38.0
G3 X109.0 Y36.9 I1.1 J0.0
G1 X119.0
G3 X120.1 Y38.0 I0.0 J1.1
G1 Y51.25
G1 Y52.0 Z-2.2
G1 Y54.0
G1 Y54.75 Z-4.2
G1 Y76.25
G1 Y77.0 Z-2.2
G1 Y79.0
G1 Y79.75 Z-4.2
G1 Y88.0
G3 X119.0 Y89.1 I-1.1 J0.0
G1 X109.0
G3 X107.9 Y88.0 I0.0 J-1.1
G0 Z3.0
G0 X126.9
G0 Z1.0
G1 F300.0 Z0.0
G1 F700.0 Y38.0 Z-0.1182
G3 X128.0 Y36.9 Z-0.1223 I1.1 J0.0
G1 X138.0 Z-0.1459
G3 X139.1 Y38.0 Z-0.15 I0.0 J1.1
G1 Y88.0 Z-0.2682
G3 X138.0 Y89.1 Z-0.2723 I-1.1 J0.0
G1 X128.0 Z-0.2959
G3 X126.9 Y88.0 Z-0.3 I0.0 J-1.1
G1 Y38.0 Z-0.4182
G3 X128.0 Y36.9 Z-0.4223 I1.1 J0.0
G1 X138.0 Z-0.4459
G3 X139.1 Y38.0 Z-0.45 I0.0 J1.1
G1 Y88.0 Z-0.5682
G3 X138.0 Y89.1 Z-0.5723 I-1.1 J0.0
G1 X128.0 Z-0.5959
G3 X126.9 Y88.0 Z-0.6 I0.0 J-1.1
G1 Y38.0 Z-0.7182
G3 X128.0 Y36.9 Z-0.7223 I1.1 J0.0
G1 X138.0 Z-0.7459
G3 X139.1 Y38.0 Z-0.75 I0.0 J1.1
G1 Y88.0 Z-0.8682
G3 X138.0 Y89.1 Z-0.8723 I-1.1 J0.0
G1 X128.0 Z-0.8959
G3 X126.9 Y88.0 Z-0.9 I0.0 J-1.1
G1 Y38.0 Z-1.0182
G3 X128.0 Y36.9 Z-1.0223 I1.1 J0.0
G1 X138.0 Z-1.0459
G3 X139.1 Y38.0 Z-1.05 I0.0 J1.1
G1 Y88.0 Z-1.1682
G3 X138.0 Y89.1 Z-1.1723 I-1.1 J0.0
G1 X128.0 Z-1.1959
G3 X126.9 Y88.0 Z-1.2 I0.0 J-1.1
G1 Y38.0 Z-1.3182
G3 X128.0 Y36.9 Z-1.3223 I1.1 J0.0
G1 X138.0 Z-1.3459
G3 X139.1 Y38.0 Z-1.35 I0.0 J1.1
G1 Y88.0 Z-1.4682
G3 X138.0 Y89.1 Z-1.4723 I-1.1 J0.0
G1 X128.0 Z-1.4959
G3 X126.9 Y88.0 Z-1.5 I0.0 J-1.1
G1 Y38.0 Z-1.6182
G3 X128.0 Y36.9 Z-1.6223 I1.1 J0.0
G1 X138.0 Z-1.6459
G3 X139.1 Y38.0 Z-1.65 I0.0 J1.1
G1 Y88.0 Z-1.7682
G3 X138.0 Y89.1 Z-1.7723 I-1.1 J0.0
G1 X128.0 Z-1.7959
G3 X126.9 Y88.0 Z-1.8 I0.0 J-1.1
G1 Y38.0 Z-1.9182
G3 X128.0 Y36.9 Z-1.9223 I1.1 J0.0
G1 X138.0 Z-1.9459
G3 X139.1 Y38.0 Z-1.95 I0.0 J1.1
G1 Y88.0 Z-2.0682
G3 X138.0 Y89.1 Z-2.0723 I-1.1 J0.0
G1 X128.0 Z-2.0959
G3 X126.9 Y88.0 Z-2.1 I0.0 J-1.1
G1 Y69.75 Z-2.1431
G1 Y69.0 Z-2.1449
G1 Y67.0 Z-2.1496
G1 Y66.25 Z-2.1514
G1 Y44.75 Z-2.2022
G1 Y44.0 Z-2.2
G1 Y42.0
G1 Y41.25 Z-2.2105
G1 Y38.0 Z-2.2182
G3 X128.0 Y36.9 Z-2.2223 I1.1 J0.0
G1 X138.0 Z-2.2459
G3 X139.1 Y38.0 Z-2.25 I0.0 J1.1
G1 Y51.25 Z-2.2813
G1 Y52.0 Z-2.2
G1 Y54.0
G1 Y54.75 Z-2.2896
G1 Y76.25 Z-2.3404
G1 Y77.0 Z-2.2
G1 Y79.0
G1 Y79.75 Z-2.3487
G1 Y88.0 Z-2.3682
G3 X138.0 Y89.1 Z-2.3723 I-1.1 J0.0
G1 X128.0 Z-2.3959
G3 X126.9 Y88.0 Z-2.4 I0.0 J-1.1
G1 Y69.75 Z-2.4431
G1 Y69.0 Z-2.2
G1 Y67.0
G1 Y66.25 Z-2.4514
G1 Y44.75 Z-2.5022
G1 Y44.0 Z-2.2
G1 Y42.0
G1 Y41.25 Z-2.5105
G1 Y38.0 Z-2.5182
G3 X128.0 Y36.9 Z-2.5223 I1.1 J0.0
G1 X138.0 Z-2.5459
G3 X139.1 Y38.0 Z-2.55 I0.0 J1.1
G1 Y51.25 Z-2.5813
G1 Y52.0 Z-2.2
G1 Y54.0
G1 Y54.75 Z-2.5896
G1 Y76.25 Z-2.6404
G1 Y77.0 Z-2.2
G1 Y79.0
G1 Y79.75 Z-2.6487
G1 Y88.0 Z-2.6682
G3 X138.0 Y89.1 Z-2.6723 I-1.1 J0.0
G1 X128.0 Z-2.6959
G3 X126.9 Y88.0 Z-2.7 I0.0 J-1.1
G1 Y69.75 Z-2.7431
G1 Y69.0 Z-2.2
G1 Y67.0
G1 Y66.25 Z-2.7514
G1 Y44.75 Z-2.8022
G1 Y44.0 Z-2.2
G1 Y42.0
G1 Y41.25 Z-2.8105
G1 Y38.0 Z-2.8182
G3 X128.0 Y36.9 Z-2.8223 I1.1 J0.0
G1 X138.0 Z-2.8459
G3 X139.1 Y38.0 Z-2.85 I0.0 J1.1
G1 Y51.25 Z-2.8813
G1 Y52.0 Z-2.2
G1 Y54.0
G1 Y54.75 Z-2.8896
G1 Y76.25 Z-2.9404
G1 Y77.0 Z-2.2
G1 Y79.0
G1 Y79.75 Z-2.9487
G1 Y88.0 Z-2.9682
G3 X138.0 Y89.1 Z-2.9723 I-1.1 J0.0
G1 X128.0 Z-2.9959
G3 X126.9 Y88.0 Z-3.0 I0.0 J-1.1
G1 Y69.75 Z-3.0431
G1 Y69.0 Z-2.2
G1 Y67.0
G1 Y66.25 Z-3.0514
G1 Y44.75 Z-3.1022
G1 Y44.0 Z-2.2
G1 Y42.0
G1 Y41.25 Z-3.1105
G1 Y38.0 Z-3.1182
G3 X128.0 Y36.9 Z-3.1223 I1.1 J0.0
G1 X138.0 Z-3.1459
G3 X139.1 Y38.0 Z-3.15 I0.0 J1.1
G1 Y51.25 Z-3.1813
G1 Y52.0 Z-2.2
G1 Y54.0
G1 Y54.75 Z-3.1896
G1 Y76.25 Z-3.2404
G1 Y77.0 Z-2.2
G1 Y79.0
G1 Y79.75 Z-3.2487
G1 Y88.0 Z-3.2682
G3 X138.0 Y89.1 Z-3.2723 I-1.1 J0.0
G1 X128.0 Z-3.2959
G3 X126.9 Y88.0 Z-3.3 I0.0 J-1.1
G1 Y69.75 Z-3.3431
G1 Y69.0 Z-2.2
G1 Y67.0
G1 Y66.25 Z-3.3514
G1 Y44.75 Z-3.4022
G1 Y44.0 Z-2.2
G1 Y42.0
G1 Y41.25 Z-3.4105
G1 Y38.0 Z-3.4182
G3 X128.0 Y36.9 Z-3.4223 I1.1 J0.0
G1 X138.0 Z-3.4459
G3 X139.1 Y38.0 Z-3.45 I0.0 J1.1
G1 Y51.25 Z-3.4813
G1 Y52.0 Z-2.2
G1 Y54.0
G1 Y54.75 Z-3.4896
G1 Y76.25 Z-3.5404
G1 Y77.0 Z-2.2
G1 Y79.0
G1 Y79.75 Z-3.5487
G1 Y88.0 Z-3.5682
G3 X138.0 Y89.1 Z-3.5723 I-1.1 J0.0
G1 X128.0 Z-3.5959
G3 X126.9 Y88.0 Z-3.6 I0.0 J-1.1
G1 Y69.75 Z-3.6431
G1 Y69.0 Z-2.2
G1 Y67.0
G1 Y66.25 Z-3.6514
G1 Y44.75 Z-3.7022
G1 Y44.0 Z-2.2
G1 Y42.0
G1 Y41.25 Z-3.7105
G1 Y38.0 Z-3.7182
G3 X128.0 Y36.9 Z-3.7223 I1.1 J0.0
G1 X138.0 Z-3.7459
G3 X139.1 Y38.0 Z-3.75 I0.0 J1.1
G1 Y51.25 Z-3.7813
G1 Y52.0 Z-2.2
G1 Y54.0
G1 Y54.75 Z-3.7896
G1 Y76.25 Z-3.8404
G1 Y77.0 Z-2.2
G1 Y79.0
G1 Y79.75 Z-3.8487
G1 Y88.0 Z-3.8682
G3 X138.0 Y89.1 Z-3.8723 I-1.1 J0.0
G1 X128.0 Z-3.8959
G3 X126.9 Y88.0 Z-3.9 I0.0 J-1.1
G1 Y69.75 Z-3.9431
G1 Y69.0 Z-2.2
G1 Y67.0
G1 Y66.25 Z-3.9514
G1 Y44.75 Z-4.0022
G1 Y44.0 Z-2.2
G1 Y42.0
G1 Y41.25 Z-4.0105
G1 Y38.0 Z-4.0182
G3 X128.0 Y36.9 Z-4.0223 I1.1 J0.0
G1 X138.0 Z-4.0459
G3 X139.1 Y38.0 Z-4.05 I0.0 J1.1
G1 Y51.25 Z-4.0813
G1 Y52.0 Z-2.2
G1 Y54.0
G1 Y54.75 Z-4.0896
G1 Y76.25 Z-4.1404
G1 Y77.0 Z-2.2
G1 Y79.0
G1 Y79.75 Z-4.1487
G1 Y88.0 Z-4.1682
G3 X138.0 Y89.1 Z-4.1723 I-1.1 J0.0
G1 X128.0 Z-4.1959
G3 X126.9 Y88.0 Z-4.2 I0.0 J-1.1
G1 Y69.75
G1 Y69.0 Z-2.2
G1 Y67.0
G1 Y66.25 Z-4.2
G1 Y44.75
G1 Y44.0 Z-2.2
G1 Y42.0
G1 Y41.25 Z-4.2
G1 Y38.0
G3 X128.0 Y36.9 I1.1 J0.0
G1 X138.0
G3 X139.1 Y38.0 I0.0 J1.1
G1 Y51.25
G1 Y52.0 Z-2.2
G1 Y54.0
G1 Y54.75 Z-4.2
G1 Y76.25
G1 Y77.0 Z-2.2
G1 Y79.0
G1 Y79.75 Z-4.2
G1 Y88.0
G3 X138.0 Y89.1 I-1.1 J0.0
G1 X128.0
G3 X126.9 Y88.0 I0.0 J-1.1
( bars_3D )
S1000
G0 Z3.0
G0 X72.0
G0 Z1.0
G1 F300.0 Z-4.2
G1 F450.0 Y69.75
G1 Y69.0 Z-2.2
G1 Y67.0
G1 Y66.25 Z-4.2
G1 Y38.0
G3 X73.0 Y37.0 I1.0 J0.0
G1 X83.0
G3 X84.0 Y38.0 I0.0 J1.0
G1 Y51.25
G1 Y52.0 Z-2.2
G1 Y54.0
G1 Y54.75 Z-4.2
G1 Y76.25
G1 Y77.0 Z-2.2
G1 Y79.0
G1 Y79.75 Z-4.2
G1 Y88.0
G3 X83.0 Y89.0 I-1.0 J0.0
G1 X73.0
G3 X72.0 Y88.0 I0.0 J-1.0
G0 Z3.0
G0 X91.0
G0 Z1.0
G1 F300.0 Z-4.2
G1 F450.0 Y69.75
G1 Y69.0 Z-2.2
G1 Y67.0
G1 Y66.25 Z-4.2
G1 Y38.0
G3 X92.0 Y37.0 I1.0 J0.0
G1 X102.0
G3 X103.0 Y38.0 I0.0 J1.0
G1 Y51.25
G1 Y52.0 Z-2.2
G1 Y54.0
G1 Y54.75 Z-4.2
G1 Y76.25
G1 Y77.0 Z-2.2
G1 Y79.0
G1 Y79.75 Z-4.2
G1 Y88.0
G3 X102.0 Y89.0 I-1.0 J0.0
G1 X92.0
G3 X91.0 Y88.0 I0.0 J-1.0
G0 Z3.0
G0 X108.0
G0 Z1.0
G1 F300.0 Z-4.2
G1 F450.0 Y69.75
G1 Y69.0 Z-2.2
G1 Y67.0
G1 Y66.25 Z-4.2
G1 Y38.0
G3 X109.0 Y37.0 I1.0 J0.0
G1 X119.0
G3 X120.0 Y38.0 I0.0 J1.0
G1 Y51.25
G1 Y52.0 Z-2.2
G1 Y54.0
G1 Y54.75 Z-4.2
G1 Y76.25
G1 Y77.0 Z-2.2
G1 Y79.0
G1 Y79.75 Z-4.2
G1 Y88.0
G3 X119.0 Y89.0 I-1.0 J0.0
G1 X109.0
G3 X108.0 Y88.0 I0.0 J-1.0
G0 Z3.0
G0 X127.0
G0 Z1.0
G1 F300.0 Z-4.2
G1 F450.0 Y69.75
G1 Y69.0 Z-2.2
G1 Y67.0
G1 Y66.25 Z-4.2
G1 Y38.0
G3 X128.0 Y37.0 I1.0 J0.0
G1 X138.0
G3 X139.0 Y38.0 I0.0 J1.0
G1 Y51.25
G1 Y52.0 Z-2.2
G1 Y54.0
G1 Y54.75 Z-4.2
G1 Y76.25
G1 Y77.0 Z-2.2
G1 Y79.0
G1 Y79.75 Z-4.2
G1 Y88.0
G3 X138.0 Y89.0 I-1.0 J0.0
G1 X128.0
G3 X127.0 Y88.0 I0.0 J-1.0
( jigg_1_cutout )
S1000
G0 Z3.0
G0 X184.0 Y101.0
G0 Z1.0
G1 F200.0 Z0.0
G1 F700.0 Y17.1 Z-0.0339
G1 X18.0 Z-0.101
G1 Y101.0 Z-0.135
G3 X16.9 Y102.1 Z-0.1357 I-1.1 J0.0
G1 X7.0 Z-0.1397
G3 X5.9 Y101.0 Z-0.1404 I0.0 J-1.1
G1 Y6.0 Z-0.1788
G3 X7.0 Y4.9 Z-0.1795 I1.1 J0.0
G1 X195.0 Z-0.2555
G3 X196.1 Y6.0 Z-0.2562 I0.0 J1.1
G1 Y101.0 Z-0.2946
G3 X195.0 Y102.1 Z-0.2953 I-1.1 J0.0
G1 X185.1 Z-0.2993
G3 X184.0 Y101.0 Z-0.3 I0.0 J-1.1
G1 Y17.1 Z-0.3339
G1 X18.0 Z-0.401
G1 Y101.0 Z-0.435
G3 X16.9 Y102.1 Z-0.4357 I-1.1 J0.0
G1 X7.0 Z-0.4397
G3 X5.9 Y101.0 Z-0.4404 I0.0 J-1.1
G1 Y6.0 Z-0.4788
G3 X7.0 Y4.9 Z-0.4795 I1.1 J0.0
G1 X195.0 Z-0.5555
G3 X196.1 Y6.0 Z-0.5562 I0.0 J1.1
G1 Y101.0 Z-0.5946
G3 X195.0 Y102.1 Z-0.5953 I-1.1 J0.0
G1 X185.1 Z-0.5993
G3 X184.0 Y101.0 Z-0.6 I0.0 J-1.1
G1 Y17.1 Z-0.6339
G1 X18.0 Z-0.701
G1 Y101.0 Z-0.735
G3 X16.9 Y102.1 Z-0.7357 I-1.1 J0.0
G1 X7.0 Z-0.7397
G3 X5.9 Y101.0 Z-0.7404 I0.0 J-1.1
G1 Y6.0 Z-0.7788
G3 X7.0 Y4.9 Z-0.7795 I1.1 J0.0
G1 X195.0 Z-0.8555
G3 X196.1 Y6.0 Z-0.8562 I0.0 J1.1
G1 Y101.0 Z-0.8946
G3 X195.0 Y102.1 Z-0.8953 I-1.1 J0.0
G1 X185.1 Z-0.8993
G3 X184.0 Y101.0 Z-0.9 I0.0 J-1.1
G1 Y17.1 Z-0.9339
G1 X18.0 Z-1.001
G1 Y101.0 Z-1.035
G3 X16.9 Y102.1 Z-1.0357 I-1.1 J0.0
G1 X7.0 Z-1.0397
G3 X5.9 Y101.0 Z-1.0404 I0.0 J-1.1
G1 Y6.0 Z-1.0788
G3 X7.0 Y4.9 Z-1.0795 I1.1 J0.0
G1 X195.0 Z-1.1555
G3 X196.1 Y6.0 Z-1.1562 I0.0 J1.1
G1 Y101.0 Z-1.1946
G3 X195.0 Y102.1 Z-1.1953 I-1.1 J0.0
G1 X185.1 Z-1.1993
G3 X184.0 Y101.0 Z-1.2 I0.0 J-1.1
G1 Y17.1 Z-1.2339
G1 X18.0 Z-1.301
G1 Y101.0 Z-1.335
G3 X16.9 Y102.1 Z-1.3357 I-1.1 J0.0
G1 X7.0 Z-1.3397
G3 X5.9 Y101.0 Z-1.3404 I0.0 J-1.1
G1 Y6.0 Z-1.3788
G3 X7.0 Y4.9 Z-1.3795 I1.1 J0.0
G1 X195.0 Z-1.4555
G3 X196.1 Y6.0 Z-1.4562 I0.0 J1.1
G1 Y101.0 Z-1.4946
G3 X195.0 Y102.1 Z-1.4953 I-1.1 J0.0
G1 X185.1 Z-1.4993
G3 X184.0 Y101.0 Z-1.5 I0.0 J-1.1
G1 Y17.1 Z-1.5339
G1 X18.0 Z-1.601
G1 Y101.0 Z-1.635
G3 X16.9 Y102.1 Z-1.6357 I-1.1 J0.0
G1 X7.0 Z-1.6397
G3 X5.9 Y101.0 Z-1.6404 I0.0 J-1.1
G1 Y6.0 Z-1.6788
G3 X7.0 Y4.9 Z-1.6795 I1.1 J0.0
G1 X195.0 Z-1.7555
G3 X196.1 Y6.0 Z-1.7562 I0.0 J1.1
G1 Y101.0 Z-1.7946
G3 X195.0 Y102.1 Z-1.7953 I-1.1 J0.0
G1 X185.1 Z-1.7993
G3 X184.0 Y101.0 Z-1.8 I0.0 J-1.1
G1 Y17.1 Z-1.8339
G1 X18.0 Z-1.901
G1 Y101.0 Z-1.935
G3 X16.9 Y102.1 Z-1.9357 I-1.1 J0.0
G1 X7.0 Z-1.9397
G3 X5.9 Y101.0 Z-1.9404 I0.0 J-1.1
G1 Y6.0 Z-1.9788
G3 X7.0 Y4.9 Z-1.9795 I1.1 J0.0
G1 X195.0 Z-2.0555
G3 X196.1 Y6.0 Z-2.0562 I0.0 J1.1
G1 Y101.0 Z-2.0946
G3 X195.0 Y102.1 Z-2.0953 I-1.1 J0.0
G1 X185.1 Z-2.0993
G3 X184.0 Y101.0 Z-2.1 I0.0 J-1.1
G1 Y41.4167 Z-2.1241
G1 Y40.6667 Z-2.1244
G1 Y38.6667 Z-2.1252
G1 Y37.9167 Z-2.1255
G1 Y17.1 Z-2.1339
G1 X87.85 Z-2.1728
G1 X87.1 Z-2.1731
G1 X85.1 Z-2.1739
G1 X84.35 Z-2.1742
G1 X18.0 Z-2.201
G1 Y67.7167 Z-2.2215
G1 Y68.4667 Z-2.2
G1 Y70.4667
G1 Y71.2167 Z-2.2229
G1 Y101.0 Z-2.235
G3 X16.9 Y102.1 Z-2.2357 I-1.1 J0.0
G1 X7.0 Z-2.2397
G3 X5.9 Y101.0 Z-2.2404 I0.0 J-1.1
G1 Y21.5167 Z-2.2725
G1 Y20.7667 Z-2.2
G1 Y18.7667
G1 Y18.0167 Z-2.2739
G1 Y6.0 Z-2.2788
G3 X7.0 Y4.9 Z-2.2795 I1.1 J0.0
G1 X114.15 Z-2.3228
G1 X114.9 Z-2.2
G1 X116.9
G1 X117.65 Z-2.3242
G1 X195.0 Z-2.3555
G3 X196.1 Y6.0 Z-2.3562 I0.0 J1.1
G1 Y47.8167 Z-2.3731
G1 Y48.5667 Z-2.2
G1 Y50.5667
G1 Y51.3167 Z-2.3745
G1 Y101.0 Z-2.3946
G3 X195.0 Y102.1 Z-2.3953 I-1.1 J0.0
G1 X185.1 Z-2.3993
G3 X184.0 Y101.0 Z-2.4 I0.0 J-1.1
G1 Y41.4167 Z-2.4241
G1 Y40.6667 Z-2.2
G1 Y38.6667
G1 Y37.9167 Z-2.4255
G1 Y17.1 Z-2.4339
G1 X87.85 Z-2.4728
G1 X87.1 Z-2.2
G1 X85.1
G1 X84.35 Z-2.4742
G1 X18.0 Z-2.501
G1 Y67.7167 Z-2.5215
G1 Y68.4667 Z-2.2
G1 Y70.4667
G1 Y71.2167 Z-2.5229
G1 Y101.0 Z-2.535
G3 X16.9 Y102.1 Z-2.5357 I-1.1 J0.0
G1 X7.0 Z-2.5397
G3 X5.9 Y101.0 Z-2.5404 I0.0 J-1.1
G1 Y21.5167 Z-2.5725
G1 Y20.7667 Z-2.2
G1 Y18.7667
G1 Y18.0167 Z-2.5739
G1 Y6.0 Z-2.5788
G3 X7.0 Y4.9 Z-2.5795 I1.1 J0.0
G1 X114.15 Z-2.6228
G1 X114.9 Z-2.2
G1 X116.9
G1 X117.65 Z-2.6242
G1 X195.0 Z-2.6555
G3 X196.1 Y6.0 Z-2.6562 I0.0 J1.1
G1 Y47.8167 Z-2.6731
G1 Y48.5667 Z-2.2
G1 Y50.5667
G1 Y51.3167 Z-2.6745
G1 Y101.0 Z-2.6946
G3 X195.0 Y102.1 Z-2.6953 I-1.1 J0.0
G1 X185.1 Z-2.6993
G3 X184.0 Y101.0 Z-2.7 I0.0 J-1.1
G1 Y41.4167 Z-2.7241
G1 Y40.6667 Z-2.2
G1 Y38.6667
G1 Y37.9167 Z-2.7255
G1 Y17.1 Z-2.7339
G1 X87.85 Z-2.7728
G1 X87.1 Z-2.2
G1 X85.1
G1 X84.35 Z-2.7742
G1 X18.0 Z-2.801
G1 Y67.7167 Z-2.8215
G1 Y68.4667 Z-2.2
G1 Y70.4667
G1 Y71.2167 Z-2.8229
G1 Y101.0 Z-2.835
G3 X16.9 Y102.1 Z-2.8357 I-1.1 J0.0
G1 X7.0 Z-2.8397
G3 X5.9 Y101.0 Z-2.8404 I0.0 J-1.1
G1 Y21.5167 Z-2.8725
G1 Y20.7667 Z-2.2
G1 Y18.7667
G1 Y18.0167 Z-2.8739
G1 Y6.0 Z-2.8788
G3 X7.0 Y4.9 Z-2.8795 I1.1 J0.0
G1 X114.15 Z-2.9228
G1 X114.9 Z-2.2
G1 X116.9
G1 X117.65 Z-2.9242
G1 X195.0 Z-2.9555
G3 X196.1 Y6.0 Z-2.9562 I0.0 J1.1
G1 Y47.8167 Z-2.9731
G1 Y48.5667 Z-2.2
G1 Y50.5667
G1 Y51.3167 Z-2.9745
G1 Y101.0 Z-2.9946
G3 X195.0 Y102.1 Z-2.9953 I-1.1 J0.0
G1 X185.1 Z-2.9993
G3 X184.0 Y101.0 Z-3.0 I0.0 J-1.1
G1 Y41.4167 Z-3.0241
G1 Y40.6667 Z-2.2
G1 Y38.6667
G1 Y37.9167 Z-3.0255
G1 Y17.1 Z-3.0339
G1 X87.85 Z-3.0728
G1 X87.1 Z-2.2
G1 X85.1
G1 X84.35 Z-3.0742
G1 X18.0 Z-3.101
G1 Y67.7167 Z-3.1215
G1 Y68.4667 Z-2.2
G1 Y70.4667
G1 Y71.2167 Z-3.1229
G1 Y101.0 Z-3.135
G3 X16.9 Y102.1 Z-3.1357 I-1.1 J0.0
G1 X7.0 Z-3.1397
G3 X5.9 Y101.0 Z-3.1404 I0.0 J-1.1
G1 Y21.5167 Z-3.1725
G1 Y20.7667 Z-2.2
G1 Y18.7667
G1 Y18.0167 Z-3.1739
G1 Y6.0 Z-3.1788
G3 X7.0 Y4.9 Z-3.1795 I1.1 J0.0
G1 X114.15 Z-3.2228
G1 X114.9 Z-2.2
G1 X116.9
G1 X117.65 Z-3.2242
G1 X195.0 Z-3.2555
G3 X196.1 Y6.0 Z-3.2562 I0.0 J1.1
G1 Y47.8167 Z-3.2731
G1 Y48.5667 Z-2.2
G1 Y50.5667
G1 Y51.3167 Z-3.2745
G1 Y101.0 Z-3.2946
G3 X195.0 Y102.1 Z-3.2953 I-1.1 J0.0
G1 X185.1 Z-3.2993
G3 X184.0 Y101.0 Z-3.3 I0.0 J-1.1
G1 Y41.4167 Z-3.3241
G1 Y40.6667 Z-2.2
G1 Y38.6667
G1 Y37.9167 Z-3.3255
G1 Y17.1 Z-3.3339
G1 X87.85 Z-3.3728
G1 X87.1 Z-2.2
G1 X85.1
G1 X84.35 Z-3.3742
G1 X18.0 Z-3.401
G1 Y67.7167 Z-3.4215
G1 Y68.4667 Z-2.2
G1 Y70.4667
G1 Y71.2167 Z-3.4229
G1 Y101.0 Z-3.435
G3 X16.9 Y102.1 Z-3.4357 I-1.1 J0.0
G1 X7.0 Z-3.4397
G3 X5.9 Y101.0 Z-3.4404 I0.0 J-1.1
G1 Y21.5167 Z-3.4725
G1 Y20.7667 Z-2.2
G1 Y18.7667
G1 Y18.0167 Z-3.4739
G1 Y6.0 Z-3.4788
G3 X7.0 Y4.9 Z-3.4795 I1.1 J0.0
G1 X114.15 Z-3.5228
G1 X114.9 Z-2.2
G1 X116.9
G1 X117.65 Z-3.5242
G1 X195.0 Z-3.5555
G3 X196.1 Y6.0 Z-3.5562 I0.0 J1.1
G1 Y47.8167 Z-3.5731
G1 Y48.5667 Z-2.2
G1 Y50.5667
G1 Y51.3167 Z-3.5745
G1 Y101.0 Z-3.5946
G3 X195.0 Y102.1 Z-3.5953 I-1.1 J0.0
G1 X185.1 Z-3.5993
G3 X184.0 Y101.0 Z-3.6 I0.0 J-1.1
G1 Y41.4167 Z-3.6241
G1 Y40.6667 Z-2.2
G1 Y38.6667
G1 Y37.9167 Z-3.6255
G1 Y17.1 Z-3.6339
G1 X87.85 Z-3.6728
G1 X87.1 Z-2.2
G1 X85.1
G1 X84.35 Z-3.6742
G1 X18.0 Z-3.701
G1 Y67.7167 Z-3.7215
G1 Y68.4667 Z-2.2
G1 Y70.4667
G1 Y71.2167 Z-3.7229
G1 Y101.0 Z-3.735
G3 X16.9 Y102.1 Z-3.7357 I-1.1 J0.0
G1 X7.0 Z-3.7397
G3 X5.9 Y101.0 Z-3.7404 I0.0 J-1.1
G1 Y21.5167 Z-3.7725
G1 Y20.7667 Z-2.2
G1 Y18.7667
G1 Y18.0167 Z-3.7739
G1 Y6.0 Z-3.7788
G3 X7.0 Y4.9 Z-3.7795 I1.1 J0.0
G1 X114.15 Z-3.8228
G1 X114.9 Z-2.2
G1 X116.9
G1 X117.65 Z-3.8242
G1 X195.0 Z-3.8555
G3 X196.1 Y6.0 Z-3.8562 I0.0 J1.1
G1 Y47.8167 Z-3.8731
G1 Y48.5667 Z-2.2
G1 Y50.5667
G1 Y51.3167 Z-3.8745
G1 Y101.0 Z-3.8946
G3 X195.0 Y102.1 Z-3.8953 I-1.1 J0.0
G1 X185.1 Z-3.8993
G3 X184.0 Y101.0 Z-3.9 I0.0 J-1.1
G1 Y41.4167 Z-3.9241
G1 Y40.6667 Z-2.2
G1 Y38.6667
G1 Y37.9167 Z-3.9255
G1 Y17.1 Z-3.9339
G1 X87.85 Z-3.9728
G1 X87.1 Z-2.2
G1 X85.1
G1 X84.35 Z-3.9742
G1 X18.0 Z-4.001
G1 Y67.7167 Z-4.0215
G1 Y68.4667 Z-2.2
G1 Y70.4667
G1 Y71.2167 Z-4.0229
G1 Y101.0 Z-4.035
G3 X16.9 Y102.1 Z-4.0357 I-1.1 J0.0
G1 X7.0 Z-4.0397
G3 X5.9 Y101.0 Z-4.0404 I0.0 J-1.1
G1 Y21.5167 Z-4.0725
G1 Y20.7667 Z-2.2
G1 Y18.7667
G1 Y18.0167 Z-4.0739
G1 Y6.0 Z-4.0788
G3 X7.0 Y4.9 Z-4.0795 I1.1 J0.0
G1 X114.15 Z-4.1228
G1 X114.9 Z-2.2
G1 X116.9
G1 X117.65 Z-4.1242
G1 X195.0 Z-4.1555
G3 X196.1 Y6.0 Z-4.1562 I0.0 J1.1
G1 Y47.8167 Z-4.1731
G1 Y48.5667 Z-2.2
G1 Y50.5667
G1 Y51.3167 Z-4.1745
G1 Y101.0 Z-4.1946
G3 X195.0 Y102.1 Z-4.1953 I-1.1 J0.0
G1 X185.1 Z-4.1993
G3 X184.0 Y101.0 Z-4.2 I0.0 J-1.1
G1 Y41.4167
G1 Y40.6667 Z-2.2
G1 Y38.6667
G1 Y37.9167 Z-4.2
G1 Y17.1
G1 X87.85
G1 X87.1 Z-2.2
G1 X85.1
G1 X84.35 Z-4.2
G1 X18.0
G1 Y67.7167
G1 Y68.4667 Z-2.2
G1 Y70.4667
G1 Y71.2167 Z-4.2
G1 Y101.0
G3 X16.9 Y102.1 I-1.1 J0.0
G1 X7.0
G3 X5.9 Y101.0 I0.0 J-1.1
G1 Y21.5167
G1 Y20.7667 Z-2.2
G1 Y18.7667
G1 Y18.0167 Z-4.2
G1 Y6.0
G3 X7.0 Y4.9 I1.1 J0.0
G1 X114.15
G1 X114.9 Z-2.2
G1 X116.9
G1 X117.65 Z-4.2
G1 X195.0
G3 X196.1 Y6.0 I0.0 J1.1
G1 Y47.8167
G1 Y48.5667 Z-2.2
G1 Y50.5667
G1 Y51.3167 Z-4.2
G1 Y101.0
G3 X195.0 Y102.1 I-1.1 J0.0
G1 X185.1
G3 X184.0 Y101.0 I0.0 J-1.1
( jigg_1_3D )
S1000
G1 F200.0 X184.1
G1 F450.0 Y41.4167
G1 Y40.6667 Z-2.2
G1 Y38.6667
G1 Y37.9167 Z-4.2
G1 Y17.0
G1 X87.85
G1 X87.1 Z-2.2
G1 X85.1
G1 X84.35 Z-4.2
G1 X17.9
G1 Y67.7167
G1 Y68.4667 Z-2.2
G1 Y70.4667
G1 Y71.2167 Z-4.2
G1 Y101.0
G3 X16.9 Y102.0 I-1.0 J0.0
G1 X7.0
G3 X6.0 Y101.0 I0.0 J-1.0
G1 Y21.5167
G1 Y20.7667 Z-2.2
G1 Y18.7667
G1 Y18.0167 Z-4.2
G1 Y6.0
G3 X7.0 Y5.0 I1.0 J0.0
G1 X114.15
G1 X114.9 Z-2.2
G1 X116.9
G1 X117.65 Z-4.2
G1 X195.0
G3 X196.0 Y6.0 I0.0 J1.0
G1 Y47.8167
G1 Y48.5667 Z-2.2
G1 Y50.5667
G1 Y51.3167 Z-4.2
G1 Y101.0
G3 X195.0 Y102.0 I-1.0 J0.0
G1 X185.1
G3 X184.1 Y101.0 I0.0 J-1.0
( jigg_2_cutout )
S1000
G0 Z3.0
G0 X38.0 Y22.0
G0 Z1.0
G1 F300.0 Z0.0
G1 F700.0 Y105.9 Z-0.0339
G1 X204.0 Z-0.101
G1 Y22.0 Z-0.135
G3 X205.1 Y20.9 Z-0.1357 I1.1 J0.0
G1 X215.0 Z-0.1397
G3 X216.1 Y22.0 Z-0.1404 I0.0 J1.1
G1 Y117.0 Z-0.1788
G3 X215.0 Y118.1 Z-0.1795 I-1.1 J0.0
G1 X27.0 Z-0.2555
G3 X25.9 Y117.0 Z-0.2562 I0.0 J-1.1
G1 Y22.0 Z-0.2946
G3 X27.0 Y20.9 Z-0.2953 I1.1 J0.0
G1 X36.9 Z-0.2993
G3 X38.0 Y22.0 Z-0.3 I0.0 J1.1
G1 Y105.9 Z-0.3339
G1 X204.0 Z-0.401
G1 Y22.0 Z-0.435
G3 X205.1 Y20.9 Z-0.4357 I1.1 J0.0
G1 X215.0 Z-0.4397
G3 X216.1 Y22.0 Z-0.4404 I0.0 J1.1
G1 Y117.0 Z-0.4788
G3 X215.0 Y118.1 Z-0.4795 I-1.1 J0.0
G1 X27.0 Z-0.5555
G3 X25.9 Y117.0 Z-0.5562 I0.0 J-1.1
G1 Y22.0 Z-0.5946
G3 X27.0 Y20.9 Z-0.5953 I1.1 J0.0
G1 X36.9 Z-0.5993
G3 X38.0 Y22.0 Z-0.6 I0.0 J1.1
G1 Y105.9 Z-0.6339
G1 X204.0 Z-0.701
G1 Y22.0 Z-0.735
G3 X205.1 Y20.9 Z-0.7357 I1.1 J0.0
G1 X215.0 Z-0.7397
G3 X216.1 Y22.0 Z-0.7404 I0.0 J1.1
G1 Y117.0 Z-0.7788
G3 X215.0 Y118.1 Z-0.7795 I-1.1 J0.0
G1 X27.0 Z-0.8555
G3 X25.9 Y117.0 Z-0.8562 I0.0 J-1.1
G1 Y22.0 Z-0.8946
G3 X27.0 Y20.9 Z-0.8953 I1.1 J0.0
G1 X36.9 Z-0.8993
G3 X38.0 Y22.0 Z-0.9 I0.0 J1.1
G1 Y105.9 Z-0.9339
G1 X204.0 Z-1.001
G1 Y22.0 Z-1.035
G3 X205.1 Y20.9 Z-1.0357 I1.1 J0.0
G1 X215.0 Z-1.0397
G3 X216.1 Y22.0 Z-1.0404 I0.0 J1.1
G1 Y117.0 Z-1.0788
G3 X215.0 Y118.1 Z-1.0795 I-1.1 J0.0
G1 X27.0 Z-1.1555
G3 X25.9 Y117.0 Z-1.1562 I0.0 J-1.1
G1 Y22.0 Z-1.1946
G3 X27.0 Y20.9 Z-1.1953 I1.1 J0.0
G1 X36.9 Z-1.1993
G3 X38.0 Y22.0 Z-1.2 I0.0 J1.1
G1 Y105.9 Z-1.2339
G1 X204.0 Z-1.301
G1 Y22.0 Z-1.335
G3 X205.1 Y20.9 Z-1.3357 I1.1 J0.0
G1 X215.0 Z-1.3397
G3 X216.1 Y22.0 Z-1.3404 I0.0 J1.1
G1 Y117.0 Z-1.3788
G3 X215.0 Y118.1 Z-1.3795 I-1.1 J0.0
G1 X27.0 Z-1.4555
G3 X25.9 Y117.0 Z-1.4562 I0.0 J-1.1
G1 Y22.0 Z-1.4946
G3 X27.0 Y20.9 Z-1.4953 I1.1 J0.0
G1 X36.9 Z-1.4993
G3 X38.0 Y22.0 Z-1.5 I0.0 J1.1
G1 Y105.9 Z-1.5339
G1 X204.0 Z-1.601
G1 Y22.0 Z-1.635
G3 X205.1 Y20.9 Z-1.6357 I1.1 J0.0
G1 X215.0 Z-1.6397
G3 X216.1 Y22.0 Z-1.6404 I0.0 J1.1
G1 Y117.0 Z-1.6788
G3 X215.0 Y118.1 Z-1.6795 I-1.1 J0.0
G1 X27.0 Z-1.7555
G3 X25.9 Y117.0 Z-1.7562 I0.0 J-1.1
G1 Y22.0 Z-1.7946
G3 X27.0 Y20.9 Z-1.7953 I1.1 J0.0
G1 X36.9 Z-1.7993
G3 X38.0 Y22.0 Z-1.8 I0.0 J1.1
G1 Y105.9 Z-1.8339
G1 X204.0 Z-1.901
G1 Y22.0 Z-1.935
G3 X205.1 Y20.9 Z-1.9357 I1.1 J0.0
G1 X215.0 Z-1.9397
G3 X216.1 Y22.0 Z-1.9404 I0.0 J1.1
G1 Y117.0 Z-1.9788
G3 X215.0 Y118.1 Z-1.9795 I-1.1 J0.0
G1 X27.0 Z-2.0555
G3 X25.9 Y117.0 Z-2.0562 I0.0 J-1.1
G1 Y22.0 Z-2.0946
G3 X27.0 Y20.9 Z-2.0953 I1.1 J0.0
G1 X36.9 Z-2.0993
G3 X38.0 Y22.0 Z-2.1 I0.0 J1.1
G1 Y81.5833 Z-2.1241
G1 Y82.3333 Z-2.1244
G1 Y84.3333 Z-2.1252
G1 Y85.0833 Z-2.1255
G1 Y105.9 Z-2.1339
G1 X134.15 Z-2.1728
G1 X134.9 Z-2.1731
G1 X136.9 Z-2.1739
G1 X137.65 Z-2.1742
G1 X204.0 Z-2.201
G1 Y55.2833 Z-2.2215
G1 Y54.5333 Z-2.2
G1 Y52.5333
G1 Y51.7833 Z-2.2229
G1 Y22.0 Z-2.235
G3 X205.1 Y20.9 Z-2.2357 I1.1 J0.0
G1 X215.0 Z-2.2397
G3 X216.1 Y22.0 Z-2.2404 I0.0 J1.1
G1 Y101.4833 Z-2.2725
G1 Y102.2333 Z-2.2
G1 Y104.2333
G1 Y104.9833 Z-2.2739
G1 Y117.0 Z-2.2788
G3 X215.0 Y118.1 Z-2.2795 I-1.1 J0.0
G1 X107.85 Z-2.3228
G1 X107.1 Z-2.2
G1 X105.1
G1 X104.35 Z-2.3242
G1 X27.0 Z-2.3555
G3 X25.9 Y117.0 Z-2.3562 I0.0 J-1.1
G1 Y75.1833 Z-2.3731
G1 Y74.4333 Z-2.2
G1 Y72.4333
G1 Y71.6833 Z-2.3745
G1 Y22.0 Z-2.3946
G3 X27.0 Y20.9 Z-2.3953 I1.1 J0.0
G1 X36.9 Z-2.3993
G3 X38.0 Y22.0 Z-2.4 I0.0 J1.1
G1 Y81.5833 Z-2.4241
G1 Y82.3333 Z-2.2
G1 Y84.3333
G1 Y85.0833 Z-2.4255
G1 Y105.9 Z-2.4339
G1 X134.15 Z-2.4728
G1 X134.9 Z-2.2
G1 X136.9
G1 X137.65 Z-2.4742
G1 X204.0 Z-2.501
G1 Y55.2833 Z-2.5215
G1 Y54.5333 Z-2.2
G1 Y52.5333
G1 Y51.7833 Z-2.5229
G1 Y22.0 Z-2.535
G3 X205.1 Y20.9 Z-2.5357 I1.1 J0.0
G1 X215.0 Z-2.5397
G3 X216.1 Y22.0 Z-2.5404 I0.0 J1.1
G1 Y101.4833 Z-2.5725
G1 Y102.2333 Z-2.2
G1 Y104.2333
G1 Y104.9833 Z-2.5739
G1 Y117.0 Z-2.5788
G3 X215.0 Y118.1 Z-2.5795 I-1.1 J0.0
G1 X107.85 Z-2.6228
G1 X107.1 Z-2.2
G1 X105.1
G1 X104.35 Z-2.6242
G1 X27.0 Z-2.6555
G3 X25.9 Y117.0 Z-2.6562 I0.0 J-1.1
G1 Y75.1833 Z-2.6731
G1 Y74.4333 Z-2.2
G1 Y72.4333
G1 Y71.6833 Z-2.6745
G1 Y22.0 Z-2.6946
G3 X27.0 Y20.9 Z-2.6953 I1.1 J0.0
G1 X36.9 Z-2.6993
G3 X38.0 Y22.0 Z-2.7 I0.0 J1.1
G1 Y81.5833 Z-2.7241
G1 Y82.3333 Z-2.2
G1 Y84.3333
G1 Y85.0833 Z-2.7255
G1 Y105.9 Z-2.7339
G1 X134.15 Z-2.7728
G1 X134.9 Z-2.2
G1 X136.9
G1 X137.65 Z-2.7742
G1 X204.0 Z-2.801
G1 Y55.2833 Z-2.8215
G1 Y54.5333 Z-2.2
G1 Y52.5333
G1 Y51.7833 Z-2.8229
G1 Y22.0 Z-2.835
G3 X205.1 Y20.9 Z-2.8357 I1.1 J0.0
G1 X215.0 Z-2.8397
G3 X216.1 Y22.0 Z-2.8404 I0.0 J1.1
G1 Y101.4833 Z-2.8725
G1 Y102.2333 Z-2.2
G1 Y104.2333
G1 Y104.9833 Z-2.8739
G1 Y117.0 Z-2.8788
G3 X215.0 Y118.1 Z-2.8795 I-1.1 J0.0
G1 X107.85 Z-2.9228
G1 X107.1 Z-2.2
G1 X105.1
G1 X104.35 Z-2.9242
G1 X27.0 Z-2.9555
G3 X25.9 Y117.0 Z-2.9562 I0.0 J-1.1
G1 Y75.1833 Z-2.9731
G1 Y74.4333 Z-2.2
G1 Y72.4333
G1 Y71.6833 Z-2.9745
G1 Y22.0 Z-2.9946
G3 X27.0 Y20.9 Z-2.9953 I1.1 J0.0
G1 X36.9 Z-2.9993
G3 X38.0 Y22.0 Z-3.0 I0.0 J1.1
G1 Y81.5833 Z-3.0241
G1 Y82.3333 Z-2.2
G1 Y84.3333
G1 Y85.0833 Z-3.0255
G1 Y105.9 Z-3.0339
G1 X134.15 Z-3.0728
G1 X134.9 Z-2.2
G1 X136.9
G1 X137.65 Z-3.0742
G1 X204.0 Z-3.101
G1 Y55.2833 Z-3.1215
G1 Y54.5333 Z-2.2
G1 Y52.5333
G1 Y51.7833 Z-3.1229
G1 Y22.0 Z-3.135
G3 X205.1 Y20.9 Z-3.1357 I1.1 J0.0
G1 X215.0 Z-3.1397
G3 X216.1 Y22.0 Z-3.1404 I0.0 J1.1
G1 Y101.4833 Z-3.1725
G1 Y102.2333 Z-2.2
G1 Y104.2333
G1 Y104.9833 Z-3.1739
G1 Y117.0 Z-3.1788
G3 X215.0 Y118.1 Z-3.1795 I-1.1 J0.0
G1 X107.85 Z-3.2228
G1 X107.1 Z-2.2
G1 X105.1
G1 X104.35 Z-3.2242
G1 X27.0 Z-3.2555
G3 X25.9 Y117.0 Z-3.2562 I0.0 J-1.1
G1 Y75.1833 Z-3.2731
G1 Y74.4333 Z-2.2
G1 Y72.4333
G1 Y71.6833 Z-3.2745
G1 Y22.0 Z-3.2946
G3 X27.0 Y20.9 Z-3.2953 I1.1 J0.0
G1 X36.9 Z-3.2993
G3 X38.0 Y22.0 Z-3.3 I0.0 J1.1
G1 Y81.5833 Z-3.3241
G1 Y82.3333 Z-2.2
G1 Y84.3333
G1 Y85.0833 Z-3.3255
G1 Y105.9 Z-3.3339
G1 X134.15 Z-3.3728
G1 X134.9 Z-2.2
G1 X136.9
G1 X137.65 Z-3.3742
G1 X204.0 Z-3.401
G1 Y55.2833 Z-3.4215
G1 Y54.5333 Z-2.2
G1 Y52.5333
G1 Y51.7833 Z-3.4229
G1 Y22.0 Z-3.435
G3 X205.1 Y20.9 Z-3.4357 I1.1 J0.0
G1 X215.0 Z-3.4397
G3 X216.1 Y22.0 Z-3.4404 I0.0 J1.1
G1 Y101.4833 Z-3.4725
G1 Y102.2333 Z-2.2
G1 Y104.2333
G1 Y104.9833 Z-3.4739
G1 Y117.0 Z-3.4788
G3 X215.0 Y118.1 Z-3.4795 I-1.1 J0.0
G1 X107.85 Z-3.5228
G1 X107.1 Z-2.2
G1 X105.1
G1 X104.35 Z-3.5242
G1 X27.0 Z-3.5555
G3 X25.9 Y117.0 Z-3.5562 I0.0 J-1.1
G1 Y75.1833 Z-3.5731
G1 Y74.4333 Z-2.2
G1 Y72.4333
G1 Y71.6833 Z-3.5745
G1 Y22.0 Z-3.5946
G3 X27.0 Y20.9 Z-3.5953 I1.1 J0.0
G1 X36.9 Z-3.5993
G3 X38.0 Y22.0 Z-3.6 I0.0 J1.1
G1 Y81.5833 Z-3.6241
G1 Y82.3333 Z-2.2
G1 Y84.3333
G1 Y85.0833 Z-3.6255
G1 Y105.9 Z-3.6339
G1 X134.15 Z-3.6728
G1 X134.9 Z-2.2
G1 X136.9
G1 X137.65 Z-3.6742
G1 X204.0 Z-3.701
G1 Y55.2833 Z-3.7215
G1 Y54.5333 Z-2.2
G1 Y52.5333
G1 Y51.7833 Z-3.7229
G1 Y22.0 Z-3.735
G3 X205.1 Y20.9 Z-3.7357 I1.1 J0.0
G1 X215.0 Z-3.7397
G3 X216.1 Y22.0 Z-3.7404 I0.0 J1.1
G1 Y101.4833 Z-3.7725
G1 Y102.2333 Z-2.2
G1 Y104.2333
G1 Y104.9833 Z-3.7739
G1 Y117.0 Z-3.7788
G3 X215.0 Y118.1 Z-3.7795 I-1.1 J0.0
G1 X107.85 Z-3.8228
G1 X107.1 Z-2.2
G1 X105.1
G1 X104.35 Z-3.8242
G1 X27.0 Z-3.8555
G3 X25.9 Y117.0 Z-3.8562 I0.0 J-1.1
G1 Y75.1833 Z-3.8731
G1 Y74.4333 Z-2.2
G1 Y72.4333
G1 Y71.6833 Z-3.8745
G1 Y22.0 Z-3.8946
G3 X27.0 Y20.9 Z-3.8953 I1.1 J0.0
G1 X36.9 Z-3.8993
G3 X38.0 Y22.0 Z-3.9 I0.0 J1.1
G1 Y81.5833 Z-3.9241
G1 Y82.3333 Z-2.2
G1 Y84.3333
G1 Y85.0833 Z-3.9255
G1 Y105.9 Z-3.9339
G1 X134.15 Z-3.9728
G1 X134.9 Z-2.2
G1 X136.9
G1 X137.65 Z-3.9742
G1 X204.0 Z-4.001
G1 Y55.2833 Z-4.0215
G1 Y54.5333 Z-2.2
G1 Y52.5333
G1 Y51.7833 Z-4.0229
G1 Y22.0 Z-4.035
G3 X205.1 Y20.9 Z-4.0357 I1.1 J0.0
G1 X215.0 Z-4.0397
G3 X216.1 Y22.0 Z-4.0404 I0.0 J1.1
G1 Y101.4833 Z-4.0725
G1 Y102.2333 Z-2.2
G1 Y104.2333
G1 Y104.9833 Z-4.0739
G1 Y117.0 Z-4.0788
G3 X215.0 Y118.1 Z-4.0795 I-1.1 J0.0
G1 X107.85 Z-4.1228
G1 X107.1 Z-2.2
G1 X105.1
G1 X104.35 Z-4.1242
G1 X27.0 Z-4.1555
G3 X25.9 Y117.0 Z-4.1562 I0.0 J-1.1
G1 Y75.1833 Z-4.1731
G1 Y74.4333 Z-2.2
G1 Y72.4333
G1 Y71.6833 Z-4.1745
G1 Y22.0 Z-4.1946
G3 X27.0 Y20.9 Z-4.1953 I1.1 J0.0
G1 X36.9 Z-4.1993
G3 X38.0 Y22.0 Z-4.2 I0.0 J1.1
G1 Y81.5833
G1 Y82.3333 Z-2.2
G1 Y84.3333
G1 Y85.0833 Z-4.2
G1 Y105.9
G1 X134.15
G1 X134.9 Z-2.2
G1 X136.9
G1 X137.65 Z-4.2
G1 X204.0
G1 Y55.2833
G1 Y54.5333 Z-2.2
G1 Y52.5333
G1 Y51.7833 Z-4.2
G1 Y22.0
G3 X205.1 Y20.9 I1.1 J0.0
G1 X215.0
G3 X216.1 Y22.0 I0.0 J1.1
G1 Y101.4833
G1 Y102.2333 Z-2.2
G1 Y104.2333
G1 Y104.9833 Z-4.2
G1 Y117.0
G3 X215.0 Y118.1 I-1.1 J0.0
G1 X107.85
G1 X107.1 Z-2.2
G1 X105.1
G1 X104.35 Z-4.2
G1 X27.0
G3 X25.9 Y117.0 I0.0 J-1.1
G1 Y75.1833
G1 Y74.4333 Z-2.2
G1 Y72.4333
G1 Y71.6833 Z-4.2
G1 Y22.0
G3 X27.0 Y20.9 I1.1 J0.0
G1 X36.9
G3 X38.0 Y22.0 I0.0 J1.1
( jigg_2_3D )
S1000
G1 F300.0 X37.9
G1 F450.0 Y106.0
G1 X204.1
G1 Y22.0
G3 X205.1 Y21.0 I1.0 J0.0
G1 X215.0
G3 X216.0 Y22.0 I0.0 J1.0
G1 Y117.0
G3 X215.0 Y118.0 I-1.0 J0.0
G1 X27.0
G3 X26.0 Y117.0 I0.0 J-1.0
G1 Y22.0
G3 X27.0 Y21.0 I1.0 J0.0
G1 X36.9
G3 X37.9 Y22.0 I0.0 J1.0
G0 Z3.0
M5
M30
