( Made using CamBam - http://www.cambam.co.uk )
( ssc_plexi_Top_Panel 2/27/2021 4:46:51 PM )
( T4 : 2.5 )
( CUTVIEWER )
( FROM/0,0,5 )
( Select dummy tool to avoid warnings )
( TOOL/MILL,1,0,20.0,0 )
( STOCK/BLOCK,180.0,95.0,4.0,0.0,0.0,4.0 )
G21 G90 G91.1 G64 G40
G0 Z3.0
( T4 : 2.5 )
( Tool Taper coming soon )
( TOOL/MILL,2.5,0.0,0.0,0 )
T4 M6
( connectorSlot_cutout )
G17
M3 S1000
G0 X25.25 Y83.75
G0 Z1.0
G1 F200.0 Z0.0
G1 F700.0 X11.85 Z-0.1457
G1 Y84.15 Z-0.15
G1 X25.25 Z-0.2957
G1 Y83.75 Z-0.3
G1 F200.0 Y83.25
G1 F700.0 X11.35
G1 Y84.65
G1 X25.75
G1 Y83.25
G1 X25.25
G0 Z3.0
G0 Y13.25
G0 Z1.0
G1 F200.0 Z0.0
G1 F700.0 Y12.85 Z-0.0043
G1 X11.85 Z-0.15
G1 Y13.25 Z-0.1543
G1 X25.25 Z-0.3
G1 F200.0 X25.75
G1 F700.0 Y12.35
G1 X11.35
G1 Y13.75
G1 X25.75
G1 Y13.25
G0 Z3.0
G0 X154.75
G0 Z1.0
G1 F200.0 Z0.0
G1 F700.0 X168.15 Z-0.1457
G1 Y12.85 Z-0.15
G1 X154.75 Z-0.2957
G1 Y13.25 Z-0.3
G1 F200.0 Y13.75
G1 F700.0 X168.65
G1 Y12.35
G1 X154.25
G1 Y13.75
G1 X154.75
G0 Z3.0
G0 Y83.75
G0 Z1.0
G1 F200.0 Z0.0
G1 F700.0 Y84.15 Z-0.0043
G1 X168.15 Z-0.15
G1 Y83.75 Z-0.1543
G1 X154.75 Z-0.3
G1 F200.0 X154.25
G1 F700.0 Y84.65
G1 X168.65
G1 Y83.25
G1 X154.25
G1 Y83.75
G1 F200.0 X154.75
G1 F700.0 Y84.15 Z-0.3014
G1 X168.15 Z-0.35
G1 Y83.75 Z-0.3514
G1 X154.75 Z-0.4
G1 F200.0 X154.25
G1 F700.0 Y84.65
G1 X168.65
G1 Y83.25
G1 X154.25
G1 Y83.75
G0 Z3.0
G0 X154.75 Y13.25
G0 Z0.7
G1 F200.0 Z-0.3
G1 F700.0 X168.15 Z-0.3486
G1 Y12.85 Z-0.35
G1 X154.75 Z-0.3986
G1 Y13.25 Z-0.4
G1 F200.0 Y13.75
G1 F700.0 X168.65
G1 Y12.35
G1 X154.25
G1 Y13.75
G1 X154.75
G0 Z3.0
G0 X25.25 Y13.25
G0 Z0.7
G1 F200.0 Z-0.3
G1 F700.0 Y12.85 Z-0.3014
G1 X11.85 Z-0.35
G1 Y13.25 Z-0.3514
G1 X25.25 Z-0.4
G1 F200.0 X25.75
G1 F700.0 Y12.35
G1 X11.35
G1 Y13.75
G1 X25.75
G1 Y13.25
G0 Z3.0
G0 X25.25 Y83.75
G0 Z0.7
G1 F200.0 Z-0.3
G1 F700.0 X11.85 Z-0.3486
G1 Y84.15 Z-0.35
G1 X25.25 Z-0.3986
G1 Y83.75 Z-0.4
G1 F200.0 Y83.25
G1 F700.0 X11.35
G1 Y84.65
G1 X25.75
G1 Y83.25
G1 X25.25
G1 F200.0 Y83.75
G1 F700.0 X11.85 Z-0.4486
G1 Y84.15 Z-0.45
G1 X25.25 Z-0.4986
G1 Y83.75 Z-0.5
G1 X11.85
G1 Y84.15
G1 X25.25
G1 Y83.75
G1 F200.0 Y83.25
G1 F700.0 X11.35
G1 Y84.65
G1 X25.75
G1 Y83.25
G1 X25.25
G0 Z3.0
G0 Y13.25
G0 Z0.6
G1 F200.0 Z-0.4
G1 F700.0 Y12.85 Z-0.4014
G1 X11.85 Z-0.45
G1 Y13.25 Z-0.4514
G1 X25.25 Z-0.5
G1 Y12.85
G1 X11.85
G1 Y13.25
G1 X25.25
G1 F200.0 X25.75
G1 F700.0 Y12.35
G1 X11.35
G1 Y13.75
G1 X25.75
G1 Y13.25
G0 Z3.0
G0 X154.75
G0 Z0.6
G1 F200.0 Z-0.4
G1 F700.0 X168.15 Z-0.4486
G1 Y12.85 Z-0.45
G1 X154.75 Z-0.4986
G1 Y13.25 Z-0.5
G1 X168.15
G1 Y12.85
G1 X154.75
G1 Y13.25
G1 F200.0 Y13.75
G1 F700.0 X168.65
G1 Y12.35
G1 X154.25
G1 Y13.75
G1 X154.75
G0 Z3.0
G0 Y83.75
G0 Z0.6
G1 F200.0 Z-0.4
G1 F700.0 Y84.15 Z-0.4014
G1 X168.15 Z-0.45
G1 Y83.75 Z-0.4514
G1 X154.75 Z-0.5
G1 Y84.15
G1 X168.15
G1 Y83.75
G1 X154.75
G1 F200.0 X154.25
G1 F700.0 Y84.65
G1 X168.65
G1 Y83.25
G1 X154.25
G1 Y83.75
( connectorSlot_3D )
S1000
G0 Z3.0
G0 X25.35 Y83.65
G0 Z1.0
G1 F200.0 Z-0.5
G1 F700.0 X11.75
G1 Y84.25
G1 X25.35
G1 Y83.65
G1 F200.0 X25.85
G1 F700.0 Y83.15
G1 X11.25
G1 Y84.75
G1 X25.85
G1 Y83.65
G0 Z3.0
G0 X25.35 Y13.35
G0 Z1.0
G1 F200.0 Z-0.5
G1 F700.0 Y12.75
G1 X11.75
G1 Y13.35
G1 X25.35
G1 F200.0 Y13.85
G1 F700.0 X25.85
G1 Y12.25
G1 X11.25
G1 Y13.85
G1 X25.35
G0 Z3.0
G0 X154.65 Y13.35
G0 Z1.0
G1 F200.0 Z-0.5
G1 F700.0 X168.25
G1 Y12.75
G1 X154.65
G1 Y13.35
G1 F200.0 X154.15
G1 F700.0 Y13.85
G1 X168.75
G1 Y12.25
G1 X154.15
G1 Y13.35
G0 Z3.0
G0 X154.65 Y83.65
G0 Z1.0
G1 F200.0 Z-0.5
G1 F700.0 Y84.25
G1 X168.25
G1 Y83.65
G1 X154.65
G1 F200.0 Y83.15
G1 F700.0 X154.15
G1 Y84.75
G1 X168.75
G1 Y83.15
G1 X154.65
( connectorSlot_Overcut )
S1000
G0 Z3.0
G0 X25.85
G1 F200.0 Z0.0
G1 F700.0 X11.25 Z-0.1199
G1 X10.8839 Y82.7839 Z-0.1241
G1 X11.25 Y83.15 Z-0.1284
G1 Y84.75 Z-0.1415
G1 X10.8839 Y85.1161 Z-0.1457
G1 X11.25 Y84.75 Z-0.15
G1 X25.85 Z-0.2699
G1 X26.2161 Y85.1161 Z-0.2741
G1 X25.85 Y84.75 Z-0.2784
G1 Y83.15 Z-0.2915
G1 X26.2161 Y82.7839 Z-0.2957
G1 X25.85 Y83.15 Z-0.3
G0 Z3.0
G0 X26.2161 Y14.2161
G0 Z1.0
G1 F200.0 Z0.0
G1 F700.0 X25.85 Y13.85 Z-0.0043
G1 Y12.25 Z-0.0174
G1 X26.2161 Y11.8839 Z-0.0216
G1 X25.85 Y12.25 Z-0.0259
G1 X11.25 Z-0.1457
G1 X10.8839 Y11.8839 Z-0.15
G1 X11.25 Y12.25 Z-0.1543
G1 Y13.85 Z-0.1674
G1 X10.8839 Y14.2161 Z-0.1716
G1 X11.25 Y13.85 Z-0.1759
G1 X25.85 Z-0.2957
G1 X26.2161 Y14.2161 Z-0.3
G0 Z3.0
G0 X153.7839
G0 Z1.0
G1 F200.0 Z0.0
G1 F700.0 X154.15 Y13.85 Z-0.0043
G1 X168.75 Z-0.1241
G1 X169.1161 Y14.2161 Z-0.1284
G1 X168.75 Y13.85 Z-0.1326
G1 Y12.25 Z-0.1457
G1 X169.1161 Y11.8839 Z-0.15
G1 X168.75 Y12.25 Z-0.1543
G1 X154.15 Z-0.2741
G1 X153.7839 Y11.8839 Z-0.2784
G1 X154.15 Y12.25 Z-0.2826
G1 Y13.85 Z-0.2957
G1 X153.7839 Y14.2161 Z-0.3
G0 Z3.0
G0 Y82.7839
G0 Z1.0
G1 F200.0 Z0.0
G1 F700.0 X154.15 Y83.15 Z-0.0043
G1 Y84.75 Z-0.0174
G1 X153.7839 Y85.1161 Z-0.0216
G1 X154.15 Y84.75 Z-0.0259
G1 X168.75 Z-0.1457
G1 X169.1161 Y85.1161 Z-0.15
G1 X168.75 Y84.75 Z-0.1543
G1 Y83.15 Z-0.1674
G1 X169.1161 Y82.7839 Z-0.1716
G1 X168.75 Y83.15 Z-0.1759
G1 X154.15 Z-0.2957
G1 X153.7839 Y82.7839 Z-0.3
G1 X154.15 Y83.15 Z-0.3028
G1 Y84.75 Z-0.3116
G1 X153.7839 Y85.1161 Z-0.3144
G1 X154.15 Y84.75 Z-0.3173
G1 X168.75 Z-0.3972
G1 X169.1161 Y85.1161 Z-0.4
G1 X168.75 Y84.75 Z-0.4028
G1 Y83.15 Z-0.4116
G1 X169.1161 Y82.7839 Z-0.4144
G1 X168.75 Y83.15 Z-0.4173
G1 X154.15 Z-0.4972
G1 X153.7839 Y82.7839 Z-0.5
G1 X154.15 Y83.15
G1 Y84.75
G1 X153.7839 Y85.1161
G1 X154.15 Y84.75
G1 X168.75
G1 X169.1161 Y85.1161
G1 X168.75 Y84.75
G1 Y83.15
G1 X169.1161 Y82.7839
G1 X168.75 Y83.15
G1 X154.15
G1 X153.7839 Y82.7839
G0 Z3.0
G0 Y14.2161
G0 Z0.7
G1 F200.0 Z-0.3
G1 F700.0 X154.15 Y13.85 Z-0.3028
G1 X168.75 Z-0.3827
G1 X169.1161 Y14.2161 Z-0.3856
G1 X168.75 Y13.85 Z-0.3884
G1 Y12.25 Z-0.3972
G1 X169.1161 Y11.8839 Z-0.4
G1 X168.75 Y12.25 Z-0.4028
G1 X154.15 Z-0.4827
G1 X153.7839 Y11.8839 Z-0.4856
G1 X154.15 Y12.25 Z-0.4884
G1 Y13.85 Z-0.4972
G1 X153.7839 Y14.2161 Z-0.5
G1 X154.15 Y13.85
G1 X168.75
G1 X169.1161 Y14.2161
G1 X168.75 Y13.85
G1 Y12.25
G1 X169.1161 Y11.8839
G1 X168.75 Y12.25
G1 X154.15
G1 X153.7839 Y11.8839
G1 X154.15 Y12.25
G1 Y13.85
G1 X153.7839 Y14.2161
G0 Z3.0
G0 X26.2161
G0 Z0.7
G1 F200.0 Z-0.3
G1 F700.0 X25.85 Y13.85 Z-0.3028
G1 Y12.25 Z-0.3116
G1 X26.2161 Y11.8839 Z-0.3144
G1 X25.85 Y12.25 Z-0.3173
G1 X11.25 Z-0.3972
G1 X10.8839 Y11.8839 Z-0.4
G1 X11.25 Y12.25 Z-0.4028
G1 Y13.85 Z-0.4116
G1 X10.8839 Y14.2161 Z-0.4144
G1 X11.25 Y13.85 Z-0.4173
G1 X25.85 Z-0.4972
G1 X26.2161 Y14.2161 Z-0.5
G1 X25.85 Y13.85
G1 Y12.25
G1 X26.2161 Y11.8839
G1 X25.85 Y12.25
G1 X11.25
G1 X10.8839 Y11.8839
G1 X11.25 Y12.25
G1 Y13.85
G1 X10.8839 Y14.2161
G1 X11.25 Y13.85
G1 X25.85
G1 X26.2161 Y14.2161
G0 Z3.0
G0 Y82.7839
G0 Z0.7
G1 F200.0 Z-0.3
G1 F700.0 X25.85 Y83.15 Z-0.3028
G1 X11.25 Z-0.3827
G1 X10.8839 Y82.7839 Z-0.3856
G1 X11.25 Y83.15 Z-0.3884
G1 Y84.75 Z-0.3972
G1 X10.8839 Y85.1161 Z-0.4
G1 X11.25 Y84.75 Z-0.4028
G1 X25.85 Z-0.4827
G1 X26.2161 Y85.1161 Z-0.4856
G1 X25.85 Y84.75 Z-0.4884
G1 Y83.15 Z-0.4972
G1 X26.2161 Y82.7839 Z-0.5
G1 X25.85 Y83.15
G1 X11.25
G1 X10.8839 Y82.7839
G1 X11.25 Y83.15
G1 Y84.75
G1 X10.8839 Y85.1161
G1 X11.25 Y84.75
G1 X25.85
G1 X26.2161 Y85.1161
G1 X25.85 Y84.75
G1 Y83.15
G1 X26.2161 Y82.7839
( connectorSlot_WallTrail )
S1000
G0 Z3.0
G0 X154.25 Y13.75
G1 F200.0 Z0.0
G1 F700.0 X170.0 Z-0.0098
G3 X171.35 Y15.1 Z-0.0112 I0.0 J1.35
G1 Y81.9 Z-0.0528
G3 X170.0 Y83.25 Z-0.0542 I-1.35 J0.0
G1 X154.25 Z-0.064
G1 X153.8546 Y82.8546 Z-0.0644
G1 X154.25 Y83.25 Z-0.0647
G1 Y86.0 Z-0.0664
G3 X152.9 Y87.35 Z-0.0677 I-1.35 J0.0
G1 X27.1 Z-0.1463
G3 X25.75 Y86.0 Z-0.1476 I0.0 J-1.35
G1 Y83.25 Z-0.1493
G1 X26.1454 Y82.8546 Z-0.1497
G1 X25.75 Y83.25 Z-0.15
G1 X10.0 Z-0.1598
G3 X8.65 Y81.9 Z-0.1612 I0.0 J-1.35
G1 Y15.1 Z-0.2028
G3 X10.0 Y13.75 Z-0.2042 I1.35 J0.0
G1 X25.75 Z-0.214
G1 X26.1454 Y14.1454 Z-0.2144
G1 X25.75 Y13.75 Z-0.2147
G1 Y11.0 Z-0.2164
G3 X27.1 Y9.65 Z-0.2177 I1.35 J0.0
G1 X152.9 Z-0.2963
G3 X154.25 Y11.0 Z-0.2976 I0.0 J1.35
G1 Y13.75 Z-0.2993
G1 X153.8546 Y14.1454 Z-0.2997
G1 X154.25 Y13.75 Z-0.3
G1 X170.0 Z-0.3033
G3 X171.35 Y15.1 Z-0.3037 I0.0 J1.35
G1 Y81.9 Z-0.3176
G3 X170.0 Y83.25 Z-0.3181 I-1.35 J0.0
G1 X154.25 Z-0.3213
G1 X153.8546 Y82.8546 Z-0.3215
G1 X154.25 Y83.25 Z-0.3216
G1 Y86.0 Z-0.3221
G3 X152.9 Y87.35 Z-0.3226 I-1.35 J0.0
G1 X27.1 Z-0.3488
G3 X25.75 Y86.0 Z-0.3492 I0.0 J-1.35
G1 Y83.25 Z-0.3498
G1 X26.1454 Y82.8546 Z-0.3499
G1 X25.75 Y83.25 Z-0.35
G1 X10.0 Z-0.3533
G3 X8.65 Y81.9 Z-0.3537 I0.0 J-1.35
G1 Y15.1 Z-0.3676
G3 X10.0 Y13.75 Z-0.3681 I1.35 J0.0
G1 X25.75 Z-0.3713
G1 X26.1454 Y14.1454 Z-0.3715
G1 X25.75 Y13.75 Z-0.3716
G1 Y11.0 Z-0.3721
G3 X27.1 Y9.65 Z-0.3726 I1.35 J0.0
G1 X152.9 Z-0.3988
G3 X154.25 Y11.0 Z-0.3992 I0.0 J1.35
G1 Y13.75 Z-0.3998
G1 X153.8546 Y14.1454 Z-0.3999
G1 X154.25 Y13.75 Z-0.4
G1 X170.0 Z-0.4033
G3 X171.35 Y15.1 Z-0.4037 I0.0 J1.35
G1 Y81.9 Z-0.4176
G3 X170.0 Y83.25 Z-0.4181 I-1.35 J0.0
G1 X154.25 Z-0.4213
G1 X153.8546 Y82.8546 Z-0.4215
G1 X154.25 Y83.25 Z-0.4216
G1 Y86.0 Z-0.4221
G3 X152.9 Y87.35 Z-0.4226 I-1.35 J0.0
G1 X27.1 Z-0.4488
G3 X25.75 Y86.0 Z-0.4492 I0.0 J-1.35
G1 Y83.25 Z-0.4498
G1 X26.1454 Y82.8546 Z-0.4499
G1 X25.75 Y83.25 Z-0.45
G1 X10.0 Z-0.4533
G3 X8.65 Y81.9 Z-0.4537 I0.0 J-1.35
G1 Y15.1 Z-0.4676
G3 X10.0 Y13.75 Z-0.4681 I1.35 J0.0
G1 X25.75 Z-0.4713
G1 X26.1454 Y14.1454 Z-0.4715
G1 X25.75 Y13.75 Z-0.4716
G1 Y11.0 Z-0.4721
G3 X27.1 Y9.65 Z-0.4726 I1.35 J0.0
G1 X152.9 Z-0.4988
G3 X154.25 Y11.0 Z-0.4992 I0.0 J1.35
G1 Y13.75 Z-0.4998
G1 X153.8546 Y14.1454 Z-0.4999
G1 X154.25 Y13.75 Z-0.5
G1 X170.0
G3 X171.35 Y15.1 I0.0 J1.35
G1 Y81.9
G3 X170.0 Y83.25 I-1.35 J0.0
G1 X154.25
G1 X153.8546 Y82.8546
G1 X154.25 Y83.25
G1 Y86.0
G3 X152.9 Y87.35 I-1.35 J0.0
G1 X27.1
G3 X25.75 Y86.0 I0.0 J-1.35
G1 Y83.25
G1 X26.1454 Y82.8546
G1 X25.75 Y83.25
G1 X10.0
G3 X8.65 Y81.9 I0.0 J-1.35
G1 Y15.1
G3 X10.0 Y13.75 I1.35 J0.0
G1 X25.75
G1 X26.1454 Y14.1454
G1 X25.75 Y13.75
G1 Y11.0
G3 X27.1 Y9.65 I1.35 J0.0
G1 X152.9
G3 X154.25 Y11.0 I0.0 J1.35
G1 Y13.75
G1 X153.8546 Y14.1454
G1 X154.25 Y13.75
( connectorWallTrail_3D )
S1000
G1 F200.0 X154.15 Y13.85
G1 F700.0 X170.0
G3 X171.25 Y15.1 I0.0 J1.25
G1 Y81.9
G3 X170.0 Y83.15 I-1.25 J0.0
G1 X154.15
G1 X153.7839 Y82.7839
G1 X154.15 Y83.15
G1 Y86.0
G3 X152.9 Y87.25 I-1.25 J0.0
G1 X27.1
G3 X25.85 Y86.0 I0.0 J-1.25
G1 Y83.15
G1 X26.2161 Y82.7839
G1 X25.85 Y83.15
G1 X10.0
G3 X8.75 Y81.9 I0.0 J-1.25
G1 Y15.1
G3 X10.0 Y13.85 I1.25 J0.0
G1 X25.85
G1 X26.2161 Y14.2161
G1 X25.85 Y13.85
G1 Y11.0
G3 X27.1 Y9.75 I1.25 J0.0
G1 X152.9
G3 X154.15 Y11.0 I0.0 J1.25
G1 Y13.85
G1 X153.7839 Y14.2161
G1 X154.15 Y13.85
( wallTrail_cutout )
S1000
G0 Z3.0
G0 X170.9546 Y86.9546
G0 Z1.0
G1 F200.0 Z0.0
G3 F700.0 X170.0 Y87.35 Z-0.0007 I-0.9546 J-0.9546
G1 X10.0 Z-0.101
G3 X8.65 Y86.0 Z-0.1023 I0.0 J-1.35
G1 Y11.0 Z-0.1493
G3 X10.0 Y9.65 Z-0.1507 I1.35 J0.0
G1 X170.0 Z-0.251
G3 X171.35 Y11.0 Z-0.2523 I0.0 J1.35
G1 Y86.0 Z-0.2993
G3 X170.9546 Y86.9546 Z-0.3 I-1.35 J0.0
G0 Z3.0
G0 X171.15 Y8.3945
G0 Z1.0
G1 F200.0 Z0.0
G1 F700.0 Y7.85 Z-0.0005
G1 X8.85 Z-0.15
G1 Y8.3945 Z-0.1505
G3 X10.0 Y8.152 Z-0.1516 I1.15 J2.6055
G1 X170.0 Z-0.2989
G3 X171.15 Y8.3945 Z-0.3 I0.0 J2.848
G1 F200.0 X171.65
G1 F700.0 Y7.35
G1 X8.35
G1 Y9.3295
G3 X10.0 Y8.652 I1.65 J1.6705
G1 X170.0
G3 X171.65 Y9.3295 I0.0 J2.348
G1 Y8.3945
G1 F200.0 X172.65
G1 F700.0 Y6.35
G1 X7.35
G1 Y88.65
G1 X172.65
G1 Y8.3945
G1 F200.0 X171.15
G1 F700.0 Y7.85 Z-0.3005
G1 X8.85 Z-0.45
G1 Y8.3945 Z-0.4505
G3 X10.0 Y8.152 Z-0.4516 I1.15 J2.6055
G1 X170.0 Z-0.5989
G3 X171.15 Y8.3945 Z-0.6 I0.0 J2.848
G1 F200.0 X171.65
G1 F700.0 Y7.35
G1 X8.35
G1 Y9.3295
G3 X10.0 Y8.652 I1.65 J1.6705
G1 X170.0
G3 X171.65 Y9.3295 I0.0 J2.348
G1 Y8.3945
G1 F200.0 X172.65
G1 F700.0 Y6.35
G1 X7.35
G1 Y88.65
G1 X172.65
G1 Y8.3945
G0 Z3.0
G0 X170.9626 Y10.0535
G0 Z0.7
G1 F200.0 Z-0.3
G3 F700.0 X171.35 Y11.0 Z-0.3007 I-0.9626 J0.9465
G1 Y86.0 Z-0.3477
G3 X170.0 Y87.35 Z-0.349 I-1.35 J0.0
G1 X10.0 Z-0.4493
G3 X8.65 Y86.0 Z-0.4507 I0.0 J-1.35
G1 Y11.0 Z-0.4977
G3 X10.0 Y9.65 Z-0.499 I1.35 J0.0
G1 X170.0 Z-0.5993
G3 X170.9626 Y10.0535 Z-0.6 I0.0 J1.35
G3 X171.35 Y11.0 Z-0.6007 I-0.9626 J0.9465
G1 Y86.0 Z-0.6477
G3 X170.0 Y87.35 Z-0.649 I-1.35 J0.0
G1 X10.0 Z-0.7493
G3 X8.65 Y86.0 Z-0.7507 I0.0 J-1.35
G1 Y11.0 Z-0.7977
G3 X10.0 Y9.65 Z-0.799 I1.35 J0.0
G1 X170.0 Z-0.8993
G3 X170.9626 Y10.0535 Z-0.9 I0.0 J1.35
G0 Z-0.6
G1 F200.0 X171.15 Y8.3945
G1 F700.0 Y7.85 Z-0.6005
G1 X8.85 Z-0.75
G1 Y8.3945 Z-0.7505
G3 X10.0 Y8.152 Z-0.7516 I1.15 J2.6055
G1 X170.0 Z-0.8989
G3 X171.15 Y8.3945 Z-0.9 I0.0 J2.848
G1 F200.0 X171.65
G1 F700.0 Y7.35
G1 X8.35
G1 Y9.3295
G3 X10.0 Y8.652 I1.65 J1.6705
G1 X170.0
G3 X171.65 Y9.3295 I0.0 J2.348
G1 Y8.3945
G1 F200.0 X172.65
G1 F700.0 Y6.35
G1 X7.35
G1 Y88.65
G1 X172.65
G1 Y8.3945
G1 F200.0 X171.15
G1 F700.0 Y7.85 Z-0.9005
G1 X8.85 Z-1.05
G1 Y8.3945 Z-1.0505
G3 X10.0 Y8.152 Z-1.0516 I1.15 J2.6055
G1 X170.0 Z-1.1989
G3 X171.15 Y8.3945 Z-1.2 I0.0 J2.848
G1 F200.0 X171.65
G1 F700.0 Y7.35
G1 X8.35
G1 Y9.3295
G3 X10.0 Y8.652 I1.65 J1.6705
G1 X170.0
G3 X171.65 Y9.3295 I0.0 J2.348
G1 Y8.3945
G1 F200.0 X172.65
G1 F700.0 Y6.35
G1 X7.35
G1 Y88.65
G1 X172.65
G1 Y8.3945
G0 Z3.0
G0 X170.9626 Y10.0535
G1 F200.0 Z-0.9
G3 F700.0 X171.35 Y11.0 Z-0.9007 I-0.9626 J0.9465
G1 Y86.0 Z-0.9477
G3 X170.0 Y87.35 Z-0.949 I-1.35 J0.0
G1 X10.0 Z-1.0493
G3 X8.65 Y86.0 Z-1.0507 I0.0 J-1.35
G1 Y11.0 Z-1.0977
G3 X10.0 Y9.65 Z-1.099 I1.35 J0.0
G1 X170.0 Z-1.1993
G3 X170.9626 Y10.0535 Z-1.2 I0.0 J1.35
G3 X171.35 Y11.0 Z-1.2007 I-0.9626 J0.9465
G1 Y86.0 Z-1.2477
G3 X170.0 Y87.35 Z-1.249 I-1.35 J0.0
G1 X10.0 Z-1.3493
G3 X8.65 Y86.0 Z-1.3507 I0.0 J-1.35
G1 Y11.0 Z-1.3977
G3 X10.0 Y9.65 Z-1.399 I1.35 J0.0
G1 X170.0 Z-1.4993
G3 X170.9626 Y10.0535 Z-1.5 I0.0 J1.35
G0 Z-1.2
G1 F200.0 X171.15 Y8.3945
G1 F700.0 Y7.85 Z-1.2005
G1 X8.85 Z-1.35
G1 Y8.3945 Z-1.3505
G3 X10.0 Y8.152 Z-1.3516 I1.15 J2.6055
G1 X170.0 Z-1.4989
G3 X171.15 Y8.3945 Z-1.5 I0.0 J2.848
G1 F200.0 X171.65
G1 F700.0 Y7.35
G1 X8.35
G1 Y9.3295
G3 X10.0 Y8.652 I1.65 J1.6705
G1 X170.0
G3 X171.65 Y9.3295 I0.0 J2.348
G1 Y8.3945
G1 F200.0 X172.65
G1 F700.0 Y6.35
G1 X7.35
G1 Y88.65
G1 X172.65
G1 Y8.3945
G1 F200.0 X171.15
G1 F700.0 Y7.85 Z-1.5005
G1 X8.85 Z-1.65
G1 Y8.3945 Z-1.6505
G3 X10.0 Y8.152 Z-1.6516 I1.15 J2.6055
G1 X170.0 Z-1.7989
G3 X171.15 Y8.3945 Z-1.8 I0.0 J2.848
G1 F200.0 X171.65
G1 F700.0 Y7.35
G1 X8.35
G1 Y9.3295
G3 X10.0 Y8.652 I1.65 J1.6705
G1 X170.0
G3 X171.65 Y9.3295 I0.0 J2.348
G1 Y8.3945
G1 F200.0 X172.65
G1 F700.0 Y6.35
G1 X7.35
G1 Y88.65
G1 X172.65
G1 Y8.3945
G0 Z3.0
G0 X170.9626 Y10.0535
G0 Z-0.5
G1 F200.0 Z-1.5
G3 F700.0 X171.35 Y11.0 Z-1.5007 I-0.9626 J0.9465
G1 Y86.0 Z-1.5477
G3 X170.0 Y87.35 Z-1.549 I-1.35 J0.0
G1 X10.0 Z-1.6493
G3 X8.65 Y86.0 Z-1.6507 I0.0 J-1.35
G1 Y11.0 Z-1.6977
G3 X10.0 Y9.65 Z-1.699 I1.35 J0.0
G1 X170.0 Z-1.7993
G3 X170.9626 Y10.0535 Z-1.8 I0.0 J1.35
G3 X171.35 Y11.0 Z-1.8002 I-0.9626 J0.9465
G1 Y86.0 Z-1.8159
G3 X170.0 Y87.35 Z-1.8163 I-1.35 J0.0
G1 X10.0 Z-1.8498
G3 X8.65 Y86.0 Z-1.8502 I0.0 J-1.35
G1 Y11.0 Z-1.8659
G3 X10.0 Y9.65 Z-1.8663 I1.35 J0.0
G1 X170.0 Z-1.8998
G3 X170.9626 Y10.0535 Z-1.9 I0.0 J1.35
G0 Z-1.8
G1 F200.0 X171.15 Y8.3945
G1 F700.0 Y7.85 Z-1.8002
G1 X8.85 Z-1.85
G1 Y8.3945 Z-1.8502
G3 X10.0 Y8.152 Z-1.8505 I1.15 J2.6055
G1 X170.0 Z-1.8996
G3 X171.15 Y8.3945 Z-1.9 I0.0 J2.848
G1 F200.0 X171.65
G1 F700.0 Y7.35
G1 X8.35
G1 Y9.3295
G3 X10.0 Y8.652 I1.65 J1.6705
G1 X170.0
G3 X171.65 Y9.3295 I0.0 J2.348
G1 Y8.3945
G1 F200.0 X172.65
G1 F700.0 Y6.35
G1 X7.35
G1 Y88.65
G1 X172.65
G1 Y8.3945
G1 F200.0 X171.15
G1 F700.0 Y7.85 Z-1.9002
G1 X8.85 Z-1.95
G1 Y8.3945 Z-1.9502
G3 X10.0 Y8.152 Z-1.9505 I1.15 J2.6055
G1 X170.0 Z-1.9996
G3 X171.15 Y8.3945 Z-2.0 I0.0 J2.848
G1 Y7.85
G1 X8.85
G1 Y8.3945
G3 X10.0 Y8.152 I1.15 J2.6055
G1 X170.0
G3 X171.15 Y8.3945 I0.0 J2.848
G1 F200.0 X171.65
G1 F700.0 Y7.35
G1 X8.35
G1 Y9.3295
G3 X10.0 Y8.652 I1.65 J1.6705
G1 X170.0
G3 X171.65 Y9.3295 I0.0 J2.348
G1 Y8.3945
G1 F200.0 X172.65
G1 F700.0 Y6.35
G1 X7.35
G1 Y88.65
G1 X172.65
G1 Y8.3945
G0 Z3.0
G0 X170.9626 Y10.0535
G0 Z-0.9
G1 F200.0 Z-1.9
G3 F700.0 X171.35 Y11.0 Z-1.9002 I-0.9626 J0.9465
G1 Y86.0 Z-1.9159
G3 X170.0 Y87.35 Z-1.9163 I-1.35 J0.0
G1 X10.0 Z-1.9498
G3 X8.65 Y86.0 Z-1.9502 I0.0 J-1.35
G1 Y11.0 Z-1.9659
G3 X10.0 Y9.65 Z-1.9663 I1.35 J0.0
G1 X170.0 Z-1.9998
G3 X170.9626 Y10.0535 Z-2.0 I0.0 J1.35
G3 X171.35 Y11.0 I-0.9626 J0.9465
G1 Y86.0
G3 X170.0 Y87.35 I-1.35 J0.0
G1 X10.0
G3 X8.65 Y86.0 I0.0 J-1.35
G1 Y11.0
G3 X10.0 Y9.65 I1.35 J0.0
G1 X170.0
G3 X170.9626 Y10.0535 I0.0 J1.35
( wallTrail_3D )
S1000
G0 Z3.0
G0 X171.75 Y87.75
G0 Z1.0
G1 F200.0 Z-2.0
G1 F700.0 Y87.411
G3 X171.411 Y87.75 I-1.75 J-1.411
G1 X171.75
G0 Z3.0
G0 X171.25 Y8.5528
G0 Z1.0
G1 F200.0 Z-2.0
G1 F700.0 Y7.75
G1 X8.75
G1 Y8.5528
G3 X10.0 Y8.252 I1.25 J2.4472
G1 X170.0
G3 X171.25 Y8.5528 I0.0 J2.748
G1 F200.0 X171.75
G1 F700.0 Y7.25
G1 X8.25
G1 Y9.589
G3 X10.0 Y8.752 I1.75 J1.411
G1 X170.0
G3 X171.75 Y9.589 I0.0 J2.248
G1 Y8.5528
G0 Z3.0
G0 X8.589 Y87.75
G0 Z1.0
G1 F200.0 Z-2.0
G3 F700.0 X8.25 Y87.411 I1.411 J-1.75
G1 Y87.75
G1 X8.589
G1 F200.0 Y88.75
G1 F700.0 X172.75
G1 Y6.25
G1 X7.25
G1 Y88.75
G1 X8.589
G0 Z3.0
G0 X9.4294 Y87.1121
G0 Z1.0
G1 F200.0 Z-2.0
G3 F700.0 X8.75 Y86.0 I0.5706 J-1.1121
G1 Y11.0
G3 X10.0 Y9.75 I1.25 J0.0
G1 X170.0
G3 X171.25 Y11.0 I0.0 J1.25
G1 Y86.0
G3 X170.0 Y87.25 I-1.25 J0.0
G1 X10.0
G3 X9.4294 Y87.1121 I0.0 J-1.25
( panel_cutout )
S1000
G0 Z3.0
G0 X174.0 Y91.35
G0 Z1.0
G1 F200.0 Z0.0
G1 F700.0 X6.0 Z-0.098
G3 X4.65 Y90.0 Z-0.0992 I0.0 J-1.35
G1 Y5.0 Z-0.1488
G3 X6.0 Y3.65 Z-0.15 I1.35 J0.0
G1 X174.0 Z-0.248
G3 X175.35 Y5.0 Z-0.2492 I0.0 J1.35
G1 Y90.0 Z-0.2988
G3 X174.0 Y91.35 Z-0.3 I-1.35 J0.0
G1 X6.0 Z-0.398
G3 X4.65 Y90.0 Z-0.3992 I0.0 J-1.35
G1 Y5.0 Z-0.4488
G3 X6.0 Y3.65 Z-0.45 I1.35 J0.0
G1 X174.0 Z-0.548
G3 X175.35 Y5.0 Z-0.5492 I0.0 J1.35
G1 Y90.0 Z-0.5988
G3 X174.0 Y91.35 Z-0.6 I-1.35 J0.0
G1 X6.0 Z-0.698
G3 X4.65 Y90.0 Z-0.6992 I0.0 J-1.35
G1 Y5.0 Z-0.7488
G3 X6.0 Y3.65 Z-0.75 I1.35 J0.0
G1 X174.0 Z-0.848
G3 X175.35 Y5.0 Z-0.8492 I0.0 J1.35
G1 Y90.0 Z-0.8988
G3 X174.0 Y91.35 Z-0.9 I-1.35 J0.0
G1 X6.0 Z-0.998
G3 X4.65 Y90.0 Z-0.9992 I0.0 J-1.35
G1 Y5.0 Z-1.0488
G3 X6.0 Y3.65 Z-1.05 I1.35 J0.0
G1 X174.0 Z-1.148
G3 X175.35 Y5.0 Z-1.1492 I0.0 J1.35
G1 Y90.0 Z-1.1988
G3 X174.0 Y91.35 Z-1.2 I-1.35 J0.0
G1 X6.0 Z-1.298
G3 X4.65 Y90.0 Z-1.2992 I0.0 J-1.35
G1 Y5.0 Z-1.3488
G3 X6.0 Y3.65 Z-1.35 I1.35 J0.0
G1 X174.0 Z-1.448
G3 X175.35 Y5.0 Z-1.4492 I0.0 J1.35
G1 Y90.0 Z-1.4988
G3 X174.0 Y91.35 Z-1.5 I-1.35 J0.0
G1 X6.0 Z-1.598
G3 X4.65 Y90.0 Z-1.5992 I0.0 J-1.35
G1 Y5.0 Z-1.6488
G3 X6.0 Y3.65 Z-1.65 I1.35 J0.0
G1 X174.0 Z-1.748
G3 X175.35 Y5.0 Z-1.7492 I0.0 J1.35
G1 Y90.0 Z-1.7988
G3 X174.0 Y91.35 Z-1.8 I-1.35 J0.0
G1 X6.0 Z-1.898
G3 X4.65 Y90.0 Z-1.8992 I0.0 J-1.35
G1 Y5.0 Z-1.9488
G3 X6.0 Y3.65 Z-1.95 I1.35 J0.0
G1 X174.0 Z-2.048
G3 X175.35 Y5.0 Z-2.0492 I0.0 J1.35
G1 Y90.0 Z-2.0988
G3 X174.0 Y91.35 Z-2.1 I-1.35 J0.0
G1 X6.0 Z-2.198
G3 X4.65 Y90.0 Z-2.1992 I0.0 J-1.35
G1 Y5.0 Z-2.2488
G3 X6.0 Y3.65 Z-2.25 I1.35 J0.0
G1 X174.0 Z-2.348
G3 X175.35 Y5.0 Z-2.3492 I0.0 J1.35
G1 Y90.0 Z-2.3988
G3 X174.0 Y91.35 Z-2.4 I-1.35 J0.0
G1 X6.0 Z-2.498
G3 X4.65 Y90.0 Z-2.4992 I0.0 J-1.35
G1 Y5.0 Z-2.5488
G3 X6.0 Y3.65 Z-2.55 I1.35 J0.0
G1 X174.0 Z-2.648
G3 X175.35 Y5.0 Z-2.6492 I0.0 J1.35
G1 Y90.0 Z-2.6988
G3 X174.0 Y91.35 Z-2.7 I-1.35 J0.0
G1 X6.0 Z-2.798
G3 X4.65 Y90.0 Z-2.7992 I0.0 J-1.35
G1 Y5.0 Z-2.8488
G3 X6.0 Y3.65 Z-2.85 I1.35 J0.0
G1 X174.0 Z-2.948
G3 X175.35 Y5.0 Z-2.9492 I0.0 J1.35
G1 Y90.0 Z-2.9988
G3 X174.0 Y91.35 Z-3.0 I-1.35 J0.0
G1 X6.0 Z-3.098
G3 X4.65 Y90.0 Z-3.0992 I0.0 J-1.35
G1 Y5.0 Z-3.1488
G3 X6.0 Y3.65 Z-3.15 I1.35 J0.0
G1 X174.0 Z-3.248
G3 X175.35 Y5.0 Z-3.2492 I0.0 J1.35
G1 Y90.0 Z-3.2988
G3 X174.0 Y91.35 Z-3.3 I-1.35 J0.0
G1 X6.0 Z-3.398
G3 X4.65 Y90.0 Z-3.3992 I0.0 J-1.35
G1 Y5.0 Z-3.4488
G3 X6.0 Y3.65 Z-3.45 I1.35 J0.0
G1 X174.0 Z-3.548
G3 X175.35 Y5.0 Z-3.5492 I0.0 J1.35
G1 Y90.0 Z-3.5988
G3 X174.0 Y91.35 Z-3.6 I-1.35 J0.0
G1 X6.0 Z-3.6327
G3 X4.65 Y90.0 Z-3.6331 I0.0 J-1.35
G1 Y5.0 Z-3.6496
G3 X6.0 Y3.65 Z-3.65 I1.35 J0.0
G1 X174.0 Z-3.6827
G3 X175.35 Y5.0 Z-3.6831 I0.0 J1.35
G1 Y90.0 Z-3.6996
G3 X174.0 Y91.35 Z-3.7 I-1.35 J0.0
G1 X6.0 Z-3.7327
G3 X4.65 Y90.0 Z-3.7331 I0.0 J-1.35
G1 Y5.0 Z-3.7496
G3 X6.0 Y3.65 Z-3.75 I1.35 J0.0
G1 X174.0 Z-3.7827
G3 X175.35 Y5.0 Z-3.7831 I0.0 J1.35
G1 Y90.0 Z-3.7996
G3 X174.0 Y91.35 Z-3.8 I-1.35 J0.0
G1 X6.0
G3 X4.65 Y90.0 I0.0 J-1.35
G1 Y5.0
G3 X6.0 Y3.65 I1.35 J0.0
G1 X174.0
G3 X175.35 Y5.0 I0.0 J1.35
G1 Y90.0
G3 X174.0 Y91.35 I-1.35 J0.0
( panel_cutout_3D )
S1000
G1 F200.0 Y91.25
G1 Z-4.2
G1 F700.0 X6.0
G3 X4.75 Y90.0 I0.0 J-1.25
G1 Y5.0
G3 X6.0 Y3.75 I1.25 J0.0
G1 X174.0
G3 X175.25 Y5.0 I0.0 J1.25
G1 Y90.0
G3 X174.0 Y91.25 I-1.25 J0.0
G0 Z3.0
M5
M30
