( Made using CamBam - http://www.cambam.co.uk )
( ssc_plexi_Top_Panel 2/25/2021 1:54:04 PM )
( T2 : 2.0 )
( CUTVIEWER )
( FROM/0,0,5 )
( Select dummy tool to avoid warnings )
( TOOL/MILL,1,0,20.0,0 )
( STOCK/BLOCK,180.0,95.0,4.0,0.0,0.0,4.0 )
G21 G90 G91.1 G64 G40
G0 Z3.0
( T2 : 2.0 )
( Tool Taper coming soon )
( TOOL/MILL,2.0,0.0,0.0,0 )
T2 M6
( connectorSlot_cutout )
G17
M3 S1000
G0 X25.2 Y83.8
G0 Z1.0
G1 F200.0 Z0.0
G1 F700.0 X11.9 Z-0.1467
G1 Y84.1 Z-0.15
G1 X25.2 Z-0.2967
G1 Y83.8 Z-0.3
G1 F200.0 X26.0
G1 F700.0 Y83.0
G1 X11.1
G1 Y84.9
G1 X26.0
G1 Y83.8
G0 Z3.0
G0 X25.2 Y13.2
G0 Z1.0
G1 F200.0 Z0.0
G1 F700.0 Y12.9 Z-0.0033
G1 X11.9 Z-0.15
G1 Y13.2 Z-0.1533
G1 X25.2 Z-0.3
G1 F200.0 X26.0
G1 F700.0 Y12.1
G1 X11.1
G1 Y14.0
G1 X26.0
G1 Y13.2
G0 Z3.0
G0 X154.8
G0 Z1.0
G1 F200.0 Z0.0
G1 F700.0 X168.1 Z-0.1467
G1 Y12.9 Z-0.15
G1 X154.8 Z-0.2967
G1 Y13.2 Z-0.3
G1 F200.0 X154.0
G1 F700.0 Y14.0
G1 X168.9
G1 Y12.1
G1 X154.0
G1 Y13.2
G0 Z3.0
G0 X154.8 Y83.8
G0 Z1.0
G1 F200.0 Z0.0
G1 F700.0 Y84.1 Z-0.0033
G1 X168.1 Z-0.15
G1 Y83.8 Z-0.1533
G1 X154.8 Z-0.3
G1 F200.0 X154.0
G1 F700.0 Y84.9
G1 X168.9
G1 Y83.0
G1 X154.0
G1 Y83.8
G1 F200.0 X154.8
G1 F700.0 Y84.1 Z-0.3011
G1 X168.1 Z-0.35
G1 Y83.8 Z-0.3511
G1 X154.8 Z-0.4
G1 F200.0 X154.0
G1 F700.0 Y84.9
G1 X168.9
G1 Y83.0
G1 X154.0
G1 Y83.8
G0 Z3.0
G0 X154.8 Y13.2
G0 Z0.7
G1 F200.0 Z-0.3
G1 F700.0 X168.1 Z-0.3489
G1 Y12.9 Z-0.35
G1 X154.8 Z-0.3989
G1 Y13.2 Z-0.4
G1 F200.0 X154.0
G1 F700.0 Y14.0
G1 X168.9
G1 Y12.1
G1 X154.0
G1 Y13.2
G0 Z3.0
G0 X25.2
G0 Z0.7
G1 F200.0 Z-0.3
G1 F700.0 Y12.9 Z-0.3011
G1 X11.9 Z-0.35
G1 Y13.2 Z-0.3511
G1 X25.2 Z-0.4
G1 F200.0 X26.0
G1 F700.0 Y12.1
G1 X11.1
G1 Y14.0
G1 X26.0
G1 Y13.2
G0 Z3.0
G0 X25.2 Y83.8
G0 Z0.7
G1 F200.0 Z-0.3
G1 F700.0 X11.9 Z-0.3489
G1 Y84.1 Z-0.35
G1 X25.2 Z-0.3989
G1 Y83.8 Z-0.4
G1 F200.0 X26.0
G1 F700.0 Y83.0
G1 X11.1
G1 Y84.9
G1 X26.0
G1 Y83.8
G1 F200.0 X25.2
G1 F700.0 X11.9 Z-0.4489
G1 Y84.1 Z-0.45
G1 X25.2 Z-0.4989
G1 Y83.8 Z-0.5
G1 X11.9
G1 Y84.1
G1 X25.2
G1 Y83.8
G1 F200.0 X26.0
G1 F700.0 Y83.0
G1 X11.1
G1 Y84.9
G1 X26.0
G1 Y83.8
G0 Z3.0
G0 X25.2 Y13.2
G0 Z0.6
G1 F200.0 Z-0.4
G1 F700.0 Y12.9 Z-0.4011
G1 X11.9 Z-0.45
G1 Y13.2 Z-0.4511
G1 X25.2 Z-0.5
G1 Y12.9
G1 X11.9
G1 Y13.2
G1 X25.2
G1 F200.0 X26.0
G1 F700.0 Y12.1
G1 X11.1
G1 Y14.0
G1 X26.0
G1 Y13.2
G0 Z3.0
G0 X154.8
G0 Z0.6
G1 F200.0 Z-0.4
G1 F700.0 X168.1 Z-0.4489
G1 Y12.9 Z-0.45
G1 X154.8 Z-0.4989
G1 Y13.2 Z-0.5
G1 X168.1
G1 Y12.9
G1 X154.8
G1 Y13.2
G1 F200.0 X154.0
G1 F700.0 Y14.0
G1 X168.9
G1 Y12.1
G1 X154.0
G1 Y13.2
G0 Z3.0
G0 X154.8 Y83.8
G0 Z0.6
G1 F200.0 Z-0.4
G1 F700.0 Y84.1 Z-0.4011
G1 X168.1 Z-0.45
G1 Y83.8 Z-0.4511
G1 X154.8 Z-0.5
G1 Y84.1
G1 X168.1
G1 Y83.8
G1 X154.8
G1 F200.0 X154.0
G1 F700.0 Y84.9
G1 X168.9
G1 Y83.0
G1 X154.0
G1 Y83.8
( connectorSlot_3D )
S1000
G0 Z3.0
G0 X25.3 Y83.7
G0 Z1.0
G1 F200.0 Z-0.5
G1 F700.0 X11.8
G1 Y84.2
G1 X25.3
G1 Y83.7
G1 F200.0 X26.1
G1 F700.0 Y82.9
G1 X11.0
G1 Y85.0
G1 X26.1
G1 Y83.7
G0 Z3.0
G0 X25.3 Y13.3
G0 Z1.0
G1 F200.0 Z-0.5
G1 F700.0 Y12.8
G1 X11.8
G1 Y13.3
G1 X25.3
G1 F200.0 X26.1
G1 F700.0 Y12.0
G1 X11.0
G1 Y14.1
G1 X26.1
G1 Y13.3
G0 Z3.0
G0 X154.7
G0 Z1.0
G1 F200.0 Z-0.5
G1 F700.0 X168.2
G1 Y12.8
G1 X154.7
G1 Y13.3
G1 F200.0 X153.9
G1 F700.0 Y14.1
G1 X169.0
G1 Y12.0
G1 X153.9
G1 Y13.3
G0 Z3.0
G0 X154.7 Y83.7
G0 Z1.0
G1 F200.0 Z-0.5
G1 F700.0 Y84.2
G1 X168.2
G1 Y83.7
G1 X154.7
G1 F200.0 Y82.9
G1 F700.0 X153.9
G1 Y85.0
G1 X169.0
G1 Y82.9
G1 X154.7
( connectorSlot_Overcut )
S1000
G0 Z3.0
G0 X26.1
G1 F200.0 Z0.0
G1 F700.0 X11.0 Z-0.1317
G1 Y85.0 Z-0.15
G1 X26.1 Z-0.2817
G1 Y82.9 Z-0.3
G0 Z3.0
G0 Y14.1
G1 F200.0 Z0.0
G1 F700.0 Y12.0 Z-0.0183
G1 X11.0 Z-0.15
G1 Y14.1 Z-0.1683
G1 X26.1 Z-0.3
G0 Z3.0
G0 X153.9
G1 F200.0 Z0.0
G1 F700.0 X169.0 Z-0.1317
G1 Y12.0 Z-0.15
G1 X153.9 Z-0.2817
G1 Y14.1 Z-0.3
G0 Z3.0
G0 Y82.9
G1 F200.0 Z0.0
G1 F700.0 Y85.0 Z-0.0183
G1 X169.0 Z-0.15
G1 Y82.9 Z-0.1683
G1 X153.9 Z-0.3
G1 Y85.0 Z-0.3122
G1 X169.0 Z-0.4
G1 Y82.9 Z-0.4122
G1 X153.9 Z-0.5
G1 Y85.0
G1 X169.0
G1 Y82.9
G1 X153.9
G0 Z3.0
G0 Y14.1
G1 F200.0 Z-0.3
G1 F700.0 X169.0 Z-0.3878
G1 Y12.0 Z-0.4
G1 X153.9 Z-0.4878
G1 Y14.1 Z-0.5
G1 X169.0
G1 Y12.0
G1 X153.9
G1 Y14.1
G0 Z3.0
G0 X26.1
G1 F200.0 Z-0.3
G1 F700.0 Y12.0 Z-0.3122
G1 X11.0 Z-0.4
G1 Y14.1 Z-0.4122
G1 X26.1 Z-0.5
G1 Y12.0
G1 X11.0
G1 Y14.1
G1 X26.1
G0 Z3.0
G0 Y82.9
G1 F200.0 Z-0.3
G1 F700.0 X11.0 Z-0.3878
G1 Y85.0 Z-0.4
G1 X26.1 Z-0.4878
G1 Y82.9 Z-0.5
G1 X11.0
G1 Y85.0
G1 X26.1
G1 Y82.9
( connectorSlot_WallTrail )
S1000
G0 Z3.0
G0 X154.0 Y14.0
G1 F200.0 Z0.0
G1 F700.0 X170.0 Z-0.0101
G3 X171.1 Y15.1 Z-0.0112 I0.0 J1.1
G1 Y81.9 Z-0.0534
G3 X170.0 Y83.0 Z-0.0545 I-1.1 J0.0
G1 X154.0 Z-0.0646
G1 Y86.0 Z-0.0665
G3 X152.9 Y87.1 Z-0.0676 I-1.1 J0.0
G1 X27.1 Z-0.147
G3 X26.0 Y86.0 Z-0.1481 I0.0 J-1.1
G1 Y83.0 Z-0.15
G1 X10.0 Z-0.1601
G3 X8.9 Y81.9 Z-0.1612 I0.0 J-1.1
G1 Y15.1 Z-0.2034
G3 X10.0 Y14.0 Z-0.2045 I1.1 J0.0
G1 X26.0 Z-0.2146
G1 Y11.0 Z-0.2165
G3 X27.1 Y9.9 Z-0.2176 I1.1 J0.0
G1 X152.9 Z-0.297
G3 X154.0 Y11.0 Z-0.2981 I0.0 J1.1
G1 Y14.0 Z-0.3
G1 X170.0 Z-0.3034
G3 X171.1 Y15.1 Z-0.3037 I0.0 J1.1
G1 Y81.9 Z-0.3178
G3 X170.0 Y83.0 Z-0.3182 I-1.1 J0.0
G1 X154.0 Z-0.3215
G1 Y86.0 Z-0.3222
G3 X152.9 Y87.1 Z-0.3225 I-1.1 J0.0
G1 X27.1 Z-0.349
G3 X26.0 Y86.0 Z-0.3494 I0.0 J-1.1
G1 Y83.0 Z-0.35
G1 X10.0 Z-0.3534
G3 X8.9 Y81.9 Z-0.3537 I0.0 J-1.1
G1 Y15.1 Z-0.3678
G3 X10.0 Y14.0 Z-0.3682 I1.1 J0.0
G1 X26.0 Z-0.3715
G1 Y11.0 Z-0.3722
G3 X27.1 Y9.9 Z-0.3725 I1.1 J0.0
G1 X152.9 Z-0.399
G3 X154.0 Y11.0 Z-0.3994 I0.0 J1.1
G1 Y14.0 Z-0.4
G1 X170.0 Z-0.4034
G3 X171.1 Y15.1 Z-0.4037 I0.0 J1.1
G1 Y81.9 Z-0.4178
G3 X170.0 Y83.0 Z-0.4182 I-1.1 J0.0
G1 X154.0 Z-0.4215
G1 Y86.0 Z-0.4222
G3 X152.9 Y87.1 Z-0.4225 I-1.1 J0.0
G1 X27.1 Z-0.449
G3 X26.0 Y86.0 Z-0.4494 I0.0 J-1.1
G1 Y83.0 Z-0.45
G1 X10.0 Z-0.4534
G3 X8.9 Y81.9 Z-0.4537 I0.0 J-1.1
G1 Y15.1 Z-0.4678
G3 X10.0 Y14.0 Z-0.4682 I1.1 J0.0
G1 X26.0 Z-0.4715
G1 Y11.0 Z-0.4722
G3 X27.1 Y9.9 Z-0.4725 I1.1 J0.0
G1 X152.9 Z-0.499
G3 X154.0 Y11.0 Z-0.4994 I0.0 J1.1
G1 Y14.0 Z-0.5
G1 X170.0
G3 X171.1 Y15.1 I0.0 J1.1
G1 Y81.9
G3 X170.0 Y83.0 I-1.1 J0.0
G1 X154.0
G1 Y86.0
G3 X152.9 Y87.1 I-1.1 J0.0
G1 X27.1
G3 X26.0 Y86.0 I0.0 J-1.1
G1 Y83.0
G1 X10.0
G3 X8.9 Y81.9 I0.0 J-1.1
G1 Y15.1
G3 X10.0 Y14.0 I1.1 J0.0
G1 X26.0
G1 Y11.0
G3 X27.1 Y9.9 I1.1 J0.0
G1 X152.9
G3 X154.0 Y11.0 I0.0 J1.1
G1 Y14.0
( connectorWallTrail_3D )
S1000
G1 F200.0 X153.9 Y14.1
G1 F700.0 X170.0
G3 X171.0 Y15.1 I0.0 J1.0
G1 Y81.9
G3 X170.0 Y82.9 I-1.0 J0.0
G1 X153.9
G1 Y86.0
G3 X152.9 Y87.0 I-1.0 J0.0
G1 X27.1
G3 X26.1 Y86.0 I0.0 J-1.0
G1 Y82.9
G1 X10.0
G3 X9.0 Y81.9 I0.0 J-1.0
G1 Y15.1
G3 X10.0 Y14.1 I1.0 J0.0
G1 X26.1
G1 Y11.0
G3 X27.1 Y10.0 I1.0 J0.0
G1 X152.9
G3 X153.9 Y11.0 I0.0 J1.0
G1 Y14.1
( wallTrail_cutout )
S1000
G0 Z3.0
G0 X171.3 Y8.6354
G0 Z1.0
G1 F200.0 Z0.0
G1 F700.0 Y7.7 Z-0.0009
G1 X8.7 Z-0.1499
G1 Y8.6354 Z-0.1508
G3 X10.0 Y8.3016 Z-0.152 I1.3 J2.3646
G1 X170.0 Z-0.2988
G3 X171.3 Y8.6354 Z-0.3 I0.0 J2.6984
G1 F200.0 X170.9146 Y9.3364
G3 F700.0 X171.8984 Y11.0 I-0.9146 J1.6636
G1 Y86.0
G3 X170.0 Y87.8984 I-1.8984 J0.0
G1 X10.0
G3 X8.1016 Y86.0 I0.0 J-1.8984
G1 Y11.0
G3 X10.0 Y9.1016 I1.8984 J0.0
G1 X170.0
G3 X170.9146 Y9.3364 I0.0 J1.8984
G1 F200.0 X170.5299 Y10.0361
G3 F700.0 X171.1 Y11.0 I-0.5299 J0.9639
G1 Y86.0
G3 X170.0 Y87.1 I-1.1 J0.0
G1 X10.0
G3 X8.9 Y86.0 I0.0 J-1.1
G1 Y11.0
G3 X10.0 Y9.9 I1.1 J0.0
G1 X170.0
G3 X170.5299 Y10.0361 I0.0 J1.1
G0 Z3.0
G0 X172.1
G0 Z1.0
G1 F200.0 Z0.0
G1 F700.0 Y6.9 Z-0.0019
G1 X7.9 Z-0.1023
G1 Y88.1 Z-0.1519
G1 X172.1 Z-0.2523
G1 Y10.0361 Z-0.3
G1 F200.0 X172.9
G1 F700.0 Y6.1
G1 X7.1
G1 Y88.9
G1 X172.9
G1 Y10.0361
G0 Z3.0
G0 X171.3 Y8.6354
G0 Z0.7
G1 F200.0 Z-0.3
G1 F700.0 Y7.7 Z-0.3009
G1 X8.7 Z-0.4499
G1 Y8.6354 Z-0.4508
G3 X10.0 Y8.3016 Z-0.452 I1.3 J2.3646
G1 X170.0 Z-0.5988
G3 X171.3 Y8.6354 Z-0.6 I0.0 J2.6984
G1 F200.0 X170.9146 Y9.3364
G3 F700.0 X171.8984 Y11.0 I-0.9146 J1.6636
G1 Y86.0
G3 X170.0 Y87.8984 I-1.8984 J0.0
G1 X10.0
G3 X8.1016 Y86.0 I0.0 J-1.8984
G1 Y11.0
G3 X10.0 Y9.1016 I1.8984 J0.0
G1 X170.0
G3 X170.9146 Y9.3364 I0.0 J1.8984
G1 F200.0 X170.5299 Y10.0361
G3 F700.0 X171.1 Y11.0 I-0.5299 J0.9639
G1 Y86.0
G3 X170.0 Y87.1 I-1.1 J0.0
G1 X10.0
G3 X8.9 Y86.0 I0.0 J-1.1
G1 Y11.0
G3 X10.0 Y9.9 I1.1 J0.0
G1 X170.0
G3 X170.5299 Y10.0361 I0.0 J1.1
G0 Z3.0
G0 X172.1
G0 Z0.7
G1 F200.0 Z-0.3
G1 F700.0 Y6.9 Z-0.3019
G1 X7.9 Z-0.4023
G1 Y88.1 Z-0.4519
G1 X172.1 Z-0.5523
G1 Y10.0361 Z-0.6
G1 F200.0 X172.9
G1 F700.0 Y6.1
G1 X7.1
G1 Y88.9
G1 X172.9
G1 Y10.0361
G0 Z3.0
G0 X171.3 Y8.6354
G0 Z0.4
G1 F200.0 Z-0.6
G1 F700.0 Y7.7 Z-0.6009
G1 X8.7 Z-0.7499
G1 Y8.6354 Z-0.7508
G3 X10.0 Y8.3016 Z-0.752 I1.3 J2.3646
G1 X170.0 Z-0.8988
G3 X171.3 Y8.6354 Z-0.9 I0.0 J2.6984
G1 F200.0 X170.9146 Y9.3364
G3 F700.0 X171.8984 Y11.0 I-0.9146 J1.6636
G1 Y86.0
G3 X170.0 Y87.8984 I-1.8984 J0.0
G1 X10.0
G3 X8.1016 Y86.0 I0.0 J-1.8984
G1 Y11.0
G3 X10.0 Y9.1016 I1.8984 J0.0
G1 X170.0
G3 X170.9146 Y9.3364 I0.0 J1.8984
G1 F200.0 X170.5299 Y10.0361
G3 F700.0 X171.1 Y11.0 I-0.5299 J0.9639
G1 Y86.0
G3 X170.0 Y87.1 I-1.1 J0.0
G1 X10.0
G3 X8.9 Y86.0 I0.0 J-1.1
G1 Y11.0
G3 X10.0 Y9.9 I1.1 J0.0
G1 X170.0
G3 X170.5299 Y10.0361 I0.0 J1.1
G0 Z3.0
G0 X172.1
G0 Z0.4
G1 F200.0 Z-0.6
G1 F700.0 Y6.9 Z-0.6019
G1 X7.9 Z-0.7023
G1 Y88.1 Z-0.7519
G1 X172.1 Z-0.8523
G1 Y10.0361 Z-0.9
G1 F200.0 X172.9
G1 F700.0 Y6.1
G1 X7.1
G1 Y88.9
G1 X172.9
G1 Y10.0361
G0 Z3.0
G0 X171.3 Y8.6354
G1 F200.0 Z-0.9
G1 F700.0 Y7.7 Z-0.9009
G1 X8.7 Z-1.0499
G1 Y8.6354 Z-1.0508
G3 X10.0 Y8.3016 Z-1.052 I1.3 J2.3646
G1 X170.0 Z-1.1988
G3 X171.3 Y8.6354 Z-1.2 I0.0 J2.6984
G1 F200.0 X170.9146 Y9.3364
G3 F700.0 X171.8984 Y11.0 I-0.9146 J1.6636
G1 Y86.0
G3 X170.0 Y87.8984 I-1.8984 J0.0
G1 X10.0
G3 X8.1016 Y86.0 I0.0 J-1.8984
G1 Y11.0
G3 X10.0 Y9.1016 I1.8984 J0.0
G1 X170.0
G3 X170.9146 Y9.3364 I0.0 J1.8984
G1 F200.0 X170.5299 Y10.0361
G3 F700.0 X171.1 Y11.0 I-0.5299 J0.9639
G1 Y86.0
G3 X170.0 Y87.1 I-1.1 J0.0
G1 X10.0
G3 X8.9 Y86.0 I0.0 J-1.1
G1 Y11.0
G3 X10.0 Y9.9 I1.1 J0.0
G1 X170.0
G3 X170.5299 Y10.0361 I0.0 J1.1
G0 Z3.0
G0 X172.1
G1 F200.0 Z-0.9
G1 F700.0 Y6.9 Z-0.9019
G1 X7.9 Z-1.0023
G1 Y88.1 Z-1.0519
G1 X172.1 Z-1.1523
G1 Y10.0361 Z-1.2
G1 F200.0 X172.9
G1 F700.0 Y6.1
G1 X7.1
G1 Y88.9
G1 X172.9
G1 Y10.0361
G0 Z3.0
G0 X171.3 Y8.6354
G0 Z-0.2
G1 F200.0 Z-1.2
G1 F700.0 Y7.7 Z-1.2009
G1 X8.7 Z-1.3499
G1 Y8.6354 Z-1.3508
G3 X10.0 Y8.3016 Z-1.352 I1.3 J2.3646
G1 X170.0 Z-1.4988
G3 X171.3 Y8.6354 Z-1.5 I0.0 J2.6984
G1 F200.0 X170.9146 Y9.3364
G3 F700.0 X171.8984 Y11.0 I-0.9146 J1.6636
G1 Y86.0
G3 X170.0 Y87.8984 I-1.8984 J0.0
G1 X10.0
G3 X8.1016 Y86.0 I0.0 J-1.8984
G1 Y11.0
G3 X10.0 Y9.1016 I1.8984 J0.0
G1 X170.0
G3 X170.9146 Y9.3364 I0.0 J1.8984
G1 F200.0 X170.5299 Y10.0361
G3 F700.0 X171.1 Y11.0 I-0.5299 J0.9639
G1 Y86.0
G3 X170.0 Y87.1 I-1.1 J0.0
G1 X10.0
G3 X8.9 Y86.0 I0.0 J-1.1
G1 Y11.0
G3 X10.0 Y9.9 I1.1 J0.0
G1 X170.0
G3 X170.5299 Y10.0361 I0.0 J1.1
G0 Z3.0
G0 X172.1
G0 Z-0.2
G1 F200.0 Z-1.2
G1 F700.0 Y6.9 Z-1.2019
G1 X7.9 Z-1.3023
G1 Y88.1 Z-1.3519
G1 X172.1 Z-1.4523
G1 Y10.0361 Z-1.5
G1 F200.0 X172.9
G1 F700.0 Y6.1
G1 X7.1
G1 Y88.9
G1 X172.9
G1 Y10.0361
G0 Z3.0
G0 X171.3 Y8.6354
G0 Z-0.5
G1 F200.0 Z-1.5
G1 F700.0 Y7.7 Z-1.5009
G1 X8.7 Z-1.6499
G1 Y8.6354 Z-1.6508
G3 X10.0 Y8.3016 Z-1.652 I1.3 J2.3646
G1 X170.0 Z-1.7988
G3 X171.3 Y8.6354 Z-1.8 I0.0 J2.6984
G1 F200.0 X170.9146 Y9.3364
G3 F700.0 X171.8984 Y11.0 I-0.9146 J1.6636
G1 Y86.0
G3 X170.0 Y87.8984 I-1.8984 J0.0
G1 X10.0
G3 X8.1016 Y86.0 I0.0 J-1.8984
G1 Y11.0
G3 X10.0 Y9.1016 I1.8984 J0.0
G1 X170.0
G3 X170.9146 Y9.3364 I0.0 J1.8984
G1 F200.0 X170.5299 Y10.0361
G3 F700.0 X171.1 Y11.0 I-0.5299 J0.9639
G1 Y86.0
G3 X170.0 Y87.1 I-1.1 J0.0
G1 X10.0
G3 X8.9 Y86.0 I0.0 J-1.1
G1 Y11.0
G3 X10.0 Y9.9 I1.1 J0.0
G1 X170.0
G3 X170.5299 Y10.0361 I0.0 J1.1
G0 Z3.0
G0 X172.1
G0 Z-0.5
G1 F200.0 Z-1.5
G1 F700.0 Y6.9 Z-1.5019
G1 X7.9 Z-1.6023
G1 Y88.1 Z-1.6519
G1 X172.1 Z-1.7523
G1 Y10.0361 Z-1.8
G1 F200.0 X172.9
G1 F700.0 Y6.1
G1 X7.1
G1 Y88.9
G1 X172.9
G1 Y10.0361
G0 Z3.0
G0 X171.3 Y8.6354
G0 Z-0.8
G1 F200.0 Z-1.8
G1 F700.0 Y7.7 Z-1.8003
G1 X8.7 Z-1.85
G1 Y8.6354 Z-1.8503
G3 X10.0 Y8.3016 Z-1.8507 I1.3 J2.3646
G1 X170.0 Z-1.8996
G3 X171.3 Y8.6354 Z-1.9 I0.0 J2.6984
G1 F200.0 X170.9146 Y9.3364
G3 F700.0 X171.8984 Y11.0 I-0.9146 J1.6636
G1 Y86.0
G3 X170.0 Y87.8984 I-1.8984 J0.0
G1 X10.0
G3 X8.1016 Y86.0 I0.0 J-1.8984
G1 Y11.0
G3 X10.0 Y9.1016 I1.8984 J0.0
G1 X170.0
G3 X170.9146 Y9.3364 I0.0 J1.8984
G1 F200.0 X170.5299 Y10.0361
G3 F700.0 X171.1 Y11.0 I-0.5299 J0.9639
G1 Y86.0
G3 X170.0 Y87.1 I-1.1 J0.0
G1 X10.0
G3 X8.9 Y86.0 I0.0 J-1.1
G1 Y11.0
G3 X10.0 Y9.9 I1.1 J0.0
G1 X170.0
G3 X170.5299 Y10.0361 I0.0 J1.1
G0 Z3.0
G0 X172.1
G0 Z-0.8
G1 F200.0 Z-1.8
G1 F700.0 Y6.9 Z-1.8006
G1 X7.9 Z-1.8341
G1 Y88.1 Z-1.8506
G1 X172.1 Z-1.8841
G1 Y10.0361 Z-1.9
G1 F200.0 X172.9
G1 F700.0 Y6.1
G1 X7.1
G1 Y88.9
G1 X172.9
G1 Y10.0361
G0 Z3.0
G0 X171.3 Y8.6354
G0 Z-0.9
G1 F200.0 Z-1.9
G1 F700.0 Y7.7 Z-1.9003
G1 X8.7 Z-1.95
G1 Y8.6354 Z-1.9503
G3 X10.0 Y8.3016 Z-1.9507 I1.3 J2.3646
G1 X170.0 Z-1.9996
G3 X171.3 Y8.6354 Z-2.0 I0.0 J2.6984
G1 Y7.7
G1 X8.7
G1 Y8.6354
G3 X10.0 Y8.3016 I1.3 J2.3646
G1 X170.0
G3 X171.3 Y8.6354 I0.0 J2.6984
G1 F200.0 X170.9146 Y9.3364
G3 F700.0 X171.8984 Y11.0 I-0.9146 J1.6636
G1 Y86.0
G3 X170.0 Y87.8984 I-1.8984 J0.0
G1 X10.0
G3 X8.1016 Y86.0 I0.0 J-1.8984
G1 Y11.0
G3 X10.0 Y9.1016 I1.8984 J0.0
G1 X170.0
G3 X170.9146 Y9.3364 I0.0 J1.8984
G1 F200.0 X170.5299 Y10.0361
G3 F700.0 X171.1 Y11.0 I-0.5299 J0.9639
G1 Y86.0
G3 X170.0 Y87.1 I-1.1 J0.0
G1 X10.0
G3 X8.9 Y86.0 I0.0 J-1.1
G1 Y11.0
G3 X10.0 Y9.9 I1.1 J0.0
G1 X170.0
G3 X170.5299 Y10.0361 I0.0 J1.1
G0 Z3.0
G0 X172.1
G0 Z-0.9
G1 F200.0 Z-1.9
G1 F700.0 Y6.9 Z-1.9006
G1 X7.9 Z-1.9341
G1 Y88.1 Z-1.9506
G1 X172.1 Z-1.9841
G1 Y10.0361 Z-2.0
G1 Y6.9
G1 X7.9
G1 Y88.1
G1 X172.1
G1 Y10.0361
G1 F200.0 X172.9
G1 F700.0 Y6.1
G1 X7.1
G1 Y88.9
G1 X172.9
G1 Y10.0361
( wallTrail_3D )
S1000
G0 Z3.0
G0 X171.0 Y8.1733
G0 Z1.0
G1 F200.0 Z-2.0
G1 F700.0 Y8.0
G1 X9.0
G1 Y8.1733
G3 X10.0 Y8.0016 I1.0 J2.8267
G1 X170.0
G3 X171.0 Y8.1733 I0.0 J2.9984
G1 F200.0 X171.4
G1 F700.0 Y7.6
G1 X8.6
G1 Y8.811
G3 X10.0 Y8.4016 I1.4 J2.189
G1 X170.0
G3 X171.4 Y8.811 I0.0 J2.5984
G1 Y8.1733
G1 F200.0 X170.7982 Y9.3884
G3 F700.0 X171.7984 Y11.0 I-0.7982 J1.6116
G1 Y86.0
G3 X170.0 Y87.7984 I-1.7984 J0.0
G1 X10.0
G3 X8.2016 Y86.0 I0.0 J-1.7984
G1 Y11.0
G3 X10.0 Y9.2016 I1.7984 J0.0
G1 X170.0
G3 X170.7982 Y9.3884 I0.0 J1.7984
G1 F200.0 X170.4438 Y10.1039
G3 F700.0 X171.0 Y11.0 I-0.4438 J0.8961
G1 Y86.0
G3 X170.0 Y87.0 I-1.0 J0.0
G1 X10.0
G3 X9.0 Y86.0 I0.0 J-1.0
G1 Y11.0
G3 X10.0 Y10.0 I1.0 J0.0
G1 X170.0
G3 X170.4438 Y10.1039 I0.0 J1.0
G0 Z3.0
G0 X172.2
G0 Z1.0
G1 F200.0 Z-2.0
G1 F700.0 Y6.8
G1 X7.8
G1 Y88.2
G1 X172.2
G1 Y10.1039
G1 F200.0 X173.0
G1 F700.0 Y6.0
G1 X7.0
G1 Y89.0
G1 X173.0
G1 Y10.1039
( panel_cutout )
S1000
G0 Z3.0
G0 X174.0 Y91.1
G0 Z1.0
G1 F200.0 Z0.0
G1 F700.0 X6.0 Z-0.0983
G3 X4.9 Y90.0 Z-0.0993 I0.0 J-1.1
G1 Y5.0 Z-0.149
G3 X6.0 Y3.9 Z-0.15 I1.1 J0.0
G1 X174.0 Z-0.2483
G3 X175.1 Y5.0 Z-0.2493 I0.0 J1.1
G1 Y90.0 Z-0.299
G3 X174.0 Y91.1 Z-0.3 I-1.1 J0.0
G1 X6.0 Z-0.3983
G3 X4.9 Y90.0 Z-0.3993 I0.0 J-1.1
G1 Y5.0 Z-0.449
G3 X6.0 Y3.9 Z-0.45 I1.1 J0.0
G1 X174.0 Z-0.5483
G3 X175.1 Y5.0 Z-0.5493 I0.0 J1.1
G1 Y90.0 Z-0.599
G3 X174.0 Y91.1 Z-0.6 I-1.1 J0.0
G1 X6.0 Z-0.6983
G3 X4.9 Y90.0 Z-0.6993 I0.0 J-1.1
G1 Y5.0 Z-0.749
G3 X6.0 Y3.9 Z-0.75 I1.1 J0.0
G1 X174.0 Z-0.8483
G3 X175.1 Y5.0 Z-0.8493 I0.0 J1.1
G1 Y90.0 Z-0.899
G3 X174.0 Y91.1 Z-0.9 I-1.1 J0.0
G1 X6.0 Z-0.9983
G3 X4.9 Y90.0 Z-0.9993 I0.0 J-1.1
G1 Y5.0 Z-1.049
G3 X6.0 Y3.9 Z-1.05 I1.1 J0.0
G1 X174.0 Z-1.1483
G3 X175.1 Y5.0 Z-1.1493 I0.0 J1.1
G1 Y90.0 Z-1.199
G3 X174.0 Y91.1 Z-1.2 I-1.1 J0.0
G1 X6.0 Z-1.2983
G3 X4.9 Y90.0 Z-1.2993 I0.0 J-1.1
G1 Y5.0 Z-1.349
G3 X6.0 Y3.9 Z-1.35 I1.1 J0.0
G1 X174.0 Z-1.4483
G3 X175.1 Y5.0 Z-1.4493 I0.0 J1.1
G1 Y90.0 Z-1.499
G3 X174.0 Y91.1 Z-1.5 I-1.1 J0.0
G1 X6.0 Z-1.5983
G3 X4.9 Y90.0 Z-1.5993 I0.0 J-1.1
G1 Y5.0 Z-1.649
G3 X6.0 Y3.9 Z-1.65 I1.1 J0.0
G1 X174.0 Z-1.7483
G3 X175.1 Y5.0 Z-1.7493 I0.0 J1.1
G1 Y90.0 Z-1.799
G3 X174.0 Y91.1 Z-1.8 I-1.1 J0.0
G1 X6.0 Z-1.8983
G3 X4.9 Y90.0 Z-1.8993 I0.0 J-1.1
G1 Y5.0 Z-1.949
G3 X6.0 Y3.9 Z-1.95 I1.1 J0.0
G1 X174.0 Z-2.0483
G3 X175.1 Y5.0 Z-2.0493 I0.0 J1.1
G1 Y90.0 Z-2.099
G3 X174.0 Y91.1 Z-2.1 I-1.1 J0.0
G1 X6.0 Z-2.1983
G3 X4.9 Y90.0 Z-2.1993 I0.0 J-1.1
G1 Y5.0 Z-2.249
G3 X6.0 Y3.9 Z-2.25 I1.1 J0.0
G1 X174.0 Z-2.3483
G3 X175.1 Y5.0 Z-2.3493 I0.0 J1.1
G1 Y90.0 Z-2.399
G3 X174.0 Y91.1 Z-2.4 I-1.1 J0.0
G1 X6.0 Z-2.4983
G3 X4.9 Y90.0 Z-2.4993 I0.0 J-1.1
G1 Y5.0 Z-2.549
G3 X6.0 Y3.9 Z-2.55 I1.1 J0.0
G1 X174.0 Z-2.6483
G3 X175.1 Y5.0 Z-2.6493 I0.0 J1.1
G1 Y90.0 Z-2.699
G3 X174.0 Y91.1 Z-2.7 I-1.1 J0.0
G1 X6.0 Z-2.7983
G3 X4.9 Y90.0 Z-2.7993 I0.0 J-1.1
G1 Y5.0 Z-2.849
G3 X6.0 Y3.9 Z-2.85 I1.1 J0.0
G1 X174.0 Z-2.9483
G3 X175.1 Y5.0 Z-2.9493 I0.0 J1.1
G1 Y90.0 Z-2.999
G3 X174.0 Y91.1 Z-3.0 I-1.1 J0.0
G1 X6.0 Z-3.0983
G3 X4.9 Y90.0 Z-3.0993 I0.0 J-1.1
G1 Y5.0 Z-3.149
G3 X6.0 Y3.9 Z-3.15 I1.1 J0.0
G1 X174.0 Z-3.2483
G3 X175.1 Y5.0 Z-3.2493 I0.0 J1.1
G1 Y90.0 Z-3.299
G3 X174.0 Y91.1 Z-3.3 I-1.1 J0.0
G1 X6.0 Z-3.3983
G3 X4.9 Y90.0 Z-3.3993 I0.0 J-1.1
G1 Y5.0 Z-3.449
G3 X6.0 Y3.9 Z-3.45 I1.1 J0.0
G1 X174.0 Z-3.5483
G3 X175.1 Y5.0 Z-3.5493 I0.0 J1.1
G1 Y90.0 Z-3.599
G3 X174.0 Y91.1 Z-3.6 I-1.1 J0.0
G1 X6.0 Z-3.6328
G3 X4.9 Y90.0 Z-3.6331 I0.0 J-1.1
G1 Y5.0 Z-3.6497
G3 X6.0 Y3.9 Z-3.65 I1.1 J0.0
G1 X174.0 Z-3.6828
G3 X175.1 Y5.0 Z-3.6831 I0.0 J1.1
G1 Y90.0 Z-3.6997
G3 X174.0 Y91.1 Z-3.7 I-1.1 J0.0
G1 X6.0 Z-3.7328
G3 X4.9 Y90.0 Z-3.7331 I0.0 J-1.1
G1 Y5.0 Z-3.7497
G3 X6.0 Y3.9 Z-3.75 I1.1 J0.0
G1 X174.0 Z-3.7828
G3 X175.1 Y5.0 Z-3.7831 I0.0 J1.1
G1 Y90.0 Z-3.7997
G3 X174.0 Y91.1 Z-3.8 I-1.1 J0.0
G1 X6.0
G3 X4.9 Y90.0 I0.0 J-1.1
G1 Y5.0
G3 X6.0 Y3.9 I1.1 J0.0
G1 X174.0
G3 X175.1 Y5.0 I0.0 J1.1
G1 Y90.0
G3 X174.0 Y91.1 I-1.1 J0.0
( panel_cutout_3D )
S1000
G1 F200.0 Y91.0
G1 Z-4.2
G1 F700.0 X6.0
G3 X5.0 Y90.0 I0.0 J-1.0
G1 Y5.0
G3 X6.0 Y4.0 I1.0 J0.0
G1 X174.0
G3 X175.0 Y5.0 I0.0 J1.0
G1 Y90.0
G3 X174.0 Y91.0 I-1.0 J0.0
G0 Z3.0
M5
M30
