( Made using CamBam - http://www.cambam.co.uk )
( ssc_plexi_Back_Panel 2/27/2021 8:02:01 PM )
( T4 : 2.5 )
( CUTVIEWER )
( FROM/0,0,5 )
( Select dummy tool to avoid warnings )
( TOOL/MILL,1,0,20.0,0 )
( STOCK/BLOCK,170.0,80.0,4.0,0.0,0.0,4.0 )
G21 G90 G91.1 G64 G40
G0 Z3.0
( T4 : 2.5 )
( Tool Taper coming soon )
( TOOL/MILL,2.5,0.0,0.0,0 )
T4 M6
( Holes )
G17
M3 S1000
G0 X9.2528 Y72.108
G0 Z1.0
G1 F100.0 Z0.0
G1 F400.0 X9.2818 Y72.0818 Z-0.0031
G1 X9.308 Y72.0528 Z-0.0063
G1 X9.3313 Y72.0214 Z-0.0094
G1 X9.3514 Y71.9878 Z-0.0125
G1 X9.3682 Y71.9525 Z-0.0156
G1 X9.3813 Y71.9157 Z-0.0187
G1 X9.3908 Y71.8777 Z-0.0219
G1 X9.3966 Y71.839 Z-0.025
G1 X9.3985 Y71.8 Z-0.0281
G1 X9.3966 Y71.761 Z-0.0312
G1 X9.3908 Y71.7223 Z-0.0344
G1 X9.3813 Y71.6843 Z-0.0375
G1 X9.3682 Y71.6475 Z-0.0406
G1 X9.3514 Y71.6122 Z-0.0437
G1 X9.3313 Y71.5786 Z-0.0469
G1 X9.308 Y71.5472 Z-0.05
G1 X9.2818 Y71.5182 Z-0.0531
G1 X9.2528 Y71.492 Z-0.0563
G1 X9.2214 Y71.4687 Z-0.0594
G1 X9.1879 Y71.4486 Z-0.0625
G1 X9.1525 Y71.4318 Z-0.0656
G1 X9.1157 Y71.4187 Z-0.0688
G1 X9.0777 Y71.4092 Z-0.0719
G1 X9.0391 Y71.4034 Z-0.075
G1 X9.0 Y71.4015 Z-0.0781
G1 X8.9609 Y71.4034 Z-0.0813
G1 X8.9223 Y71.4092 Z-0.0844
G1 X8.8843 Y71.4187 Z-0.0875
G1 X8.8475 Y71.4318 Z-0.0906
G1 X8.8122 Y71.4486 Z-0.0938
G1 X8.7786 Y71.4687 Z-0.0969
G1 X8.7472 Y71.492 Z-0.1
G1 X8.7182 Y71.5182 Z-0.1031
G1 X8.692 Y71.5472 Z-0.1063
G1 X8.6687 Y71.5786 Z-0.1094
G1 X8.6486 Y71.6121 Z-0.1125
G1 X8.6318 Y71.6475 Z-0.1156
G1 X8.6187 Y71.6843 Z-0.1188
G1 X8.6092 Y71.7223 Z-0.1219
G1 X8.6034 Y71.761 Z-0.125
G1 X8.6015 Y71.8 Z-0.1281
G1 X8.6034 Y71.839 Z-0.1312
G1 X8.6092 Y71.8777 Z-0.1344
G1 X8.6187 Y71.9157 Z-0.1375
G1 X8.6318 Y71.9525 Z-0.1406
G1 X8.6486 Y71.9879 Z-0.1438
G1 X8.6687 Y72.0214 Z-0.1469
G1 X8.692 Y72.0528 Z-0.15
G1 X8.7182 Y72.0818 Z-0.1531
G1 X8.7472 Y72.108 Z-0.1562
G1 X8.7786 Y72.1313 Z-0.1594
G1 X8.8122 Y72.1514 Z-0.1625
G1 X8.8475 Y72.1682 Z-0.1656
G1 X8.8843 Y72.1813 Z-0.1688
G1 X8.9223 Y72.1908 Z-0.1719
G1 X8.9609 Y72.1966 Z-0.175
G1 X9.0 Y72.1985 Z-0.1781
G1 X9.0391 Y72.1966 Z-0.1813
G1 X9.0777 Y72.1908 Z-0.1844
G1 X9.1157 Y72.1813 Z-0.1875
G1 X9.1525 Y72.1682 Z-0.1906
G1 X9.1878 Y72.1514 Z-0.1938
G1 X9.2214 Y72.1313 Z-0.1969
G1 X9.2528 Y72.108 Z-0.2
G1 X9.2818 Y72.0818 Z-0.2031
G1 X9.308 Y72.0528 Z-0.2063
G1 X9.3313 Y72.0214 Z-0.2094
G1 X9.3514 Y71.9878 Z-0.2125
G1 X9.3682 Y71.9525 Z-0.2156
G1 X9.3813 Y71.9157 Z-0.2187
G1 X9.3908 Y71.8777 Z-0.2219
G1 X9.3966 Y71.839 Z-0.225
G1 X9.3985 Y71.8 Z-0.2281
G1 X9.3966 Y71.761 Z-0.2312
G1 X9.3908 Y71.7223 Z-0.2344
G1 X9.3813 Y71.6843 Z-0.2375
G1 X9.3682 Y71.6475 Z-0.2406
G1 X9.3514 Y71.6122 Z-0.2437
G1 X9.3313 Y71.5786 Z-0.2469
G1 X9.308 Y71.5472 Z-0.25
G1 X9.2818 Y71.5182 Z-0.2531
G1 X9.2528 Y71.492 Z-0.2563
G1 X9.2214 Y71.4687 Z-0.2594
G1 X9.1879 Y71.4486 Z-0.2625
G1 X9.1525 Y71.4318 Z-0.2656
G1 X9.1157 Y71.4187 Z-0.2688
G1 X9.0777 Y71.4092 Z-0.2719
G1 X9.0391 Y71.4034 Z-0.275
G1 X9.0 Y71.4015 Z-0.2781
G1 X8.9609 Y71.4034 Z-0.2813
G1 X8.9223 Y71.4092 Z-0.2844
G1 X8.8843 Y71.4187 Z-0.2875
G1 X8.8475 Y71.4318 Z-0.2906
G1 X8.8122 Y71.4486 Z-0.2938
G1 X8.7786 Y71.4687 Z-0.2969
G1 X8.7472 Y71.492 Z-0.3
G1 X8.7182 Y71.5182 Z-0.3031
G1 X8.692 Y71.5472 Z-0.3063
G1 X8.6687 Y71.5786 Z-0.3094
G1 X8.6486 Y71.6121 Z-0.3125
G1 X8.6318 Y71.6475 Z-0.3156
G1 X8.6187 Y71.6843 Z-0.3188
G1 X8.6092 Y71.7223 Z-0.3219
G1 X8.6034 Y71.761 Z-0.325
G1 X8.6015 Y71.8 Z-0.3281
G1 X8.6034 Y71.839 Z-0.3312
G1 X8.6092 Y71.8777 Z-0.3344
G1 X8.6187 Y71.9157 Z-0.3375
G1 X8.6318 Y71.9525 Z-0.3406
G1 X8.6486 Y71.9879 Z-0.3438
G1 X8.6687 Y72.0214 Z-0.3469
G1 X8.692 Y72.0528 Z-0.35
G1 X8.7182 Y72.0818 Z-0.3531
G1 X8.7472 Y72.108 Z-0.3562
G1 X8.7786 Y72.1313 Z-0.3594
G1 X8.8122 Y72.1514 Z-0.3625
G1 X8.8475 Y72.1682 Z-0.3656
G1 X8.8843 Y72.1813 Z-0.3688
G1 X8.9223 Y72.1908 Z-0.3719
G1 X8.9609 Y72.1966 Z-0.375
G1 X9.0 Y72.1985 Z-0.3781
G1 X9.0391 Y72.1966 Z-0.3813
G1 X9.0777 Y72.1908 Z-0.3844
G1 X9.1157 Y72.1813 Z-0.3875
G1 X9.1525 Y72.1682 Z-0.3906
G1 X9.1878 Y72.1514 Z-0.3938
G1 X9.2214 Y72.1313 Z-0.3969
G1 X9.2528 Y72.108 Z-0.4
G1 X9.2818 Y72.0818 Z-0.4031
G1 X9.308 Y72.0528 Z-0.4063
G1 X9.3313 Y72.0214 Z-0.4094
G1 X9.3514 Y71.9878 Z-0.4125
G1 X9.3682 Y71.9525 Z-0.4156
G1 X9.3813 Y71.9157 Z-0.4187
G1 X9.3908 Y71.8777 Z-0.4219
G1 X9.3966 Y71.839 Z-0.425
G1 X9.3985 Y71.8 Z-0.4281
G1 X9.3966 Y71.761 Z-0.4312
G1 X9.3908 Y71.7223 Z-0.4344
G1 X9.3813 Y71.6843 Z-0.4375
G1 X9.3682 Y71.6475 Z-0.4406
G1 X9.3514 Y71.6122 Z-0.4437
G1 X9.3313 Y71.5786 Z-0.4469
G1 X9.308 Y71.5472 Z-0.45
G1 X9.2818 Y71.5182 Z-0.4531
G1 X9.2528 Y71.492 Z-0.4563
G1 X9.2214 Y71.4687 Z-0.4594
G1 X9.1879 Y71.4486 Z-0.4625
G1 X9.1525 Y71.4318 Z-0.4656
G1 X9.1157 Y71.4187 Z-0.4688
G1 X9.0777 Y71.4092 Z-0.4719
G1 X9.0391 Y71.4034 Z-0.475
G1 X9.0 Y71.4015 Z-0.4781
G1 X8.9609 Y71.4034 Z-0.4813
G1 X8.9223 Y71.4092 Z-0.4844
G1 X8.8843 Y71.4187 Z-0.4875
G1 X8.8475 Y71.4318 Z-0.4906
G1 X8.8122 Y71.4486 Z-0.4938
G1 X8.7786 Y71.4687 Z-0.4969
G1 X8.7472 Y71.492 Z-0.5
G1 X8.7182 Y71.5182 Z-0.5031
G1 X8.692 Y71.5472 Z-0.5063
G1 X8.6687 Y71.5786 Z-0.5094
G1 X8.6486 Y71.6121 Z-0.5125
G1 X8.6318 Y71.6475 Z-0.5156
G1 X8.6187 Y71.6843 Z-0.5188
G1 X8.6092 Y71.7223 Z-0.5219
G1 X8.6034 Y71.761 Z-0.525
G1 X8.6015 Y71.8 Z-0.5281
G1 X8.6034 Y71.839 Z-0.5312
G1 X8.6092 Y71.8777 Z-0.5344
G1 X8.6187 Y71.9157 Z-0.5375
G1 X8.6318 Y71.9525 Z-0.5406
G1 X8.6486 Y71.9879 Z-0.5438
G1 X8.6687 Y72.0214 Z-0.5469
G1 X8.692 Y72.0528 Z-0.55
G1 X8.7182 Y72.0818 Z-0.5531
G1 X8.7472 Y72.108 Z-0.5562
G1 X8.7786 Y72.1313 Z-0.5594
G1 X8.8122 Y72.1514 Z-0.5625
G1 X8.8475 Y72.1682 Z-0.5656
G1 X8.8843 Y72.1813 Z-0.5688
G1 X8.9223 Y72.1908 Z-0.5719
G1 X8.9609 Y72.1966 Z-0.575
G1 X9.0 Y72.1985 Z-0.5781
G1 X9.0391 Y72.1966 Z-0.5813
G1 X9.0777 Y72.1908 Z-0.5844
G1 X9.1157 Y72.1813 Z-0.5875
G1 X9.1525 Y72.1682 Z-0.5906
G1 X9.1878 Y72.1514 Z-0.5938
G1 X9.2214 Y72.1313 Z-0.5969
G1 X9.2528 Y72.108 Z-0.6
G1 X9.2818 Y72.0818 Z-0.6031
G1 X9.308 Y72.0528 Z-0.6063
G1 X9.3313 Y72.0214 Z-0.6094
G1 X9.3514 Y71.9878 Z-0.6125
G1 X9.3682 Y71.9525 Z-0.6156
G1 X9.3813 Y71.9157 Z-0.6187
G1 X9.3908 Y71.8777 Z-0.6219
G1 X9.3966 Y71.839 Z-0.625
G1 X9.3985 Y71.8 Z-0.6281
G1 X9.3966 Y71.761 Z-0.6312
G1 X9.3908 Y71.7223 Z-0.6344
G1 X9.3813 Y71.6843 Z-0.6375
G1 X9.3682 Y71.6475 Z-0.6406
G1 X9.3514 Y71.6122 Z-0.6437
G1 X9.3313 Y71.5786 Z-0.6469
G1 X9.308 Y71.5472 Z-0.65
G1 X9.2818 Y71.5182 Z-0.6531
G1 X9.2528 Y71.492 Z-0.6563
G1 X9.2214 Y71.4687 Z-0.6594
G1 X9.1879 Y71.4486 Z-0.6625
G1 X9.1525 Y71.4318 Z-0.6656
G1 X9.1157 Y71.4187 Z-0.6688
G1 X9.0777 Y71.4092 Z-0.6719
G1 X9.0391 Y71.4034 Z-0.675
G1 X9.0 Y71.4015 Z-0.6781
G1 X8.9609 Y71.4034 Z-0.6813
G1 X8.9223 Y71.4092 Z-0.6844
G1 X8.8843 Y71.4187 Z-0.6875
G1 X8.8475 Y71.4318 Z-0.6906
G1 X8.8122 Y71.4486 Z-0.6938
G1 X8.7786 Y71.4687 Z-0.6969
G1 X8.7472 Y71.492 Z-0.7
G1 X8.7182 Y71.5182 Z-0.7031
G1 X8.692 Y71.5472 Z-0.7063
G1 X8.6687 Y71.5786 Z-0.7094
G1 X8.6486 Y71.6121 Z-0.7125
G1 X8.6318 Y71.6475 Z-0.7156
G1 X8.6187 Y71.6843 Z-0.7188
G1 X8.6092 Y71.7223 Z-0.7219
G1 X8.6034 Y71.761 Z-0.725
G1 X8.6015 Y71.8 Z-0.7281
G1 X8.6034 Y71.839 Z-0.7312
G1 X8.6092 Y71.8777 Z-0.7344
G1 X8.6187 Y71.9157 Z-0.7375
G1 X8.6318 Y71.9525 Z-0.7406
G1 X8.6486 Y71.9879 Z-0.7438
G1 X8.6687 Y72.0214 Z-0.7469
G1 X8.692 Y72.0528 Z-0.75
G1 X8.7182 Y72.0818 Z-0.7531
G1 X8.7472 Y72.108 Z-0.7562
G1 X8.7786 Y72.1313 Z-0.7594
G1 X8.8122 Y72.1514 Z-0.7625
G1 X8.8475 Y72.1682 Z-0.7656
G1 X8.8843 Y72.1813 Z-0.7688
G1 X8.9223 Y72.1908 Z-0.7719
G1 X8.9609 Y72.1966 Z-0.775
G1 X9.0 Y72.1985 Z-0.7781
G1 X9.0391 Y72.1966 Z-0.7813
G1 X9.0777 Y72.1908 Z-0.7844
G1 X9.1157 Y72.1813 Z-0.7875
G1 X9.1525 Y72.1682 Z-0.7906
G1 X9.1878 Y72.1514 Z-0.7938
G1 X9.2214 Y72.1313 Z-0.7969
G1 X9.2528 Y72.108 Z-0.8
G1 X9.2818 Y72.0818 Z-0.8031
G1 X9.308 Y72.0528 Z-0.8063
G1 X9.3313 Y72.0214 Z-0.8094
G1 X9.3514 Y71.9878 Z-0.8125
G1 X9.3682 Y71.9525 Z-0.8156
G1 X9.3813 Y71.9157 Z-0.8187
G1 X9.3908 Y71.8777 Z-0.8219
G1 X9.3966 Y71.839 Z-0.825
G1 X9.3985 Y71.8 Z-0.8281
G1 X9.3966 Y71.761 Z-0.8312
G1 X9.3908 Y71.7223 Z-0.8344
G1 X9.3813 Y71.6843 Z-0.8375
G1 X9.3682 Y71.6475 Z-0.8406
G1 X9.3514 Y71.6122 Z-0.8437
G1 X9.3313 Y71.5786 Z-0.8469
G1 X9.308 Y71.5472 Z-0.85
G1 X9.2818 Y71.5182 Z-0.8531
G1 X9.2528 Y71.492 Z-0.8563
G1 X9.2214 Y71.4687 Z-0.8594
G1 X9.1879 Y71.4486 Z-0.8625
G1 X9.1525 Y71.4318 Z-0.8656
G1 X9.1157 Y71.4187 Z-0.8688
G1 X9.0777 Y71.4092 Z-0.8719
G1 X9.0391 Y71.4034 Z-0.875
G1 X9.0 Y71.4015 Z-0.8781
G1 X8.9609 Y71.4034 Z-0.8813
G1 X8.9223 Y71.4092 Z-0.8844
G1 X8.8843 Y71.4187 Z-0.8875
G1 X8.8475 Y71.4318 Z-0.8906
G1 X8.8122 Y71.4486 Z-0.8938
G1 X8.7786 Y71.4687 Z-0.8969
G1 X8.7472 Y71.492 Z-0.9
G1 X8.7182 Y71.5182 Z-0.9031
G1 X8.692 Y71.5472 Z-0.9063
G1 X8.6687 Y71.5786 Z-0.9094
G1 X8.6486 Y71.6121 Z-0.9125
G1 X8.6318 Y71.6475 Z-0.9156
G1 X8.6187 Y71.6843 Z-0.9188
G1 X8.6092 Y71.7223 Z-0.9219
G1 X8.6034 Y71.761 Z-0.925
G1 X8.6015 Y71.8 Z-0.9281
G1 X8.6034 Y71.839 Z-0.9312
G1 X8.6092 Y71.8777 Z-0.9344
G1 X8.6187 Y71.9157 Z-0.9375
G1 X8.6318 Y71.9525 Z-0.9406
G1 X8.6486 Y71.9879 Z-0.9438
G1 X8.6687 Y72.0214 Z-0.9469
G1 X8.692 Y72.0528 Z-0.95
G1 X8.7182 Y72.0818 Z-0.9531
G1 X8.7472 Y72.108 Z-0.9562
G1 X8.7786 Y72.1313 Z-0.9594
G1 X8.8122 Y72.1514 Z-0.9625
G1 X8.8475 Y72.1682 Z-0.9656
G1 X8.8843 Y72.1813 Z-0.9688
G1 X8.9223 Y72.1908 Z-0.9719
G1 X8.9609 Y72.1966 Z-0.975
G1 X9.0 Y72.1985 Z-0.9781
G1 X9.0391 Y72.1966 Z-0.9813
G1 X9.0777 Y72.1908 Z-0.9844
G1 X9.1157 Y72.1813 Z-0.9875
G1 X9.1525 Y72.1682 Z-0.9906
G1 X9.1878 Y72.1514 Z-0.9938
G1 X9.2214 Y72.1313 Z-0.9969
G1 X9.2528 Y72.108 Z-1.0
G1 X9.2818 Y72.0818 Z-1.0031
G1 X9.308 Y72.0528 Z-1.0063
G1 X9.3313 Y72.0214 Z-1.0094
G1 X9.3514 Y71.9878 Z-1.0125
G1 X9.3682 Y71.9525 Z-1.0156
G1 X9.3813 Y71.9157 Z-1.0187
G1 X9.3908 Y71.8777 Z-1.0219
G1 X9.3966 Y71.839 Z-1.025
G1 X9.3985 Y71.8 Z-1.0281
G1 X9.3966 Y71.761 Z-1.0312
G1 X9.3908 Y71.7223 Z-1.0344
G1 X9.3813 Y71.6843 Z-1.0375
G1 X9.3682 Y71.6475 Z-1.0406
G1 X9.3514 Y71.6122 Z-1.0437
G1 X9.3313 Y71.5786 Z-1.0469
G1 X9.308 Y71.5472 Z-1.05
G1 X9.2818 Y71.5182 Z-1.0531
G1 X9.2528 Y71.492 Z-1.0563
G1 X9.2214 Y71.4687 Z-1.0594
G1 X9.1879 Y71.4486 Z-1.0625
G1 X9.1525 Y71.4318 Z-1.0656
G1 X9.1157 Y71.4187 Z-1.0688
G1 X9.0777 Y71.4092 Z-1.0719
G1 X9.0391 Y71.4034 Z-1.075
G1 X9.0 Y71.4015 Z-1.0781
G1 X8.9609 Y71.4034 Z-1.0813
G1 X8.9223 Y71.4092 Z-1.0844
G1 X8.8843 Y71.4187 Z-1.0875
G1 X8.8475 Y71.4318 Z-1.0906
G1 X8.8122 Y71.4486 Z-1.0938
G1 X8.7786 Y71.4687 Z-1.0969
G1 X8.7472 Y71.492 Z-1.1
G1 X8.7182 Y71.5182 Z-1.1031
G1 X8.692 Y71.5472 Z-1.1063
G1 X8.6687 Y71.5786 Z-1.1094
G1 X8.6486 Y71.6121 Z-1.1125
G1 X8.6318 Y71.6475 Z-1.1156
G1 X8.6187 Y71.6843 Z-1.1188
G1 X8.6092 Y71.7223 Z-1.1219
G1 X8.6034 Y71.761 Z-1.125
G1 X8.6015 Y71.8 Z-1.1281
G1 X8.6034 Y71.839 Z-1.1312
G1 X8.6092 Y71.8777 Z-1.1344
G1 X8.6187 Y71.9157 Z-1.1375
G1 X8.6318 Y71.9525 Z-1.1406
G1 X8.6486 Y71.9879 Z-1.1438
G1 X8.6687 Y72.0214 Z-1.1469
G1 X8.692 Y72.0528 Z-1.15
G1 X8.7182 Y72.0818 Z-1.1531
G1 X8.7472 Y72.108 Z-1.1562
G1 X8.7786 Y72.1313 Z-1.1594
G1 X8.8122 Y72.1514 Z-1.1625
G1 X8.8475 Y72.1682 Z-1.1656
G1 X8.8843 Y72.1813 Z-1.1688
G1 X8.9223 Y72.1908 Z-1.1719
G1 X8.9609 Y72.1966 Z-1.175
G1 X9.0 Y72.1985 Z-1.1781
G1 X9.0391 Y72.1966 Z-1.1813
G1 X9.0777 Y72.1908 Z-1.1844
G1 X9.1157 Y72.1813 Z-1.1875
G1 X9.1525 Y72.1682 Z-1.1906
G1 X9.1878 Y72.1514 Z-1.1938
G1 X9.2214 Y72.1313 Z-1.1969
G1 X9.2528 Y72.108 Z-1.2
G1 X9.2818 Y72.0818 Z-1.2031
G1 X9.308 Y72.0528 Z-1.2063
G1 X9.3313 Y72.0214 Z-1.2094
G1 X9.3514 Y71.9878 Z-1.2125
G1 X9.3682 Y71.9525 Z-1.2156
G1 X9.3813 Y71.9157 Z-1.2187
G1 X9.3908 Y71.8777 Z-1.2219
G1 X9.3966 Y71.839 Z-1.225
G1 X9.3985 Y71.8 Z-1.2281
G1 X9.3966 Y71.761 Z-1.2312
G1 X9.3908 Y71.7223 Z-1.2344
G1 X9.3813 Y71.6843 Z-1.2375
G1 X9.3682 Y71.6475 Z-1.2406
G1 X9.3514 Y71.6122 Z-1.2437
G1 X9.3313 Y71.5786 Z-1.2469
G1 X9.308 Y71.5472 Z-1.25
G1 X9.2818 Y71.5182 Z-1.2531
G1 X9.2528 Y71.492 Z-1.2563
G1 X9.2214 Y71.4687 Z-1.2594
G1 X9.1879 Y71.4486 Z-1.2625
G1 X9.1525 Y71.4318 Z-1.2656
G1 X9.1157 Y71.4187 Z-1.2688
G1 X9.0777 Y71.4092 Z-1.2719
G1 X9.0391 Y71.4034 Z-1.275
G1 X9.0 Y71.4015 Z-1.2781
G1 X8.9609 Y71.4034 Z-1.2813
G1 X8.9223 Y71.4092 Z-1.2844
G1 X8.8843 Y71.4187 Z-1.2875
G1 X8.8475 Y71.4318 Z-1.2906
G1 X8.8122 Y71.4486 Z-1.2938
G1 X8.7786 Y71.4687 Z-1.2969
G1 X8.7472 Y71.492 Z-1.3
G1 X8.7182 Y71.5182 Z-1.3031
G1 X8.692 Y71.5472 Z-1.3063
G1 X8.6687 Y71.5786 Z-1.3094
G1 X8.6486 Y71.6121 Z-1.3125
G1 X8.6318 Y71.6475 Z-1.3156
G1 X8.6187 Y71.6843 Z-1.3188
G1 X8.6092 Y71.7223 Z-1.3219
G1 X8.6034 Y71.761 Z-1.325
G1 X8.6015 Y71.8 Z-1.3281
G1 X8.6034 Y71.839 Z-1.3312
G1 X8.6092 Y71.8777 Z-1.3344
G1 X8.6187 Y71.9157 Z-1.3375
G1 X8.6318 Y71.9525 Z-1.3406
G1 X8.6486 Y71.9879 Z-1.3438
G1 X8.6687 Y72.0214 Z-1.3469
G1 X8.692 Y72.0528 Z-1.35
G1 X8.7182 Y72.0818 Z-1.3531
G1 X8.7472 Y72.108 Z-1.3562
G1 X8.7786 Y72.1313 Z-1.3594
G1 X8.8122 Y72.1514 Z-1.3625
G1 X8.8475 Y72.1682 Z-1.3656
G1 X8.8843 Y72.1813 Z-1.3688
G1 X8.9223 Y72.1908 Z-1.3719
G1 X8.9609 Y72.1966 Z-1.375
G1 X9.0 Y72.1985 Z-1.3781
G1 X9.0391 Y72.1966 Z-1.3813
G1 X9.0777 Y72.1908 Z-1.3844
G1 X9.1157 Y72.1813 Z-1.3875
G1 X9.1525 Y72.1682 Z-1.3906
G1 X9.1878 Y72.1514 Z-1.3938
G1 X9.2214 Y72.1313 Z-1.3969
G1 X9.2528 Y72.108 Z-1.4
G1 X9.2818 Y72.0818 Z-1.4031
G1 X9.308 Y72.0528 Z-1.4063
G1 X9.3313 Y72.0214 Z-1.4094
G1 X9.3514 Y71.9878 Z-1.4125
G1 X9.3682 Y71.9525 Z-1.4156
G1 X9.3813 Y71.9157 Z-1.4187
G1 X9.3908 Y71.8777 Z-1.4219
G1 X9.3966 Y71.839 Z-1.425
G1 X9.3985 Y71.8 Z-1.4281
G1 X9.3966 Y71.761 Z-1.4312
G1 X9.3908 Y71.7223 Z-1.4344
G1 X9.3813 Y71.6843 Z-1.4375
G1 X9.3682 Y71.6475 Z-1.4406
G1 X9.3514 Y71.6122 Z-1.4437
G1 X9.3313 Y71.5786 Z-1.4469
G1 X9.308 Y71.5472 Z-1.45
G1 X9.2818 Y71.5182 Z-1.4531
G1 X9.2528 Y71.492 Z-1.4563
G1 X9.2214 Y71.4687 Z-1.4594
G1 X9.1879 Y71.4486 Z-1.4625
G1 X9.1525 Y71.4318 Z-1.4656
G1 X9.1157 Y71.4187 Z-1.4688
G1 X9.0777 Y71.4092 Z-1.4719
G1 X9.0391 Y71.4034 Z-1.475
G1 X9.0 Y71.4015 Z-1.4781
G1 X8.9609 Y71.4034 Z-1.4813
G1 X8.9223 Y71.4092 Z-1.4844
G1 X8.8843 Y71.4187 Z-1.4875
G1 X8.8475 Y71.4318 Z-1.4906
G1 X8.8122 Y71.4486 Z-1.4938
G1 X8.7786 Y71.4687 Z-1.4969
G1 X8.7472 Y71.492 Z-1.5
G1 X8.7182 Y71.5182 Z-1.5031
G1 X8.692 Y71.5472 Z-1.5063
G1 X8.6687 Y71.5786 Z-1.5094
G1 X8.6486 Y71.6121 Z-1.5125
G1 X8.6318 Y71.6475 Z-1.5156
G1 X8.6187 Y71.6843 Z-1.5188
G1 X8.6092 Y71.7223 Z-1.5219
G1 X8.6034 Y71.761 Z-1.525
G1 X8.6015 Y71.8 Z-1.5281
G1 X8.6034 Y71.839 Z-1.5312
G1 X8.6092 Y71.8777 Z-1.5344
G1 X8.6187 Y71.9157 Z-1.5375
G1 X8.6318 Y71.9525 Z-1.5406
G1 X8.6486 Y71.9879 Z-1.5438
G1 X8.6687 Y72.0214 Z-1.5469
G1 X8.692 Y72.0528 Z-1.55
G1 X8.7182 Y72.0818 Z-1.5531
G1 X8.7472 Y72.108 Z-1.5562
G1 X8.7786 Y72.1313 Z-1.5594
G1 X8.8122 Y72.1514 Z-1.5625
G1 X8.8475 Y72.1682 Z-1.5656
G1 X8.8843 Y72.1813 Z-1.5688
G1 X8.9223 Y72.1908 Z-1.5719
G1 X8.9609 Y72.1966 Z-1.575
G1 X9.0 Y72.1985 Z-1.5781
G1 X9.0391 Y72.1966 Z-1.5813
G1 X9.0777 Y72.1908 Z-1.5844
G1 X9.1157 Y72.1813 Z-1.5875
G1 X9.1525 Y72.1682 Z-1.5906
G1 X9.1878 Y72.1514 Z-1.5938
G1 X9.2214 Y72.1313 Z-1.5969
G1 X9.2528 Y72.108 Z-1.6
G1 X9.2818 Y72.0818 Z-1.6031
G1 X9.308 Y72.0528 Z-1.6063
G1 X9.3313 Y72.0214 Z-1.6094
G1 X9.3514 Y71.9878 Z-1.6125
G1 X9.3682 Y71.9525 Z-1.6156
G1 X9.3813 Y71.9157 Z-1.6187
G1 X9.3908 Y71.8777 Z-1.6219
G1 X9.3966 Y71.839 Z-1.625
G1 X9.3985 Y71.8 Z-1.6281
G1 X9.3966 Y71.761 Z-1.6312
G1 X9.3908 Y71.7223 Z-1.6344
G1 X9.3813 Y71.6843 Z-1.6375
G1 X9.3682 Y71.6475 Z-1.6406
G1 X9.3514 Y71.6122 Z-1.6437
G1 X9.3313 Y71.5786 Z-1.6469
G1 X9.308 Y71.5472 Z-1.65
G1 X9.2818 Y71.5182 Z-1.6531
G1 X9.2528 Y71.492 Z-1.6563
G1 X9.2214 Y71.4687 Z-1.6594
G1 X9.1879 Y71.4486 Z-1.6625
G1 X9.1525 Y71.4318 Z-1.6656
G1 X9.1157 Y71.4187 Z-1.6688
G1 X9.0777 Y71.4092 Z-1.6719
G1 X9.0391 Y71.4034 Z-1.675
G1 X9.0 Y71.4015 Z-1.6781
G1 X8.9609 Y71.4034 Z-1.6813
G1 X8.9223 Y71.4092 Z-1.6844
G1 X8.8843 Y71.4187 Z-1.6875
G1 X8.8475 Y71.4318 Z-1.6906
G1 X8.8122 Y71.4486 Z-1.6938
G1 X8.7786 Y71.4687 Z-1.6969
G1 X8.7472 Y71.492 Z-1.7
G1 X8.7182 Y71.5182 Z-1.7031
G1 X8.692 Y71.5472 Z-1.7063
G1 X8.6687 Y71.5786 Z-1.7094
G1 X8.6486 Y71.6121 Z-1.7125
G1 X8.6318 Y71.6475 Z-1.7156
G1 X8.6187 Y71.6843 Z-1.7188
G1 X8.6092 Y71.7223 Z-1.7219
G1 X8.6034 Y71.761 Z-1.725
G1 X8.6015 Y71.8 Z-1.7281
G1 X8.6034 Y71.839 Z-1.7312
G1 X8.6092 Y71.8777 Z-1.7344
G1 X8.6187 Y71.9157 Z-1.7375
G1 X8.6318 Y71.9525 Z-1.7406
G1 X8.6486 Y71.9879 Z-1.7438
G1 X8.6687 Y72.0214 Z-1.7469
G1 X8.692 Y72.0528 Z-1.75
G1 X8.7182 Y72.0818 Z-1.7531
G1 X8.7472 Y72.108 Z-1.7562
G1 X8.7786 Y72.1313 Z-1.7594
G1 X8.8122 Y72.1514 Z-1.7625
G1 X8.8475 Y72.1682 Z-1.7656
G1 X8.8843 Y72.1813 Z-1.7688
G1 X8.9223 Y72.1908 Z-1.7719
G1 X8.9609 Y72.1966 Z-1.775
G1 X9.0 Y72.1985 Z-1.7781
G1 X9.0391 Y72.1966 Z-1.7813
G1 X9.0777 Y72.1908 Z-1.7844
G1 X9.1157 Y72.1813 Z-1.7875
G1 X9.1525 Y72.1682 Z-1.7906
G1 X9.1878 Y72.1514 Z-1.7938
G1 X9.2214 Y72.1313 Z-1.7969
G1 X9.2528 Y72.108 Z-1.8
G1 X9.2818 Y72.0818 Z-1.8031
G1 X9.308 Y72.0528 Z-1.8063
G1 X9.3313 Y72.0214 Z-1.8094
G1 X9.3514 Y71.9878 Z-1.8125
G1 X9.3682 Y71.9525 Z-1.8156
G1 X9.3813 Y71.9157 Z-1.8187
G1 X9.3908 Y71.8777 Z-1.8219
G1 X9.3966 Y71.839 Z-1.825
G1 X9.3985 Y71.8 Z-1.8281
G1 X9.3966 Y71.761 Z-1.8312
G1 X9.3908 Y71.7223 Z-1.8344
G1 X9.3813 Y71.6843 Z-1.8375
G1 X9.3682 Y71.6475 Z-1.8406
G1 X9.3514 Y71.6122 Z-1.8437
G1 X9.3313 Y71.5786 Z-1.8469
G1 X9.308 Y71.5472 Z-1.85
G1 X9.2818 Y71.5182 Z-1.8531
G1 X9.2528 Y71.492 Z-1.8563
G1 X9.2214 Y71.4687 Z-1.8594
G1 X9.1879 Y71.4486 Z-1.8625
G1 X9.1525 Y71.4318 Z-1.8656
G1 X9.1157 Y71.4187 Z-1.8688
G1 X9.0777 Y71.4092 Z-1.8719
G1 X9.0391 Y71.4034 Z-1.875
G1 X9.0 Y71.4015 Z-1.8781
G1 X8.9609 Y71.4034 Z-1.8813
G1 X8.9223 Y71.4092 Z-1.8844
G1 X8.8843 Y71.4187 Z-1.8875
G1 X8.8475 Y71.4318 Z-1.8906
G1 X8.8122 Y71.4486 Z-1.8938
G1 X8.7786 Y71.4687 Z-1.8969
G1 X8.7472 Y71.492 Z-1.9
G1 X8.7182 Y71.5182 Z-1.9031
G1 X8.692 Y71.5472 Z-1.9063
G1 X8.6687 Y71.5786 Z-1.9094
G1 X8.6486 Y71.6121 Z-1.9125
G1 X8.6318 Y71.6475 Z-1.9156
G1 X8.6187 Y71.6843 Z-1.9188
G1 X8.6092 Y71.7223 Z-1.9219
G1 X8.6034 Y71.761 Z-1.925
G1 X8.6015 Y71.8 Z-1.9281
G1 X8.6034 Y71.839 Z-1.9312
G1 X8.6092 Y71.8777 Z-1.9344
G1 X8.6187 Y71.9157 Z-1.9375
G1 X8.6318 Y71.9525 Z-1.9406
G1 X8.6486 Y71.9879 Z-1.9438
G1 X8.6687 Y72.0214 Z-1.9469
G1 X8.692 Y72.0528 Z-1.95
G1 X8.7182 Y72.0818 Z-1.9531
G1 X8.7472 Y72.108 Z-1.9562
G1 X8.7786 Y72.1313 Z-1.9594
G1 X8.8122 Y72.1514 Z-1.9625
G1 X8.8475 Y72.1682 Z-1.9656
G1 X8.8843 Y72.1813 Z-1.9688
G1 X8.9223 Y72.1908 Z-1.9719
G1 X8.9609 Y72.1966 Z-1.975
G1 X9.0 Y72.1985 Z-1.9781
G1 X9.0391 Y72.1966 Z-1.9813
G1 X9.0777 Y72.1908 Z-1.9844
G1 X9.1157 Y72.1813 Z-1.9875
G1 X9.1525 Y72.1682 Z-1.9906
G1 X9.1878 Y72.1514 Z-1.9938
G1 X9.2214 Y72.1313 Z-1.9969
G1 X9.2528 Y72.108 Z-2.0
G1 X9.2818 Y72.0818 Z-2.0031
G1 X9.308 Y72.0528 Z-2.0063
G1 X9.3313 Y72.0214 Z-2.0094
G1 X9.3514 Y71.9878 Z-2.0125
G1 X9.3682 Y71.9525 Z-2.0156
G1 X9.3813 Y71.9157 Z-2.0187
G1 X9.3908 Y71.8777 Z-2.0219
G1 X9.3966 Y71.839 Z-2.025
G1 X9.3985 Y71.8 Z-2.0281
G1 X9.3966 Y71.761 Z-2.0312
G1 X9.3908 Y71.7223 Z-2.0344
G1 X9.3813 Y71.6843 Z-2.0375
G1 X9.3682 Y71.6475 Z-2.0406
G1 X9.3514 Y71.6122 Z-2.0437
G1 X9.3313 Y71.5786 Z-2.0469
G1 X9.308 Y71.5472 Z-2.05
G1 X9.2818 Y71.5182 Z-2.0531
G1 X9.2528 Y71.492 Z-2.0563
G1 X9.2214 Y71.4687 Z-2.0594
G1 X9.1879 Y71.4486 Z-2.0625
G1 X9.1525 Y71.4318 Z-2.0656
G1 X9.1157 Y71.4187 Z-2.0688
G1 X9.0777 Y71.4092 Z-2.0719
G1 X9.0391 Y71.4034 Z-2.075
G1 X9.0 Y71.4015 Z-2.0781
G1 X8.9609 Y71.4034 Z-2.0813
G1 X8.9223 Y71.4092 Z-2.0844
G1 X8.8843 Y71.4187 Z-2.0875
G1 X8.8475 Y71.4318 Z-2.0906
G1 X8.8122 Y71.4486 Z-2.0938
G1 X8.7786 Y71.4687 Z-2.0969
G1 X8.7472 Y71.492 Z-2.1
G1 X8.7182 Y71.5182 Z-2.1031
G1 X8.692 Y71.5472 Z-2.1063
G1 X8.6687 Y71.5786 Z-2.1094
G1 X8.6486 Y71.6121 Z-2.1125
G1 X8.6318 Y71.6475 Z-2.1156
G1 X8.6187 Y71.6843 Z-2.1188
G1 X8.6092 Y71.7223 Z-2.1219
G1 X8.6034 Y71.761 Z-2.125
G1 X8.6015 Y71.8 Z-2.1281
G1 X8.6034 Y71.839 Z-2.1312
G1 X8.6092 Y71.8777 Z-2.1344
G1 X8.6187 Y71.9157 Z-2.1375
G1 X8.6318 Y71.9525 Z-2.1406
G1 X8.6486 Y71.9879 Z-2.1438
G1 X8.6687 Y72.0214 Z-2.1469
G1 X8.692 Y72.0528 Z-2.15
G1 X8.7182 Y72.0818 Z-2.1531
G1 X8.7472 Y72.108 Z-2.1562
G1 X8.7786 Y72.1313 Z-2.1594
G1 X8.8122 Y72.1514 Z-2.1625
G1 X8.8475 Y72.1682 Z-2.1656
G1 X8.8843 Y72.1813 Z-2.1688
G1 X8.9223 Y72.1908 Z-2.1719
G1 X8.9609 Y72.1966 Z-2.175
G1 X9.0 Y72.1985 Z-2.1781
G1 X9.0391 Y72.1966 Z-2.1813
G1 X9.0777 Y72.1908 Z-2.1844
G1 X9.1157 Y72.1813 Z-2.1875
G1 X9.1525 Y72.1682 Z-2.1906
G1 X9.1878 Y72.1514 Z-2.1938
G1 X9.2214 Y72.1313 Z-2.1969
G1 X9.2528 Y72.108 Z-2.2
G1 X9.2818 Y72.0818 Z-2.2031
G1 X9.308 Y72.0528 Z-2.2063
G1 X9.3313 Y72.0214 Z-2.2094
G1 X9.3514 Y71.9878 Z-2.2125
G1 X9.3682 Y71.9525 Z-2.2156
G1 X9.3813 Y71.9157 Z-2.2187
G1 X9.3908 Y71.8777 Z-2.2219
G1 X9.3966 Y71.839 Z-2.225
G1 X9.3985 Y71.8 Z-2.2281
G1 X9.3966 Y71.761 Z-2.2312
G1 X9.3908 Y71.7223 Z-2.2344
G1 X9.3813 Y71.6843 Z-2.2375
G1 X9.3682 Y71.6475 Z-2.2406
G1 X9.3514 Y71.6122 Z-2.2437
G1 X9.3313 Y71.5786 Z-2.2469
G1 X9.308 Y71.5472 Z-2.25
G1 X9.2818 Y71.5182 Z-2.2531
G1 X9.2528 Y71.492 Z-2.2563
G1 X9.2214 Y71.4687 Z-2.2594
G1 X9.1879 Y71.4486 Z-2.2625
G1 X9.1525 Y71.4318 Z-2.2656
G1 X9.1157 Y71.4187 Z-2.2688
G1 X9.0777 Y71.4092 Z-2.2719
G1 X9.0391 Y71.4034 Z-2.275
G1 X9.0 Y71.4015 Z-2.2781
G1 X8.9609 Y71.4034 Z-2.2813
G1 X8.9223 Y71.4092 Z-2.2844
G1 X8.8843 Y71.4187 Z-2.2875
G1 X8.8475 Y71.4318 Z-2.2906
G1 X8.8122 Y71.4486 Z-2.2938
G1 X8.7786 Y71.4687 Z-2.2969
G1 X8.7472 Y71.492 Z-2.3
G1 X8.7182 Y71.5182 Z-2.3031
G1 X8.692 Y71.5472 Z-2.3063
G1 X8.6687 Y71.5786 Z-2.3094
G1 X8.6486 Y71.6121 Z-2.3125
G1 X8.6318 Y71.6475 Z-2.3156
G1 X8.6187 Y71.6843 Z-2.3188
G1 X8.6092 Y71.7223 Z-2.3219
G1 X8.6034 Y71.761 Z-2.325
G1 X8.6015 Y71.8 Z-2.3281
G1 X8.6034 Y71.839 Z-2.3312
G1 X8.6092 Y71.8777 Z-2.3344
G1 X8.6187 Y71.9157 Z-2.3375
G1 X8.6318 Y71.9525 Z-2.3406
G1 X8.6486 Y71.9879 Z-2.3438
G1 X8.6687 Y72.0214 Z-2.3469
G1 X8.692 Y72.0528 Z-2.35
G1 X8.7182 Y72.0818 Z-2.3531
G1 X8.7472 Y72.108 Z-2.3562
G1 X8.7786 Y72.1313 Z-2.3594
G1 X8.8122 Y72.1514 Z-2.3625
G1 X8.8475 Y72.1682 Z-2.3656
G1 X8.8843 Y72.1813 Z-2.3688
G1 X8.9223 Y72.1908 Z-2.3719
G1 X8.9609 Y72.1966 Z-2.375
G1 X9.0 Y72.1985 Z-2.3781
G1 X9.0391 Y72.1966 Z-2.3813
G1 X9.0777 Y72.1908 Z-2.3844
G1 X9.1157 Y72.1813 Z-2.3875
G1 X9.1525 Y72.1682 Z-2.3906
G1 X9.1878 Y72.1514 Z-2.3938
G1 X9.2214 Y72.1313 Z-2.3969
G1 X9.2528 Y72.108 Z-2.4
G1 X9.2818 Y72.0818 Z-2.4031
G1 X9.308 Y72.0528 Z-2.4063
G1 X9.3313 Y72.0214 Z-2.4094
G1 X9.3514 Y71.9878 Z-2.4125
G1 X9.3682 Y71.9525 Z-2.4156
G1 X9.3813 Y71.9157 Z-2.4187
G1 X9.3908 Y71.8777 Z-2.4219
G1 X9.3966 Y71.839 Z-2.425
G1 X9.3985 Y71.8 Z-2.4281
G1 X9.3966 Y71.761 Z-2.4312
G1 X9.3908 Y71.7223 Z-2.4344
G1 X9.3813 Y71.6843 Z-2.4375
G1 X9.3682 Y71.6475 Z-2.4406
G1 X9.3514 Y71.6122 Z-2.4437
G1 X9.3313 Y71.5786 Z-2.4469
G1 X9.308 Y71.5472 Z-2.45
G1 X9.2818 Y71.5182 Z-2.4531
G1 X9.2528 Y71.492 Z-2.4563
G1 X9.2214 Y71.4687 Z-2.4594
G1 X9.1879 Y71.4486 Z-2.4625
G1 X9.1525 Y71.4318 Z-2.4656
G1 X9.1157 Y71.4187 Z-2.4688
G1 X9.0777 Y71.4092 Z-2.4719
G1 X9.0391 Y71.4034 Z-2.475
G1 X9.0 Y71.4015 Z-2.4781
G1 X8.9609 Y71.4034 Z-2.4813
G1 X8.9223 Y71.4092 Z-2.4844
G1 X8.8843 Y71.4187 Z-2.4875
G1 X8.8475 Y71.4318 Z-2.4906
G1 X8.8122 Y71.4486 Z-2.4938
G1 X8.7786 Y71.4687 Z-2.4969
G1 X8.7472 Y71.492 Z-2.5
G1 X8.7182 Y71.5182 Z-2.5031
G1 X8.692 Y71.5472 Z-2.5063
G1 X8.6687 Y71.5786 Z-2.5094
G1 X8.6486 Y71.6121 Z-2.5125
G1 X8.6318 Y71.6475 Z-2.5156
G1 X8.6187 Y71.6843 Z-2.5188
G1 X8.6092 Y71.7223 Z-2.5219
G1 X8.6034 Y71.761 Z-2.525
G1 X8.6015 Y71.8 Z-2.5281
G1 X8.6034 Y71.839 Z-2.5312
G1 X8.6092 Y71.8777 Z-2.5344
G1 X8.6187 Y71.9157 Z-2.5375
G1 X8.6318 Y71.9525 Z-2.5406
G1 X8.6486 Y71.9879 Z-2.5438
G1 X8.6687 Y72.0214 Z-2.5469
G1 X8.692 Y72.0528 Z-2.55
G1 X8.7182 Y72.0818 Z-2.5531
G1 X8.7472 Y72.108 Z-2.5562
G1 X8.7786 Y72.1313 Z-2.5594
G1 X8.8122 Y72.1514 Z-2.5625
G1 X8.8475 Y72.1682 Z-2.5656
G1 X8.8843 Y72.1813 Z-2.5688
G1 X8.9223 Y72.1908 Z-2.5719
G1 X8.9609 Y72.1966 Z-2.575
G1 X9.0 Y72.1985 Z-2.5781
G1 X9.0391 Y72.1966 Z-2.5813
G1 X9.0777 Y72.1908 Z-2.5844
G1 X9.1157 Y72.1813 Z-2.5875
G1 X9.1525 Y72.1682 Z-2.5906
G1 X9.1878 Y72.1514 Z-2.5938
G1 X9.2214 Y72.1313 Z-2.5969
G1 X9.2528 Y72.108 Z-2.6
G1 X9.2818 Y72.0818 Z-2.6031
G1 X9.308 Y72.0528 Z-2.6063
G1 X9.3313 Y72.0214 Z-2.6094
G1 X9.3514 Y71.9878 Z-2.6125
G1 X9.3682 Y71.9525 Z-2.6156
G1 X9.3813 Y71.9157 Z-2.6187
G1 X9.3908 Y71.8777 Z-2.6219
G1 X9.3966 Y71.839 Z-2.625
G1 X9.3985 Y71.8 Z-2.6281
G1 X9.3966 Y71.761 Z-2.6312
G1 X9.3908 Y71.7223 Z-2.6344
G1 X9.3813 Y71.6843 Z-2.6375
G1 X9.3682 Y71.6475 Z-2.6406
G1 X9.3514 Y71.6122 Z-2.6437
G1 X9.3313 Y71.5786 Z-2.6469
G1 X9.308 Y71.5472 Z-2.65
G1 X9.2818 Y71.5182 Z-2.6531
G1 X9.2528 Y71.492 Z-2.6563
G1 X9.2214 Y71.4687 Z-2.6594
G1 X9.1879 Y71.4486 Z-2.6625
G1 X9.1525 Y71.4318 Z-2.6656
G1 X9.1157 Y71.4187 Z-2.6688
G1 X9.0777 Y71.4092 Z-2.6719
G1 X9.0391 Y71.4034 Z-2.675
G1 X9.0 Y71.4015 Z-2.6781
G1 X8.9609 Y71.4034 Z-2.6813
G1 X8.9223 Y71.4092 Z-2.6844
G1 X8.8843 Y71.4187 Z-2.6875
G1 X8.8475 Y71.4318 Z-2.6906
G1 X8.8122 Y71.4486 Z-2.6938
G1 X8.7786 Y71.4687 Z-2.6969
G1 X8.7472 Y71.492 Z-2.7
G1 X8.7182 Y71.5182 Z-2.7031
G1 X8.692 Y71.5472 Z-2.7063
G1 X8.6687 Y71.5786 Z-2.7094
G1 X8.6486 Y71.6121 Z-2.7125
G1 X8.6318 Y71.6475 Z-2.7156
G1 X8.6187 Y71.6843 Z-2.7188
G1 X8.6092 Y71.7223 Z-2.7219
G1 X8.6034 Y71.761 Z-2.725
G1 X8.6015 Y71.8 Z-2.7281
G1 X8.6034 Y71.839 Z-2.7312
G1 X8.6092 Y71.8777 Z-2.7344
G1 X8.6187 Y71.9157 Z-2.7375
G1 X8.6318 Y71.9525 Z-2.7406
G1 X8.6486 Y71.9879 Z-2.7438
G1 X8.6687 Y72.0214 Z-2.7469
G1 X8.692 Y72.0528 Z-2.75
G1 X8.7182 Y72.0818 Z-2.7531
G1 X8.7472 Y72.108 Z-2.7562
G1 X8.7786 Y72.1313 Z-2.7594
G1 X8.8122 Y72.1514 Z-2.7625
G1 X8.8475 Y72.1682 Z-2.7656
G1 X8.8843 Y72.1813 Z-2.7688
G1 X8.9223 Y72.1908 Z-2.7719
G1 X8.9609 Y72.1966 Z-2.775
G1 X9.0 Y72.1985 Z-2.7781
G1 X9.0391 Y72.1966 Z-2.7813
G1 X9.0777 Y72.1908 Z-2.7844
G1 X9.1157 Y72.1813 Z-2.7875
G1 X9.1525 Y72.1682 Z-2.7906
G1 X9.1878 Y72.1514 Z-2.7938
G1 X9.2214 Y72.1313 Z-2.7969
G1 X9.2528 Y72.108 Z-2.8
G1 X9.2818 Y72.0818 Z-2.8031
G1 X9.308 Y72.0528 Z-2.8063
G1 X9.3313 Y72.0214 Z-2.8094
G1 X9.3514 Y71.9878 Z-2.8125
G1 X9.3682 Y71.9525 Z-2.8156
G1 X9.3813 Y71.9157 Z-2.8187
G1 X9.3908 Y71.8777 Z-2.8219
G1 X9.3966 Y71.839 Z-2.825
G1 X9.3985 Y71.8 Z-2.8281
G1 X9.3966 Y71.761 Z-2.8312
G1 X9.3908 Y71.7223 Z-2.8344
G1 X9.3813 Y71.6843 Z-2.8375
G1 X9.3682 Y71.6475 Z-2.8406
G1 X9.3514 Y71.6122 Z-2.8437
G1 X9.3313 Y71.5786 Z-2.8469
G1 X9.308 Y71.5472 Z-2.85
G1 X9.2818 Y71.5182 Z-2.8531
G1 X9.2528 Y71.492 Z-2.8563
G1 X9.2214 Y71.4687 Z-2.8594
G1 X9.1879 Y71.4486 Z-2.8625
G1 X9.1525 Y71.4318 Z-2.8656
G1 X9.1157 Y71.4187 Z-2.8688
G1 X9.0777 Y71.4092 Z-2.8719
G1 X9.0391 Y71.4034 Z-2.875
G1 X9.0 Y71.4015 Z-2.8781
G1 X8.9609 Y71.4034 Z-2.8813
G1 X8.9223 Y71.4092 Z-2.8844
G1 X8.8843 Y71.4187 Z-2.8875
G1 X8.8475 Y71.4318 Z-2.8906
G1 X8.8122 Y71.4486 Z-2.8938
G1 X8.7786 Y71.4687 Z-2.8969
G1 X8.7472 Y71.492 Z-2.9
G1 X8.7182 Y71.5182 Z-2.9031
G1 X8.692 Y71.5472 Z-2.9063
G1 X8.6687 Y71.5786 Z-2.9094
G1 X8.6486 Y71.6121 Z-2.9125
G1 X8.6318 Y71.6475 Z-2.9156
G1 X8.6187 Y71.6843 Z-2.9188
G1 X8.6092 Y71.7223 Z-2.9219
G1 X8.6034 Y71.761 Z-2.925
G1 X8.6015 Y71.8 Z-2.9281
G1 X8.6034 Y71.839 Z-2.9312
G1 X8.6092 Y71.8777 Z-2.9344
G1 X8.6187 Y71.9157 Z-2.9375
G1 X8.6318 Y71.9525 Z-2.9406
G1 X8.6486 Y71.9879 Z-2.9438
G1 X8.6687 Y72.0214 Z-2.9469
G1 X8.692 Y72.0528 Z-2.95
G1 X8.7182 Y72.0818 Z-2.9531
G1 X8.7472 Y72.108 Z-2.9562
G1 X8.7786 Y72.1313 Z-2.9594
G1 X8.8122 Y72.1514 Z-2.9625
G1 X8.8475 Y72.1682 Z-2.9656
G1 X8.8843 Y72.1813 Z-2.9688
G1 X8.9223 Y72.1908 Z-2.9719
G1 X8.9609 Y72.1966 Z-2.975
G1 X9.0 Y72.1985 Z-2.9781
G1 X9.0391 Y72.1966 Z-2.9813
G1 X9.0777 Y72.1908 Z-2.9844
G1 X9.1157 Y72.1813 Z-2.9875
G1 X9.1525 Y72.1682 Z-2.9906
G1 X9.1878 Y72.1514 Z-2.9938
G1 X9.2214 Y72.1313 Z-2.9969
G1 X9.2528 Y72.108 Z-3.0
G1 X9.2818 Y72.0818 Z-3.0031
G1 X9.308 Y72.0528 Z-3.0063
G1 X9.3313 Y72.0214 Z-3.0094
G1 X9.3514 Y71.9878 Z-3.0125
G1 X9.3682 Y71.9525 Z-3.0156
G1 X9.3813 Y71.9157 Z-3.0187
G1 X9.3908 Y71.8777 Z-3.0219
G1 X9.3966 Y71.839 Z-3.025
G1 X9.3985 Y71.8 Z-3.0281
G1 X9.3966 Y71.761 Z-3.0312
G1 X9.3908 Y71.7223 Z-3.0344
G1 X9.3813 Y71.6843 Z-3.0375
G1 X9.3682 Y71.6475 Z-3.0406
G1 X9.3514 Y71.6122 Z-3.0437
G1 X9.3313 Y71.5786 Z-3.0469
G1 X9.308 Y71.5472 Z-3.05
G1 X9.2818 Y71.5182 Z-3.0531
G1 X9.2528 Y71.492 Z-3.0563
G1 X9.2214 Y71.4687 Z-3.0594
G1 X9.1879 Y71.4486 Z-3.0625
G1 X9.1525 Y71.4318 Z-3.0656
G1 X9.1157 Y71.4187 Z-3.0688
G1 X9.0777 Y71.4092 Z-3.0719
G1 X9.0391 Y71.4034 Z-3.075
G1 X9.0 Y71.4015 Z-3.0781
G1 X8.9609 Y71.4034 Z-3.0813
G1 X8.9223 Y71.4092 Z-3.0844
G1 X8.8843 Y71.4187 Z-3.0875
G1 X8.8475 Y71.4318 Z-3.0906
G1 X8.8122 Y71.4486 Z-3.0938
G1 X8.7786 Y71.4687 Z-3.0969
G1 X8.7472 Y71.492 Z-3.1
G1 X8.7182 Y71.5182 Z-3.1031
G1 X8.692 Y71.5472 Z-3.1063
G1 X8.6687 Y71.5786 Z-3.1094
G1 X8.6486 Y71.6121 Z-3.1125
G1 X8.6318 Y71.6475 Z-3.1156
G1 X8.6187 Y71.6843 Z-3.1188
G1 X8.6092 Y71.7223 Z-3.1219
G1 X8.6034 Y71.761 Z-3.125
G1 X8.6015 Y71.8 Z-3.1281
G1 X8.6034 Y71.839 Z-3.1312
G1 X8.6092 Y71.8777 Z-3.1344
G1 X8.6187 Y71.9157 Z-3.1375
G1 X8.6318 Y71.9525 Z-3.1406
G1 X8.6486 Y71.9879 Z-3.1438
G1 X8.6687 Y72.0214 Z-3.1469
G1 X8.692 Y72.0528 Z-3.15
G1 X8.7182 Y72.0818 Z-3.1531
G1 X8.7472 Y72.108 Z-3.1562
G1 X8.7786 Y72.1313 Z-3.1594
G1 X8.8122 Y72.1514 Z-3.1625
G1 X8.8475 Y72.1682 Z-3.1656
G1 X8.8843 Y72.1813 Z-3.1688
G1 X8.9223 Y72.1908 Z-3.1719
G1 X8.9609 Y72.1966 Z-3.175
G1 X9.0 Y72.1985 Z-3.1781
G1 X9.0391 Y72.1966 Z-3.1813
G1 X9.0777 Y72.1908 Z-3.1844
G1 X9.1157 Y72.1813 Z-3.1875
G1 X9.1525 Y72.1682 Z-3.1906
G1 X9.1878 Y72.1514 Z-3.1938
G1 X9.2214 Y72.1313 Z-3.1969
G1 X9.2528 Y72.108 Z-3.2
G1 X9.2818 Y72.0818 Z-3.2031
G1 X9.308 Y72.0528 Z-3.2063
G1 X9.3313 Y72.0214 Z-3.2094
G1 X9.3514 Y71.9878 Z-3.2125
G1 X9.3682 Y71.9525 Z-3.2156
G1 X9.3813 Y71.9157 Z-3.2187
G1 X9.3908 Y71.8777 Z-3.2219
G1 X9.3966 Y71.839 Z-3.225
G1 X9.3985 Y71.8 Z-3.2281
G1 X9.3966 Y71.761 Z-3.2312
G1 X9.3908 Y71.7223 Z-3.2344
G1 X9.3813 Y71.6843 Z-3.2375
G1 X9.3682 Y71.6475 Z-3.2406
G1 X9.3514 Y71.6122 Z-3.2437
G1 X9.3313 Y71.5786 Z-3.2469
G1 X9.308 Y71.5472 Z-3.25
G1 X9.2818 Y71.5182 Z-3.2531
G1 X9.2528 Y71.492 Z-3.2563
G1 X9.2214 Y71.4687 Z-3.2594
G1 X9.1879 Y71.4486 Z-3.2625
G1 X9.1525 Y71.4318 Z-3.2656
G1 X9.1157 Y71.4187 Z-3.2688
G1 X9.0777 Y71.4092 Z-3.2719
G1 X9.0391 Y71.4034 Z-3.275
G1 X9.0 Y71.4015 Z-3.2781
G1 X8.9609 Y71.4034 Z-3.2813
G1 X8.9223 Y71.4092 Z-3.2844
G1 X8.8843 Y71.4187 Z-3.2875
G1 X8.8475 Y71.4318 Z-3.2906
G1 X8.8122 Y71.4486 Z-3.2938
G1 X8.7786 Y71.4687 Z-3.2969
G1 X8.7472 Y71.492 Z-3.3
G1 X8.7182 Y71.5182 Z-3.3031
G1 X8.692 Y71.5472 Z-3.3063
G1 X8.6687 Y71.5786 Z-3.3094
G1 X8.6486 Y71.6121 Z-3.3125
G1 X8.6318 Y71.6475 Z-3.3156
G1 X8.6187 Y71.6843 Z-3.3188
G1 X8.6092 Y71.7223 Z-3.3219
G1 X8.6034 Y71.761 Z-3.325
G1 X8.6015 Y71.8 Z-3.3281
G1 X8.6034 Y71.839 Z-3.3312
G1 X8.6092 Y71.8777 Z-3.3344
G1 X8.6187 Y71.9157 Z-3.3375
G1 X8.6318 Y71.9525 Z-3.3406
G1 X8.6486 Y71.9879 Z-3.3438
G1 X8.6687 Y72.0214 Z-3.3469
G1 X8.692 Y72.0528 Z-3.35
G1 X8.7182 Y72.0818 Z-3.3531
G1 X8.7472 Y72.108 Z-3.3562
G1 X8.7786 Y72.1313 Z-3.3594
G1 X8.8122 Y72.1514 Z-3.3625
G1 X8.8475 Y72.1682 Z-3.3656
G1 X8.8843 Y72.1813 Z-3.3688
G1 X8.9223 Y72.1908 Z-3.3719
G1 X8.9609 Y72.1966 Z-3.375
G1 X9.0 Y72.1985 Z-3.3781
G1 X9.0391 Y72.1966 Z-3.3813
G1 X9.0777 Y72.1908 Z-3.3844
G1 X9.1157 Y72.1813 Z-3.3875
G1 X9.1525 Y72.1682 Z-3.3906
G1 X9.1878 Y72.1514 Z-3.3938
G1 X9.2214 Y72.1313 Z-3.3969
G1 X9.2528 Y72.108 Z-3.4
G1 X9.2818 Y72.0818 Z-3.4031
G1 X9.308 Y72.0528 Z-3.4063
G1 X9.3313 Y72.0214 Z-3.4094
G1 X9.3514 Y71.9878 Z-3.4125
G1 X9.3682 Y71.9525 Z-3.4156
G1 X9.3813 Y71.9157 Z-3.4187
G1 X9.3908 Y71.8777 Z-3.4219
G1 X9.3966 Y71.839 Z-3.425
G1 X9.3985 Y71.8 Z-3.4281
G1 X9.3966 Y71.761 Z-3.4312
G1 X9.3908 Y71.7223 Z-3.4344
G1 X9.3813 Y71.6843 Z-3.4375
G1 X9.3682 Y71.6475 Z-3.4406
G1 X9.3514 Y71.6122 Z-3.4437
G1 X9.3313 Y71.5786 Z-3.4469
G1 X9.308 Y71.5472 Z-3.45
G1 X9.2818 Y71.5182 Z-3.4531
G1 X9.2528 Y71.492 Z-3.4563
G1 X9.2214 Y71.4687 Z-3.4594
G1 X9.1879 Y71.4486 Z-3.4625
G1 X9.1525 Y71.4318 Z-3.4656
G1 X9.1157 Y71.4187 Z-3.4688
G1 X9.0777 Y71.4092 Z-3.4719
G1 X9.0391 Y71.4034 Z-3.475
G1 X9.0 Y71.4015 Z-3.4781
G1 X8.9609 Y71.4034 Z-3.4813
G1 X8.9223 Y71.4092 Z-3.4844
G1 X8.8843 Y71.4187 Z-3.4875
G1 X8.8475 Y71.4318 Z-3.4906
G1 X8.8122 Y71.4486 Z-3.4938
G1 X8.7786 Y71.4687 Z-3.4969
G1 X8.7472 Y71.492 Z-3.5
G1 X8.7182 Y71.5182 Z-3.5031
G1 X8.692 Y71.5472 Z-3.5063
G1 X8.6687 Y71.5786 Z-3.5094
G1 X8.6486 Y71.6121 Z-3.5125
G1 X8.6318 Y71.6475 Z-3.5156
G1 X8.6187 Y71.6843 Z-3.5188
G1 X8.6092 Y71.7223 Z-3.5219
G1 X8.6034 Y71.761 Z-3.525
G1 X8.6015 Y71.8 Z-3.5281
G1 X8.6034 Y71.839 Z-3.5312
G1 X8.6092 Y71.8777 Z-3.5344
G1 X8.6187 Y71.9157 Z-3.5375
G1 X8.6318 Y71.9525 Z-3.5406
G1 X8.6486 Y71.9879 Z-3.5438
G1 X8.6687 Y72.0214 Z-3.5469
G1 X8.692 Y72.0528 Z-3.55
G1 X8.7182 Y72.0818 Z-3.5531
G1 X8.7472 Y72.108 Z-3.5562
G1 X8.7786 Y72.1313 Z-3.5594
G1 X8.8122 Y72.1514 Z-3.5625
G1 X8.8475 Y72.1682 Z-3.5656
G1 X8.8843 Y72.1813 Z-3.5688
G1 X8.9223 Y72.1908 Z-3.5719
G1 X8.9609 Y72.1966 Z-3.575
G1 X9.0 Y72.1985 Z-3.5781
G1 X9.0391 Y72.1966 Z-3.5813
G1 X9.0777 Y72.1908 Z-3.5844
G1 X9.1157 Y72.1813 Z-3.5875
G1 X9.1525 Y72.1682 Z-3.5906
G1 X9.1878 Y72.1514 Z-3.5938
G1 X9.2214 Y72.1313 Z-3.5969
G1 X9.2528 Y72.108 Z-3.6
G1 X9.2818 Y72.0818 Z-3.6031
G1 X9.308 Y72.0528 Z-3.6063
G1 X9.3313 Y72.0214 Z-3.6094
G1 X9.3514 Y71.9878 Z-3.6125
G1 X9.3682 Y71.9525 Z-3.6156
G1 X9.3813 Y71.9157 Z-3.6187
G1 X9.3908 Y71.8777 Z-3.6219
G1 X9.3966 Y71.839 Z-3.625
G1 X9.3985 Y71.8 Z-3.6281
G1 X9.3966 Y71.761 Z-3.6312
G1 X9.3908 Y71.7223 Z-3.6344
G1 X9.3813 Y71.6843 Z-3.6375
G1 X9.3682 Y71.6475 Z-3.6406
G1 X9.3514 Y71.6122 Z-3.6437
G1 X9.3313 Y71.5786 Z-3.6469
G1 X9.308 Y71.5472 Z-3.65
G1 X9.2818 Y71.5182 Z-3.6531
G1 X9.2528 Y71.492 Z-3.6563
G1 X9.2214 Y71.4687 Z-3.6594
G1 X9.1879 Y71.4486 Z-3.6625
G1 X9.1525 Y71.4318 Z-3.6656
G1 X9.1157 Y71.4187 Z-3.6688
G1 X9.0777 Y71.4092 Z-3.6719
G1 X9.0391 Y71.4034 Z-3.675
G1 X9.0 Y71.4015 Z-3.6781
G1 X8.9609 Y71.4034 Z-3.6813
G1 X8.9223 Y71.4092 Z-3.6844
G1 X8.8843 Y71.4187 Z-3.6875
G1 X8.8475 Y71.4318 Z-3.6906
G1 X8.8122 Y71.4486 Z-3.6938
G1 X8.7786 Y71.4687 Z-3.6969
G1 X8.7472 Y71.492 Z-3.7
G1 X8.7182 Y71.5182 Z-3.7031
G1 X8.692 Y71.5472 Z-3.7063
G1 X8.6687 Y71.5786 Z-3.7094
G1 X8.6486 Y71.6121 Z-3.7125
G1 X8.6318 Y71.6475 Z-3.7156
G1 X8.6187 Y71.6843 Z-3.7188
G1 X8.6092 Y71.7223 Z-3.7219
G1 X8.6034 Y71.761 Z-3.725
G1 X8.6015 Y71.8 Z-3.7281
G1 X8.6034 Y71.839 Z-3.7312
G1 X8.6092 Y71.8777 Z-3.7344
G1 X8.6187 Y71.9157 Z-3.7375
G1 X8.6318 Y71.9525 Z-3.7406
G1 X8.6486 Y71.9879 Z-3.7438
G1 X8.6687 Y72.0214 Z-3.7469
G1 X8.692 Y72.0528 Z-3.75
G1 X8.7182 Y72.0818 Z-3.7531
G1 X8.7472 Y72.108 Z-3.7562
G1 X8.7786 Y72.1313 Z-3.7594
G1 X8.8122 Y72.1514 Z-3.7625
G1 X8.8475 Y72.1682 Z-3.7656
G1 X8.8843 Y72.1813 Z-3.7688
G1 X8.9223 Y72.1908 Z-3.7719
G1 X8.9609 Y72.1966 Z-3.775
G1 X9.0 Y72.1985 Z-3.7781
G1 X9.0391 Y72.1966 Z-3.7813
G1 X9.0777 Y72.1908 Z-3.7844
G1 X9.1157 Y72.1813 Z-3.7875
G1 X9.1525 Y72.1682 Z-3.7906
G1 X9.1878 Y72.1514 Z-3.7938
G1 X9.2214 Y72.1313 Z-3.7969
G1 X9.2528 Y72.108 Z-3.8
G1 X9.2818 Y72.0818 Z-3.8031
G1 X9.308 Y72.0528 Z-3.8063
G1 X9.3313 Y72.0214 Z-3.8094
G1 X9.3514 Y71.9878 Z-3.8125
G1 X9.3682 Y71.9525 Z-3.8156
G1 X9.3813 Y71.9157 Z-3.8187
G1 X9.3908 Y71.8777 Z-3.8219
G1 X9.3966 Y71.839 Z-3.825
G1 X9.3985 Y71.8 Z-3.8281
G1 X9.3966 Y71.761 Z-3.8312
G1 X9.3908 Y71.7223 Z-3.8344
G1 X9.3813 Y71.6843 Z-3.8375
G1 X9.3682 Y71.6475 Z-3.8406
G1 X9.3514 Y71.6122 Z-3.8437
G1 X9.3313 Y71.5786 Z-3.8469
G1 X9.308 Y71.5472 Z-3.85
G1 X9.2818 Y71.5182 Z-3.8531
G1 X9.2528 Y71.492 Z-3.8563
G1 X9.2214 Y71.4687 Z-3.8594
G1 X9.1879 Y71.4486 Z-3.8625
G1 X9.1525 Y71.4318 Z-3.8656
G1 X9.1157 Y71.4187 Z-3.8688
G1 X9.0777 Y71.4092 Z-3.8719
G1 X9.0391 Y71.4034 Z-3.875
G1 X9.0 Y71.4015 Z-3.8781
G1 X8.9609 Y71.4034 Z-3.8813
G1 X8.9223 Y71.4092 Z-3.8844
G1 X8.8843 Y71.4187 Z-3.8875
G1 X8.8475 Y71.4318 Z-3.8906
G1 X8.8122 Y71.4486 Z-3.8938
G1 X8.7786 Y71.4687 Z-3.8969
G1 X8.7472 Y71.492 Z-3.9
G1 X8.7182 Y71.5182 Z-3.9031
G1 X8.692 Y71.5472 Z-3.9063
G1 X8.6687 Y71.5786 Z-3.9094
G1 X8.6486 Y71.6121 Z-3.9125
G1 X8.6318 Y71.6475 Z-3.9156
G1 X8.6187 Y71.6843 Z-3.9188
G1 X8.6092 Y71.7223 Z-3.9219
G1 X8.6034 Y71.761 Z-3.925
G1 X8.6015 Y71.8 Z-3.9281
G1 X8.6034 Y71.839 Z-3.9312
G1 X8.6092 Y71.8777 Z-3.9344
G1 X8.6187 Y71.9157 Z-3.9375
G1 X8.6318 Y71.9525 Z-3.9406
G1 X8.6486 Y71.9879 Z-3.9438
G1 X8.6687 Y72.0214 Z-3.9469
G1 X8.692 Y72.0528 Z-3.95
G1 X8.7182 Y72.0818 Z-3.9531
G1 X8.7472 Y72.108 Z-3.9562
G1 X8.7786 Y72.1313 Z-3.9594
G1 X8.8122 Y72.1514 Z-3.9625
G1 X8.8475 Y72.1682 Z-3.9656
G1 X8.8843 Y72.1813 Z-3.9688
G1 X8.9223 Y72.1908 Z-3.9719
G1 X8.9609 Y72.1966 Z-3.975
G1 X9.0 Y72.1985 Z-3.9781
G1 X9.0391 Y72.1966 Z-3.9813
G1 X9.0777 Y72.1908 Z-3.9844
G1 X9.1157 Y72.1813 Z-3.9875
G1 X9.1525 Y72.1682 Z-3.9906
G1 X9.1878 Y72.1514 Z-3.9938
G1 X9.2214 Y72.1313 Z-3.9969
G1 X9.2528 Y72.108 Z-4.0
G1 X9.2818 Y72.0818 Z-4.0031
G1 X9.308 Y72.0528 Z-4.0063
G1 X9.3313 Y72.0214 Z-4.0094
G1 X9.3514 Y71.9878 Z-4.0125
G1 X9.3682 Y71.9525 Z-4.0156
G1 X9.3813 Y71.9157 Z-4.0187
G1 X9.3908 Y71.8777 Z-4.0219
G1 X9.3966 Y71.839 Z-4.025
G1 X9.3985 Y71.8 Z-4.0281
G1 X9.3966 Y71.761 Z-4.0312
G1 X9.3908 Y71.7223 Z-4.0344
G1 X9.3813 Y71.6843 Z-4.0375
G1 X9.3682 Y71.6475 Z-4.0406
G1 X9.3514 Y71.6122 Z-4.0437
G1 X9.3313 Y71.5786 Z-4.0469
G1 X9.308 Y71.5472 Z-4.05
G1 X9.2818 Y71.5182 Z-4.0531
G1 X9.2528 Y71.492 Z-4.0563
G1 X9.2214 Y71.4687 Z-4.0594
G1 X9.1879 Y71.4486 Z-4.0625
G1 X9.1525 Y71.4318 Z-4.0656
G1 X9.1157 Y71.4187 Z-4.0688
G1 X9.0777 Y71.4092 Z-4.0719
G1 X9.0391 Y71.4034 Z-4.075
G1 X9.0 Y71.4015 Z-4.0781
G1 X8.9609 Y71.4034 Z-4.0813
G1 X8.9223 Y71.4092 Z-4.0844
G1 X8.8843 Y71.4187 Z-4.0875
G1 X8.8475 Y71.4318 Z-4.0906
G1 X8.8122 Y71.4486 Z-4.0938
G1 X8.7786 Y71.4687 Z-4.0969
G1 X8.7472 Y71.492 Z-4.1
G1 X8.7182 Y71.5182 Z-4.1031
G1 X8.692 Y71.5472 Z-4.1063
G1 X8.6687 Y71.5786 Z-4.1094
G1 X8.6486 Y71.6121 Z-4.1125
G1 X8.6318 Y71.6475 Z-4.1156
G1 X8.6187 Y71.6843 Z-4.1188
G1 X8.6092 Y71.7223 Z-4.1219
G1 X8.6034 Y71.761 Z-4.125
G1 X8.6015 Y71.8 Z-4.1281
G1 X8.6034 Y71.839 Z-4.1312
G1 X8.6092 Y71.8777 Z-4.1344
G1 X8.6187 Y71.9157 Z-4.1375
G1 X8.6318 Y71.9525 Z-4.1406
G1 X8.6486 Y71.9879 Z-4.1438
G1 X8.6687 Y72.0214 Z-4.1469
G1 X8.692 Y72.0528 Z-4.15
G1 X8.7182 Y72.0818 Z-4.1531
G1 X8.7472 Y72.108 Z-4.1562
G1 X8.7786 Y72.1313 Z-4.1594
G1 X8.8122 Y72.1514 Z-4.1625
G1 X8.8475 Y72.1682 Z-4.1656
G1 X8.8843 Y72.1813 Z-4.1688
G1 X8.9223 Y72.1908 Z-4.1719
G1 X8.9609 Y72.1966 Z-4.175
G1 X9.0 Y72.1985 Z-4.1781
G1 X9.0391 Y72.1966 Z-4.1813
G1 X9.0777 Y72.1908 Z-4.1844
G1 X9.1157 Y72.1813 Z-4.1875
G1 X9.1525 Y72.1682 Z-4.1906
G1 X9.1878 Y72.1514 Z-4.1938
G1 X9.2214 Y72.1313 Z-4.1969
G1 X9.2528 Y72.108 Z-4.2
G1 X9.2818 Y72.0818
G1 X9.308 Y72.0528
G1 X9.3313 Y72.0214
G1 X9.3514 Y71.9878
G1 X9.3682 Y71.9525
G1 X9.3813 Y71.9157
G1 X9.3908 Y71.8777
G1 X9.3966 Y71.839
G1 X9.3985 Y71.8
G1 X9.3966 Y71.761
G1 X9.3908 Y71.7223
G1 X9.3813 Y71.6843
G1 X9.3682 Y71.6475
G1 X9.3514 Y71.6122
G1 X9.3313 Y71.5786
G1 X9.308 Y71.5472
G1 X9.2818 Y71.5182
G1 X9.2528 Y71.492
G1 X9.2214 Y71.4687
G1 X9.1879 Y71.4486
G1 X9.1525 Y71.4318
G1 X9.1157 Y71.4187
G1 X9.0777 Y71.4092
G1 X9.0391 Y71.4034
G1 X9.0 Y71.4015
G1 X8.9609 Y71.4034
G1 X8.9223 Y71.4092
G1 X8.8843 Y71.4187
G1 X8.8475 Y71.4318
G1 X8.8122 Y71.4486
G1 X8.7786 Y71.4687
G1 X8.7472 Y71.492
G1 X8.7182 Y71.5182
G1 X8.692 Y71.5472
G1 X8.6687 Y71.5786
G1 X8.6486 Y71.6121
G1 X8.6318 Y71.6475
G1 X8.6187 Y71.6843
G1 X8.6092 Y71.7223
G1 X8.6034 Y71.761
G1 X8.6015 Y71.8
G1 X8.6034 Y71.839
G1 X8.6092 Y71.8777
G1 X8.6187 Y71.9157
G1 X8.6318 Y71.9525
G1 X8.6486 Y71.9879
G1 X8.6687 Y72.0214
G1 X8.692 Y72.0528
G1 X8.7182 Y72.0818
G1 X8.7472 Y72.108
G1 X8.7786 Y72.1313
G1 X8.8122 Y72.1514
G1 X8.8475 Y72.1682
G1 X8.8843 Y72.1813
G1 X8.9223 Y72.1908
G1 X8.9609 Y72.1966
G1 X9.0 Y72.1985
G1 X9.0391 Y72.1966
G1 X9.0777 Y72.1908
G1 X9.1157 Y72.1813
G1 X9.1525 Y72.1682
G1 X9.1878 Y72.1514
G1 X9.2214 Y72.1313
G1 X9.2528 Y72.108
G0 Z3.0
G0 X9.0 Y9.3985
G0 Z1.0
G1 F100.0 Z0.0
G1 F400.0 X9.0391 Y9.3966 Z-0.0031
G1 X9.0777 Y9.3908 Z-0.0063
G1 X9.1157 Y9.3813 Z-0.0094
G1 X9.1525 Y9.3682 Z-0.0125
G1 X9.1879 Y9.3514 Z-0.0156
G1 X9.2214 Y9.3313 Z-0.0187
G1 X9.2528 Y9.308 Z-0.0219
G1 X9.2818 Y9.2818 Z-0.025
G1 X9.308 Y9.2528 Z-0.0281
G1 X9.3313 Y9.2214 Z-0.0312
G1 X9.3514 Y9.1878 Z-0.0344
G1 X9.3682 Y9.1525 Z-0.0375
G1 X9.3813 Y9.1157 Z-0.0406
G1 X9.3908 Y9.0777 Z-0.0437
G1 X9.3966 Y9.039 Z-0.0469
G1 X9.3985 Y9.0 Z-0.05
G1 X9.3966 Y8.961 Z-0.0531
G1 X9.3908 Y8.9223 Z-0.0563
G1 X9.3813 Y8.8843 Z-0.0594
G1 X9.3682 Y8.8475 Z-0.0625
G1 X9.3514 Y8.8122 Z-0.0656
G1 X9.3313 Y8.7786 Z-0.0688
G1 X9.308 Y8.7472 Z-0.0719
G1 X9.2818 Y8.7182 Z-0.075
G1 X9.2528 Y8.692 Z-0.0781
G1 X9.2214 Y8.6687 Z-0.0813
G1 X9.1878 Y8.6486 Z-0.0844
G1 X9.1525 Y8.6318 Z-0.0875
G1 X9.1157 Y8.6187 Z-0.0906
G1 X9.0777 Y8.6092 Z-0.0937
G1 X9.0391 Y8.6034 Z-0.0969
G1 X9.0 Y8.6015 Z-0.1
G1 X8.9609 Y8.6034 Z-0.1031
G1 X8.9223 Y8.6092 Z-0.1063
G1 X8.8843 Y8.6187 Z-0.1094
G1 X8.8475 Y8.6318 Z-0.1125
G1 X8.8122 Y8.6486 Z-0.1156
G1 X8.7786 Y8.6687 Z-0.1187
G1 X8.7472 Y8.692 Z-0.1219
G1 X8.7182 Y8.7182 Z-0.125
G1 X8.692 Y8.7472 Z-0.1281
G1 X8.6687 Y8.7786 Z-0.1313
G1 X8.6486 Y8.8121 Z-0.1344
G1 X8.6318 Y8.8475 Z-0.1375
G1 X8.6187 Y8.8843 Z-0.1406
G1 X8.6092 Y8.9223 Z-0.1438
G1 X8.6034 Y8.961 Z-0.1469
G1 X8.6015 Y9.0 Z-0.15
G1 X8.6034 Y9.039 Z-0.1531
G1 X8.6092 Y9.0777 Z-0.1563
G1 X8.6187 Y9.1157 Z-0.1594
G1 X8.6318 Y9.1525 Z-0.1625
G1 X8.6486 Y9.1879 Z-0.1656
G1 X8.6687 Y9.2214 Z-0.1688
G1 X8.692 Y9.2528 Z-0.1719
G1 X8.7182 Y9.2818 Z-0.175
G1 X8.7472 Y9.308 Z-0.1781
G1 X8.7786 Y9.3313 Z-0.1813
G1 X8.8122 Y9.3514 Z-0.1844
G1 X8.8475 Y9.3682 Z-0.1875
G1 X8.8843 Y9.3813 Z-0.1906
G1 X8.9223 Y9.3908 Z-0.1938
G1 X8.9609 Y9.3966 Z-0.1969
G1 X9.0 Y9.3985 Z-0.2
G1 X9.0391 Y9.3966 Z-0.2031
G1 X9.0777 Y9.3908 Z-0.2063
G1 X9.1157 Y9.3813 Z-0.2094
G1 X9.1525 Y9.3682 Z-0.2125
G1 X9.1879 Y9.3514 Z-0.2156
G1 X9.2214 Y9.3313 Z-0.2187
G1 X9.2528 Y9.308 Z-0.2219
G1 X9.2818 Y9.2818 Z-0.225
G1 X9.308 Y9.2528 Z-0.2281
G1 X9.3313 Y9.2214 Z-0.2312
G1 X9.3514 Y9.1878 Z-0.2344
G1 X9.3682 Y9.1525 Z-0.2375
G1 X9.3813 Y9.1157 Z-0.2406
G1 X9.3908 Y9.0777 Z-0.2437
G1 X9.3966 Y9.039 Z-0.2469
G1 X9.3985 Y9.0 Z-0.25
G1 X9.3966 Y8.961 Z-0.2531
G1 X9.3908 Y8.9223 Z-0.2563
G1 X9.3813 Y8.8843 Z-0.2594
G1 X9.3682 Y8.8475 Z-0.2625
G1 X9.3514 Y8.8122 Z-0.2656
G1 X9.3313 Y8.7786 Z-0.2688
G1 X9.308 Y8.7472 Z-0.2719
G1 X9.2818 Y8.7182 Z-0.275
G1 X9.2528 Y8.692 Z-0.2781
G1 X9.2214 Y8.6687 Z-0.2813
G1 X9.1878 Y8.6486 Z-0.2844
G1 X9.1525 Y8.6318 Z-0.2875
G1 X9.1157 Y8.6187 Z-0.2906
G1 X9.0777 Y8.6092 Z-0.2937
G1 X9.0391 Y8.6034 Z-0.2969
G1 X9.0 Y8.6015 Z-0.3
G1 X8.9609 Y8.6034 Z-0.3031
G1 X8.9223 Y8.6092 Z-0.3063
G1 X8.8843 Y8.6187 Z-0.3094
G1 X8.8475 Y8.6318 Z-0.3125
G1 X8.8122 Y8.6486 Z-0.3156
G1 X8.7786 Y8.6687 Z-0.3187
G1 X8.7472 Y8.692 Z-0.3219
G1 X8.7182 Y8.7182 Z-0.325
G1 X8.692 Y8.7472 Z-0.3281
G1 X8.6687 Y8.7786 Z-0.3313
G1 X8.6486 Y8.8121 Z-0.3344
G1 X8.6318 Y8.8475 Z-0.3375
G1 X8.6187 Y8.8843 Z-0.3406
G1 X8.6092 Y8.9223 Z-0.3438
G1 X8.6034 Y8.961 Z-0.3469
G1 X8.6015 Y9.0 Z-0.35
G1 X8.6034 Y9.039 Z-0.3531
G1 X8.6092 Y9.0777 Z-0.3563
G1 X8.6187 Y9.1157 Z-0.3594
G1 X8.6318 Y9.1525 Z-0.3625
G1 X8.6486 Y9.1879 Z-0.3656
G1 X8.6687 Y9.2214 Z-0.3688
G1 X8.692 Y9.2528 Z-0.3719
G1 X8.7182 Y9.2818 Z-0.375
G1 X8.7472 Y9.308 Z-0.3781
G1 X8.7786 Y9.3313 Z-0.3813
G1 X8.8122 Y9.3514 Z-0.3844
G1 X8.8475 Y9.3682 Z-0.3875
G1 X8.8843 Y9.3813 Z-0.3906
G1 X8.9223 Y9.3908 Z-0.3938
G1 X8.9609 Y9.3966 Z-0.3969
G1 X9.0 Y9.3985 Z-0.4
G1 X9.0391 Y9.3966 Z-0.4031
G1 X9.0777 Y9.3908 Z-0.4063
G1 X9.1157 Y9.3813 Z-0.4094
G1 X9.1525 Y9.3682 Z-0.4125
G1 X9.1879 Y9.3514 Z-0.4156
G1 X9.2214 Y9.3313 Z-0.4187
G1 X9.2528 Y9.308 Z-0.4219
G1 X9.2818 Y9.2818 Z-0.425
G1 X9.308 Y9.2528 Z-0.4281
G1 X9.3313 Y9.2214 Z-0.4312
G1 X9.3514 Y9.1878 Z-0.4344
G1 X9.3682 Y9.1525 Z-0.4375
G1 X9.3813 Y9.1157 Z-0.4406
G1 X9.3908 Y9.0777 Z-0.4437
G1 X9.3966 Y9.039 Z-0.4469
G1 X9.3985 Y9.0 Z-0.45
G1 X9.3966 Y8.961 Z-0.4531
G1 X9.3908 Y8.9223 Z-0.4563
G1 X9.3813 Y8.8843 Z-0.4594
G1 X9.3682 Y8.8475 Z-0.4625
G1 X9.3514 Y8.8122 Z-0.4656
G1 X9.3313 Y8.7786 Z-0.4688
G1 X9.308 Y8.7472 Z-0.4719
G1 X9.2818 Y8.7182 Z-0.475
G1 X9.2528 Y8.692 Z-0.4781
G1 X9.2214 Y8.6687 Z-0.4813
G1 X9.1878 Y8.6486 Z-0.4844
G1 X9.1525 Y8.6318 Z-0.4875
G1 X9.1157 Y8.6187 Z-0.4906
G1 X9.0777 Y8.6092 Z-0.4937
G1 X9.0391 Y8.6034 Z-0.4969
G1 X9.0 Y8.6015 Z-0.5
G1 X8.9609 Y8.6034 Z-0.5031
G1 X8.9223 Y8.6092 Z-0.5063
G1 X8.8843 Y8.6187 Z-0.5094
G1 X8.8475 Y8.6318 Z-0.5125
G1 X8.8122 Y8.6486 Z-0.5156
G1 X8.7786 Y8.6687 Z-0.5187
G1 X8.7472 Y8.692 Z-0.5219
G1 X8.7182 Y8.7182 Z-0.525
G1 X8.692 Y8.7472 Z-0.5281
G1 X8.6687 Y8.7786 Z-0.5313
G1 X8.6486 Y8.8121 Z-0.5344
G1 X8.6318 Y8.8475 Z-0.5375
G1 X8.6187 Y8.8843 Z-0.5406
G1 X8.6092 Y8.9223 Z-0.5438
G1 X8.6034 Y8.961 Z-0.5469
G1 X8.6015 Y9.0 Z-0.55
G1 X8.6034 Y9.039 Z-0.5531
G1 X8.6092 Y9.0777 Z-0.5563
G1 X8.6187 Y9.1157 Z-0.5594
G1 X8.6318 Y9.1525 Z-0.5625
G1 X8.6486 Y9.1879 Z-0.5656
G1 X8.6687 Y9.2214 Z-0.5688
G1 X8.692 Y9.2528 Z-0.5719
G1 X8.7182 Y9.2818 Z-0.575
G1 X8.7472 Y9.308 Z-0.5781
G1 X8.7786 Y9.3313 Z-0.5813
G1 X8.8122 Y9.3514 Z-0.5844
G1 X8.8475 Y9.3682 Z-0.5875
G1 X8.8843 Y9.3813 Z-0.5906
G1 X8.9223 Y9.3908 Z-0.5938
G1 X8.9609 Y9.3966 Z-0.5969
G1 X9.0 Y9.3985 Z-0.6
G1 X9.0391 Y9.3966 Z-0.6031
G1 X9.0777 Y9.3908 Z-0.6063
G1 X9.1157 Y9.3813 Z-0.6094
G1 X9.1525 Y9.3682 Z-0.6125
G1 X9.1879 Y9.3514 Z-0.6156
G1 X9.2214 Y9.3313 Z-0.6187
G1 X9.2528 Y9.308 Z-0.6219
G1 X9.2818 Y9.2818 Z-0.625
G1 X9.308 Y9.2528 Z-0.6281
G1 X9.3313 Y9.2214 Z-0.6312
G1 X9.3514 Y9.1878 Z-0.6344
G1 X9.3682 Y9.1525 Z-0.6375
G1 X9.3813 Y9.1157 Z-0.6406
G1 X9.3908 Y9.0777 Z-0.6437
G1 X9.3966 Y9.039 Z-0.6469
G1 X9.3985 Y9.0 Z-0.65
G1 X9.3966 Y8.961 Z-0.6531
G1 X9.3908 Y8.9223 Z-0.6563
G1 X9.3813 Y8.8843 Z-0.6594
G1 X9.3682 Y8.8475 Z-0.6625
G1 X9.3514 Y8.8122 Z-0.6656
G1 X9.3313 Y8.7786 Z-0.6688
G1 X9.308 Y8.7472 Z-0.6719
G1 X9.2818 Y8.7182 Z-0.675
G1 X9.2528 Y8.692 Z-0.6781
G1 X9.2214 Y8.6687 Z-0.6813
G1 X9.1878 Y8.6486 Z-0.6844
G1 X9.1525 Y8.6318 Z-0.6875
G1 X9.1157 Y8.6187 Z-0.6906
G1 X9.0777 Y8.6092 Z-0.6937
G1 X9.0391 Y8.6034 Z-0.6969
G1 X9.0 Y8.6015 Z-0.7
G1 X8.9609 Y8.6034 Z-0.7031
G1 X8.9223 Y8.6092 Z-0.7063
G1 X8.8843 Y8.6187 Z-0.7094
G1 X8.8475 Y8.6318 Z-0.7125
G1 X8.8122 Y8.6486 Z-0.7156
G1 X8.7786 Y8.6687 Z-0.7187
G1 X8.7472 Y8.692 Z-0.7219
G1 X8.7182 Y8.7182 Z-0.725
G1 X8.692 Y8.7472 Z-0.7281
G1 X8.6687 Y8.7786 Z-0.7313
G1 X8.6486 Y8.8121 Z-0.7344
G1 X8.6318 Y8.8475 Z-0.7375
G1 X8.6187 Y8.8843 Z-0.7406
G1 X8.6092 Y8.9223 Z-0.7438
G1 X8.6034 Y8.961 Z-0.7469
G1 X8.6015 Y9.0 Z-0.75
G1 X8.6034 Y9.039 Z-0.7531
G1 X8.6092 Y9.0777 Z-0.7563
G1 X8.6187 Y9.1157 Z-0.7594
G1 X8.6318 Y9.1525 Z-0.7625
G1 X8.6486 Y9.1879 Z-0.7656
G1 X8.6687 Y9.2214 Z-0.7688
G1 X8.692 Y9.2528 Z-0.7719
G1 X8.7182 Y9.2818 Z-0.775
G1 X8.7472 Y9.308 Z-0.7781
G1 X8.7786 Y9.3313 Z-0.7813
G1 X8.8122 Y9.3514 Z-0.7844
G1 X8.8475 Y9.3682 Z-0.7875
G1 X8.8843 Y9.3813 Z-0.7906
G1 X8.9223 Y9.3908 Z-0.7938
G1 X8.9609 Y9.3966 Z-0.7969
G1 X9.0 Y9.3985 Z-0.8
G1 X9.0391 Y9.3966 Z-0.8031
G1 X9.0777 Y9.3908 Z-0.8063
G1 X9.1157 Y9.3813 Z-0.8094
G1 X9.1525 Y9.3682 Z-0.8125
G1 X9.1879 Y9.3514 Z-0.8156
G1 X9.2214 Y9.3313 Z-0.8187
G1 X9.2528 Y9.308 Z-0.8219
G1 X9.2818 Y9.2818 Z-0.825
G1 X9.308 Y9.2528 Z-0.8281
G1 X9.3313 Y9.2214 Z-0.8312
G1 X9.3514 Y9.1878 Z-0.8344
G1 X9.3682 Y9.1525 Z-0.8375
G1 X9.3813 Y9.1157 Z-0.8406
G1 X9.3908 Y9.0777 Z-0.8437
G1 X9.3966 Y9.039 Z-0.8469
G1 X9.3985 Y9.0 Z-0.85
G1 X9.3966 Y8.961 Z-0.8531
G1 X9.3908 Y8.9223 Z-0.8563
G1 X9.3813 Y8.8843 Z-0.8594
G1 X9.3682 Y8.8475 Z-0.8625
G1 X9.3514 Y8.8122 Z-0.8656
G1 X9.3313 Y8.7786 Z-0.8688
G1 X9.308 Y8.7472 Z-0.8719
G1 X9.2818 Y8.7182 Z-0.875
G1 X9.2528 Y8.692 Z-0.8781
G1 X9.2214 Y8.6687 Z-0.8813
G1 X9.1878 Y8.6486 Z-0.8844
G1 X9.1525 Y8.6318 Z-0.8875
G1 X9.1157 Y8.6187 Z-0.8906
G1 X9.0777 Y8.6092 Z-0.8937
G1 X9.0391 Y8.6034 Z-0.8969
G1 X9.0 Y8.6015 Z-0.9
G1 X8.9609 Y8.6034 Z-0.9031
G1 X8.9223 Y8.6092 Z-0.9063
G1 X8.8843 Y8.6187 Z-0.9094
G1 X8.8475 Y8.6318 Z-0.9125
G1 X8.8122 Y8.6486 Z-0.9156
G1 X8.7786 Y8.6687 Z-0.9187
G1 X8.7472 Y8.692 Z-0.9219
G1 X8.7182 Y8.7182 Z-0.925
G1 X8.692 Y8.7472 Z-0.9281
G1 X8.6687 Y8.7786 Z-0.9313
G1 X8.6486 Y8.8121 Z-0.9344
G1 X8.6318 Y8.8475 Z-0.9375
G1 X8.6187 Y8.8843 Z-0.9406
G1 X8.6092 Y8.9223 Z-0.9438
G1 X8.6034 Y8.961 Z-0.9469
G1 X8.6015 Y9.0 Z-0.95
G1 X8.6034 Y9.039 Z-0.9531
G1 X8.6092 Y9.0777 Z-0.9563
G1 X8.6187 Y9.1157 Z-0.9594
G1 X8.6318 Y9.1525 Z-0.9625
G1 X8.6486 Y9.1879 Z-0.9656
G1 X8.6687 Y9.2214 Z-0.9688
G1 X8.692 Y9.2528 Z-0.9719
G1 X8.7182 Y9.2818 Z-0.975
G1 X8.7472 Y9.308 Z-0.9781
G1 X8.7786 Y9.3313 Z-0.9813
G1 X8.8122 Y9.3514 Z-0.9844
G1 X8.8475 Y9.3682 Z-0.9875
G1 X8.8843 Y9.3813 Z-0.9906
G1 X8.9223 Y9.3908 Z-0.9938
G1 X8.9609 Y9.3966 Z-0.9969
G1 X9.0 Y9.3985 Z-1.0
G1 X9.0391 Y9.3966 Z-1.0031
G1 X9.0777 Y9.3908 Z-1.0063
G1 X9.1157 Y9.3813 Z-1.0094
G1 X9.1525 Y9.3682 Z-1.0125
G1 X9.1879 Y9.3514 Z-1.0156
G1 X9.2214 Y9.3313 Z-1.0187
G1 X9.2528 Y9.308 Z-1.0219
G1 X9.2818 Y9.2818 Z-1.025
G1 X9.308 Y9.2528 Z-1.0281
G1 X9.3313 Y9.2214 Z-1.0312
G1 X9.3514 Y9.1878 Z-1.0344
G1 X9.3682 Y9.1525 Z-1.0375
G1 X9.3813 Y9.1157 Z-1.0406
G1 X9.3908 Y9.0777 Z-1.0437
G1 X9.3966 Y9.039 Z-1.0469
G1 X9.3985 Y9.0 Z-1.05
G1 X9.3966 Y8.961 Z-1.0531
G1 X9.3908 Y8.9223 Z-1.0563
G1 X9.3813 Y8.8843 Z-1.0594
G1 X9.3682 Y8.8475 Z-1.0625
G1 X9.3514 Y8.8122 Z-1.0656
G1 X9.3313 Y8.7786 Z-1.0688
G1 X9.308 Y8.7472 Z-1.0719
G1 X9.2818 Y8.7182 Z-1.075
G1 X9.2528 Y8.692 Z-1.0781
G1 X9.2214 Y8.6687 Z-1.0813
G1 X9.1878 Y8.6486 Z-1.0844
G1 X9.1525 Y8.6318 Z-1.0875
G1 X9.1157 Y8.6187 Z-1.0906
G1 X9.0777 Y8.6092 Z-1.0937
G1 X9.0391 Y8.6034 Z-1.0969
G1 X9.0 Y8.6015 Z-1.1
G1 X8.9609 Y8.6034 Z-1.1031
G1 X8.9223 Y8.6092 Z-1.1063
G1 X8.8843 Y8.6187 Z-1.1094
G1 X8.8475 Y8.6318 Z-1.1125
G1 X8.8122 Y8.6486 Z-1.1156
G1 X8.7786 Y8.6687 Z-1.1187
G1 X8.7472 Y8.692 Z-1.1219
G1 X8.7182 Y8.7182 Z-1.125
G1 X8.692 Y8.7472 Z-1.1281
G1 X8.6687 Y8.7786 Z-1.1313
G1 X8.6486 Y8.8121 Z-1.1344
G1 X8.6318 Y8.8475 Z-1.1375
G1 X8.6187 Y8.8843 Z-1.1406
G1 X8.6092 Y8.9223 Z-1.1438
G1 X8.6034 Y8.961 Z-1.1469
G1 X8.6015 Y9.0 Z-1.15
G1 X8.6034 Y9.039 Z-1.1531
G1 X8.6092 Y9.0777 Z-1.1563
G1 X8.6187 Y9.1157 Z-1.1594
G1 X8.6318 Y9.1525 Z-1.1625
G1 X8.6486 Y9.1879 Z-1.1656
G1 X8.6687 Y9.2214 Z-1.1688
G1 X8.692 Y9.2528 Z-1.1719
G1 X8.7182 Y9.2818 Z-1.175
G1 X8.7472 Y9.308 Z-1.1781
G1 X8.7786 Y9.3313 Z-1.1813
G1 X8.8122 Y9.3514 Z-1.1844
G1 X8.8475 Y9.3682 Z-1.1875
G1 X8.8843 Y9.3813 Z-1.1906
G1 X8.9223 Y9.3908 Z-1.1938
G1 X8.9609 Y9.3966 Z-1.1969
G1 X9.0 Y9.3985 Z-1.2
G1 X9.0391 Y9.3966 Z-1.2031
G1 X9.0777 Y9.3908 Z-1.2063
G1 X9.1157 Y9.3813 Z-1.2094
G1 X9.1525 Y9.3682 Z-1.2125
G1 X9.1879 Y9.3514 Z-1.2156
G1 X9.2214 Y9.3313 Z-1.2187
G1 X9.2528 Y9.308 Z-1.2219
G1 X9.2818 Y9.2818 Z-1.225
G1 X9.308 Y9.2528 Z-1.2281
G1 X9.3313 Y9.2214 Z-1.2312
G1 X9.3514 Y9.1878 Z-1.2344
G1 X9.3682 Y9.1525 Z-1.2375
G1 X9.3813 Y9.1157 Z-1.2406
G1 X9.3908 Y9.0777 Z-1.2437
G1 X9.3966 Y9.039 Z-1.2469
G1 X9.3985 Y9.0 Z-1.25
G1 X9.3966 Y8.961 Z-1.2531
G1 X9.3908 Y8.9223 Z-1.2563
G1 X9.3813 Y8.8843 Z-1.2594
G1 X9.3682 Y8.8475 Z-1.2625
G1 X9.3514 Y8.8122 Z-1.2656
G1 X9.3313 Y8.7786 Z-1.2688
G1 X9.308 Y8.7472 Z-1.2719
G1 X9.2818 Y8.7182 Z-1.275
G1 X9.2528 Y8.692 Z-1.2781
G1 X9.2214 Y8.6687 Z-1.2813
G1 X9.1878 Y8.6486 Z-1.2844
G1 X9.1525 Y8.6318 Z-1.2875
G1 X9.1157 Y8.6187 Z-1.2906
G1 X9.0777 Y8.6092 Z-1.2937
G1 X9.0391 Y8.6034 Z-1.2969
G1 X9.0 Y8.6015 Z-1.3
G1 X8.9609 Y8.6034 Z-1.3031
G1 X8.9223 Y8.6092 Z-1.3063
G1 X8.8843 Y8.6187 Z-1.3094
G1 X8.8475 Y8.6318 Z-1.3125
G1 X8.8122 Y8.6486 Z-1.3156
G1 X8.7786 Y8.6687 Z-1.3187
G1 X8.7472 Y8.692 Z-1.3219
G1 X8.7182 Y8.7182 Z-1.325
G1 X8.692 Y8.7472 Z-1.3281
G1 X8.6687 Y8.7786 Z-1.3313
G1 X8.6486 Y8.8121 Z-1.3344
G1 X8.6318 Y8.8475 Z-1.3375
G1 X8.6187 Y8.8843 Z-1.3406
G1 X8.6092 Y8.9223 Z-1.3438
G1 X8.6034 Y8.961 Z-1.3469
G1 X8.6015 Y9.0 Z-1.35
G1 X8.6034 Y9.039 Z-1.3531
G1 X8.6092 Y9.0777 Z-1.3563
G1 X8.6187 Y9.1157 Z-1.3594
G1 X8.6318 Y9.1525 Z-1.3625
G1 X8.6486 Y9.1879 Z-1.3656
G1 X8.6687 Y9.2214 Z-1.3688
G1 X8.692 Y9.2528 Z-1.3719
G1 X8.7182 Y9.2818 Z-1.375
G1 X8.7472 Y9.308 Z-1.3781
G1 X8.7786 Y9.3313 Z-1.3813
G1 X8.8122 Y9.3514 Z-1.3844
G1 X8.8475 Y9.3682 Z-1.3875
G1 X8.8843 Y9.3813 Z-1.3906
G1 X8.9223 Y9.3908 Z-1.3938
G1 X8.9609 Y9.3966 Z-1.3969
G1 X9.0 Y9.3985 Z-1.4
G1 X9.0391 Y9.3966 Z-1.4031
G1 X9.0777 Y9.3908 Z-1.4063
G1 X9.1157 Y9.3813 Z-1.4094
G1 X9.1525 Y9.3682 Z-1.4125
G1 X9.1879 Y9.3514 Z-1.4156
G1 X9.2214 Y9.3313 Z-1.4187
G1 X9.2528 Y9.308 Z-1.4219
G1 X9.2818 Y9.2818 Z-1.425
G1 X9.308 Y9.2528 Z-1.4281
G1 X9.3313 Y9.2214 Z-1.4312
G1 X9.3514 Y9.1878 Z-1.4344
G1 X9.3682 Y9.1525 Z-1.4375
G1 X9.3813 Y9.1157 Z-1.4406
G1 X9.3908 Y9.0777 Z-1.4437
G1 X9.3966 Y9.039 Z-1.4469
G1 X9.3985 Y9.0 Z-1.45
G1 X9.3966 Y8.961 Z-1.4531
G1 X9.3908 Y8.9223 Z-1.4563
G1 X9.3813 Y8.8843 Z-1.4594
G1 X9.3682 Y8.8475 Z-1.4625
G1 X9.3514 Y8.8122 Z-1.4656
G1 X9.3313 Y8.7786 Z-1.4688
G1 X9.308 Y8.7472 Z-1.4719
G1 X9.2818 Y8.7182 Z-1.475
G1 X9.2528 Y8.692 Z-1.4781
G1 X9.2214 Y8.6687 Z-1.4813
G1 X9.1878 Y8.6486 Z-1.4844
G1 X9.1525 Y8.6318 Z-1.4875
G1 X9.1157 Y8.6187 Z-1.4906
G1 X9.0777 Y8.6092 Z-1.4937
G1 X9.0391 Y8.6034 Z-1.4969
G1 X9.0 Y8.6015 Z-1.5
G1 X8.9609 Y8.6034 Z-1.5031
G1 X8.9223 Y8.6092 Z-1.5063
G1 X8.8843 Y8.6187 Z-1.5094
G1 X8.8475 Y8.6318 Z-1.5125
G1 X8.8122 Y8.6486 Z-1.5156
G1 X8.7786 Y8.6687 Z-1.5187
G1 X8.7472 Y8.692 Z-1.5219
G1 X8.7182 Y8.7182 Z-1.525
G1 X8.692 Y8.7472 Z-1.5281
G1 X8.6687 Y8.7786 Z-1.5313
G1 X8.6486 Y8.8121 Z-1.5344
G1 X8.6318 Y8.8475 Z-1.5375
G1 X8.6187 Y8.8843 Z-1.5406
G1 X8.6092 Y8.9223 Z-1.5438
G1 X8.6034 Y8.961 Z-1.5469
G1 X8.6015 Y9.0 Z-1.55
G1 X8.6034 Y9.039 Z-1.5531
G1 X8.6092 Y9.0777 Z-1.5563
G1 X8.6187 Y9.1157 Z-1.5594
G1 X8.6318 Y9.1525 Z-1.5625
G1 X8.6486 Y9.1879 Z-1.5656
G1 X8.6687 Y9.2214 Z-1.5688
G1 X8.692 Y9.2528 Z-1.5719
G1 X8.7182 Y9.2818 Z-1.575
G1 X8.7472 Y9.308 Z-1.5781
G1 X8.7786 Y9.3313 Z-1.5813
G1 X8.8122 Y9.3514 Z-1.5844
G1 X8.8475 Y9.3682 Z-1.5875
G1 X8.8843 Y9.3813 Z-1.5906
G1 X8.9223 Y9.3908 Z-1.5938
G1 X8.9609 Y9.3966 Z-1.5969
G1 X9.0 Y9.3985 Z-1.6
G1 X9.0391 Y9.3966 Z-1.6031
G1 X9.0777 Y9.3908 Z-1.6063
G1 X9.1157 Y9.3813 Z-1.6094
G1 X9.1525 Y9.3682 Z-1.6125
G1 X9.1879 Y9.3514 Z-1.6156
G1 X9.2214 Y9.3313 Z-1.6187
G1 X9.2528 Y9.308 Z-1.6219
G1 X9.2818 Y9.2818 Z-1.625
G1 X9.308 Y9.2528 Z-1.6281
G1 X9.3313 Y9.2214 Z-1.6312
G1 X9.3514 Y9.1878 Z-1.6344
G1 X9.3682 Y9.1525 Z-1.6375
G1 X9.3813 Y9.1157 Z-1.6406
G1 X9.3908 Y9.0777 Z-1.6437
G1 X9.3966 Y9.039 Z-1.6469
G1 X9.3985 Y9.0 Z-1.65
G1 X9.3966 Y8.961 Z-1.6531
G1 X9.3908 Y8.9223 Z-1.6563
G1 X9.3813 Y8.8843 Z-1.6594
G1 X9.3682 Y8.8475 Z-1.6625
G1 X9.3514 Y8.8122 Z-1.6656
G1 X9.3313 Y8.7786 Z-1.6688
G1 X9.308 Y8.7472 Z-1.6719
G1 X9.2818 Y8.7182 Z-1.675
G1 X9.2528 Y8.692 Z-1.6781
G1 X9.2214 Y8.6687 Z-1.6813
G1 X9.1878 Y8.6486 Z-1.6844
G1 X9.1525 Y8.6318 Z-1.6875
G1 X9.1157 Y8.6187 Z-1.6906
G1 X9.0777 Y8.6092 Z-1.6937
G1 X9.0391 Y8.6034 Z-1.6969
G1 X9.0 Y8.6015 Z-1.7
G1 X8.9609 Y8.6034 Z-1.7031
G1 X8.9223 Y8.6092 Z-1.7063
G1 X8.8843 Y8.6187 Z-1.7094
G1 X8.8475 Y8.6318 Z-1.7125
G1 X8.8122 Y8.6486 Z-1.7156
G1 X8.7786 Y8.6687 Z-1.7187
G1 X8.7472 Y8.692 Z-1.7219
G1 X8.7182 Y8.7182 Z-1.725
G1 X8.692 Y8.7472 Z-1.7281
G1 X8.6687 Y8.7786 Z-1.7313
G1 X8.6486 Y8.8121 Z-1.7344
G1 X8.6318 Y8.8475 Z-1.7375
G1 X8.6187 Y8.8843 Z-1.7406
G1 X8.6092 Y8.9223 Z-1.7438
G1 X8.6034 Y8.961 Z-1.7469
G1 X8.6015 Y9.0 Z-1.75
G1 X8.6034 Y9.039 Z-1.7531
G1 X8.6092 Y9.0777 Z-1.7563
G1 X8.6187 Y9.1157 Z-1.7594
G1 X8.6318 Y9.1525 Z-1.7625
G1 X8.6486 Y9.1879 Z-1.7656
G1 X8.6687 Y9.2214 Z-1.7688
G1 X8.692 Y9.2528 Z-1.7719
G1 X8.7182 Y9.2818 Z-1.775
G1 X8.7472 Y9.308 Z-1.7781
G1 X8.7786 Y9.3313 Z-1.7813
G1 X8.8122 Y9.3514 Z-1.7844
G1 X8.8475 Y9.3682 Z-1.7875
G1 X8.8843 Y9.3813 Z-1.7906
G1 X8.9223 Y9.3908 Z-1.7938
G1 X8.9609 Y9.3966 Z-1.7969
G1 X9.0 Y9.3985 Z-1.8
G1 X9.0391 Y9.3966 Z-1.8031
G1 X9.0777 Y9.3908 Z-1.8063
G1 X9.1157 Y9.3813 Z-1.8094
G1 X9.1525 Y9.3682 Z-1.8125
G1 X9.1879 Y9.3514 Z-1.8156
G1 X9.2214 Y9.3313 Z-1.8187
G1 X9.2528 Y9.308 Z-1.8219
G1 X9.2818 Y9.2818 Z-1.825
G1 X9.308 Y9.2528 Z-1.8281
G1 X9.3313 Y9.2214 Z-1.8312
G1 X9.3514 Y9.1878 Z-1.8344
G1 X9.3682 Y9.1525 Z-1.8375
G1 X9.3813 Y9.1157 Z-1.8406
G1 X9.3908 Y9.0777 Z-1.8437
G1 X9.3966 Y9.039 Z-1.8469
G1 X9.3985 Y9.0 Z-1.85
G1 X9.3966 Y8.961 Z-1.8531
G1 X9.3908 Y8.9223 Z-1.8563
G1 X9.3813 Y8.8843 Z-1.8594
G1 X9.3682 Y8.8475 Z-1.8625
G1 X9.3514 Y8.8122 Z-1.8656
G1 X9.3313 Y8.7786 Z-1.8688
G1 X9.308 Y8.7472 Z-1.8719
G1 X9.2818 Y8.7182 Z-1.875
G1 X9.2528 Y8.692 Z-1.8781
G1 X9.2214 Y8.6687 Z-1.8813
G1 X9.1878 Y8.6486 Z-1.8844
G1 X9.1525 Y8.6318 Z-1.8875
G1 X9.1157 Y8.6187 Z-1.8906
G1 X9.0777 Y8.6092 Z-1.8937
G1 X9.0391 Y8.6034 Z-1.8969
G1 X9.0 Y8.6015 Z-1.9
G1 X8.9609 Y8.6034 Z-1.9031
G1 X8.9223 Y8.6092 Z-1.9063
G1 X8.8843 Y8.6187 Z-1.9094
G1 X8.8475 Y8.6318 Z-1.9125
G1 X8.8122 Y8.6486 Z-1.9156
G1 X8.7786 Y8.6687 Z-1.9187
G1 X8.7472 Y8.692 Z-1.9219
G1 X8.7182 Y8.7182 Z-1.925
G1 X8.692 Y8.7472 Z-1.9281
G1 X8.6687 Y8.7786 Z-1.9313
G1 X8.6486 Y8.8121 Z-1.9344
G1 X8.6318 Y8.8475 Z-1.9375
G1 X8.6187 Y8.8843 Z-1.9406
G1 X8.6092 Y8.9223 Z-1.9438
G1 X8.6034 Y8.961 Z-1.9469
G1 X8.6015 Y9.0 Z-1.95
G1 X8.6034 Y9.039 Z-1.9531
G1 X8.6092 Y9.0777 Z-1.9563
G1 X8.6187 Y9.1157 Z-1.9594
G1 X8.6318 Y9.1525 Z-1.9625
G1 X8.6486 Y9.1879 Z-1.9656
G1 X8.6687 Y9.2214 Z-1.9688
G1 X8.692 Y9.2528 Z-1.9719
G1 X8.7182 Y9.2818 Z-1.975
G1 X8.7472 Y9.308 Z-1.9781
G1 X8.7786 Y9.3313 Z-1.9813
G1 X8.8122 Y9.3514 Z-1.9844
G1 X8.8475 Y9.3682 Z-1.9875
G1 X8.8843 Y9.3813 Z-1.9906
G1 X8.9223 Y9.3908 Z-1.9938
G1 X8.9609 Y9.3966 Z-1.9969
G1 X9.0 Y9.3985 Z-2.0
G1 X9.0391 Y9.3966 Z-2.0031
G1 X9.0777 Y9.3908 Z-2.0063
G1 X9.1157 Y9.3813 Z-2.0094
G1 X9.1525 Y9.3682 Z-2.0125
G1 X9.1879 Y9.3514 Z-2.0156
G1 X9.2214 Y9.3313 Z-2.0187
G1 X9.2528 Y9.308 Z-2.0219
G1 X9.2818 Y9.2818 Z-2.025
G1 X9.308 Y9.2528 Z-2.0281
G1 X9.3313 Y9.2214 Z-2.0312
G1 X9.3514 Y9.1878 Z-2.0344
G1 X9.3682 Y9.1525 Z-2.0375
G1 X9.3813 Y9.1157 Z-2.0406
G1 X9.3908 Y9.0777 Z-2.0437
G1 X9.3966 Y9.039 Z-2.0469
G1 X9.3985 Y9.0 Z-2.05
G1 X9.3966 Y8.961 Z-2.0531
G1 X9.3908 Y8.9223 Z-2.0563
G1 X9.3813 Y8.8843 Z-2.0594
G1 X9.3682 Y8.8475 Z-2.0625
G1 X9.3514 Y8.8122 Z-2.0656
G1 X9.3313 Y8.7786 Z-2.0688
G1 X9.308 Y8.7472 Z-2.0719
G1 X9.2818 Y8.7182 Z-2.075
G1 X9.2528 Y8.692 Z-2.0781
G1 X9.2214 Y8.6687 Z-2.0813
G1 X9.1878 Y8.6486 Z-2.0844
G1 X9.1525 Y8.6318 Z-2.0875
G1 X9.1157 Y8.6187 Z-2.0906
G1 X9.0777 Y8.6092 Z-2.0937
G1 X9.0391 Y8.6034 Z-2.0969
G1 X9.0 Y8.6015 Z-2.1
G1 X8.9609 Y8.6034 Z-2.1031
G1 X8.9223 Y8.6092 Z-2.1063
G1 X8.8843 Y8.6187 Z-2.1094
G1 X8.8475 Y8.6318 Z-2.1125
G1 X8.8122 Y8.6486 Z-2.1156
G1 X8.7786 Y8.6687 Z-2.1187
G1 X8.7472 Y8.692 Z-2.1219
G1 X8.7182 Y8.7182 Z-2.125
G1 X8.692 Y8.7472 Z-2.1281
G1 X8.6687 Y8.7786 Z-2.1313
G1 X8.6486 Y8.8121 Z-2.1344
G1 X8.6318 Y8.8475 Z-2.1375
G1 X8.6187 Y8.8843 Z-2.1406
G1 X8.6092 Y8.9223 Z-2.1438
G1 X8.6034 Y8.961 Z-2.1469
G1 X8.6015 Y9.0 Z-2.15
G1 X8.6034 Y9.039 Z-2.1531
G1 X8.6092 Y9.0777 Z-2.1563
G1 X8.6187 Y9.1157 Z-2.1594
G1 X8.6318 Y9.1525 Z-2.1625
G1 X8.6486 Y9.1879 Z-2.1656
G1 X8.6687 Y9.2214 Z-2.1688
G1 X8.692 Y9.2528 Z-2.1719
G1 X8.7182 Y9.2818 Z-2.175
G1 X8.7472 Y9.308 Z-2.1781
G1 X8.7786 Y9.3313 Z-2.1813
G1 X8.8122 Y9.3514 Z-2.1844
G1 X8.8475 Y9.3682 Z-2.1875
G1 X8.8843 Y9.3813 Z-2.1906
G1 X8.9223 Y9.3908 Z-2.1938
G1 X8.9609 Y9.3966 Z-2.1969
G1 X9.0 Y9.3985 Z-2.2
G1 X9.0391 Y9.3966 Z-2.2031
G1 X9.0777 Y9.3908 Z-2.2063
G1 X9.1157 Y9.3813 Z-2.2094
G1 X9.1525 Y9.3682 Z-2.2125
G1 X9.1879 Y9.3514 Z-2.2156
G1 X9.2214 Y9.3313 Z-2.2187
G1 X9.2528 Y9.308 Z-2.2219
G1 X9.2818 Y9.2818 Z-2.225
G1 X9.308 Y9.2528 Z-2.2281
G1 X9.3313 Y9.2214 Z-2.2312
G1 X9.3514 Y9.1878 Z-2.2344
G1 X9.3682 Y9.1525 Z-2.2375
G1 X9.3813 Y9.1157 Z-2.2406
G1 X9.3908 Y9.0777 Z-2.2437
G1 X9.3966 Y9.039 Z-2.2469
G1 X9.3985 Y9.0 Z-2.25
G1 X9.3966 Y8.961 Z-2.2531
G1 X9.3908 Y8.9223 Z-2.2563
G1 X9.3813 Y8.8843 Z-2.2594
G1 X9.3682 Y8.8475 Z-2.2625
G1 X9.3514 Y8.8122 Z-2.2656
G1 X9.3313 Y8.7786 Z-2.2688
G1 X9.308 Y8.7472 Z-2.2719
G1 X9.2818 Y8.7182 Z-2.275
G1 X9.2528 Y8.692 Z-2.2781
G1 X9.2214 Y8.6687 Z-2.2813
G1 X9.1878 Y8.6486 Z-2.2844
G1 X9.1525 Y8.6318 Z-2.2875
G1 X9.1157 Y8.6187 Z-2.2906
G1 X9.0777 Y8.6092 Z-2.2937
G1 X9.0391 Y8.6034 Z-2.2969
G1 X9.0 Y8.6015 Z-2.3
G1 X8.9609 Y8.6034 Z-2.3031
G1 X8.9223 Y8.6092 Z-2.3063
G1 X8.8843 Y8.6187 Z-2.3094
G1 X8.8475 Y8.6318 Z-2.3125
G1 X8.8122 Y8.6486 Z-2.3156
G1 X8.7786 Y8.6687 Z-2.3187
G1 X8.7472 Y8.692 Z-2.3219
G1 X8.7182 Y8.7182 Z-2.325
G1 X8.692 Y8.7472 Z-2.3281
G1 X8.6687 Y8.7786 Z-2.3313
G1 X8.6486 Y8.8121 Z-2.3344
G1 X8.6318 Y8.8475 Z-2.3375
G1 X8.6187 Y8.8843 Z-2.3406
G1 X8.6092 Y8.9223 Z-2.3438
G1 X8.6034 Y8.961 Z-2.3469
G1 X8.6015 Y9.0 Z-2.35
G1 X8.6034 Y9.039 Z-2.3531
G1 X8.6092 Y9.0777 Z-2.3563
G1 X8.6187 Y9.1157 Z-2.3594
G1 X8.6318 Y9.1525 Z-2.3625
G1 X8.6486 Y9.1879 Z-2.3656
G1 X8.6687 Y9.2214 Z-2.3688
G1 X8.692 Y9.2528 Z-2.3719
G1 X8.7182 Y9.2818 Z-2.375
G1 X8.7472 Y9.308 Z-2.3781
G1 X8.7786 Y9.3313 Z-2.3813
G1 X8.8122 Y9.3514 Z-2.3844
G1 X8.8475 Y9.3682 Z-2.3875
G1 X8.8843 Y9.3813 Z-2.3906
G1 X8.9223 Y9.3908 Z-2.3938
G1 X8.9609 Y9.3966 Z-2.3969
G1 X9.0 Y9.3985 Z-2.4
G1 X9.0391 Y9.3966 Z-2.4031
G1 X9.0777 Y9.3908 Z-2.4063
G1 X9.1157 Y9.3813 Z-2.4094
G1 X9.1525 Y9.3682 Z-2.4125
G1 X9.1879 Y9.3514 Z-2.4156
G1 X9.2214 Y9.3313 Z-2.4187
G1 X9.2528 Y9.308 Z-2.4219
G1 X9.2818 Y9.2818 Z-2.425
G1 X9.308 Y9.2528 Z-2.4281
G1 X9.3313 Y9.2214 Z-2.4312
G1 X9.3514 Y9.1878 Z-2.4344
G1 X9.3682 Y9.1525 Z-2.4375
G1 X9.3813 Y9.1157 Z-2.4406
G1 X9.3908 Y9.0777 Z-2.4437
G1 X9.3966 Y9.039 Z-2.4469
G1 X9.3985 Y9.0 Z-2.45
G1 X9.3966 Y8.961 Z-2.4531
G1 X9.3908 Y8.9223 Z-2.4563
G1 X9.3813 Y8.8843 Z-2.4594
G1 X9.3682 Y8.8475 Z-2.4625
G1 X9.3514 Y8.8122 Z-2.4656
G1 X9.3313 Y8.7786 Z-2.4688
G1 X9.308 Y8.7472 Z-2.4719
G1 X9.2818 Y8.7182 Z-2.475
G1 X9.2528 Y8.692 Z-2.4781
G1 X9.2214 Y8.6687 Z-2.4813
G1 X9.1878 Y8.6486 Z-2.4844
G1 X9.1525 Y8.6318 Z-2.4875
G1 X9.1157 Y8.6187 Z-2.4906
G1 X9.0777 Y8.6092 Z-2.4937
G1 X9.0391 Y8.6034 Z-2.4969
G1 X9.0 Y8.6015 Z-2.5
G1 X8.9609 Y8.6034 Z-2.5031
G1 X8.9223 Y8.6092 Z-2.5063
G1 X8.8843 Y8.6187 Z-2.5094
G1 X8.8475 Y8.6318 Z-2.5125
G1 X8.8122 Y8.6486 Z-2.5156
G1 X8.7786 Y8.6687 Z-2.5187
G1 X8.7472 Y8.692 Z-2.5219
G1 X8.7182 Y8.7182 Z-2.525
G1 X8.692 Y8.7472 Z-2.5281
G1 X8.6687 Y8.7786 Z-2.5313
G1 X8.6486 Y8.8121 Z-2.5344
G1 X8.6318 Y8.8475 Z-2.5375
G1 X8.6187 Y8.8843 Z-2.5406
G1 X8.6092 Y8.9223 Z-2.5438
G1 X8.6034 Y8.961 Z-2.5469
G1 X8.6015 Y9.0 Z-2.55
G1 X8.6034 Y9.039 Z-2.5531
G1 X8.6092 Y9.0777 Z-2.5563
G1 X8.6187 Y9.1157 Z-2.5594
G1 X8.6318 Y9.1525 Z-2.5625
G1 X8.6486 Y9.1879 Z-2.5656
G1 X8.6687 Y9.2214 Z-2.5688
G1 X8.692 Y9.2528 Z-2.5719
G1 X8.7182 Y9.2818 Z-2.575
G1 X8.7472 Y9.308 Z-2.5781
G1 X8.7786 Y9.3313 Z-2.5813
G1 X8.8122 Y9.3514 Z-2.5844
G1 X8.8475 Y9.3682 Z-2.5875
G1 X8.8843 Y9.3813 Z-2.5906
G1 X8.9223 Y9.3908 Z-2.5938
G1 X8.9609 Y9.3966 Z-2.5969
G1 X9.0 Y9.3985 Z-2.6
G1 X9.0391 Y9.3966 Z-2.6031
G1 X9.0777 Y9.3908 Z-2.6063
G1 X9.1157 Y9.3813 Z-2.6094
G1 X9.1525 Y9.3682 Z-2.6125
G1 X9.1879 Y9.3514 Z-2.6156
G1 X9.2214 Y9.3313 Z-2.6187
G1 X9.2528 Y9.308 Z-2.6219
G1 X9.2818 Y9.2818 Z-2.625
G1 X9.308 Y9.2528 Z-2.6281
G1 X9.3313 Y9.2214 Z-2.6312
G1 X9.3514 Y9.1878 Z-2.6344
G1 X9.3682 Y9.1525 Z-2.6375
G1 X9.3813 Y9.1157 Z-2.6406
G1 X9.3908 Y9.0777 Z-2.6437
G1 X9.3966 Y9.039 Z-2.6469
G1 X9.3985 Y9.0 Z-2.65
G1 X9.3966 Y8.961 Z-2.6531
G1 X9.3908 Y8.9223 Z-2.6563
G1 X9.3813 Y8.8843 Z-2.6594
G1 X9.3682 Y8.8475 Z-2.6625
G1 X9.3514 Y8.8122 Z-2.6656
G1 X9.3313 Y8.7786 Z-2.6688
G1 X9.308 Y8.7472 Z-2.6719
G1 X9.2818 Y8.7182 Z-2.675
G1 X9.2528 Y8.692 Z-2.6781
G1 X9.2214 Y8.6687 Z-2.6813
G1 X9.1878 Y8.6486 Z-2.6844
G1 X9.1525 Y8.6318 Z-2.6875
G1 X9.1157 Y8.6187 Z-2.6906
G1 X9.0777 Y8.6092 Z-2.6937
G1 X9.0391 Y8.6034 Z-2.6969
G1 X9.0 Y8.6015 Z-2.7
G1 X8.9609 Y8.6034 Z-2.7031
G1 X8.9223 Y8.6092 Z-2.7063
G1 X8.8843 Y8.6187 Z-2.7094
G1 X8.8475 Y8.6318 Z-2.7125
G1 X8.8122 Y8.6486 Z-2.7156
G1 X8.7786 Y8.6687 Z-2.7187
G1 X8.7472 Y8.692 Z-2.7219
G1 X8.7182 Y8.7182 Z-2.725
G1 X8.692 Y8.7472 Z-2.7281
G1 X8.6687 Y8.7786 Z-2.7313
G1 X8.6486 Y8.8121 Z-2.7344
G1 X8.6318 Y8.8475 Z-2.7375
G1 X8.6187 Y8.8843 Z-2.7406
G1 X8.6092 Y8.9223 Z-2.7438
G1 X8.6034 Y8.961 Z-2.7469
G1 X8.6015 Y9.0 Z-2.75
G1 X8.6034 Y9.039 Z-2.7531
G1 X8.6092 Y9.0777 Z-2.7563
G1 X8.6187 Y9.1157 Z-2.7594
G1 X8.6318 Y9.1525 Z-2.7625
G1 X8.6486 Y9.1879 Z-2.7656
G1 X8.6687 Y9.2214 Z-2.7688
G1 X8.692 Y9.2528 Z-2.7719
G1 X8.7182 Y9.2818 Z-2.775
G1 X8.7472 Y9.308 Z-2.7781
G1 X8.7786 Y9.3313 Z-2.7813
G1 X8.8122 Y9.3514 Z-2.7844
G1 X8.8475 Y9.3682 Z-2.7875
G1 X8.8843 Y9.3813 Z-2.7906
G1 X8.9223 Y9.3908 Z-2.7938
G1 X8.9609 Y9.3966 Z-2.7969
G1 X9.0 Y9.3985 Z-2.8
G1 X9.0391 Y9.3966 Z-2.8031
G1 X9.0777 Y9.3908 Z-2.8063
G1 X9.1157 Y9.3813 Z-2.8094
G1 X9.1525 Y9.3682 Z-2.8125
G1 X9.1879 Y9.3514 Z-2.8156
G1 X9.2214 Y9.3313 Z-2.8187
G1 X9.2528 Y9.308 Z-2.8219
G1 X9.2818 Y9.2818 Z-2.825
G1 X9.308 Y9.2528 Z-2.8281
G1 X9.3313 Y9.2214 Z-2.8312
G1 X9.3514 Y9.1878 Z-2.8344
G1 X9.3682 Y9.1525 Z-2.8375
G1 X9.3813 Y9.1157 Z-2.8406
G1 X9.3908 Y9.0777 Z-2.8437
G1 X9.3966 Y9.039 Z-2.8469
G1 X9.3985 Y9.0 Z-2.85
G1 X9.3966 Y8.961 Z-2.8531
G1 X9.3908 Y8.9223 Z-2.8563
G1 X9.3813 Y8.8843 Z-2.8594
G1 X9.3682 Y8.8475 Z-2.8625
G1 X9.3514 Y8.8122 Z-2.8656
G1 X9.3313 Y8.7786 Z-2.8688
G1 X9.308 Y8.7472 Z-2.8719
G1 X9.2818 Y8.7182 Z-2.875
G1 X9.2528 Y8.692 Z-2.8781
G1 X9.2214 Y8.6687 Z-2.8813
G1 X9.1878 Y8.6486 Z-2.8844
G1 X9.1525 Y8.6318 Z-2.8875
G1 X9.1157 Y8.6187 Z-2.8906
G1 X9.0777 Y8.6092 Z-2.8937
G1 X9.0391 Y8.6034 Z-2.8969
G1 X9.0 Y8.6015 Z-2.9
G1 X8.9609 Y8.6034 Z-2.9031
G1 X8.9223 Y8.6092 Z-2.9063
G1 X8.8843 Y8.6187 Z-2.9094
G1 X8.8475 Y8.6318 Z-2.9125
G1 X8.8122 Y8.6486 Z-2.9156
G1 X8.7786 Y8.6687 Z-2.9187
G1 X8.7472 Y8.692 Z-2.9219
G1 X8.7182 Y8.7182 Z-2.925
G1 X8.692 Y8.7472 Z-2.9281
G1 X8.6687 Y8.7786 Z-2.9313
G1 X8.6486 Y8.8121 Z-2.9344
G1 X8.6318 Y8.8475 Z-2.9375
G1 X8.6187 Y8.8843 Z-2.9406
G1 X8.6092 Y8.9223 Z-2.9438
G1 X8.6034 Y8.961 Z-2.9469
G1 X8.6015 Y9.0 Z-2.95
G1 X8.6034 Y9.039 Z-2.9531
G1 X8.6092 Y9.0777 Z-2.9563
G1 X8.6187 Y9.1157 Z-2.9594
G1 X8.6318 Y9.1525 Z-2.9625
G1 X8.6486 Y9.1879 Z-2.9656
G1 X8.6687 Y9.2214 Z-2.9688
G1 X8.692 Y9.2528 Z-2.9719
G1 X8.7182 Y9.2818 Z-2.975
G1 X8.7472 Y9.308 Z-2.9781
G1 X8.7786 Y9.3313 Z-2.9813
G1 X8.8122 Y9.3514 Z-2.9844
G1 X8.8475 Y9.3682 Z-2.9875
G1 X8.8843 Y9.3813 Z-2.9906
G1 X8.9223 Y9.3908 Z-2.9938
G1 X8.9609 Y9.3966 Z-2.9969
G1 X9.0 Y9.3985 Z-3.0
G1 X9.0391 Y9.3966 Z-3.0031
G1 X9.0777 Y9.3908 Z-3.0063
G1 X9.1157 Y9.3813 Z-3.0094
G1 X9.1525 Y9.3682 Z-3.0125
G1 X9.1879 Y9.3514 Z-3.0156
G1 X9.2214 Y9.3313 Z-3.0187
G1 X9.2528 Y9.308 Z-3.0219
G1 X9.2818 Y9.2818 Z-3.025
G1 X9.308 Y9.2528 Z-3.0281
G1 X9.3313 Y9.2214 Z-3.0312
G1 X9.3514 Y9.1878 Z-3.0344
G1 X9.3682 Y9.1525 Z-3.0375
G1 X9.3813 Y9.1157 Z-3.0406
G1 X9.3908 Y9.0777 Z-3.0437
G1 X9.3966 Y9.039 Z-3.0469
G1 X9.3985 Y9.0 Z-3.05
G1 X9.3966 Y8.961 Z-3.0531
G1 X9.3908 Y8.9223 Z-3.0563
G1 X9.3813 Y8.8843 Z-3.0594
G1 X9.3682 Y8.8475 Z-3.0625
G1 X9.3514 Y8.8122 Z-3.0656
G1 X9.3313 Y8.7786 Z-3.0688
G1 X9.308 Y8.7472 Z-3.0719
G1 X9.2818 Y8.7182 Z-3.075
G1 X9.2528 Y8.692 Z-3.0781
G1 X9.2214 Y8.6687 Z-3.0813
G1 X9.1878 Y8.6486 Z-3.0844
G1 X9.1525 Y8.6318 Z-3.0875
G1 X9.1157 Y8.6187 Z-3.0906
G1 X9.0777 Y8.6092 Z-3.0937
G1 X9.0391 Y8.6034 Z-3.0969
G1 X9.0 Y8.6015 Z-3.1
G1 X8.9609 Y8.6034 Z-3.1031
G1 X8.9223 Y8.6092 Z-3.1063
G1 X8.8843 Y8.6187 Z-3.1094
G1 X8.8475 Y8.6318 Z-3.1125
G1 X8.8122 Y8.6486 Z-3.1156
G1 X8.7786 Y8.6687 Z-3.1187
G1 X8.7472 Y8.692 Z-3.1219
G1 X8.7182 Y8.7182 Z-3.125
G1 X8.692 Y8.7472 Z-3.1281
G1 X8.6687 Y8.7786 Z-3.1313
G1 X8.6486 Y8.8121 Z-3.1344
G1 X8.6318 Y8.8475 Z-3.1375
G1 X8.6187 Y8.8843 Z-3.1406
G1 X8.6092 Y8.9223 Z-3.1438
G1 X8.6034 Y8.961 Z-3.1469
G1 X8.6015 Y9.0 Z-3.15
G1 X8.6034 Y9.039 Z-3.1531
G1 X8.6092 Y9.0777 Z-3.1563
G1 X8.6187 Y9.1157 Z-3.1594
G1 X8.6318 Y9.1525 Z-3.1625
G1 X8.6486 Y9.1879 Z-3.1656
G1 X8.6687 Y9.2214 Z-3.1688
G1 X8.692 Y9.2528 Z-3.1719
G1 X8.7182 Y9.2818 Z-3.175
G1 X8.7472 Y9.308 Z-3.1781
G1 X8.7786 Y9.3313 Z-3.1813
G1 X8.8122 Y9.3514 Z-3.1844
G1 X8.8475 Y9.3682 Z-3.1875
G1 X8.8843 Y9.3813 Z-3.1906
G1 X8.9223 Y9.3908 Z-3.1938
G1 X8.9609 Y9.3966 Z-3.1969
G1 X9.0 Y9.3985 Z-3.2
G1 X9.0391 Y9.3966 Z-3.2031
G1 X9.0777 Y9.3908 Z-3.2063
G1 X9.1157 Y9.3813 Z-3.2094
G1 X9.1525 Y9.3682 Z-3.2125
G1 X9.1879 Y9.3514 Z-3.2156
G1 X9.2214 Y9.3313 Z-3.2187
G1 X9.2528 Y9.308 Z-3.2219
G1 X9.2818 Y9.2818 Z-3.225
G1 X9.308 Y9.2528 Z-3.2281
G1 X9.3313 Y9.2214 Z-3.2312
G1 X9.3514 Y9.1878 Z-3.2344
G1 X9.3682 Y9.1525 Z-3.2375
G1 X9.3813 Y9.1157 Z-3.2406
G1 X9.3908 Y9.0777 Z-3.2437
G1 X9.3966 Y9.039 Z-3.2469
G1 X9.3985 Y9.0 Z-3.25
G1 X9.3966 Y8.961 Z-3.2531
G1 X9.3908 Y8.9223 Z-3.2563
G1 X9.3813 Y8.8843 Z-3.2594
G1 X9.3682 Y8.8475 Z-3.2625
G1 X9.3514 Y8.8122 Z-3.2656
G1 X9.3313 Y8.7786 Z-3.2688
G1 X9.308 Y8.7472 Z-3.2719
G1 X9.2818 Y8.7182 Z-3.275
G1 X9.2528 Y8.692 Z-3.2781
G1 X9.2214 Y8.6687 Z-3.2813
G1 X9.1878 Y8.6486 Z-3.2844
G1 X9.1525 Y8.6318 Z-3.2875
G1 X9.1157 Y8.6187 Z-3.2906
G1 X9.0777 Y8.6092 Z-3.2937
G1 X9.0391 Y8.6034 Z-3.2969
G1 X9.0 Y8.6015 Z-3.3
G1 X8.9609 Y8.6034 Z-3.3031
G1 X8.9223 Y8.6092 Z-3.3063
G1 X8.8843 Y8.6187 Z-3.3094
G1 X8.8475 Y8.6318 Z-3.3125
G1 X8.8122 Y8.6486 Z-3.3156
G1 X8.7786 Y8.6687 Z-3.3187
G1 X8.7472 Y8.692 Z-3.3219
G1 X8.7182 Y8.7182 Z-3.325
G1 X8.692 Y8.7472 Z-3.3281
G1 X8.6687 Y8.7786 Z-3.3313
G1 X8.6486 Y8.8121 Z-3.3344
G1 X8.6318 Y8.8475 Z-3.3375
G1 X8.6187 Y8.8843 Z-3.3406
G1 X8.6092 Y8.9223 Z-3.3438
G1 X8.6034 Y8.961 Z-3.3469
G1 X8.6015 Y9.0 Z-3.35
G1 X8.6034 Y9.039 Z-3.3531
G1 X8.6092 Y9.0777 Z-3.3563
G1 X8.6187 Y9.1157 Z-3.3594
G1 X8.6318 Y9.1525 Z-3.3625
G1 X8.6486 Y9.1879 Z-3.3656
G1 X8.6687 Y9.2214 Z-3.3688
G1 X8.692 Y9.2528 Z-3.3719
G1 X8.7182 Y9.2818 Z-3.375
G1 X8.7472 Y9.308 Z-3.3781
G1 X8.7786 Y9.3313 Z-3.3813
G1 X8.8122 Y9.3514 Z-3.3844
G1 X8.8475 Y9.3682 Z-3.3875
G1 X8.8843 Y9.3813 Z-3.3906
G1 X8.9223 Y9.3908 Z-3.3938
G1 X8.9609 Y9.3966 Z-3.3969
G1 X9.0 Y9.3985 Z-3.4
G1 X9.0391 Y9.3966 Z-3.4031
G1 X9.0777 Y9.3908 Z-3.4063
G1 X9.1157 Y9.3813 Z-3.4094
G1 X9.1525 Y9.3682 Z-3.4125
G1 X9.1879 Y9.3514 Z-3.4156
G1 X9.2214 Y9.3313 Z-3.4187
G1 X9.2528 Y9.308 Z-3.4219
G1 X9.2818 Y9.2818 Z-3.425
G1 X9.308 Y9.2528 Z-3.4281
G1 X9.3313 Y9.2214 Z-3.4312
G1 X9.3514 Y9.1878 Z-3.4344
G1 X9.3682 Y9.1525 Z-3.4375
G1 X9.3813 Y9.1157 Z-3.4406
G1 X9.3908 Y9.0777 Z-3.4437
G1 X9.3966 Y9.039 Z-3.4469
G1 X9.3985 Y9.0 Z-3.45
G1 X9.3966 Y8.961 Z-3.4531
G1 X9.3908 Y8.9223 Z-3.4563
G1 X9.3813 Y8.8843 Z-3.4594
G1 X9.3682 Y8.8475 Z-3.4625
G1 X9.3514 Y8.8122 Z-3.4656
G1 X9.3313 Y8.7786 Z-3.4688
G1 X9.308 Y8.7472 Z-3.4719
G1 X9.2818 Y8.7182 Z-3.475
G1 X9.2528 Y8.692 Z-3.4781
G1 X9.2214 Y8.6687 Z-3.4813
G1 X9.1878 Y8.6486 Z-3.4844
G1 X9.1525 Y8.6318 Z-3.4875
G1 X9.1157 Y8.6187 Z-3.4906
G1 X9.0777 Y8.6092 Z-3.4937
G1 X9.0391 Y8.6034 Z-3.4969
G1 X9.0 Y8.6015 Z-3.5
G1 X8.9609 Y8.6034 Z-3.5031
G1 X8.9223 Y8.6092 Z-3.5063
G1 X8.8843 Y8.6187 Z-3.5094
G1 X8.8475 Y8.6318 Z-3.5125
G1 X8.8122 Y8.6486 Z-3.5156
G1 X8.7786 Y8.6687 Z-3.5187
G1 X8.7472 Y8.692 Z-3.5219
G1 X8.7182 Y8.7182 Z-3.525
G1 X8.692 Y8.7472 Z-3.5281
G1 X8.6687 Y8.7786 Z-3.5313
G1 X8.6486 Y8.8121 Z-3.5344
G1 X8.6318 Y8.8475 Z-3.5375
G1 X8.6187 Y8.8843 Z-3.5406
G1 X8.6092 Y8.9223 Z-3.5438
G1 X8.6034 Y8.961 Z-3.5469
G1 X8.6015 Y9.0 Z-3.55
G1 X8.6034 Y9.039 Z-3.5531
G1 X8.6092 Y9.0777 Z-3.5563
G1 X8.6187 Y9.1157 Z-3.5594
G1 X8.6318 Y9.1525 Z-3.5625
G1 X8.6486 Y9.1879 Z-3.5656
G1 X8.6687 Y9.2214 Z-3.5688
G1 X8.692 Y9.2528 Z-3.5719
G1 X8.7182 Y9.2818 Z-3.575
G1 X8.7472 Y9.308 Z-3.5781
G1 X8.7786 Y9.3313 Z-3.5813
G1 X8.8122 Y9.3514 Z-3.5844
G1 X8.8475 Y9.3682 Z-3.5875
G1 X8.8843 Y9.3813 Z-3.5906
G1 X8.9223 Y9.3908 Z-3.5938
G1 X8.9609 Y9.3966 Z-3.5969
G1 X9.0 Y9.3985 Z-3.6
G1 X9.0391 Y9.3966 Z-3.6031
G1 X9.0777 Y9.3908 Z-3.6063
G1 X9.1157 Y9.3813 Z-3.6094
G1 X9.1525 Y9.3682 Z-3.6125
G1 X9.1879 Y9.3514 Z-3.6156
G1 X9.2214 Y9.3313 Z-3.6187
G1 X9.2528 Y9.308 Z-3.6219
G1 X9.2818 Y9.2818 Z-3.625
G1 X9.308 Y9.2528 Z-3.6281
G1 X9.3313 Y9.2214 Z-3.6312
G1 X9.3514 Y9.1878 Z-3.6344
G1 X9.3682 Y9.1525 Z-3.6375
G1 X9.3813 Y9.1157 Z-3.6406
G1 X9.3908 Y9.0777 Z-3.6437
G1 X9.3966 Y9.039 Z-3.6469
G1 X9.3985 Y9.0 Z-3.65
G1 X9.3966 Y8.961 Z-3.6531
G1 X9.3908 Y8.9223 Z-3.6563
G1 X9.3813 Y8.8843 Z-3.6594
G1 X9.3682 Y8.8475 Z-3.6625
G1 X9.3514 Y8.8122 Z-3.6656
G1 X9.3313 Y8.7786 Z-3.6688
G1 X9.308 Y8.7472 Z-3.6719
G1 X9.2818 Y8.7182 Z-3.675
G1 X9.2528 Y8.692 Z-3.6781
G1 X9.2214 Y8.6687 Z-3.6813
G1 X9.1878 Y8.6486 Z-3.6844
G1 X9.1525 Y8.6318 Z-3.6875
G1 X9.1157 Y8.6187 Z-3.6906
G1 X9.0777 Y8.6092 Z-3.6937
G1 X9.0391 Y8.6034 Z-3.6969
G1 X9.0 Y8.6015 Z-3.7
G1 X8.9609 Y8.6034 Z-3.7031
G1 X8.9223 Y8.6092 Z-3.7063
G1 X8.8843 Y8.6187 Z-3.7094
G1 X8.8475 Y8.6318 Z-3.7125
G1 X8.8122 Y8.6486 Z-3.7156
G1 X8.7786 Y8.6687 Z-3.7187
G1 X8.7472 Y8.692 Z-3.7219
G1 X8.7182 Y8.7182 Z-3.725
G1 X8.692 Y8.7472 Z-3.7281
G1 X8.6687 Y8.7786 Z-3.7313
G1 X8.6486 Y8.8121 Z-3.7344
G1 X8.6318 Y8.8475 Z-3.7375
G1 X8.6187 Y8.8843 Z-3.7406
G1 X8.6092 Y8.9223 Z-3.7438
G1 X8.6034 Y8.961 Z-3.7469
G1 X8.6015 Y9.0 Z-3.75
G1 X8.6034 Y9.039 Z-3.7531
G1 X8.6092 Y9.0777 Z-3.7563
G1 X8.6187 Y9.1157 Z-3.7594
G1 X8.6318 Y9.1525 Z-3.7625
G1 X8.6486 Y9.1879 Z-3.7656
G1 X8.6687 Y9.2214 Z-3.7688
G1 X8.692 Y9.2528 Z-3.7719
G1 X8.7182 Y9.2818 Z-3.775
G1 X8.7472 Y9.308 Z-3.7781
G1 X8.7786 Y9.3313 Z-3.7813
G1 X8.8122 Y9.3514 Z-3.7844
G1 X8.8475 Y9.3682 Z-3.7875
G1 X8.8843 Y9.3813 Z-3.7906
G1 X8.9223 Y9.3908 Z-3.7938
G1 X8.9609 Y9.3966 Z-3.7969
G1 X9.0 Y9.3985 Z-3.8
G1 X9.0391 Y9.3966 Z-3.8031
G1 X9.0777 Y9.3908 Z-3.8063
G1 X9.1157 Y9.3813 Z-3.8094
G1 X9.1525 Y9.3682 Z-3.8125
G1 X9.1879 Y9.3514 Z-3.8156
G1 X9.2214 Y9.3313 Z-3.8187
G1 X9.2528 Y9.308 Z-3.8219
G1 X9.2818 Y9.2818 Z-3.825
G1 X9.308 Y9.2528 Z-3.8281
G1 X9.3313 Y9.2214 Z-3.8312
G1 X9.3514 Y9.1878 Z-3.8344
G1 X9.3682 Y9.1525 Z-3.8375
G1 X9.3813 Y9.1157 Z-3.8406
G1 X9.3908 Y9.0777 Z-3.8437
G1 X9.3966 Y9.039 Z-3.8469
G1 X9.3985 Y9.0 Z-3.85
G1 X9.3966 Y8.961 Z-3.8531
G1 X9.3908 Y8.9223 Z-3.8563
G1 X9.3813 Y8.8843 Z-3.8594
G1 X9.3682 Y8.8475 Z-3.8625
G1 X9.3514 Y8.8122 Z-3.8656
G1 X9.3313 Y8.7786 Z-3.8688
G1 X9.308 Y8.7472 Z-3.8719
G1 X9.2818 Y8.7182 Z-3.875
G1 X9.2528 Y8.692 Z-3.8781
G1 X9.2214 Y8.6687 Z-3.8813
G1 X9.1878 Y8.6486 Z-3.8844
G1 X9.1525 Y8.6318 Z-3.8875
G1 X9.1157 Y8.6187 Z-3.8906
G1 X9.0777 Y8.6092 Z-3.8937
G1 X9.0391 Y8.6034 Z-3.8969
G1 X9.0 Y8.6015 Z-3.9
G1 X8.9609 Y8.6034 Z-3.9031
G1 X8.9223 Y8.6092 Z-3.9063
G1 X8.8843 Y8.6187 Z-3.9094
G1 X8.8475 Y8.6318 Z-3.9125
G1 X8.8122 Y8.6486 Z-3.9156
G1 X8.7786 Y8.6687 Z-3.9187
G1 X8.7472 Y8.692 Z-3.9219
G1 X8.7182 Y8.7182 Z-3.925
G1 X8.692 Y8.7472 Z-3.9281
G1 X8.6687 Y8.7786 Z-3.9313
G1 X8.6486 Y8.8121 Z-3.9344
G1 X8.6318 Y8.8475 Z-3.9375
G1 X8.6187 Y8.8843 Z-3.9406
G1 X8.6092 Y8.9223 Z-3.9438
G1 X8.6034 Y8.961 Z-3.9469
G1 X8.6015 Y9.0 Z-3.95
G1 X8.6034 Y9.039 Z-3.9531
G1 X8.6092 Y9.0777 Z-3.9563
G1 X8.6187 Y9.1157 Z-3.9594
G1 X8.6318 Y9.1525 Z-3.9625
G1 X8.6486 Y9.1879 Z-3.9656
G1 X8.6687 Y9.2214 Z-3.9688
G1 X8.692 Y9.2528 Z-3.9719
G1 X8.7182 Y9.2818 Z-3.975
G1 X8.7472 Y9.308 Z-3.9781
G1 X8.7786 Y9.3313 Z-3.9813
G1 X8.8122 Y9.3514 Z-3.9844
G1 X8.8475 Y9.3682 Z-3.9875
G1 X8.8843 Y9.3813 Z-3.9906
G1 X8.9223 Y9.3908 Z-3.9938
G1 X8.9609 Y9.3966 Z-3.9969
G1 X9.0 Y9.3985 Z-4.0
G1 X9.0391 Y9.3966 Z-4.0031
G1 X9.0777 Y9.3908 Z-4.0063
G1 X9.1157 Y9.3813 Z-4.0094
G1 X9.1525 Y9.3682 Z-4.0125
G1 X9.1879 Y9.3514 Z-4.0156
G1 X9.2214 Y9.3313 Z-4.0187
G1 X9.2528 Y9.308 Z-4.0219
G1 X9.2818 Y9.2818 Z-4.025
G1 X9.308 Y9.2528 Z-4.0281
G1 X9.3313 Y9.2214 Z-4.0312
G1 X9.3514 Y9.1878 Z-4.0344
G1 X9.3682 Y9.1525 Z-4.0375
G1 X9.3813 Y9.1157 Z-4.0406
G1 X9.3908 Y9.0777 Z-4.0437
G1 X9.3966 Y9.039 Z-4.0469
G1 X9.3985 Y9.0 Z-4.05
G1 X9.3966 Y8.961 Z-4.0531
G1 X9.3908 Y8.9223 Z-4.0563
G1 X9.3813 Y8.8843 Z-4.0594
G1 X9.3682 Y8.8475 Z-4.0625
G1 X9.3514 Y8.8122 Z-4.0656
G1 X9.3313 Y8.7786 Z-4.0688
G1 X9.308 Y8.7472 Z-4.0719
G1 X9.2818 Y8.7182 Z-4.075
G1 X9.2528 Y8.692 Z-4.0781
G1 X9.2214 Y8.6687 Z-4.0813
G1 X9.1878 Y8.6486 Z-4.0844
G1 X9.1525 Y8.6318 Z-4.0875
G1 X9.1157 Y8.6187 Z-4.0906
G1 X9.0777 Y8.6092 Z-4.0937
G1 X9.0391 Y8.6034 Z-4.0969
G1 X9.0 Y8.6015 Z-4.1
G1 X8.9609 Y8.6034 Z-4.1031
G1 X8.9223 Y8.6092 Z-4.1063
G1 X8.8843 Y8.6187 Z-4.1094
G1 X8.8475 Y8.6318 Z-4.1125
G1 X8.8122 Y8.6486 Z-4.1156
G1 X8.7786 Y8.6687 Z-4.1187
G1 X8.7472 Y8.692 Z-4.1219
G1 X8.7182 Y8.7182 Z-4.125
G1 X8.692 Y8.7472 Z-4.1281
G1 X8.6687 Y8.7786 Z-4.1313
G1 X8.6486 Y8.8121 Z-4.1344
G1 X8.6318 Y8.8475 Z-4.1375
G1 X8.6187 Y8.8843 Z-4.1406
G1 X8.6092 Y8.9223 Z-4.1438
G1 X8.6034 Y8.961 Z-4.1469
G1 X8.6015 Y9.0 Z-4.15
G1 X8.6034 Y9.039 Z-4.1531
G1 X8.6092 Y9.0777 Z-4.1563
G1 X8.6187 Y9.1157 Z-4.1594
G1 X8.6318 Y9.1525 Z-4.1625
G1 X8.6486 Y9.1879 Z-4.1656
G1 X8.6687 Y9.2214 Z-4.1688
G1 X8.692 Y9.2528 Z-4.1719
G1 X8.7182 Y9.2818 Z-4.175
G1 X8.7472 Y9.308 Z-4.1781
G1 X8.7786 Y9.3313 Z-4.1813
G1 X8.8122 Y9.3514 Z-4.1844
G1 X8.8475 Y9.3682 Z-4.1875
G1 X8.8843 Y9.3813 Z-4.1906
G1 X8.9223 Y9.3908 Z-4.1938
G1 X8.9609 Y9.3966 Z-4.1969
G1 X9.0 Y9.3985 Z-4.2
G1 X9.0391 Y9.3966
G1 X9.0777 Y9.3908
G1 X9.1157 Y9.3813
G1 X9.1525 Y9.3682
G1 X9.1879 Y9.3514
G1 X9.2214 Y9.3313
G1 X9.2528 Y9.308
G1 X9.2818 Y9.2818
G1 X9.308 Y9.2528
G1 X9.3313 Y9.2214
G1 X9.3514 Y9.1878
G1 X9.3682 Y9.1525
G1 X9.3813 Y9.1157
G1 X9.3908 Y9.0777
G1 X9.3966 Y9.039
G1 X9.3985 Y9.0
G1 X9.3966 Y8.961
G1 X9.3908 Y8.9223
G1 X9.3813 Y8.8843
G1 X9.3682 Y8.8475
G1 X9.3514 Y8.8122
G1 X9.3313 Y8.7786
G1 X9.308 Y8.7472
G1 X9.2818 Y8.7182
G1 X9.2528 Y8.692
G1 X9.2214 Y8.6687
G1 X9.1878 Y8.6486
G1 X9.1525 Y8.6318
G1 X9.1157 Y8.6187
G1 X9.0777 Y8.6092
G1 X9.0391 Y8.6034
G1 X9.0 Y8.6015
G1 X8.9609 Y8.6034
G1 X8.9223 Y8.6092
G1 X8.8843 Y8.6187
G1 X8.8475 Y8.6318
G1 X8.8122 Y8.6486
G1 X8.7786 Y8.6687
G1 X8.7472 Y8.692
G1 X8.7182 Y8.7182
G1 X8.692 Y8.7472
G1 X8.6687 Y8.7786
G1 X8.6486 Y8.8121
G1 X8.6318 Y8.8475
G1 X8.6187 Y8.8843
G1 X8.6092 Y8.9223
G1 X8.6034 Y8.961
G1 X8.6015 Y9.0
G1 X8.6034 Y9.039
G1 X8.6092 Y9.0777
G1 X8.6187 Y9.1157
G1 X8.6318 Y9.1525
G1 X8.6486 Y9.1879
G1 X8.6687 Y9.2214
G1 X8.692 Y9.2528
G1 X8.7182 Y9.2818
G1 X8.7472 Y9.308
G1 X8.7786 Y9.3313
G1 X8.8122 Y9.3514
G1 X8.8475 Y9.3682
G1 X8.8843 Y9.3813
G1 X8.9223 Y9.3908
G1 X8.9609 Y9.3966
G1 X9.0 Y9.3985
G0 Z3.0
G0 X160.4015 Y9.0
G0 Z1.0
G1 F100.0 Z0.0
G1 F400.0 X160.4034 Y9.039 Z-0.0031
G1 X160.4092 Y9.0777 Z-0.0063
G1 X160.4187 Y9.1157 Z-0.0094
G1 X160.4318 Y9.1525 Z-0.0125
G1 X160.4486 Y9.1878 Z-0.0156
G1 X160.4687 Y9.2214 Z-0.0188
G1 X160.492 Y9.2528 Z-0.0219
G1 X160.5182 Y9.2818 Z-0.025
G1 X160.5472 Y9.308 Z-0.0281
G1 X160.5786 Y9.3313 Z-0.0313
G1 X160.6121 Y9.3514 Z-0.0344
G1 X160.6475 Y9.3682 Z-0.0375
G1 X160.6843 Y9.3813 Z-0.0406
G1 X160.7223 Y9.3908 Z-0.0437
G1 X160.7609 Y9.3966 Z-0.0469
G1 X160.8 Y9.3985 Z-0.05
G1 X160.8391 Y9.3966 Z-0.0531
G1 X160.8777 Y9.3908 Z-0.0563
G1 X160.9157 Y9.3813 Z-0.0594
G1 X160.9525 Y9.3682 Z-0.0625
G1 X160.9879 Y9.3514 Z-0.0656
G1 X161.0214 Y9.3313 Z-0.0687
G1 X161.0528 Y9.308 Z-0.0719
G1 X161.0818 Y9.2818 Z-0.075
G1 X161.108 Y9.2528 Z-0.0781
G1 X161.1313 Y9.2214 Z-0.0812
G1 X161.1514 Y9.1879 Z-0.0844
G1 X161.1682 Y9.1525 Z-0.0875
G1 X161.1813 Y9.1157 Z-0.0906
G1 X161.1908 Y9.0777 Z-0.0937
G1 X161.1966 Y9.039 Z-0.0969
G1 X161.1985 Y9.0 Z-0.1
G1 X161.1966 Y8.961 Z-0.1031
G1 X161.1908 Y8.9223 Z-0.1063
G1 X161.1813 Y8.8843 Z-0.1094
G1 X161.1682 Y8.8475 Z-0.1125
G1 X161.1514 Y8.8121 Z-0.1156
G1 X161.1313 Y8.7786 Z-0.1187
G1 X161.108 Y8.7472 Z-0.1219
G1 X161.0818 Y8.7182 Z-0.125
G1 X161.0528 Y8.692 Z-0.1281
G1 X161.0214 Y8.6687 Z-0.1313
G1 X160.9878 Y8.6486 Z-0.1344
G1 X160.9525 Y8.6318 Z-0.1375
G1 X160.9157 Y8.6187 Z-0.1406
G1 X160.8777 Y8.6092 Z-0.1437
G1 X160.8391 Y8.6034 Z-0.1469
G1 X160.8 Y8.6015 Z-0.15
G1 X160.7609 Y8.6034 Z-0.1531
G1 X160.7223 Y8.6092 Z-0.1563
G1 X160.6843 Y8.6187 Z-0.1594
G1 X160.6475 Y8.6318 Z-0.1625
G1 X160.6122 Y8.6486 Z-0.1656
G1 X160.5786 Y8.6687 Z-0.1688
G1 X160.5472 Y8.692 Z-0.1719
G1 X160.5182 Y8.7182 Z-0.175
G1 X160.492 Y8.7472 Z-0.1781
G1 X160.4687 Y8.7786 Z-0.1813
G1 X160.4486 Y8.8122 Z-0.1844
G1 X160.4318 Y8.8475 Z-0.1875
G1 X160.4187 Y8.8843 Z-0.1906
G1 X160.4092 Y8.9223 Z-0.1937
G1 X160.4034 Y8.961 Z-0.1969
G1 X160.4015 Y9.0 Z-0.2
G1 X160.4034 Y9.039 Z-0.2031
G1 X160.4092 Y9.0777 Z-0.2063
G1 X160.4187 Y9.1157 Z-0.2094
G1 X160.4318 Y9.1525 Z-0.2125
G1 X160.4486 Y9.1878 Z-0.2156
G1 X160.4687 Y9.2214 Z-0.2188
G1 X160.492 Y9.2528 Z-0.2219
G1 X160.5182 Y9.2818 Z-0.225
G1 X160.5472 Y9.308 Z-0.2281
G1 X160.5786 Y9.3313 Z-0.2313
G1 X160.6121 Y9.3514 Z-0.2344
G1 X160.6475 Y9.3682 Z-0.2375
G1 X160.6843 Y9.3813 Z-0.2406
G1 X160.7223 Y9.3908 Z-0.2437
G1 X160.7609 Y9.3966 Z-0.2469
G1 X160.8 Y9.3985 Z-0.25
G1 X160.8391 Y9.3966 Z-0.2531
G1 X160.8777 Y9.3908 Z-0.2563
G1 X160.9157 Y9.3813 Z-0.2594
G1 X160.9525 Y9.3682 Z-0.2625
G1 X160.9879 Y9.3514 Z-0.2656
G1 X161.0214 Y9.3313 Z-0.2687
G1 X161.0528 Y9.308 Z-0.2719
G1 X161.0818 Y9.2818 Z-0.275
G1 X161.108 Y9.2528 Z-0.2781
G1 X161.1313 Y9.2214 Z-0.2812
G1 X161.1514 Y9.1879 Z-0.2844
G1 X161.1682 Y9.1525 Z-0.2875
G1 X161.1813 Y9.1157 Z-0.2906
G1 X161.1908 Y9.0777 Z-0.2937
G1 X161.1966 Y9.039 Z-0.2969
G1 X161.1985 Y9.0 Z-0.3
G1 X161.1966 Y8.961 Z-0.3031
G1 X161.1908 Y8.9223 Z-0.3063
G1 X161.1813 Y8.8843 Z-0.3094
G1 X161.1682 Y8.8475 Z-0.3125
G1 X161.1514 Y8.8121 Z-0.3156
G1 X161.1313 Y8.7786 Z-0.3187
G1 X161.108 Y8.7472 Z-0.3219
G1 X161.0818 Y8.7182 Z-0.325
G1 X161.0528 Y8.692 Z-0.3281
G1 X161.0214 Y8.6687 Z-0.3313
G1 X160.9878 Y8.6486 Z-0.3344
G1 X160.9525 Y8.6318 Z-0.3375
G1 X160.9157 Y8.6187 Z-0.3406
G1 X160.8777 Y8.6092 Z-0.3437
G1 X160.8391 Y8.6034 Z-0.3469
G1 X160.8 Y8.6015 Z-0.35
G1 X160.7609 Y8.6034 Z-0.3531
G1 X160.7223 Y8.6092 Z-0.3563
G1 X160.6843 Y8.6187 Z-0.3594
G1 X160.6475 Y8.6318 Z-0.3625
G1 X160.6122 Y8.6486 Z-0.3656
G1 X160.5786 Y8.6687 Z-0.3688
G1 X160.5472 Y8.692 Z-0.3719
G1 X160.5182 Y8.7182 Z-0.375
G1 X160.492 Y8.7472 Z-0.3781
G1 X160.4687 Y8.7786 Z-0.3813
G1 X160.4486 Y8.8122 Z-0.3844
G1 X160.4318 Y8.8475 Z-0.3875
G1 X160.4187 Y8.8843 Z-0.3906
G1 X160.4092 Y8.9223 Z-0.3937
G1 X160.4034 Y8.961 Z-0.3969
G1 X160.4015 Y9.0 Z-0.4
G1 X160.4034 Y9.039 Z-0.4031
G1 X160.4092 Y9.0777 Z-0.4063
G1 X160.4187 Y9.1157 Z-0.4094
G1 X160.4318 Y9.1525 Z-0.4125
G1 X160.4486 Y9.1878 Z-0.4156
G1 X160.4687 Y9.2214 Z-0.4188
G1 X160.492 Y9.2528 Z-0.4219
G1 X160.5182 Y9.2818 Z-0.425
G1 X160.5472 Y9.308 Z-0.4281
G1 X160.5786 Y9.3313 Z-0.4313
G1 X160.6121 Y9.3514 Z-0.4344
G1 X160.6475 Y9.3682 Z-0.4375
G1 X160.6843 Y9.3813 Z-0.4406
G1 X160.7223 Y9.3908 Z-0.4437
G1 X160.7609 Y9.3966 Z-0.4469
G1 X160.8 Y9.3985 Z-0.45
G1 X160.8391 Y9.3966 Z-0.4531
G1 X160.8777 Y9.3908 Z-0.4563
G1 X160.9157 Y9.3813 Z-0.4594
G1 X160.9525 Y9.3682 Z-0.4625
G1 X160.9879 Y9.3514 Z-0.4656
G1 X161.0214 Y9.3313 Z-0.4687
G1 X161.0528 Y9.308 Z-0.4719
G1 X161.0818 Y9.2818 Z-0.475
G1 X161.108 Y9.2528 Z-0.4781
G1 X161.1313 Y9.2214 Z-0.4812
G1 X161.1514 Y9.1879 Z-0.4844
G1 X161.1682 Y9.1525 Z-0.4875
G1 X161.1813 Y9.1157 Z-0.4906
G1 X161.1908 Y9.0777 Z-0.4937
G1 X161.1966 Y9.039 Z-0.4969
G1 X161.1985 Y9.0 Z-0.5
G1 X161.1966 Y8.961 Z-0.5031
G1 X161.1908 Y8.9223 Z-0.5063
G1 X161.1813 Y8.8843 Z-0.5094
G1 X161.1682 Y8.8475 Z-0.5125
G1 X161.1514 Y8.8121 Z-0.5156
G1 X161.1313 Y8.7786 Z-0.5187
G1 X161.108 Y8.7472 Z-0.5219
G1 X161.0818 Y8.7182 Z-0.525
G1 X161.0528 Y8.692 Z-0.5281
G1 X161.0214 Y8.6687 Z-0.5313
G1 X160.9878 Y8.6486 Z-0.5344
G1 X160.9525 Y8.6318 Z-0.5375
G1 X160.9157 Y8.6187 Z-0.5406
G1 X160.8777 Y8.6092 Z-0.5437
G1 X160.8391 Y8.6034 Z-0.5469
G1 X160.8 Y8.6015 Z-0.55
G1 X160.7609 Y8.6034 Z-0.5531
G1 X160.7223 Y8.6092 Z-0.5563
G1 X160.6843 Y8.6187 Z-0.5594
G1 X160.6475 Y8.6318 Z-0.5625
G1 X160.6122 Y8.6486 Z-0.5656
G1 X160.5786 Y8.6687 Z-0.5688
G1 X160.5472 Y8.692 Z-0.5719
G1 X160.5182 Y8.7182 Z-0.575
G1 X160.492 Y8.7472 Z-0.5781
G1 X160.4687 Y8.7786 Z-0.5813
G1 X160.4486 Y8.8122 Z-0.5844
G1 X160.4318 Y8.8475 Z-0.5875
G1 X160.4187 Y8.8843 Z-0.5906
G1 X160.4092 Y8.9223 Z-0.5937
G1 X160.4034 Y8.961 Z-0.5969
G1 X160.4015 Y9.0 Z-0.6
G1 X160.4034 Y9.039 Z-0.6031
G1 X160.4092 Y9.0777 Z-0.6063
G1 X160.4187 Y9.1157 Z-0.6094
G1 X160.4318 Y9.1525 Z-0.6125
G1 X160.4486 Y9.1878 Z-0.6156
G1 X160.4687 Y9.2214 Z-0.6188
G1 X160.492 Y9.2528 Z-0.6219
G1 X160.5182 Y9.2818 Z-0.625
G1 X160.5472 Y9.308 Z-0.6281
G1 X160.5786 Y9.3313 Z-0.6313
G1 X160.6121 Y9.3514 Z-0.6344
G1 X160.6475 Y9.3682 Z-0.6375
G1 X160.6843 Y9.3813 Z-0.6406
G1 X160.7223 Y9.3908 Z-0.6437
G1 X160.7609 Y9.3966 Z-0.6469
G1 X160.8 Y9.3985 Z-0.65
G1 X160.8391 Y9.3966 Z-0.6531
G1 X160.8777 Y9.3908 Z-0.6563
G1 X160.9157 Y9.3813 Z-0.6594
G1 X160.9525 Y9.3682 Z-0.6625
G1 X160.9879 Y9.3514 Z-0.6656
G1 X161.0214 Y9.3313 Z-0.6687
G1 X161.0528 Y9.308 Z-0.6719
G1 X161.0818 Y9.2818 Z-0.675
G1 X161.108 Y9.2528 Z-0.6781
G1 X161.1313 Y9.2214 Z-0.6812
G1 X161.1514 Y9.1879 Z-0.6844
G1 X161.1682 Y9.1525 Z-0.6875
G1 X161.1813 Y9.1157 Z-0.6906
G1 X161.1908 Y9.0777 Z-0.6937
G1 X161.1966 Y9.039 Z-0.6969
G1 X161.1985 Y9.0 Z-0.7
G1 X161.1966 Y8.961 Z-0.7031
G1 X161.1908 Y8.9223 Z-0.7063
G1 X161.1813 Y8.8843 Z-0.7094
G1 X161.1682 Y8.8475 Z-0.7125
G1 X161.1514 Y8.8121 Z-0.7156
G1 X161.1313 Y8.7786 Z-0.7187
G1 X161.108 Y8.7472 Z-0.7219
G1 X161.0818 Y8.7182 Z-0.725
G1 X161.0528 Y8.692 Z-0.7281
G1 X161.0214 Y8.6687 Z-0.7313
G1 X160.9878 Y8.6486 Z-0.7344
G1 X160.9525 Y8.6318 Z-0.7375
G1 X160.9157 Y8.6187 Z-0.7406
G1 X160.8777 Y8.6092 Z-0.7437
G1 X160.8391 Y8.6034 Z-0.7469
G1 X160.8 Y8.6015 Z-0.75
G1 X160.7609 Y8.6034 Z-0.7531
G1 X160.7223 Y8.6092 Z-0.7563
G1 X160.6843 Y8.6187 Z-0.7594
G1 X160.6475 Y8.6318 Z-0.7625
G1 X160.6122 Y8.6486 Z-0.7656
G1 X160.5786 Y8.6687 Z-0.7688
G1 X160.5472 Y8.692 Z-0.7719
G1 X160.5182 Y8.7182 Z-0.775
G1 X160.492 Y8.7472 Z-0.7781
G1 X160.4687 Y8.7786 Z-0.7813
G1 X160.4486 Y8.8122 Z-0.7844
G1 X160.4318 Y8.8475 Z-0.7875
G1 X160.4187 Y8.8843 Z-0.7906
G1 X160.4092 Y8.9223 Z-0.7937
G1 X160.4034 Y8.961 Z-0.7969
G1 X160.4015 Y9.0 Z-0.8
G1 X160.4034 Y9.039 Z-0.8031
G1 X160.4092 Y9.0777 Z-0.8063
G1 X160.4187 Y9.1157 Z-0.8094
G1 X160.4318 Y9.1525 Z-0.8125
G1 X160.4486 Y9.1878 Z-0.8156
G1 X160.4687 Y9.2214 Z-0.8188
G1 X160.492 Y9.2528 Z-0.8219
G1 X160.5182 Y9.2818 Z-0.825
G1 X160.5472 Y9.308 Z-0.8281
G1 X160.5786 Y9.3313 Z-0.8313
G1 X160.6121 Y9.3514 Z-0.8344
G1 X160.6475 Y9.3682 Z-0.8375
G1 X160.6843 Y9.3813 Z-0.8406
G1 X160.7223 Y9.3908 Z-0.8437
G1 X160.7609 Y9.3966 Z-0.8469
G1 X160.8 Y9.3985 Z-0.85
G1 X160.8391 Y9.3966 Z-0.8531
G1 X160.8777 Y9.3908 Z-0.8563
G1 X160.9157 Y9.3813 Z-0.8594
G1 X160.9525 Y9.3682 Z-0.8625
G1 X160.9879 Y9.3514 Z-0.8656
G1 X161.0214 Y9.3313 Z-0.8687
G1 X161.0528 Y9.308 Z-0.8719
G1 X161.0818 Y9.2818 Z-0.875
G1 X161.108 Y9.2528 Z-0.8781
G1 X161.1313 Y9.2214 Z-0.8812
G1 X161.1514 Y9.1879 Z-0.8844
G1 X161.1682 Y9.1525 Z-0.8875
G1 X161.1813 Y9.1157 Z-0.8906
G1 X161.1908 Y9.0777 Z-0.8937
G1 X161.1966 Y9.039 Z-0.8969
G1 X161.1985 Y9.0 Z-0.9
G1 X161.1966 Y8.961 Z-0.9031
G1 X161.1908 Y8.9223 Z-0.9063
G1 X161.1813 Y8.8843 Z-0.9094
G1 X161.1682 Y8.8475 Z-0.9125
G1 X161.1514 Y8.8121 Z-0.9156
G1 X161.1313 Y8.7786 Z-0.9187
G1 X161.108 Y8.7472 Z-0.9219
G1 X161.0818 Y8.7182 Z-0.925
G1 X161.0528 Y8.692 Z-0.9281
G1 X161.0214 Y8.6687 Z-0.9313
G1 X160.9878 Y8.6486 Z-0.9344
G1 X160.9525 Y8.6318 Z-0.9375
G1 X160.9157 Y8.6187 Z-0.9406
G1 X160.8777 Y8.6092 Z-0.9437
G1 X160.8391 Y8.6034 Z-0.9469
G1 X160.8 Y8.6015 Z-0.95
G1 X160.7609 Y8.6034 Z-0.9531
G1 X160.7223 Y8.6092 Z-0.9563
G1 X160.6843 Y8.6187 Z-0.9594
G1 X160.6475 Y8.6318 Z-0.9625
G1 X160.6122 Y8.6486 Z-0.9656
G1 X160.5786 Y8.6687 Z-0.9688
G1 X160.5472 Y8.692 Z-0.9719
G1 X160.5182 Y8.7182 Z-0.975
G1 X160.492 Y8.7472 Z-0.9781
G1 X160.4687 Y8.7786 Z-0.9813
G1 X160.4486 Y8.8122 Z-0.9844
G1 X160.4318 Y8.8475 Z-0.9875
G1 X160.4187 Y8.8843 Z-0.9906
G1 X160.4092 Y8.9223 Z-0.9937
G1 X160.4034 Y8.961 Z-0.9969
G1 X160.4015 Y9.0 Z-1.0
G1 X160.4034 Y9.039 Z-1.0031
G1 X160.4092 Y9.0777 Z-1.0063
G1 X160.4187 Y9.1157 Z-1.0094
G1 X160.4318 Y9.1525 Z-1.0125
G1 X160.4486 Y9.1878 Z-1.0156
G1 X160.4687 Y9.2214 Z-1.0188
G1 X160.492 Y9.2528 Z-1.0219
G1 X160.5182 Y9.2818 Z-1.025
G1 X160.5472 Y9.308 Z-1.0281
G1 X160.5786 Y9.3313 Z-1.0313
G1 X160.6121 Y9.3514 Z-1.0344
G1 X160.6475 Y9.3682 Z-1.0375
G1 X160.6843 Y9.3813 Z-1.0406
G1 X160.7223 Y9.3908 Z-1.0437
G1 X160.7609 Y9.3966 Z-1.0469
G1 X160.8 Y9.3985 Z-1.05
G1 X160.8391 Y9.3966 Z-1.0531
G1 X160.8777 Y9.3908 Z-1.0563
G1 X160.9157 Y9.3813 Z-1.0594
G1 X160.9525 Y9.3682 Z-1.0625
G1 X160.9879 Y9.3514 Z-1.0656
G1 X161.0214 Y9.3313 Z-1.0687
G1 X161.0528 Y9.308 Z-1.0719
G1 X161.0818 Y9.2818 Z-1.075
G1 X161.108 Y9.2528 Z-1.0781
G1 X161.1313 Y9.2214 Z-1.0812
G1 X161.1514 Y9.1879 Z-1.0844
G1 X161.1682 Y9.1525 Z-1.0875
G1 X161.1813 Y9.1157 Z-1.0906
G1 X161.1908 Y9.0777 Z-1.0937
G1 X161.1966 Y9.039 Z-1.0969
G1 X161.1985 Y9.0 Z-1.1
G1 X161.1966 Y8.961 Z-1.1031
G1 X161.1908 Y8.9223 Z-1.1063
G1 X161.1813 Y8.8843 Z-1.1094
G1 X161.1682 Y8.8475 Z-1.1125
G1 X161.1514 Y8.8121 Z-1.1156
G1 X161.1313 Y8.7786 Z-1.1187
G1 X161.108 Y8.7472 Z-1.1219
G1 X161.0818 Y8.7182 Z-1.125
G1 X161.0528 Y8.692 Z-1.1281
G1 X161.0214 Y8.6687 Z-1.1313
G1 X160.9878 Y8.6486 Z-1.1344
G1 X160.9525 Y8.6318 Z-1.1375
G1 X160.9157 Y8.6187 Z-1.1406
G1 X160.8777 Y8.6092 Z-1.1437
G1 X160.8391 Y8.6034 Z-1.1469
G1 X160.8 Y8.6015 Z-1.15
G1 X160.7609 Y8.6034 Z-1.1531
G1 X160.7223 Y8.6092 Z-1.1563
G1 X160.6843 Y8.6187 Z-1.1594
G1 X160.6475 Y8.6318 Z-1.1625
G1 X160.6122 Y8.6486 Z-1.1656
G1 X160.5786 Y8.6687 Z-1.1688
G1 X160.5472 Y8.692 Z-1.1719
G1 X160.5182 Y8.7182 Z-1.175
G1 X160.492 Y8.7472 Z-1.1781
G1 X160.4687 Y8.7786 Z-1.1813
G1 X160.4486 Y8.8122 Z-1.1844
G1 X160.4318 Y8.8475 Z-1.1875
G1 X160.4187 Y8.8843 Z-1.1906
G1 X160.4092 Y8.9223 Z-1.1937
G1 X160.4034 Y8.961 Z-1.1969
G1 X160.4015 Y9.0 Z-1.2
G1 X160.4034 Y9.039 Z-1.2031
G1 X160.4092 Y9.0777 Z-1.2063
G1 X160.4187 Y9.1157 Z-1.2094
G1 X160.4318 Y9.1525 Z-1.2125
G1 X160.4486 Y9.1878 Z-1.2156
G1 X160.4687 Y9.2214 Z-1.2188
G1 X160.492 Y9.2528 Z-1.2219
G1 X160.5182 Y9.2818 Z-1.225
G1 X160.5472 Y9.308 Z-1.2281
G1 X160.5786 Y9.3313 Z-1.2313
G1 X160.6121 Y9.3514 Z-1.2344
G1 X160.6475 Y9.3682 Z-1.2375
G1 X160.6843 Y9.3813 Z-1.2406
G1 X160.7223 Y9.3908 Z-1.2437
G1 X160.7609 Y9.3966 Z-1.2469
G1 X160.8 Y9.3985 Z-1.25
G1 X160.8391 Y9.3966 Z-1.2531
G1 X160.8777 Y9.3908 Z-1.2563
G1 X160.9157 Y9.3813 Z-1.2594
G1 X160.9525 Y9.3682 Z-1.2625
G1 X160.9879 Y9.3514 Z-1.2656
G1 X161.0214 Y9.3313 Z-1.2687
G1 X161.0528 Y9.308 Z-1.2719
G1 X161.0818 Y9.2818 Z-1.275
G1 X161.108 Y9.2528 Z-1.2781
G1 X161.1313 Y9.2214 Z-1.2812
G1 X161.1514 Y9.1879 Z-1.2844
G1 X161.1682 Y9.1525 Z-1.2875
G1 X161.1813 Y9.1157 Z-1.2906
G1 X161.1908 Y9.0777 Z-1.2937
G1 X161.1966 Y9.039 Z-1.2969
G1 X161.1985 Y9.0 Z-1.3
G1 X161.1966 Y8.961 Z-1.3031
G1 X161.1908 Y8.9223 Z-1.3063
G1 X161.1813 Y8.8843 Z-1.3094
G1 X161.1682 Y8.8475 Z-1.3125
G1 X161.1514 Y8.8121 Z-1.3156
G1 X161.1313 Y8.7786 Z-1.3187
G1 X161.108 Y8.7472 Z-1.3219
G1 X161.0818 Y8.7182 Z-1.325
G1 X161.0528 Y8.692 Z-1.3281
G1 X161.0214 Y8.6687 Z-1.3313
G1 X160.9878 Y8.6486 Z-1.3344
G1 X160.9525 Y8.6318 Z-1.3375
G1 X160.9157 Y8.6187 Z-1.3406
G1 X160.8777 Y8.6092 Z-1.3437
G1 X160.8391 Y8.6034 Z-1.3469
G1 X160.8 Y8.6015 Z-1.35
G1 X160.7609 Y8.6034 Z-1.3531
G1 X160.7223 Y8.6092 Z-1.3563
G1 X160.6843 Y8.6187 Z-1.3594
G1 X160.6475 Y8.6318 Z-1.3625
G1 X160.6122 Y8.6486 Z-1.3656
G1 X160.5786 Y8.6687 Z-1.3688
G1 X160.5472 Y8.692 Z-1.3719
G1 X160.5182 Y8.7182 Z-1.375
G1 X160.492 Y8.7472 Z-1.3781
G1 X160.4687 Y8.7786 Z-1.3813
G1 X160.4486 Y8.8122 Z-1.3844
G1 X160.4318 Y8.8475 Z-1.3875
G1 X160.4187 Y8.8843 Z-1.3906
G1 X160.4092 Y8.9223 Z-1.3937
G1 X160.4034 Y8.961 Z-1.3969
G1 X160.4015 Y9.0 Z-1.4
G1 X160.4034 Y9.039 Z-1.4031
G1 X160.4092 Y9.0777 Z-1.4063
G1 X160.4187 Y9.1157 Z-1.4094
G1 X160.4318 Y9.1525 Z-1.4125
G1 X160.4486 Y9.1878 Z-1.4156
G1 X160.4687 Y9.2214 Z-1.4188
G1 X160.492 Y9.2528 Z-1.4219
G1 X160.5182 Y9.2818 Z-1.425
G1 X160.5472 Y9.308 Z-1.4281
G1 X160.5786 Y9.3313 Z-1.4313
G1 X160.6121 Y9.3514 Z-1.4344
G1 X160.6475 Y9.3682 Z-1.4375
G1 X160.6843 Y9.3813 Z-1.4406
G1 X160.7223 Y9.3908 Z-1.4437
G1 X160.7609 Y9.3966 Z-1.4469
G1 X160.8 Y9.3985 Z-1.45
G1 X160.8391 Y9.3966 Z-1.4531
G1 X160.8777 Y9.3908 Z-1.4563
G1 X160.9157 Y9.3813 Z-1.4594
G1 X160.9525 Y9.3682 Z-1.4625
G1 X160.9879 Y9.3514 Z-1.4656
G1 X161.0214 Y9.3313 Z-1.4687
G1 X161.0528 Y9.308 Z-1.4719
G1 X161.0818 Y9.2818 Z-1.475
G1 X161.108 Y9.2528 Z-1.4781
G1 X161.1313 Y9.2214 Z-1.4812
G1 X161.1514 Y9.1879 Z-1.4844
G1 X161.1682 Y9.1525 Z-1.4875
G1 X161.1813 Y9.1157 Z-1.4906
G1 X161.1908 Y9.0777 Z-1.4937
G1 X161.1966 Y9.039 Z-1.4969
G1 X161.1985 Y9.0 Z-1.5
G1 X161.1966 Y8.961 Z-1.5031
G1 X161.1908 Y8.9223 Z-1.5063
G1 X161.1813 Y8.8843 Z-1.5094
G1 X161.1682 Y8.8475 Z-1.5125
G1 X161.1514 Y8.8121 Z-1.5156
G1 X161.1313 Y8.7786 Z-1.5187
G1 X161.108 Y8.7472 Z-1.5219
G1 X161.0818 Y8.7182 Z-1.525
G1 X161.0528 Y8.692 Z-1.5281
G1 X161.0214 Y8.6687 Z-1.5313
G1 X160.9878 Y8.6486 Z-1.5344
G1 X160.9525 Y8.6318 Z-1.5375
G1 X160.9157 Y8.6187 Z-1.5406
G1 X160.8777 Y8.6092 Z-1.5437
G1 X160.8391 Y8.6034 Z-1.5469
G1 X160.8 Y8.6015 Z-1.55
G1 X160.7609 Y8.6034 Z-1.5531
G1 X160.7223 Y8.6092 Z-1.5563
G1 X160.6843 Y8.6187 Z-1.5594
G1 X160.6475 Y8.6318 Z-1.5625
G1 X160.6122 Y8.6486 Z-1.5656
G1 X160.5786 Y8.6687 Z-1.5688
G1 X160.5472 Y8.692 Z-1.5719
G1 X160.5182 Y8.7182 Z-1.575
G1 X160.492 Y8.7472 Z-1.5781
G1 X160.4687 Y8.7786 Z-1.5813
G1 X160.4486 Y8.8122 Z-1.5844
G1 X160.4318 Y8.8475 Z-1.5875
G1 X160.4187 Y8.8843 Z-1.5906
G1 X160.4092 Y8.9223 Z-1.5937
G1 X160.4034 Y8.961 Z-1.5969
G1 X160.4015 Y9.0 Z-1.6
G1 X160.4034 Y9.039 Z-1.6031
G1 X160.4092 Y9.0777 Z-1.6063
G1 X160.4187 Y9.1157 Z-1.6094
G1 X160.4318 Y9.1525 Z-1.6125
G1 X160.4486 Y9.1878 Z-1.6156
G1 X160.4687 Y9.2214 Z-1.6188
G1 X160.492 Y9.2528 Z-1.6219
G1 X160.5182 Y9.2818 Z-1.625
G1 X160.5472 Y9.308 Z-1.6281
G1 X160.5786 Y9.3313 Z-1.6313
G1 X160.6121 Y9.3514 Z-1.6344
G1 X160.6475 Y9.3682 Z-1.6375
G1 X160.6843 Y9.3813 Z-1.6406
G1 X160.7223 Y9.3908 Z-1.6437
G1 X160.7609 Y9.3966 Z-1.6469
G1 X160.8 Y9.3985 Z-1.65
G1 X160.8391 Y9.3966 Z-1.6531
G1 X160.8777 Y9.3908 Z-1.6563
G1 X160.9157 Y9.3813 Z-1.6594
G1 X160.9525 Y9.3682 Z-1.6625
G1 X160.9879 Y9.3514 Z-1.6656
G1 X161.0214 Y9.3313 Z-1.6687
G1 X161.0528 Y9.308 Z-1.6719
G1 X161.0818 Y9.2818 Z-1.675
G1 X161.108 Y9.2528 Z-1.6781
G1 X161.1313 Y9.2214 Z-1.6812
G1 X161.1514 Y9.1879 Z-1.6844
G1 X161.1682 Y9.1525 Z-1.6875
G1 X161.1813 Y9.1157 Z-1.6906
G1 X161.1908 Y9.0777 Z-1.6937
G1 X161.1966 Y9.039 Z-1.6969
G1 X161.1985 Y9.0 Z-1.7
G1 X161.1966 Y8.961 Z-1.7031
G1 X161.1908 Y8.9223 Z-1.7063
G1 X161.1813 Y8.8843 Z-1.7094
G1 X161.1682 Y8.8475 Z-1.7125
G1 X161.1514 Y8.8121 Z-1.7156
G1 X161.1313 Y8.7786 Z-1.7187
G1 X161.108 Y8.7472 Z-1.7219
G1 X161.0818 Y8.7182 Z-1.725
G1 X161.0528 Y8.692 Z-1.7281
G1 X161.0214 Y8.6687 Z-1.7313
G1 X160.9878 Y8.6486 Z-1.7344
G1 X160.9525 Y8.6318 Z-1.7375
G1 X160.9157 Y8.6187 Z-1.7406
G1 X160.8777 Y8.6092 Z-1.7437
G1 X160.8391 Y8.6034 Z-1.7469
G1 X160.8 Y8.6015 Z-1.75
G1 X160.7609 Y8.6034 Z-1.7531
G1 X160.7223 Y8.6092 Z-1.7563
G1 X160.6843 Y8.6187 Z-1.7594
G1 X160.6475 Y8.6318 Z-1.7625
G1 X160.6122 Y8.6486 Z-1.7656
G1 X160.5786 Y8.6687 Z-1.7688
G1 X160.5472 Y8.692 Z-1.7719
G1 X160.5182 Y8.7182 Z-1.775
G1 X160.492 Y8.7472 Z-1.7781
G1 X160.4687 Y8.7786 Z-1.7813
G1 X160.4486 Y8.8122 Z-1.7844
G1 X160.4318 Y8.8475 Z-1.7875
G1 X160.4187 Y8.8843 Z-1.7906
G1 X160.4092 Y8.9223 Z-1.7937
G1 X160.4034 Y8.961 Z-1.7969
G1 X160.4015 Y9.0 Z-1.8
G1 X160.4034 Y9.039 Z-1.8031
G1 X160.4092 Y9.0777 Z-1.8063
G1 X160.4187 Y9.1157 Z-1.8094
G1 X160.4318 Y9.1525 Z-1.8125
G1 X160.4486 Y9.1878 Z-1.8156
G1 X160.4687 Y9.2214 Z-1.8188
G1 X160.492 Y9.2528 Z-1.8219
G1 X160.5182 Y9.2818 Z-1.825
G1 X160.5472 Y9.308 Z-1.8281
G1 X160.5786 Y9.3313 Z-1.8313
G1 X160.6121 Y9.3514 Z-1.8344
G1 X160.6475 Y9.3682 Z-1.8375
G1 X160.6843 Y9.3813 Z-1.8406
G1 X160.7223 Y9.3908 Z-1.8437
G1 X160.7609 Y9.3966 Z-1.8469
G1 X160.8 Y9.3985 Z-1.85
G1 X160.8391 Y9.3966 Z-1.8531
G1 X160.8777 Y9.3908 Z-1.8563
G1 X160.9157 Y9.3813 Z-1.8594
G1 X160.9525 Y9.3682 Z-1.8625
G1 X160.9879 Y9.3514 Z-1.8656
G1 X161.0214 Y9.3313 Z-1.8687
G1 X161.0528 Y9.308 Z-1.8719
G1 X161.0818 Y9.2818 Z-1.875
G1 X161.108 Y9.2528 Z-1.8781
G1 X161.1313 Y9.2214 Z-1.8812
G1 X161.1514 Y9.1879 Z-1.8844
G1 X161.1682 Y9.1525 Z-1.8875
G1 X161.1813 Y9.1157 Z-1.8906
G1 X161.1908 Y9.0777 Z-1.8937
G1 X161.1966 Y9.039 Z-1.8969
G1 X161.1985 Y9.0 Z-1.9
G1 X161.1966 Y8.961 Z-1.9031
G1 X161.1908 Y8.9223 Z-1.9063
G1 X161.1813 Y8.8843 Z-1.9094
G1 X161.1682 Y8.8475 Z-1.9125
G1 X161.1514 Y8.8121 Z-1.9156
G1 X161.1313 Y8.7786 Z-1.9187
G1 X161.108 Y8.7472 Z-1.9219
G1 X161.0818 Y8.7182 Z-1.925
G1 X161.0528 Y8.692 Z-1.9281
G1 X161.0214 Y8.6687 Z-1.9313
G1 X160.9878 Y8.6486 Z-1.9344
G1 X160.9525 Y8.6318 Z-1.9375
G1 X160.9157 Y8.6187 Z-1.9406
G1 X160.8777 Y8.6092 Z-1.9437
G1 X160.8391 Y8.6034 Z-1.9469
G1 X160.8 Y8.6015 Z-1.95
G1 X160.7609 Y8.6034 Z-1.9531
G1 X160.7223 Y8.6092 Z-1.9563
G1 X160.6843 Y8.6187 Z-1.9594
G1 X160.6475 Y8.6318 Z-1.9625
G1 X160.6122 Y8.6486 Z-1.9656
G1 X160.5786 Y8.6687 Z-1.9688
G1 X160.5472 Y8.692 Z-1.9719
G1 X160.5182 Y8.7182 Z-1.975
G1 X160.492 Y8.7472 Z-1.9781
G1 X160.4687 Y8.7786 Z-1.9813
G1 X160.4486 Y8.8122 Z-1.9844
G1 X160.4318 Y8.8475 Z-1.9875
G1 X160.4187 Y8.8843 Z-1.9906
G1 X160.4092 Y8.9223 Z-1.9937
G1 X160.4034 Y8.961 Z-1.9969
G1 X160.4015 Y9.0 Z-2.0
G1 X160.4034 Y9.039 Z-2.0031
G1 X160.4092 Y9.0777 Z-2.0063
G1 X160.4187 Y9.1157 Z-2.0094
G1 X160.4318 Y9.1525 Z-2.0125
G1 X160.4486 Y9.1878 Z-2.0156
G1 X160.4687 Y9.2214 Z-2.0188
G1 X160.492 Y9.2528 Z-2.0219
G1 X160.5182 Y9.2818 Z-2.025
G1 X160.5472 Y9.308 Z-2.0281
G1 X160.5786 Y9.3313 Z-2.0313
G1 X160.6121 Y9.3514 Z-2.0344
G1 X160.6475 Y9.3682 Z-2.0375
G1 X160.6843 Y9.3813 Z-2.0406
G1 X160.7223 Y9.3908 Z-2.0437
G1 X160.7609 Y9.3966 Z-2.0469
G1 X160.8 Y9.3985 Z-2.05
G1 X160.8391 Y9.3966 Z-2.0531
G1 X160.8777 Y9.3908 Z-2.0563
G1 X160.9157 Y9.3813 Z-2.0594
G1 X160.9525 Y9.3682 Z-2.0625
G1 X160.9879 Y9.3514 Z-2.0656
G1 X161.0214 Y9.3313 Z-2.0687
G1 X161.0528 Y9.308 Z-2.0719
G1 X161.0818 Y9.2818 Z-2.075
G1 X161.108 Y9.2528 Z-2.0781
G1 X161.1313 Y9.2214 Z-2.0812
G1 X161.1514 Y9.1879 Z-2.0844
G1 X161.1682 Y9.1525 Z-2.0875
G1 X161.1813 Y9.1157 Z-2.0906
G1 X161.1908 Y9.0777 Z-2.0937
G1 X161.1966 Y9.039 Z-2.0969
G1 X161.1985 Y9.0 Z-2.1
G1 X161.1966 Y8.961 Z-2.1031
G1 X161.1908 Y8.9223 Z-2.1063
G1 X161.1813 Y8.8843 Z-2.1094
G1 X161.1682 Y8.8475 Z-2.1125
G1 X161.1514 Y8.8121 Z-2.1156
G1 X161.1313 Y8.7786 Z-2.1187
G1 X161.108 Y8.7472 Z-2.1219
G1 X161.0818 Y8.7182 Z-2.125
G1 X161.0528 Y8.692 Z-2.1281
G1 X161.0214 Y8.6687 Z-2.1313
G1 X160.9878 Y8.6486 Z-2.1344
G1 X160.9525 Y8.6318 Z-2.1375
G1 X160.9157 Y8.6187 Z-2.1406
G1 X160.8777 Y8.6092 Z-2.1437
G1 X160.8391 Y8.6034 Z-2.1469
G1 X160.8 Y8.6015 Z-2.15
G1 X160.7609 Y8.6034 Z-2.1531
G1 X160.7223 Y8.6092 Z-2.1563
G1 X160.6843 Y8.6187 Z-2.1594
G1 X160.6475 Y8.6318 Z-2.1625
G1 X160.6122 Y8.6486 Z-2.1656
G1 X160.5786 Y8.6687 Z-2.1688
G1 X160.5472 Y8.692 Z-2.1719
G1 X160.5182 Y8.7182 Z-2.175
G1 X160.492 Y8.7472 Z-2.1781
G1 X160.4687 Y8.7786 Z-2.1813
G1 X160.4486 Y8.8122 Z-2.1844
G1 X160.4318 Y8.8475 Z-2.1875
G1 X160.4187 Y8.8843 Z-2.1906
G1 X160.4092 Y8.9223 Z-2.1937
G1 X160.4034 Y8.961 Z-2.1969
G1 X160.4015 Y9.0 Z-2.2
G1 X160.4034 Y9.039 Z-2.2031
G1 X160.4092 Y9.0777 Z-2.2063
G1 X160.4187 Y9.1157 Z-2.2094
G1 X160.4318 Y9.1525 Z-2.2125
G1 X160.4486 Y9.1878 Z-2.2156
G1 X160.4687 Y9.2214 Z-2.2188
G1 X160.492 Y9.2528 Z-2.2219
G1 X160.5182 Y9.2818 Z-2.225
G1 X160.5472 Y9.308 Z-2.2281
G1 X160.5786 Y9.3313 Z-2.2313
G1 X160.6121 Y9.3514 Z-2.2344
G1 X160.6475 Y9.3682 Z-2.2375
G1 X160.6843 Y9.3813 Z-2.2406
G1 X160.7223 Y9.3908 Z-2.2437
G1 X160.7609 Y9.3966 Z-2.2469
G1 X160.8 Y9.3985 Z-2.25
G1 X160.8391 Y9.3966 Z-2.2531
G1 X160.8777 Y9.3908 Z-2.2563
G1 X160.9157 Y9.3813 Z-2.2594
G1 X160.9525 Y9.3682 Z-2.2625
G1 X160.9879 Y9.3514 Z-2.2656
G1 X161.0214 Y9.3313 Z-2.2687
G1 X161.0528 Y9.308 Z-2.2719
G1 X161.0818 Y9.2818 Z-2.275
G1 X161.108 Y9.2528 Z-2.2781
G1 X161.1313 Y9.2214 Z-2.2812
G1 X161.1514 Y9.1879 Z-2.2844
G1 X161.1682 Y9.1525 Z-2.2875
G1 X161.1813 Y9.1157 Z-2.2906
G1 X161.1908 Y9.0777 Z-2.2937
G1 X161.1966 Y9.039 Z-2.2969
G1 X161.1985 Y9.0 Z-2.3
G1 X161.1966 Y8.961 Z-2.3031
G1 X161.1908 Y8.9223 Z-2.3063
G1 X161.1813 Y8.8843 Z-2.3094
G1 X161.1682 Y8.8475 Z-2.3125
G1 X161.1514 Y8.8121 Z-2.3156
G1 X161.1313 Y8.7786 Z-2.3187
G1 X161.108 Y8.7472 Z-2.3219
G1 X161.0818 Y8.7182 Z-2.325
G1 X161.0528 Y8.692 Z-2.3281
G1 X161.0214 Y8.6687 Z-2.3313
G1 X160.9878 Y8.6486 Z-2.3344
G1 X160.9525 Y8.6318 Z-2.3375
