( Made using CamBam - http://www.cambam.co.uk )
( ssc_plexi_Left_Panel 2/25/2021 1:47:51 PM )
( T2 : 2.0 )
( CUTVIEWER )
( FROM/0,0,5 )
( Select dummy tool to avoid warnings )
( TOOL/MILL,1,0,20.0,0 )
( STOCK/BLOCK,85.0,95.0,4.0,0.0,0.0,4.0 )
G21 G90 G91.1 G64 G40
G0 Z3.0
( T2 : 2.0 )
( Tool Taper coming soon )
( TOOL/MILL,2.0,0.0,0.0,0 )
T2 M6
( RadioRose_cutout )
G17
M3 S1000
G0 X33.1912 Y38.613
G0 Z1.0
G1 F200.0 Z0.0
G1 F700.0 X33.9379 Y37.938 Z-0.0055
G3 X34.0236 Y37.868 Z-0.0061 I0.7377 J0.816
G1 X34.8343 Y37.2714 Z-0.0116
G3 X34.9267 Y37.2104 Z-0.0122 I0.6519 J0.886
G1 X35.7932 Y36.6984 Z-0.0177
G3 X35.8912 Y36.6469 Z-0.0183 I0.5596 J0.947
G1 X36.8049 Y36.2246 Z-0.0237
G3 X36.9076 Y36.1833 Z-0.0243 I0.4615 J0.9985
G1 X37.859 Y35.855 Z-0.0298
G3 X37.9653 Y35.8242 Z-0.0304 I0.3588 J1.0398
G1 X38.945 Y35.5932 Z-0.0359
G3 X39.0539 Y35.5732 Z-0.0365 I0.2525 J1.0706
G1 X40.0518 Y35.4418 Z-0.042
G3 X40.1621 Y35.4329 Z-0.0426 I0.1436 J1.0906
G1 X41.1681 Y35.4025 Z-0.0481
G3 X41.2788 Y35.4048 Z-0.0487 I0.0332 J1.0995
G1 X42.2828 Y35.4756 Z-0.0542
G3 X42.3927 Y35.489 Z-0.0548 I-0.0775 J1.0973
G1 X43.3845 Y35.6604 Z-0.0603
G3 X43.4925 Y35.6848 Z-0.0609 I-0.1874 J1.0839
G1 X44.4621 Y35.955 Z-0.0663
G3 X44.5671 Y35.9901 Z-0.067 I-0.2954 J1.0596
G1 X45.5045 Y36.3565 Z-0.0724
G3 X45.57 Y36.3845 Z-0.0728 I-0.4004 J1.0245
G1 X45.719 Y36.1265 Z-0.0744
G1 X45.6781 Y36.1056 Z-0.0747
G1 X44.6096 Y35.688 Z-0.0809
G1 X43.5044 Y35.3799 Z-0.0872
G1 X42.374 Y35.1845 Z-0.0934
G1 X41.2295 Y35.1037 Z-0.0997
G1 X40.0828 Y35.1384 Z-0.1059
G1 X38.9453 Y35.2881 Z-0.1122
G1 X37.8287 Y35.5514 Z-0.1184
G1 X36.7442 Y35.9257 Z-0.1247
G1 X35.7028 Y36.407 Z-0.1309
G1 X34.7151 Y36.9906 Z-0.1372
G1 X33.791 Y37.6706 Z-0.1434
G1 X32.94 Y38.44 Z-0.1497
G1 X32.1706 Y39.291 Z-0.1559
G1 X31.4906 Y40.2151 Z-0.1622
G1 X30.907 Y41.2028 Z-0.1684
G1 X30.4257 Y42.2442 Z-0.1747
G1 X30.0514 Y43.3287 Z-0.1809
G1 X29.7881 Y44.4453 Z-0.1872
G1 X29.6384 Y45.5828 Z-0.1934
G1 X29.6037 Y46.7295 Z-0.1997
G1 X29.6845 Y47.874 Z-0.2059
G1 X29.8799 Y49.0044 Z-0.2122
G1 X30.188 Y50.1096 Z-0.2184
G1 X30.6056 Y51.1781 Z-0.2247
G1 X30.6265 Y51.219 Z-0.2249
G1 X30.8845 Y51.07 Z-0.2266
G3 X30.8565 Y51.0045 Z-0.227 I0.9965 J-0.4659
G1 X30.4901 Y50.0671 Z-0.2324
G3 X30.455 Y49.9621 Z-0.233 I1.0245 J-0.4004
G1 X30.1848 Y48.9925 Z-0.2385
G3 X30.1604 Y48.8845 Z-0.2391 I1.0596 J-0.2954
G1 X29.989 Y47.8927 Z-0.2446
G3 X29.9756 Y47.7828 Z-0.2452 I1.0839 J-0.1874
G1 X29.9048 Y46.7788 Z-0.2507
G3 X29.9025 Y46.6681 Z-0.2513 I1.0973 J-0.0775
G1 X29.9329 Y45.6621 Z-0.2568
G3 X29.9418 Y45.5518 Z-0.2574 I1.0995 J0.0332
G1 X30.0732 Y44.5539 Z-0.2629
G3 X30.0932 Y44.445 Z-0.2635 I1.0906 J0.1436
G1 X30.3242 Y43.4653 Z-0.269
G3 X30.355 Y43.359 Z-0.2696 I1.0706 J0.2525
G1 X30.6833 Y42.4076 Z-0.2751
G3 X30.7246 Y42.3049 Z-0.2757 I1.0398 J0.3588
G1 X31.1469 Y41.3912 Z-0.2811
G3 X31.1984 Y41.2932 Z-0.2817 I0.9985 J0.4615
G1 X31.7104 Y40.4267 Z-0.2872
G3 X31.7714 Y40.3343 Z-0.2878 I0.947 J0.5596
G1 X32.368 Y39.5236 Z-0.2933
G3 X32.438 Y39.4379 Z-0.2939 I0.886 J0.6519
G1 X33.113 Y38.6912 Z-0.2994
G3 X33.1912 Y38.613 Z-0.3 I0.816 J0.7377
G1 X33.9379 Y37.938 Z-0.3055
G3 X34.0236 Y37.868 Z-0.3061 I0.7377 J0.816
G1 X34.8343 Y37.2714 Z-0.3116
G3 X34.9267 Y37.2104 Z-0.3122 I0.6519 J0.886
G1 X35.7932 Y36.6984 Z-0.3177
G3 X35.8912 Y36.6469 Z-0.3183 I0.5596 J0.947
G1 X36.8049 Y36.2246 Z-0.3237
G3 X36.9076 Y36.1833 Z-0.3243 I0.4615 J0.9985
G1 X37.859 Y35.855 Z-0.3298
G3 X37.9653 Y35.8242 Z-0.3304 I0.3588 J1.0398
G1 X38.945 Y35.5932 Z-0.3359
G3 X39.0539 Y35.5732 Z-0.3365 I0.2525 J1.0706
G1 X40.0518 Y35.4418 Z-0.342
G3 X40.1621 Y35.4329 Z-0.3426 I0.1436 J1.0906
G1 X41.1681 Y35.4025 Z-0.3481
G3 X41.2788 Y35.4048 Z-0.3487 I0.0332 J1.0995
G1 X42.2828 Y35.4756 Z-0.3542
G3 X42.3927 Y35.489 Z-0.3548 I-0.0775 J1.0973
G1 X43.3845 Y35.6604 Z-0.3603
G3 X43.4925 Y35.6848 Z-0.3609 I-0.1874 J1.0839
G1 X44.4621 Y35.955 Z-0.3663
G3 X44.5671 Y35.9901 Z-0.367 I-0.2954 J1.0596
G1 X45.5045 Y36.3565 Z-0.3724
G3 X45.57 Y36.3845 Z-0.3728 I-0.4004 J1.0245
G1 X45.719 Y36.1265 Z-0.3744
G1 X45.6781 Y36.1056 Z-0.3747
G1 X44.6096 Y35.688 Z-0.3809
G1 X43.5044 Y35.3799 Z-0.3872
G1 X42.374 Y35.1845 Z-0.3934
G1 X41.2295 Y35.1037 Z-0.3997
G1 X40.0828 Y35.1384 Z-0.4059
G1 X38.9453 Y35.2881 Z-0.4122
G1 X37.8287 Y35.5514 Z-0.4184
G1 X36.7442 Y35.9257 Z-0.4247
G1 X35.7028 Y36.407 Z-0.4309
G1 X34.7151 Y36.9906 Z-0.4372
G1 X33.791 Y37.6706 Z-0.4434
G1 X32.94 Y38.44 Z-0.4497
G1 X32.1706 Y39.291 Z-0.4559
G1 X31.4906 Y40.2151 Z-0.4622
G1 X30.907 Y41.2028 Z-0.4684
G1 X30.4257 Y42.2442 Z-0.4747
G1 X30.0514 Y43.3287 Z-0.4809
G1 X29.7881 Y44.4453 Z-0.4872
G1 X29.6384 Y45.5828 Z-0.4934
G1 X29.6037 Y46.7295 Z-0.4997
G1 X29.6845 Y47.874 Z-0.5059
G1 X29.8799 Y49.0044 Z-0.5122
G1 X30.188 Y50.1096 Z-0.5184
G1 X30.6056 Y51.1781 Z-0.5247
G1 X30.6265 Y51.219 Z-0.5249
G1 X30.8845 Y51.07 Z-0.5266
G3 X30.8565 Y51.0045 Z-0.527 I0.9965 J-0.4659
G1 X30.4901 Y50.0671 Z-0.5324
G3 X30.455 Y49.9621 Z-0.533 I1.0245 J-0.4004
G1 X30.1848 Y48.9925 Z-0.5385
G3 X30.1604 Y48.8845 Z-0.5391 I1.0596 J-0.2954
G1 X29.989 Y47.8927 Z-0.5446
G3 X29.9756 Y47.7828 Z-0.5452 I1.0839 J-0.1874
G1 X29.9048 Y46.7788 Z-0.5507
G3 X29.9025 Y46.6681 Z-0.5513 I1.0973 J-0.0775
G1 X29.9329 Y45.6621 Z-0.5568
G3 X29.9418 Y45.5518 Z-0.5574 I1.0995 J0.0332
G1 X30.0732 Y44.5539 Z-0.5629
G3 X30.0932 Y44.445 Z-0.5635 I1.0906 J0.1436
G1 X30.3242 Y43.4653 Z-0.569
G3 X30.355 Y43.359 Z-0.5696 I1.0706 J0.2525
G1 X30.6833 Y42.4076 Z-0.5751
G3 X30.7246 Y42.3049 Z-0.5757 I1.0398 J0.3588
G1 X31.1469 Y41.3912 Z-0.5811
G3 X31.1984 Y41.2932 Z-0.5817 I0.9985 J0.4615
G1 X31.7104 Y40.4267 Z-0.5872
G3 X31.7714 Y40.3343 Z-0.5878 I0.947 J0.5596
G1 X32.368 Y39.5236 Z-0.5933
G3 X32.438 Y39.4379 Z-0.5939 I0.886 J0.6519
G1 X33.113 Y38.6912 Z-0.5994
G3 X33.1912 Y38.613 Z-0.6 I0.816 J0.7377
G1 X33.9379 Y37.938 Z-0.6055
G3 X34.0236 Y37.868 Z-0.6061 I0.7377 J0.816
G1 X34.8343 Y37.2714 Z-0.6116
G3 X34.9267 Y37.2104 Z-0.6122 I0.6519 J0.886
G1 X35.7932 Y36.6984 Z-0.6177
G3 X35.8912 Y36.6469 Z-0.6183 I0.5596 J0.947
G1 X36.8049 Y36.2246 Z-0.6237
G3 X36.9076 Y36.1833 Z-0.6243 I0.4615 J0.9985
G1 X37.859 Y35.855 Z-0.6298
G3 X37.9653 Y35.8242 Z-0.6304 I0.3588 J1.0398
G1 X38.945 Y35.5932 Z-0.6359
G3 X39.0539 Y35.5732 Z-0.6365 I0.2525 J1.0706
G1 X40.0518 Y35.4418 Z-0.642
G3 X40.1621 Y35.4329 Z-0.6426 I0.1436 J1.0906
G1 X41.1681 Y35.4025 Z-0.6481
G3 X41.2788 Y35.4048 Z-0.6487 I0.0332 J1.0995
G1 X42.2828 Y35.4756 Z-0.6542
G3 X42.3927 Y35.489 Z-0.6548 I-0.0775 J1.0973
G1 X43.3845 Y35.6604 Z-0.6603
G3 X43.4925 Y35.6848 Z-0.6609 I-0.1874 J1.0839
G1 X44.4621 Y35.955 Z-0.6663
G3 X44.5671 Y35.9901 Z-0.667 I-0.2954 J1.0596
G1 X45.5045 Y36.3565 Z-0.6724
G3 X45.57 Y36.3845 Z-0.6728 I-0.4004 J1.0245
G1 X45.719 Y36.1265 Z-0.6744
G1 X45.6781 Y36.1056 Z-0.6747
G1 X44.6096 Y35.688 Z-0.6809
G1 X43.5044 Y35.3799 Z-0.6872
G1 X42.374 Y35.1845 Z-0.6934
G1 X41.2295 Y35.1037 Z-0.6997
G1 X40.0828 Y35.1384 Z-0.7059
G1 X38.9453 Y35.2881 Z-0.7122
G1 X37.8287 Y35.5514 Z-0.7184
G1 X36.7442 Y35.9257 Z-0.7247
G1 X35.7028 Y36.407 Z-0.7309
G1 X34.7151 Y36.9906 Z-0.7372
G1 X33.791 Y37.6706 Z-0.7434
G1 X32.94 Y38.44 Z-0.7497
G1 X32.1706 Y39.291 Z-0.7559
G1 X31.4906 Y40.2151 Z-0.7622
G1 X30.907 Y41.2028 Z-0.7684
G1 X30.4257 Y42.2442 Z-0.7747
G1 X30.0514 Y43.3287 Z-0.7809
G1 X29.7881 Y44.4453 Z-0.7872
G1 X29.6384 Y45.5828 Z-0.7934
G1 X29.6037 Y46.7295 Z-0.7997
G1 X29.6845 Y47.874 Z-0.8059
G1 X29.8799 Y49.0044 Z-0.8122
G1 X30.188 Y50.1096 Z-0.8184
G1 X30.6056 Y51.1781 Z-0.8247
G1 X30.6265 Y51.219 Z-0.8249
G1 X30.8845 Y51.07 Z-0.8266
G3 X30.8565 Y51.0045 Z-0.827 I0.9965 J-0.4659
G1 X30.4901 Y50.0671 Z-0.8324
G3 X30.455 Y49.9621 Z-0.833 I1.0245 J-0.4004
G1 X30.1848 Y48.9925 Z-0.8385
G3 X30.1604 Y48.8845 Z-0.8391 I1.0596 J-0.2954
G1 X29.989 Y47.8927 Z-0.8446
G3 X29.9756 Y47.7828 Z-0.8452 I1.0839 J-0.1874
G1 X29.9048 Y46.7788 Z-0.8507
G3 X29.9025 Y46.6681 Z-0.8513 I1.0973 J-0.0775
G1 X29.9329 Y45.6621 Z-0.8568
G3 X29.9418 Y45.5518 Z-0.8574 I1.0995 J0.0332
G1 X30.0732 Y44.5539 Z-0.8629
G3 X30.0932 Y44.445 Z-0.8635 I1.0906 J0.1436
G1 X30.3242 Y43.4653 Z-0.869
G3 X30.355 Y43.359 Z-0.8696 I1.0706 J0.2525
G1 X30.6833 Y42.4076 Z-0.8751
G3 X30.7246 Y42.3049 Z-0.8757 I1.0398 J0.3588
G1 X31.1469 Y41.3912 Z-0.8811
G3 X31.1984 Y41.2932 Z-0.8817 I0.9985 J0.4615
G1 X31.7104 Y40.4267 Z-0.8872
G3 X31.7714 Y40.3343 Z-0.8878 I0.947 J0.5596
G1 X32.368 Y39.5236 Z-0.8933
G3 X32.438 Y39.4379 Z-0.8939 I0.886 J0.6519
G1 X33.113 Y38.6912 Z-0.8994
G3 X33.1912 Y38.613 Z-0.9 I0.816 J0.7377
G1 X33.9379 Y37.938 Z-0.9055
G3 X34.0236 Y37.868 Z-0.9061 I0.7377 J0.816
G1 X34.8343 Y37.2714 Z-0.9116
G3 X34.9267 Y37.2104 Z-0.9122 I0.6519 J0.886
G1 X35.7932 Y36.6984 Z-0.9177
G3 X35.8912 Y36.6469 Z-0.9183 I0.5596 J0.947
G1 X36.8049 Y36.2246 Z-0.9237
G3 X36.9076 Y36.1833 Z-0.9243 I0.4615 J0.9985
G1 X37.859 Y35.855 Z-0.9298
G3 X37.9653 Y35.8242 Z-0.9304 I0.3588 J1.0398
G1 X38.945 Y35.5932 Z-0.9359
G3 X39.0539 Y35.5732 Z-0.9365 I0.2525 J1.0706
G1 X40.0518 Y35.4418 Z-0.942
G3 X40.1621 Y35.4329 Z-0.9426 I0.1436 J1.0906
G1 X41.1681 Y35.4025 Z-0.9481
G3 X41.2788 Y35.4048 Z-0.9487 I0.0332 J1.0995
G1 X42.2828 Y35.4756 Z-0.9542
G3 X42.3927 Y35.489 Z-0.9548 I-0.0775 J1.0973
G1 X43.3845 Y35.6604 Z-0.9603
G3 X43.4925 Y35.6848 Z-0.9609 I-0.1874 J1.0839
G1 X44.4621 Y35.955 Z-0.9663
G3 X44.5671 Y35.9901 Z-0.967 I-0.2954 J1.0596
G1 X45.5045 Y36.3565 Z-0.9724
G3 X45.57 Y36.3845 Z-0.9728 I-0.4004 J1.0245
G1 X45.719 Y36.1265 Z-0.9744
G1 X45.6781 Y36.1056 Z-0.9747
G1 X44.6096 Y35.688 Z-0.9809
G1 X43.5044 Y35.3799 Z-0.9872
G1 X42.374 Y35.1845 Z-0.9934
G1 X41.2295 Y35.1037 Z-0.9997
G1 X40.0828 Y35.1384 Z-1.0059
G1 X38.9453 Y35.2881 Z-1.0122
G1 X37.8287 Y35.5514 Z-1.0184
G1 X36.7442 Y35.9257 Z-1.0247
G1 X35.7028 Y36.407 Z-1.0309
G1 X34.7151 Y36.9906 Z-1.0372
G1 X33.791 Y37.6706 Z-1.0434
G1 X32.94 Y38.44 Z-1.0497
G1 X32.1706 Y39.291 Z-1.0559
G1 X31.4906 Y40.2151 Z-1.0622
G1 X30.907 Y41.2028 Z-1.0684
G1 X30.4257 Y42.2442 Z-1.0747
G1 X30.0514 Y43.3287 Z-1.0809
G1 X29.7881 Y44.4453 Z-1.0872
G1 X29.6384 Y45.5828 Z-1.0934
G1 X29.6037 Y46.7295 Z-1.0997
G1 X29.6845 Y47.874 Z-1.1059
G1 X29.8799 Y49.0044 Z-1.1122
G1 X30.188 Y50.1096 Z-1.1184
G1 X30.6056 Y51.1781 Z-1.1247
G1 X30.6265 Y51.219 Z-1.1249
G1 X30.8845 Y51.07 Z-1.1266
G3 X30.8565 Y51.0045 Z-1.127 I0.9965 J-0.4659
G1 X30.4901 Y50.0671 Z-1.1324
G3 X30.455 Y49.9621 Z-1.133 I1.0245 J-0.4004
G1 X30.1848 Y48.9925 Z-1.1385
G3 X30.1604 Y48.8845 Z-1.1391 I1.0596 J-0.2954
G1 X29.989 Y47.8927 Z-1.1446
G3 X29.9756 Y47.7828 Z-1.1452 I1.0839 J-0.1874
G1 X29.9048 Y46.7788 Z-1.1507
G3 X29.9025 Y46.6681 Z-1.1513 I1.0973 J-0.0775
G1 X29.9329 Y45.6621 Z-1.1568
G3 X29.9418 Y45.5518 Z-1.1574 I1.0995 J0.0332
G1 X30.0732 Y44.5539 Z-1.1629
G3 X30.0932 Y44.445 Z-1.1635 I1.0906 J0.1436
G1 X30.3242 Y43.4653 Z-1.169
G3 X30.355 Y43.359 Z-1.1696 I1.0706 J0.2525
G1 X30.6833 Y42.4076 Z-1.1751
G3 X30.7246 Y42.3049 Z-1.1757 I1.0398 J0.3588
G1 X31.1469 Y41.3912 Z-1.1811
G3 X31.1984 Y41.2932 Z-1.1817 I0.9985 J0.4615
G1 X31.7104 Y40.4267 Z-1.1872
G3 X31.7714 Y40.3343 Z-1.1878 I0.947 J0.5596
G1 X32.368 Y39.5236 Z-1.1933
G3 X32.438 Y39.4379 Z-1.1939 I0.886 J0.6519
G1 X33.113 Y38.6912 Z-1.1994
G3 X33.1912 Y38.613 Z-1.2 I0.816 J0.7377
G1 X33.9379 Y37.938 Z-1.2055
G3 X34.0236 Y37.868 Z-1.2061 I0.7377 J0.816
G1 X34.8343 Y37.2714 Z-1.2116
G3 X34.9267 Y37.2104 Z-1.2122 I0.6519 J0.886
G1 X35.7932 Y36.6984 Z-1.2177
G3 X35.8912 Y36.6469 Z-1.2183 I0.5596 J0.947
G1 X36.8049 Y36.2246 Z-1.2237
G3 X36.9076 Y36.1833 Z-1.2243 I0.4615 J0.9985
G1 X37.859 Y35.855 Z-1.2298
G3 X37.9653 Y35.8242 Z-1.2304 I0.3588 J1.0398
G1 X38.945 Y35.5932 Z-1.2359
G3 X39.0539 Y35.5732 Z-1.2365 I0.2525 J1.0706
G1 X40.0518 Y35.4418 Z-1.242
G3 X40.1621 Y35.4329 Z-1.2426 I0.1436 J1.0906
G1 X41.1681 Y35.4025 Z-1.2481
G3 X41.2788 Y35.4048 Z-1.2487 I0.0332 J1.0995
G1 X42.2828 Y35.4756 Z-1.2542
G3 X42.3927 Y35.489 Z-1.2548 I-0.0775 J1.0973
G1 X43.3845 Y35.6604 Z-1.2603
G3 X43.4925 Y35.6848 Z-1.2609 I-0.1874 J1.0839
G1 X44.4621 Y35.955 Z-1.2663
G3 X44.5671 Y35.9901 Z-1.267 I-0.2954 J1.0596
G1 X45.5045 Y36.3565 Z-1.2724
G3 X45.57 Y36.3845 Z-1.2728 I-0.4004 J1.0245
G1 X45.719 Y36.1265 Z-1.2744
G1 X45.6781 Y36.1056 Z-1.2747
G1 X44.6096 Y35.688 Z-1.2809
G1 X43.5044 Y35.3799 Z-1.2872
G1 X42.374 Y35.1845 Z-1.2934
G1 X41.2295 Y35.1037 Z-1.2997
G1 X40.0828 Y35.1384 Z-1.3059
G1 X38.9453 Y35.2881 Z-1.3122
G1 X37.8287 Y35.5514 Z-1.3184
G1 X36.7442 Y35.9257 Z-1.3247
G1 X35.7028 Y36.407 Z-1.3309
G1 X34.7151 Y36.9906 Z-1.3372
G1 X33.791 Y37.6706 Z-1.3434
G1 X32.94 Y38.44 Z-1.3497
G1 X32.1706 Y39.291 Z-1.3559
G1 X31.4906 Y40.2151 Z-1.3622
G1 X30.907 Y41.2028 Z-1.3684
G1 X30.4257 Y42.2442 Z-1.3747
G1 X30.0514 Y43.3287 Z-1.3809
G1 X29.7881 Y44.4453 Z-1.3872
G1 X29.6384 Y45.5828 Z-1.3934
G1 X29.6037 Y46.7295 Z-1.3997
G1 X29.6845 Y47.874 Z-1.4059
G1 X29.8799 Y49.0044 Z-1.4122
G1 X30.188 Y50.1096 Z-1.4184
G1 X30.6056 Y51.1781 Z-1.4247
G1 X30.6265 Y51.219 Z-1.4249
G1 X30.8845 Y51.07 Z-1.4266
G3 X30.8565 Y51.0045 Z-1.427 I0.9965 J-0.4659
G1 X30.4901 Y50.0671 Z-1.4324
G3 X30.455 Y49.9621 Z-1.433 I1.0245 J-0.4004
G1 X30.1848 Y48.9925 Z-1.4385
G3 X30.1604 Y48.8845 Z-1.4391 I1.0596 J-0.2954
G1 X29.989 Y47.8927 Z-1.4446
G3 X29.9756 Y47.7828 Z-1.4452 I1.0839 J-0.1874
G1 X29.9048 Y46.7788 Z-1.4507
G3 X29.9025 Y46.6681 Z-1.4513 I1.0973 J-0.0775
G1 X29.9329 Y45.6621 Z-1.4568
G3 X29.9418 Y45.5518 Z-1.4574 I1.0995 J0.0332
G1 X30.0732 Y44.5539 Z-1.4629
G3 X30.0932 Y44.445 Z-1.4635 I1.0906 J0.1436
G1 X30.3242 Y43.4653 Z-1.469
G3 X30.355 Y43.359 Z-1.4696 I1.0706 J0.2525
G1 X30.6833 Y42.4076 Z-1.4751
G3 X30.7246 Y42.3049 Z-1.4757 I1.0398 J0.3588
G1 X31.1469 Y41.3912 Z-1.4811
G3 X31.1984 Y41.2932 Z-1.4817 I0.9985 J0.4615
G1 X31.7104 Y40.4267 Z-1.4872
G3 X31.7714 Y40.3343 Z-1.4878 I0.947 J0.5596
G1 X32.368 Y39.5236 Z-1.4933
G3 X32.438 Y39.4379 Z-1.4939 I0.886 J0.6519
G1 X33.113 Y38.6912 Z-1.4994
G3 X33.1912 Y38.613 Z-1.5 I0.816 J0.7377
G1 X33.9379 Y37.938 Z-1.5055
G3 X34.0236 Y37.868 Z-1.5061 I0.7377 J0.816
G1 X34.8343 Y37.2714 Z-1.5116
G3 X34.9267 Y37.2104 Z-1.5122 I0.6519 J0.886
G1 X35.7932 Y36.6984 Z-1.5177
G3 X35.8912 Y36.6469 Z-1.5183 I0.5596 J0.947
G1 X36.8049 Y36.2246 Z-1.5237
G3 X36.9076 Y36.1833 Z-1.5243 I0.4615 J0.9985
G1 X37.859 Y35.855 Z-1.5298
G3 X37.9653 Y35.8242 Z-1.5304 I0.3588 J1.0398
G1 X38.945 Y35.5932 Z-1.5359
G3 X39.0539 Y35.5732 Z-1.5365 I0.2525 J1.0706
G1 X40.0518 Y35.4418 Z-1.542
G3 X40.1621 Y35.4329 Z-1.5426 I0.1436 J1.0906
G1 X41.1681 Y35.4025 Z-1.5481
G3 X41.2788 Y35.4048 Z-1.5487 I0.0332 J1.0995
G1 X42.2828 Y35.4756 Z-1.5542
G3 X42.3927 Y35.489 Z-1.5548 I-0.0775 J1.0973
G1 X43.3845 Y35.6604 Z-1.5603
G3 X43.4925 Y35.6848 Z-1.5609 I-0.1874 J1.0839
G1 X44.4621 Y35.955 Z-1.5663
G3 X44.5671 Y35.9901 Z-1.567 I-0.2954 J1.0596
G1 X45.5045 Y36.3565 Z-1.5724
G3 X45.57 Y36.3845 Z-1.5728 I-0.4004 J1.0245
G1 X45.719 Y36.1265 Z-1.5744
G1 X45.6781 Y36.1056 Z-1.5747
G1 X44.6096 Y35.688 Z-1.5809
G1 X43.5044 Y35.3799 Z-1.5872
G1 X42.374 Y35.1845 Z-1.5934
G1 X41.2295 Y35.1037 Z-1.5997
G1 X40.0828 Y35.1384 Z-1.6059
G1 X38.9453 Y35.2881 Z-1.6122
G1 X37.8287 Y35.5514 Z-1.6184
G1 X36.7442 Y35.9257 Z-1.6247
G1 X35.7028 Y36.407 Z-1.6309
G1 X34.7151 Y36.9906 Z-1.6372
G1 X33.791 Y37.6706 Z-1.6434
G1 X32.94 Y38.44 Z-1.6497
G1 X32.1706 Y39.291 Z-1.6559
G1 X31.4906 Y40.2151 Z-1.6622
G1 X30.907 Y41.2028 Z-1.6684
G1 X30.4257 Y42.2442 Z-1.6747
G1 X30.0514 Y43.3287 Z-1.6809
G1 X29.7881 Y44.4453 Z-1.6872
G1 X29.6384 Y45.5828 Z-1.6934
G1 X29.6037 Y46.7295 Z-1.6997
G1 X29.6845 Y47.874 Z-1.7059
G1 X29.8799 Y49.0044 Z-1.7122
G1 X30.188 Y50.1096 Z-1.7184
G1 X30.6056 Y51.1781 Z-1.7247
G1 X30.6265 Y51.219 Z-1.7249
G1 X30.8845 Y51.07 Z-1.7266
G3 X30.8565 Y51.0045 Z-1.727 I0.9965 J-0.4659
G1 X30.4901 Y50.0671 Z-1.7324
G3 X30.455 Y49.9621 Z-1.733 I1.0245 J-0.4004
G1 X30.1848 Y48.9925 Z-1.7385
G3 X30.1604 Y48.8845 Z-1.7391 I1.0596 J-0.2954
G1 X29.989 Y47.8927 Z-1.7446
G3 X29.9756 Y47.7828 Z-1.7452 I1.0839 J-0.1874
G1 X29.9048 Y46.7788 Z-1.7507
G3 X29.9025 Y46.6681 Z-1.7513 I1.0973 J-0.0775
G1 X29.9329 Y45.6621 Z-1.7568
G3 X29.9418 Y45.5518 Z-1.7574 I1.0995 J0.0332
G1 X30.0732 Y44.5539 Z-1.7629
G3 X30.0932 Y44.445 Z-1.7635 I1.0906 J0.1436
G1 X30.3242 Y43.4653 Z-1.769
G3 X30.355 Y43.359 Z-1.7696 I1.0706 J0.2525
G1 X30.6833 Y42.4076 Z-1.7751
G3 X30.7246 Y42.3049 Z-1.7757 I1.0398 J0.3588
G1 X31.1469 Y41.3912 Z-1.7811
G3 X31.1984 Y41.2932 Z-1.7817 I0.9985 J0.4615
G1 X31.7104 Y40.4267 Z-1.7872
G3 X31.7714 Y40.3343 Z-1.7878 I0.947 J0.5596
G1 X32.368 Y39.5236 Z-1.7933
G3 X32.438 Y39.4379 Z-1.7939 I0.886 J0.6519
G1 X33.113 Y38.6912 Z-1.7994
G3 X33.1912 Y38.613 Z-1.8 I0.816 J0.7377
G1 X33.9379 Y37.938 Z-1.8055
G3 X34.0236 Y37.868 Z-1.8061 I0.7377 J0.816
G1 X34.8343 Y37.2714 Z-1.8116
G3 X34.9267 Y37.2104 Z-1.8122 I0.6519 J0.886
G1 X35.7932 Y36.6984 Z-1.8177
G3 X35.8912 Y36.6469 Z-1.8183 I0.5596 J0.947
G1 X36.8049 Y36.2246 Z-1.8237
G3 X36.9076 Y36.1833 Z-1.8243 I0.4615 J0.9985
G1 X37.859 Y35.855 Z-1.8298
G3 X37.9653 Y35.8242 Z-1.8304 I0.3588 J1.0398
G1 X38.945 Y35.5932 Z-1.8359
G3 X39.0539 Y35.5732 Z-1.8365 I0.2525 J1.0706
G1 X40.0518 Y35.4418 Z-1.842
G3 X40.1621 Y35.4329 Z-1.8426 I0.1436 J1.0906
G1 X41.1681 Y35.4025 Z-1.8481
G3 X41.2788 Y35.4048 Z-1.8487 I0.0332 J1.0995
G1 X42.2828 Y35.4756 Z-1.8542
G3 X42.3927 Y35.489 Z-1.8548 I-0.0775 J1.0973
G1 X43.3845 Y35.6604 Z-1.8603
G3 X43.4925 Y35.6848 Z-1.8609 I-0.1874 J1.0839
G1 X44.4621 Y35.955 Z-1.8663
G3 X44.5671 Y35.9901 Z-1.867 I-0.2954 J1.0596
G1 X45.5045 Y36.3565 Z-1.8724
G3 X45.57 Y36.3845 Z-1.8728 I-0.4004 J1.0245
G1 X45.719 Y36.1265 Z-1.8744
G1 X45.6781 Y36.1056 Z-1.8747
G1 X44.6096 Y35.688 Z-1.8809
G1 X43.5044 Y35.3799 Z-1.8872
G1 X42.374 Y35.1845 Z-1.8934
G1 X41.2295 Y35.1037 Z-1.8997
G1 X40.0828 Y35.1384 Z-1.9059
G1 X38.9453 Y35.2881 Z-1.9122
G1 X37.8287 Y35.5514 Z-1.9184
G1 X36.7442 Y35.9257 Z-1.9247
G1 X35.7028 Y36.407 Z-1.9309
G1 X34.7151 Y36.9906 Z-1.9372
G1 X33.791 Y37.6706 Z-1.9434
G1 X32.94 Y38.44 Z-1.9497
G1 X32.1706 Y39.291 Z-1.9559
G1 X31.4906 Y40.2151 Z-1.9622
G1 X30.907 Y41.2028 Z-1.9684
G1 X30.4257 Y42.2442 Z-1.9747
G1 X30.0514 Y43.3287 Z-1.9809
G1 X29.7881 Y44.4453 Z-1.9872
G1 X29.6384 Y45.5828 Z-1.9934
G1 X29.6037 Y46.7295 Z-1.9997
G1 X29.6845 Y47.874 Z-2.0059
G1 X29.8799 Y49.0044 Z-2.0122
G1 X30.188 Y50.1096 Z-2.0184
G1 X30.6056 Y51.1781 Z-2.0247
G1 X30.6265 Y51.219 Z-2.0249
G1 X30.8845 Y51.07 Z-2.0266
G3 X30.8565 Y51.0045 Z-2.027 I0.9965 J-0.4659
G1 X30.4901 Y50.0671 Z-2.0324
G3 X30.455 Y49.9621 Z-2.033 I1.0245 J-0.4004
G1 X30.1848 Y48.9925 Z-2.0385
G3 X30.1604 Y48.8845 Z-2.0391 I1.0596 J-0.2954
G1 X29.989 Y47.8927 Z-2.0446
G3 X29.9756 Y47.7828 Z-2.0452 I1.0839 J-0.1874
G1 X29.9048 Y46.7788 Z-2.0507
G3 X29.9025 Y46.6681 Z-2.0513 I1.0973 J-0.0775
G1 X29.9329 Y45.6621 Z-2.0568
G3 X29.9418 Y45.5518 Z-2.0574 I1.0995 J0.0332
G1 X30.0732 Y44.5539 Z-2.0629
G3 X30.0932 Y44.445 Z-2.0635 I1.0906 J0.1436
G1 X30.3242 Y43.4653 Z-2.069
G3 X30.355 Y43.359 Z-2.0696 I1.0706 J0.2525
G1 X30.6833 Y42.4076 Z-2.0751
G3 X30.7246 Y42.3049 Z-2.0757 I1.0398 J0.3588
G1 X31.1469 Y41.3912 Z-2.0811
G3 X31.1984 Y41.2932 Z-2.0817 I0.9985 J0.4615
G1 X31.7104 Y40.4267 Z-2.0872
G3 X31.7714 Y40.3343 Z-2.0878 I0.947 J0.5596
G1 X32.368 Y39.5236 Z-2.0933
G3 X32.438 Y39.4379 Z-2.0939 I0.886 J0.6519
G1 X33.113 Y38.6912 Z-2.0994
G3 X33.1912 Y38.613 Z-2.1 I0.816 J0.7377
G1 X33.9379 Y37.938 Z-2.1055
G3 X34.0236 Y37.868 Z-2.1061 I0.7377 J0.816
G1 X34.8343 Y37.2714 Z-2.1116
G3 X34.9267 Y37.2104 Z-2.1122 I0.6519 J0.886
G1 X35.7932 Y36.6984 Z-2.1177
G3 X35.8912 Y36.6469 Z-2.1183 I0.5596 J0.947
G1 X36.8049 Y36.2246 Z-2.1237
G3 X36.9076 Y36.1833 Z-2.1243 I0.4615 J0.9985
G1 X37.859 Y35.855 Z-2.1298
G3 X37.9653 Y35.8242 Z-2.1304 I0.3588 J1.0398
G1 X38.945 Y35.5932 Z-2.1359
G3 X39.0539 Y35.5732 Z-2.1365 I0.2525 J1.0706
G1 X40.0518 Y35.4418 Z-2.142
G3 X40.1621 Y35.4329 Z-2.1426 I0.1436 J1.0906
G1 X41.1681 Y35.4025 Z-2.1481
G3 X41.2788 Y35.4048 Z-2.1487 I0.0332 J1.0995
G1 X42.2828 Y35.4756 Z-2.1542
G3 X42.3927 Y35.489 Z-2.1548 I-0.0775 J1.0973
G1 X43.3845 Y35.6604 Z-2.1603
G3 X43.4925 Y35.6848 Z-2.1609 I-0.1874 J1.0839
G1 X44.4621 Y35.955 Z-2.1663
G3 X44.5671 Y35.9901 Z-2.167 I-0.2954 J1.0596
G1 X45.5045 Y36.3565 Z-2.1724
G3 X45.57 Y36.3845 Z-2.1728 I-0.4004 J1.0245
G1 X45.719 Y36.1265 Z-2.1744
G1 X45.6781 Y36.1056 Z-2.1747
G1 X44.6096 Y35.688 Z-2.1809
G1 X43.5044 Y35.3799 Z-2.1872
G1 X42.374 Y35.1845 Z-2.1934
G1 X41.2295 Y35.1037 Z-2.1997
G1 X40.0828 Y35.1384 Z-2.2059
G1 X38.9453 Y35.2881 Z-2.2122
G1 X37.8287 Y35.5514 Z-2.2184
G1 X36.7442 Y35.9257 Z-2.2247
G1 X35.7028 Y36.407 Z-2.2309
G1 X34.7151 Y36.9906 Z-2.2372
G1 X33.791 Y37.6706 Z-2.2434
G1 X32.94 Y38.44 Z-2.2497
G1 X32.1706 Y39.291 Z-2.2559
G1 X31.4906 Y40.2151 Z-2.2622
G1 X30.907 Y41.2028 Z-2.2684
G1 X30.4257 Y42.2442 Z-2.2747
G1 X30.0514 Y43.3287 Z-2.2809
G1 X29.7881 Y44.4453 Z-2.2872
G1 X29.6384 Y45.5828 Z-2.2934
G1 X29.6037 Y46.7295 Z-2.2997
G1 X29.6845 Y47.874 Z-2.3059
G1 X29.8799 Y49.0044 Z-2.3122
G1 X30.188 Y50.1096 Z-2.3184
G1 X30.6056 Y51.1781 Z-2.3247
G1 X30.6265 Y51.219 Z-2.3249
G1 X30.8845 Y51.07 Z-2.3266
G3 X30.8565 Y51.0045 Z-2.327 I0.9965 J-0.4659
G1 X30.4901 Y50.0671 Z-2.3324
G3 X30.455 Y49.9621 Z-2.333 I1.0245 J-0.4004
G1 X30.1848 Y48.9925 Z-2.3385
G3 X30.1604 Y48.8845 Z-2.3391 I1.0596 J-0.2954
G1 X29.989 Y47.8927 Z-2.3446
G3 X29.9756 Y47.7828 Z-2.3452 I1.0839 J-0.1874
G1 X29.9048 Y46.7788 Z-2.3507
G3 X29.9025 Y46.6681 Z-2.3513 I1.0973 J-0.0775
G1 X29.9329 Y45.6621 Z-2.3568
G3 X29.9418 Y45.5518 Z-2.3574 I1.0995 J0.0332
G1 X30.0732 Y44.5539 Z-2.3629
G3 X30.0932 Y44.445 Z-2.3635 I1.0906 J0.1436
G1 X30.3242 Y43.4653 Z-2.369
G3 X30.355 Y43.359 Z-2.3696 I1.0706 J0.2525
G1 X30.6833 Y42.4076 Z-2.3751
G3 X30.7246 Y42.3049 Z-2.3757 I1.0398 J0.3588
G1 X31.1469 Y41.3912 Z-2.3811
G3 X31.1984 Y41.2932 Z-2.3817 I0.9985 J0.4615
G1 X31.7104 Y40.4267 Z-2.3872
G3 X31.7714 Y40.3343 Z-2.3878 I0.947 J0.5596
G1 X32.368 Y39.5236 Z-2.3933
G3 X32.438 Y39.4379 Z-2.3939 I0.886 J0.6519
G1 X33.113 Y38.6912 Z-2.3994
G3 X33.1912 Y38.613 Z-2.4 I0.816 J0.7377
G1 X33.9379 Y37.938 Z-2.4055
G3 X34.0236 Y37.868 Z-2.4061 I0.7377 J0.816
G1 X34.8343 Y37.2714 Z-2.4116
G3 X34.9267 Y37.2104 Z-2.4122 I0.6519 J0.886
G1 X35.7932 Y36.6984 Z-2.4177
G3 X35.8912 Y36.6469 Z-2.4183 I0.5596 J0.947
G1 X36.8049 Y36.2246 Z-2.4237
G3 X36.9076 Y36.1833 Z-2.4243 I0.4615 J0.9985
G1 X37.859 Y35.855 Z-2.4298
G3 X37.9653 Y35.8242 Z-2.4304 I0.3588 J1.0398
G1 X38.945 Y35.5932 Z-2.4359
G3 X39.0539 Y35.5732 Z-2.4365 I0.2525 J1.0706
G1 X40.0518 Y35.4418 Z-2.442
G3 X40.1621 Y35.4329 Z-2.4426 I0.1436 J1.0906
G1 X41.1681 Y35.4025 Z-2.4481
G3 X41.2788 Y35.4048 Z-2.4487 I0.0332 J1.0995
G1 X42.2828 Y35.4756 Z-2.4542
G3 X42.3927 Y35.489 Z-2.4548 I-0.0775 J1.0973
G1 X43.3845 Y35.6604 Z-2.4603
G3 X43.4925 Y35.6848 Z-2.4609 I-0.1874 J1.0839
G1 X44.4621 Y35.955 Z-2.4663
G3 X44.5671 Y35.9901 Z-2.467 I-0.2954 J1.0596
G1 X45.5045 Y36.3565 Z-2.4724
G3 X45.57 Y36.3845 Z-2.4728 I-0.4004 J1.0245
G1 X45.719 Y36.1265 Z-2.4744
G1 X45.6781 Y36.1056 Z-2.4747
G1 X44.6096 Y35.688 Z-2.4809
G1 X43.5044 Y35.3799 Z-2.4872
G1 X42.374 Y35.1845 Z-2.4934
G1 X41.2295 Y35.1037 Z-2.4997
G1 X40.0828 Y35.1384 Z-2.5059
G1 X38.9453 Y35.2881 Z-2.5122
G1 X37.8287 Y35.5514 Z-2.5184
G1 X36.7442 Y35.9257 Z-2.5247
G1 X35.7028 Y36.407 Z-2.5309
G1 X34.7151 Y36.9906 Z-2.5372
G1 X33.791 Y37.6706 Z-2.5434
G1 X32.94 Y38.44 Z-2.5497
G1 X32.1706 Y39.291 Z-2.5559
G1 X31.4906 Y40.2151 Z-2.5622
G1 X30.907 Y41.2028 Z-2.5684
G1 X30.4257 Y42.2442 Z-2.5747
G1 X30.0514 Y43.3287 Z-2.5809
G1 X29.7881 Y44.4453 Z-2.5872
G1 X29.6384 Y45.5828 Z-2.5934
G1 X29.6037 Y46.7295 Z-2.5997
G1 X29.6845 Y47.874 Z-2.6059
G1 X29.8799 Y49.0044 Z-2.6122
G1 X30.188 Y50.1096 Z-2.6184
G1 X30.6056 Y51.1781 Z-2.6247
G1 X30.6265 Y51.219 Z-2.6249
G1 X30.8845 Y51.07 Z-2.6266
G3 X30.8565 Y51.0045 Z-2.627 I0.9965 J-0.4659
G1 X30.4901 Y50.0671 Z-2.6324
G3 X30.455 Y49.9621 Z-2.633 I1.0245 J-0.4004
G1 X30.1848 Y48.9925 Z-2.6385
G3 X30.1604 Y48.8845 Z-2.6391 I1.0596 J-0.2954
G1 X29.989 Y47.8927 Z-2.6446
G3 X29.9756 Y47.7828 Z-2.6452 I1.0839 J-0.1874
G1 X29.9048 Y46.7788 Z-2.6507
G3 X29.9025 Y46.6681 Z-2.6513 I1.0973 J-0.0775
G1 X29.9329 Y45.6621 Z-2.6568
G3 X29.9418 Y45.5518 Z-2.6574 I1.0995 J0.0332
G1 X30.0732 Y44.5539 Z-2.6629
G3 X30.0932 Y44.445 Z-2.6635 I1.0906 J0.1436
G1 X30.3242 Y43.4653 Z-2.669
G3 X30.355 Y43.359 Z-2.6696 I1.0706 J0.2525
G1 X30.6833 Y42.4076 Z-2.6751
G3 X30.7246 Y42.3049 Z-2.6757 I1.0398 J0.3588
G1 X31.1469 Y41.3912 Z-2.6811
G3 X31.1984 Y41.2932 Z-2.6817 I0.9985 J0.4615
G1 X31.7104 Y40.4267 Z-2.6872
G3 X31.7714 Y40.3343 Z-2.6878 I0.947 J0.5596
G1 X32.368 Y39.5236 Z-2.6933
G3 X32.438 Y39.4379 Z-2.6939 I0.886 J0.6519
G1 X33.113 Y38.6912 Z-2.6994
G3 X33.1912 Y38.613 Z-2.7 I0.816 J0.7377
G1 X33.9379 Y37.938 Z-2.7055
G3 X34.0236 Y37.868 Z-2.7061 I0.7377 J0.816
G1 X34.8343 Y37.2714 Z-2.7116
G3 X34.9267 Y37.2104 Z-2.7122 I0.6519 J0.886
G1 X35.7932 Y36.6984 Z-2.7177
G3 X35.8912 Y36.6469 Z-2.7183 I0.5596 J0.947
G1 X36.8049 Y36.2246 Z-2.7237
G3 X36.9076 Y36.1833 Z-2.7243 I0.4615 J0.9985
G1 X37.859 Y35.855 Z-2.7298
G3 X37.9653 Y35.8242 Z-2.7304 I0.3588 J1.0398
G1 X38.945 Y35.5932 Z-2.7359
G3 X39.0539 Y35.5732 Z-2.7365 I0.2525 J1.0706
G1 X40.0518 Y35.4418 Z-2.742
G3 X40.1621 Y35.4329 Z-2.7426 I0.1436 J1.0906
G1 X41.1681 Y35.4025 Z-2.7481
G3 X41.2788 Y35.4048 Z-2.7487 I0.0332 J1.0995
G1 X42.2828 Y35.4756 Z-2.7542
G3 X42.3927 Y35.489 Z-2.7548 I-0.0775 J1.0973
G1 X43.3845 Y35.6604 Z-2.7603
G3 X43.4925 Y35.6848 Z-2.7609 I-0.1874 J1.0839
G1 X44.4621 Y35.955 Z-2.7663
G3 X44.5671 Y35.9901 Z-2.767 I-0.2954 J1.0596
G1 X45.5045 Y36.3565 Z-2.7724
G3 X45.57 Y36.3845 Z-2.7728 I-0.4004 J1.0245
G1 X45.719 Y36.1265 Z-2.7744
G1 X45.6781 Y36.1056 Z-2.7747
G1 X44.6096 Y35.688 Z-2.7809
G1 X43.5044 Y35.3799 Z-2.7872
G1 X42.374 Y35.1845 Z-2.7934
G1 X41.2295 Y35.1037 Z-2.7997
G1 X40.0828 Y35.1384 Z-2.8059
G1 X38.9453 Y35.2881 Z-2.8122
G1 X37.8287 Y35.5514 Z-2.8184
G1 X36.7442 Y35.9257 Z-2.8247
G1 X35.7028 Y36.407 Z-2.8309
G1 X34.7151 Y36.9906 Z-2.8372
G1 X33.791 Y37.6706 Z-2.8434
G1 X32.94 Y38.44 Z-2.8497
G1 X32.1706 Y39.291 Z-2.8559
G1 X31.4906 Y40.2151 Z-2.8622
G1 X30.907 Y41.2028 Z-2.8684
G1 X30.4257 Y42.2442 Z-2.8747
G1 X30.0514 Y43.3287 Z-2.8809
G1 X29.7881 Y44.4453 Z-2.8872
G1 X29.6384 Y45.5828 Z-2.8934
G1 X29.6037 Y46.7295 Z-2.8997
G1 X29.6845 Y47.874 Z-2.9059
G1 X29.8799 Y49.0044 Z-2.9122
G1 X30.188 Y50.1096 Z-2.9184
G1 X30.6056 Y51.1781 Z-2.9247
G1 X30.6265 Y51.219 Z-2.9249
G1 X30.8845 Y51.07 Z-2.9266
G3 X30.8565 Y51.0045 Z-2.927 I0.9965 J-0.4659
G1 X30.4901 Y50.0671 Z-2.9324
G3 X30.455 Y49.9621 Z-2.933 I1.0245 J-0.4004
G1 X30.1848 Y48.9925 Z-2.9385
G3 X30.1604 Y48.8845 Z-2.9391 I1.0596 J-0.2954
G1 X29.989 Y47.8927 Z-2.9446
G3 X29.9756 Y47.7828 Z-2.9452 I1.0839 J-0.1874
G1 X29.9048 Y46.7788 Z-2.9507
G3 X29.9025 Y46.6681 Z-2.9513 I1.0973 J-0.0775
G1 X29.9329 Y45.6621 Z-2.9568
G3 X29.9418 Y45.5518 Z-2.9574 I1.0995 J0.0332
G1 X30.0732 Y44.5539 Z-2.9629
G3 X30.0932 Y44.445 Z-2.9635 I1.0906 J0.1436
G1 X30.3242 Y43.4653 Z-2.969
G3 X30.355 Y43.359 Z-2.9696 I1.0706 J0.2525
G1 X30.6833 Y42.4076 Z-2.9751
G3 X30.7246 Y42.3049 Z-2.9757 I1.0398 J0.3588
G1 X31.1469 Y41.3912 Z-2.9811
G3 X31.1984 Y41.2932 Z-2.9817 I0.9985 J0.4615
G1 X31.7104 Y40.4267 Z-2.9872
G3 X31.7714 Y40.3343 Z-2.9878 I0.947 J0.5596
G1 X32.368 Y39.5236 Z-2.9933
G3 X32.438 Y39.4379 Z-2.9939 I0.886 J0.6519
G1 X33.113 Y38.6912 Z-2.9994
G3 X33.1912 Y38.613 Z-3.0 I0.816 J0.7377
G1 X33.9379 Y37.938 Z-3.0055
G3 X34.0236 Y37.868 Z-3.0061 I0.7377 J0.816
G1 X34.8343 Y37.2714 Z-3.0116
G3 X34.9267 Y37.2104 Z-3.0122 I0.6519 J0.886
G1 X35.7932 Y36.6984 Z-3.0177
G3 X35.8912 Y36.6469 Z-3.0183 I0.5596 J0.947
G1 X36.8049 Y36.2246 Z-3.0237
G3 X36.9076 Y36.1833 Z-3.0243 I0.4615 J0.9985
G1 X37.859 Y35.855 Z-3.0298
G3 X37.9653 Y35.8242 Z-3.0304 I0.3588 J1.0398
G1 X38.945 Y35.5932 Z-3.0359
G3 X39.0539 Y35.5732 Z-3.0365 I0.2525 J1.0706
G1 X40.0518 Y35.4418 Z-3.042
G3 X40.1621 Y35.4329 Z-3.0426 I0.1436 J1.0906
G1 X41.1681 Y35.4025 Z-3.0481
G3 X41.2788 Y35.4048 Z-3.0487 I0.0332 J1.0995
G1 X42.2828 Y35.4756 Z-3.0542
G3 X42.3927 Y35.489 Z-3.0548 I-0.0775 J1.0973
G1 X43.3845 Y35.6604 Z-3.0603
G3 X43.4925 Y35.6848 Z-3.0609 I-0.1874 J1.0839
G1 X44.4621 Y35.955 Z-3.0663
G3 X44.5671 Y35.9901 Z-3.067 I-0.2954 J1.0596
G1 X45.5045 Y36.3565 Z-3.0724
G3 X45.57 Y36.3845 Z-3.0728 I-0.4004 J1.0245
G1 X45.719 Y36.1265 Z-3.0744
G1 X45.6781 Y36.1056 Z-3.0747
G1 X44.6096 Y35.688 Z-3.0809
G1 X43.5044 Y35.3799 Z-3.0872
G1 X42.374 Y35.1845 Z-3.0934
G1 X41.2295 Y35.1037 Z-3.0997
G1 X40.0828 Y35.1384 Z-3.1059
G1 X38.9453 Y35.2881 Z-3.1122
G1 X37.8287 Y35.5514 Z-3.1184
G1 X36.7442 Y35.9257 Z-3.1247
G1 X35.7028 Y36.407 Z-3.1309
G1 X34.7151 Y36.9906 Z-3.1372
G1 X33.791 Y37.6706 Z-3.1434
G1 X32.94 Y38.44 Z-3.1497
G1 X32.1706 Y39.291 Z-3.1559
G1 X31.4906 Y40.2151 Z-3.1622
G1 X30.907 Y41.2028 Z-3.1684
G1 X30.4257 Y42.2442 Z-3.1747
G1 X30.0514 Y43.3287 Z-3.1809
G1 X29.7881 Y44.4453 Z-3.1872
G1 X29.6384 Y45.5828 Z-3.1934
G1 X29.6037 Y46.7295 Z-3.1997
G1 X29.6845 Y47.874 Z-3.2059
G1 X29.8799 Y49.0044 Z-3.2122
G1 X30.188 Y50.1096 Z-3.2184
G1 X30.6056 Y51.1781 Z-3.2247
G1 X30.6265 Y51.219 Z-3.2249
G1 X30.8845 Y51.07 Z-3.2266
G3 X30.8565 Y51.0045 Z-3.227 I0.9965 J-0.4659
G1 X30.4901 Y50.0671 Z-3.2324
G3 X30.455 Y49.9621 Z-3.233 I1.0245 J-0.4004
G1 X30.1848 Y48.9925 Z-3.2385
G3 X30.1604 Y48.8845 Z-3.2391 I1.0596 J-0.2954
G1 X29.989 Y47.8927 Z-3.2446
G3 X29.9756 Y47.7828 Z-3.2452 I1.0839 J-0.1874
G1 X29.9048 Y46.7788 Z-3.2507
G3 X29.9025 Y46.6681 Z-3.2513 I1.0973 J-0.0775
G1 X29.9329 Y45.6621 Z-3.2568
G3 X29.9418 Y45.5518 Z-3.2574 I1.0995 J0.0332
G1 X30.0732 Y44.5539 Z-3.2629
G3 X30.0932 Y44.445 Z-3.2635 I1.0906 J0.1436
G1 X30.3242 Y43.4653 Z-3.269
G3 X30.355 Y43.359 Z-3.2696 I1.0706 J0.2525
G1 X30.6833 Y42.4076 Z-3.2751
G3 X30.7246 Y42.3049 Z-3.2757 I1.0398 J0.3588
G1 X31.1469 Y41.3912 Z-3.2811
G3 X31.1984 Y41.2932 Z-3.2817 I0.9985 J0.4615
G1 X31.7104 Y40.4267 Z-3.2872
G3 X31.7714 Y40.3343 Z-3.2878 I0.947 J0.5596
G1 X32.368 Y39.5236 Z-3.2933
G3 X32.438 Y39.4379 Z-3.2939 I0.886 J0.6519
G1 X33.113 Y38.6912 Z-3.2994
G3 X33.1912 Y38.613 Z-3.3 I0.816 J0.7377
G1 X33.9379 Y37.938 Z-3.3055
G3 X34.0236 Y37.868 Z-3.3061 I0.7377 J0.816
G1 X34.8343 Y37.2714 Z-3.3116
G3 X34.9267 Y37.2104 Z-3.3122 I0.6519 J0.886
G1 X35.7932 Y36.6984 Z-3.3177
G3 X35.8912 Y36.6469 Z-3.3183 I0.5596 J0.947
G1 X36.8049 Y36.2246 Z-3.3237
G3 X36.9076 Y36.1833 Z-3.3243 I0.4615 J0.9985
G1 X37.859 Y35.855 Z-3.3298
G3 X37.9653 Y35.8242 Z-3.3304 I0.3588 J1.0398
G1 X38.945 Y35.5932 Z-3.3359
G3 X39.0539 Y35.5732 Z-3.3365 I0.2525 J1.0706
G1 X40.0518 Y35.4418 Z-3.342
G3 X40.1621 Y35.4329 Z-3.3426 I0.1436 J1.0906
G1 X41.1681 Y35.4025 Z-3.3481
G3 X41.2788 Y35.4048 Z-3.3487 I0.0332 J1.0995
G1 X42.2828 Y35.4756 Z-3.3542
G3 X42.3927 Y35.489 Z-3.3548 I-0.0775 J1.0973
G1 X43.3845 Y35.6604 Z-3.3603
G3 X43.4925 Y35.6848 Z-3.3609 I-0.1874 J1.0839
G1 X44.4621 Y35.955 Z-3.3663
G3 X44.5671 Y35.9901 Z-3.367 I-0.2954 J1.0596
G1 X45.5045 Y36.3565 Z-3.3724
G3 X45.57 Y36.3845 Z-3.3728 I-0.4004 J1.0245
G1 X45.719 Y36.1265 Z-3.3744
G1 X45.6781 Y36.1056 Z-3.3747
G1 X44.6096 Y35.688 Z-3.3809
G1 X43.5044 Y35.3799 Z-3.3872
G1 X42.374 Y35.1845 Z-3.3934
G1 X41.2295 Y35.1037 Z-3.3997
G1 X40.0828 Y35.1384 Z-3.4059
G1 X38.9453 Y35.2881 Z-3.4122
G1 X37.8287 Y35.5514 Z-3.4184
G1 X36.7442 Y35.9257 Z-3.4247
G1 X35.7028 Y36.407 Z-3.4309
G1 X34.7151 Y36.9906 Z-3.4372
G1 X33.791 Y37.6706 Z-3.4434
G1 X32.94 Y38.44 Z-3.4497
G1 X32.1706 Y39.291 Z-3.4559
G1 X31.4906 Y40.2151 Z-3.4622
G1 X30.907 Y41.2028 Z-3.4684
G1 X30.4257 Y42.2442 Z-3.4747
G1 X30.0514 Y43.3287 Z-3.4809
G1 X29.7881 Y44.4453 Z-3.4872
G1 X29.6384 Y45.5828 Z-3.4934
G1 X29.6037 Y46.7295 Z-3.4997
G1 X29.6845 Y47.874 Z-3.5059
G1 X29.8799 Y49.0044 Z-3.5122
G1 X30.188 Y50.1096 Z-3.5184
G1 X30.6056 Y51.1781 Z-3.5247
G1 X30.6265 Y51.219 Z-3.5249
G1 X30.8845 Y51.07 Z-3.5266
G3 X30.8565 Y51.0045 Z-3.527 I0.9965 J-0.4659
G1 X30.4901 Y50.0671 Z-3.5324
G3 X30.455 Y49.9621 Z-3.533 I1.0245 J-0.4004
G1 X30.1848 Y48.9925 Z-3.5385
G3 X30.1604 Y48.8845 Z-3.5391 I1.0596 J-0.2954
G1 X29.989 Y47.8927 Z-3.5446
G3 X29.9756 Y47.7828 Z-3.5452 I1.0839 J-0.1874
G1 X29.9048 Y46.7788 Z-3.5507
G3 X29.9025 Y46.6681 Z-3.5513 I1.0973 J-0.0775
G1 X29.9329 Y45.6621 Z-3.5568
G3 X29.9418 Y45.5518 Z-3.5574 I1.0995 J0.0332
G1 X30.0732 Y44.5539 Z-3.5629
G3 X30.0932 Y44.445 Z-3.5635 I1.0906 J0.1436
G1 X30.3242 Y43.4653 Z-3.569
G3 X30.355 Y43.359 Z-3.5696 I1.0706 J0.2525
G1 X30.6833 Y42.4076 Z-3.5751
G3 X30.7246 Y42.3049 Z-3.5757 I1.0398 J0.3588
G1 X31.1469 Y41.3912 Z-3.5811
G3 X31.1984 Y41.2932 Z-3.5817 I0.9985 J0.4615
G1 X31.7104 Y40.4267 Z-3.5872
G3 X31.7714 Y40.3343 Z-3.5878 I0.947 J0.5596
G1 X32.368 Y39.5236 Z-3.5933
G3 X32.438 Y39.4379 Z-3.5939 I0.886 J0.6519
G1 X33.113 Y38.6912 Z-3.5994
G3 X33.1912 Y38.613 Z-3.6 I0.816 J0.7377
G1 X33.9379 Y37.938 Z-3.6055
G3 X34.0236 Y37.868 Z-3.6061 I0.7377 J0.816
G1 X34.8343 Y37.2714 Z-3.6116
G3 X34.9267 Y37.2104 Z-3.6122 I0.6519 J0.886
G1 X35.7932 Y36.6984 Z-3.6177
G3 X35.8912 Y36.6469 Z-3.6183 I0.5596 J0.947
G1 X36.8049 Y36.2246 Z-3.6237
G3 X36.9076 Y36.1833 Z-3.6243 I0.4615 J0.9985
G1 X37.859 Y35.855 Z-3.6298
G3 X37.9653 Y35.8242 Z-3.6304 I0.3588 J1.0398
G1 X38.945 Y35.5932 Z-3.6359
G3 X39.0539 Y35.5732 Z-3.6365 I0.2525 J1.0706
G1 X40.0518 Y35.4418 Z-3.642
G3 X40.1621 Y35.4329 Z-3.6426 I0.1436 J1.0906
G1 X41.1681 Y35.4025 Z-3.6481
G3 X41.2788 Y35.4048 Z-3.6487 I0.0332 J1.0995
G1 X42.2828 Y35.4756 Z-3.6542
G3 X42.3927 Y35.489 Z-3.6548 I-0.0775 J1.0973
G1 X43.3845 Y35.6604 Z-3.6603
G3 X43.4925 Y35.6848 Z-3.6609 I-0.1874 J1.0839
G1 X44.4621 Y35.955 Z-3.6663
G3 X44.5671 Y35.9901 Z-3.667 I-0.2954 J1.0596
G1 X45.5045 Y36.3565 Z-3.6724
G3 X45.57 Y36.3845 Z-3.6728 I-0.4004 J1.0245
G1 X45.719 Y36.1265 Z-3.6744
G1 X45.6781 Y36.1056 Z-3.6747
G1 X44.6096 Y35.688 Z-3.6809
G1 X43.5044 Y35.3799 Z-3.6872
G1 X42.374 Y35.1845 Z-3.6934
G1 X41.2295 Y35.1037 Z-3.6997
G1 X40.0828 Y35.1384 Z-3.7059
G1 X38.9453 Y35.2881 Z-3.7122
G1 X37.8287 Y35.5514 Z-3.7184
G1 X36.7442 Y35.9257 Z-3.7247
G1 X35.7028 Y36.407 Z-3.7309
G1 X34.7151 Y36.9906 Z-3.7372
G1 X33.791 Y37.6706 Z-3.7434
G1 X32.94 Y38.44 Z-3.7497
G1 X32.1706 Y39.291 Z-3.7559
G1 X31.4906 Y40.2151 Z-3.7622
G1 X30.907 Y41.2028 Z-3.7684
G1 X30.4257 Y42.2442 Z-3.7747
G1 X30.0514 Y43.3287 Z-3.7809
G1 X29.7881 Y44.4453 Z-3.7872
G1 X29.6384 Y45.5828 Z-3.7934
G1 X29.6037 Y46.7295 Z-3.7997
G1 X29.6845 Y47.874 Z-3.8059
G1 X29.8799 Y49.0044 Z-3.8122
G1 X30.188 Y50.1096 Z-3.8184
G1 X30.6056 Y51.1781 Z-3.8247
G1 X30.6265 Y51.219 Z-3.8249
G1 X30.8845 Y51.07 Z-3.8266
G3 X30.8565 Y51.0045 Z-3.827 I0.9965 J-0.4659
G1 X30.4901 Y50.0671 Z-3.8324
G3 X30.455 Y49.9621 Z-3.833 I1.0245 J-0.4004
G1 X30.1848 Y48.9925 Z-3.8385
G3 X30.1604 Y48.8845 Z-3.8391 I1.0596 J-0.2954
G1 X29.989 Y47.8927 Z-3.8446
G3 X29.9756 Y47.7828 Z-3.8452 I1.0839 J-0.1874
G1 X29.9048 Y46.7788 Z-3.8507
G3 X29.9025 Y46.6681 Z-3.8513 I1.0973 J-0.0775
G1 X29.9329 Y45.6621 Z-3.8568
G3 X29.9418 Y45.5518 Z-3.8574 I1.0995 J0.0332
G1 X30.0732 Y44.5539 Z-3.8629
G3 X30.0932 Y44.445 Z-3.8635 I1.0906 J0.1436
G1 X30.3242 Y43.4653 Z-3.869
G3 X30.355 Y43.359 Z-3.8696 I1.0706 J0.2525
G1 X30.6833 Y42.4076 Z-3.8751
G3 X30.7246 Y42.3049 Z-3.8757 I1.0398 J0.3588
G1 X31.1469 Y41.3912 Z-3.8811
G3 X31.1984 Y41.2932 Z-3.8817 I0.9985 J0.4615
G1 X31.7104 Y40.4267 Z-3.8872
G3 X31.7714 Y40.3343 Z-3.8878 I0.947 J0.5596
G1 X32.368 Y39.5236 Z-3.8933
G3 X32.438 Y39.4379 Z-3.8939 I0.886 J0.6519
G1 X33.113 Y38.6912 Z-3.8994
G3 X33.1912 Y38.613 Z-3.9 I0.816 J0.7377
G1 X33.9379 Y37.938 Z-3.9037
G3 X34.0236 Y37.868 Z-3.9041 I0.7377 J0.816
G1 X34.8343 Y37.2714 Z-3.9077
G3 X34.9267 Y37.2104 Z-3.9081 I0.6519 J0.886
G1 X35.7932 Y36.6984 Z-3.9118
G3 X35.8912 Y36.6469 Z-3.9122 I0.5596 J0.947
G1 X36.8049 Y36.2246 Z-3.9158
G3 X36.9076 Y36.1833 Z-3.9162 I0.4615 J0.9985
G1 X37.859 Y35.855 Z-3.9199
G3 X37.9653 Y35.8242 Z-3.9203 I0.3588 J1.0398
G1 X38.945 Y35.5932 Z-3.9239
G3 X39.0539 Y35.5732 Z-3.9243 I0.2525 J1.0706
G1 X40.0518 Y35.4418 Z-3.928
G3 X40.1621 Y35.4329 Z-3.9284 I0.1436 J1.0906
G1 X41.1681 Y35.4025 Z-3.9321
G3 X41.2788 Y35.4048 Z-3.9325 I0.0332 J1.0995
G1 X42.2828 Y35.4756 Z-3.9361
G3 X42.3927 Y35.489 Z-3.9365 I-0.0775 J1.0973
G1 X43.3845 Y35.6604 Z-3.9402
G3 X43.4925 Y35.6848 Z-3.9406 I-0.1874 J1.0839
G1 X44.4621 Y35.955 Z-3.9442
G3 X44.5671 Y35.9901 Z-3.9446 I-0.2954 J1.0596
G1 X45.5045 Y36.3565 Z-3.9483
G3 X45.57 Y36.3845 Z-3.9485 I-0.4004 J1.0245
G1 X45.719 Y36.1265 Z-3.9496
G1 X45.6781 Y36.1056 Z-3.9498
G1 X44.6096 Y35.688 Z-3.954
G1 X43.5044 Y35.3799 Z-3.9581
G1 X42.374 Y35.1845 Z-3.9623
G1 X41.2295 Y35.1037 Z-3.9665
G1 X40.0828 Y35.1384 Z-3.9706
G1 X38.9453 Y35.2881 Z-3.9748
G1 X37.8287 Y35.5514 Z-3.979
G1 X36.7442 Y35.9257 Z-3.9831
G1 X35.7028 Y36.407 Z-3.9873
G1 X34.7151 Y36.9906 Z-3.9915
G1 X33.791 Y37.6706 Z-3.9956
G1 X32.94 Y38.44 Z-3.9998
G1 X32.1706 Y39.291 Z-4.004
G1 X31.4906 Y40.2151 Z-4.0081
G1 X30.907 Y41.2028 Z-4.0123
G1 X30.4257 Y42.2442 Z-4.0165
G1 X30.0514 Y43.3287 Z-4.0206
G1 X29.7881 Y44.4453 Z-4.0248
G1 X29.6384 Y45.5828 Z-4.029
G1 X29.6037 Y46.7295 Z-4.0331
G1 X29.6845 Y47.874 Z-4.0373
G1 X29.8799 Y49.0044 Z-4.0415
G1 X30.188 Y50.1096 Z-4.0456
G1 X30.6056 Y51.1781 Z-4.0498
G1 X30.6265 Y51.219 Z-4.05
G1 X30.8845 Y51.07 Z-4.051
G3 X30.8565 Y51.0045 Z-4.0513 I0.9965 J-0.4659
G1 X30.4901 Y50.0671 Z-4.055
G3 X30.455 Y49.9621 Z-4.0554 I1.0245 J-0.4004
G1 X30.1848 Y48.9925 Z-4.059
G3 X30.1604 Y48.8845 Z-4.0594 I1.0596 J-0.2954
G1 X29.989 Y47.8927 Z-4.0631
G3 X29.9756 Y47.7828 Z-4.0635 I1.0839 J-0.1874
G1 X29.9048 Y46.7788 Z-4.0671
G3 X29.9025 Y46.6681 Z-4.0675 I1.0973 J-0.0775
G1 X29.9329 Y45.6621 Z-4.0712
G3 X29.9418 Y45.5518 Z-4.0716 I1.0995 J0.0332
G1 X30.0732 Y44.5539 Z-4.0753
G3 X30.0932 Y44.445 Z-4.0757 I1.0906 J0.1436
G1 X30.3242 Y43.4653 Z-4.0793
G3 X30.355 Y43.359 Z-4.0797 I1.0706 J0.2525
G1 X30.6833 Y42.4076 Z-4.0834
G3 X30.7246 Y42.3049 Z-4.0838 I1.0398 J0.3588
G1 X31.1469 Y41.3912 Z-4.0874
G3 X31.1984 Y41.2932 Z-4.0878 I0.9985 J0.4615
G1 X31.7104 Y40.4267 Z-4.0915
G3 X31.7714 Y40.3343 Z-4.0919 I0.947 J0.5596
G1 X32.368 Y39.5236 Z-4.0955
G3 X32.438 Y39.4379 Z-4.0959 I0.886 J0.6519
G1 X33.113 Y38.6912 Z-4.0996
G3 X33.1912 Y38.613 Z-4.1 I0.816 J0.7377
G1 X33.9379 Y37.938 Z-4.1018
G3 X34.0236 Y37.868 Z-4.102 I0.7377 J0.816
G1 X34.8343 Y37.2714 Z-4.1039
G3 X34.9267 Y37.2104 Z-4.1041 I0.6519 J0.886
G1 X35.7932 Y36.6984 Z-4.1059
G3 X35.8912 Y36.6469 Z-4.1061 I0.5596 J0.947
G1 X36.8049 Y36.2246 Z-4.1079
G3 X36.9076 Y36.1833 Z-4.1081 I0.4615 J0.9985
G1 X37.859 Y35.855 Z-4.1099
G3 X37.9653 Y35.8242 Z-4.1101 I0.3588 J1.0398
G1 X38.945 Y35.5932 Z-4.112
G3 X39.0539 Y35.5732 Z-4.1122 I0.2525 J1.0706
G1 X40.0518 Y35.4418 Z-4.114
G3 X40.1621 Y35.4329 Z-4.1142 I0.1436 J1.0906
G1 X41.1681 Y35.4025 Z-4.116
G3 X41.2788 Y35.4048 Z-4.1162 I0.0332 J1.0995
G1 X42.2828 Y35.4756 Z-4.1181
G3 X42.3927 Y35.489 Z-4.1183 I-0.0775 J1.0973
G1 X43.3845 Y35.6604 Z-4.1201
G3 X43.4925 Y35.6848 Z-4.1203 I-0.1874 J1.0839
G1 X44.4621 Y35.955 Z-4.1221
G3 X44.5671 Y35.9901 Z-4.1223 I-0.2954 J1.0596
G1 X45.5045 Y36.3565 Z-4.1241
G3 X45.57 Y36.3845 Z-4.1243 I-0.4004 J1.0245
G1 X45.719 Y36.1265 Z-4.1248
G1 X45.6781 Y36.1056 Z-4.1249
G1 X44.6096 Y35.688 Z-4.127
G1 X43.5044 Y35.3799 Z-4.1291
G1 X42.374 Y35.1845 Z-4.1311
G1 X41.2295 Y35.1037 Z-4.1332
G1 X40.0828 Y35.1384 Z-4.1353
G1 X38.9453 Y35.2881 Z-4.1374
G1 X37.8287 Y35.5514 Z-4.1395
G1 X36.7442 Y35.9257 Z-4.1416
G1 X35.7028 Y36.407 Z-4.1436
G1 X34.7151 Y36.9906 Z-4.1457
G1 X33.791 Y37.6706 Z-4.1478
G1 X32.94 Y38.44 Z-4.1499
G1 X32.1706 Y39.291 Z-4.152
G1 X31.4906 Y40.2151 Z-4.1541
G1 X30.907 Y41.2028 Z-4.1561
G1 X30.4257 Y42.2442 Z-4.1582
G1 X30.0514 Y43.3287 Z-4.1603
G1 X29.7881 Y44.4453 Z-4.1624
G1 X29.6384 Y45.5828 Z-4.1645
G1 X29.6037 Y46.7295 Z-4.1666
G1 X29.6845 Y47.874 Z-4.1686
G1 X29.8799 Y49.0044 Z-4.1707
G1 X30.188 Y50.1096 Z-4.1728
G1 X30.6056 Y51.1781 Z-4.1749
G1 X30.6265 Y51.219 Z-4.175
G1 X30.8845 Y51.07 Z-4.1755
G3 X30.8565 Y51.0045 Z-4.1757 I0.9965 J-0.4659
G1 X30.4901 Y50.0671 Z-4.1775
G3 X30.455 Y49.9621 Z-4.1777 I1.0245 J-0.4004
G1 X30.1848 Y48.9925 Z-4.1795
G3 X30.1604 Y48.8845 Z-4.1797 I1.0596 J-0.2954
G1 X29.989 Y47.8927 Z-4.1815
G3 X29.9756 Y47.7828 Z-4.1817 I1.0839 J-0.1874
G1 X29.9048 Y46.7788 Z-4.1836
G3 X29.9025 Y46.6681 Z-4.1838 I1.0973 J-0.0775
G1 X29.9329 Y45.6621 Z-4.1856
G3 X29.9418 Y45.5518 Z-4.1858 I1.0995 J0.0332
G1 X30.0732 Y44.5539 Z-4.1876
G3 X30.0932 Y44.445 Z-4.1878 I1.0906 J0.1436
G1 X30.3242 Y43.4653 Z-4.1897
G3 X30.355 Y43.359 Z-4.1899 I1.0706 J0.2525
G1 X30.6833 Y42.4076 Z-4.1917
G3 X30.7246 Y42.3049 Z-4.1919 I1.0398 J0.3588
G1 X31.1469 Y41.3912 Z-4.1937
G3 X31.1984 Y41.2932 Z-4.1939 I0.9985 J0.4615
G1 X31.7104 Y40.4267 Z-4.1957
G3 X31.7714 Y40.3343 Z-4.1959 I0.947 J0.5596
G1 X32.368 Y39.5236 Z-4.1978
G3 X32.438 Y39.4379 Z-4.198 I0.886 J0.6519
G1 X33.113 Y38.6912 Z-4.1998
G3 X33.1912 Y38.613 Z-4.2 I0.816 J0.7377
G1 X33.9379 Y37.938
G3 X34.0236 Y37.868 I0.7377 J0.816
G1 X34.8343 Y37.2714
G3 X34.9267 Y37.2104 I0.6519 J0.886
G1 X35.7932 Y36.6984
G3 X35.8912 Y36.6469 I0.5596 J0.947
G1 X36.8049 Y36.2246
G3 X36.9076 Y36.1833 I0.4615 J0.9985
G1 X37.859 Y35.855
G3 X37.9653 Y35.8242 I0.3588 J1.0398
G1 X38.945 Y35.5932
G3 X39.0539 Y35.5732 I0.2525 J1.0706
G1 X40.0518 Y35.4418
G3 X40.1621 Y35.4329 I0.1436 J1.0906
G1 X41.1681 Y35.4025
G3 X41.2788 Y35.4048 I0.0332 J1.0995
G1 X42.2828 Y35.4756
G3 X42.3927 Y35.489 I-0.0775 J1.0973
G1 X43.3845 Y35.6604
G3 X43.4925 Y35.6848 I-0.1874 J1.0839
G1 X44.4621 Y35.955
G3 X44.5671 Y35.9901 I-0.2954 J1.0596
G1 X45.5045 Y36.3565
G3 X45.57 Y36.3845 I-0.4004 J1.0245
G1 X45.719 Y36.1265
G1 X45.6781 Y36.1056
G1 X44.6096 Y35.688
G1 X43.5044 Y35.3799
G1 X42.374 Y35.1845
G1 X41.2295 Y35.1037
G1 X40.0828 Y35.1384
G1 X38.9453 Y35.2881
G1 X37.8287 Y35.5514
G1 X36.7442 Y35.9257
G1 X35.7028 Y36.407
G1 X34.7151 Y36.9906
G1 X33.791 Y37.6706
G1 X32.94 Y38.44
G1 X32.1706 Y39.291
G1 X31.4906 Y40.2151
G1 X30.907 Y41.2028
G1 X30.4257 Y42.2442
G1 X30.0514 Y43.3287
G1 X29.7881 Y44.4453
G1 X29.6384 Y45.5828
G1 X29.6037 Y46.7295
G1 X29.6845 Y47.874
G1 X29.8799 Y49.0044
G1 X30.188 Y50.1096
G1 X30.6056 Y51.1781
G1 X30.6265 Y51.219
G1 X30.8845 Y51.07
G3 X30.8565 Y51.0045 I0.9965 J-0.4659
G1 X30.4901 Y50.0671
G3 X30.455 Y49.9621 I1.0245 J-0.4004
G1 X30.1848 Y48.9925
G3 X30.1604 Y48.8845 I1.0596 J-0.2954
G1 X29.989 Y47.8927
G3 X29.9756 Y47.7828 I1.0839 J-0.1874
G1 X29.9048 Y46.7788
G3 X29.9025 Y46.6681 I1.0973 J-0.0775
G1 X29.9329 Y45.6621
G3 X29.9418 Y45.5518 I1.0995 J0.0332
G1 X30.0732 Y44.5539
G3 X30.0932 Y44.445 I1.0906 J0.1436
G1 X30.3242 Y43.4653
G3 X30.355 Y43.359 I1.0706 J0.2525
G1 X30.6833 Y42.4076
G3 X30.7246 Y42.3049 I1.0398 J0.3588
G1 X31.1469 Y41.3912
G3 X31.1984 Y41.2932 I0.9985 J0.4615
G1 X31.7104 Y40.4267
G3 X31.7714 Y40.3343 I0.947 J0.5596
G1 X32.368 Y39.5236
G3 X32.438 Y39.4379 I0.886 J0.6519
G1 X33.113 Y38.6912
G3 X33.1912 Y38.613 I0.816 J0.7377
G0 Z3.0
G0 X27.9883 Y33.239
G0 Z1.0
G1 F200.0 Z0.0
G1 F700.0 X28.7069 Y32.5432 Z-0.0031
G3 X28.7898 Y32.4706 Z-0.0034 I0.7651 J0.7903
G1 X30.1646 Y31.3836 Z-0.0088
G3 X30.2544 Y31.3196 Z-0.0091 I0.6823 J0.8629
G1 X31.7311 Y30.3755 Z-0.0145
G3 X31.8267 Y30.3209 Z-0.0149 I0.5925 J0.9268
G1 X33.3904 Y29.5293 Z-0.0203
G3 X33.4911 Y29.4845 Z-0.0206 I0.4969 J0.9814
G1 X35.1261 Y28.8532 Z-0.026
G3 X35.2308 Y28.8187 Z-0.0263 I0.3962 J1.0262
G1 X35.9119 Y28.6315 Z-0.0285
G1 X35.8476 Y28.3413 Z-0.0294
G1 X35.0845 Y28.551 Z-0.0318
G1 X33.3188 Y29.2328 Z-0.0377
G1 X31.6302 Y30.0877 Z-0.0435
G1 X30.0355 Y31.1073 Z-0.0493
G1 X28.5508 Y32.2812 Z-0.0551
G1 X27.1909 Y33.5978 Z-0.0609
G1 X25.9696 Y35.0438 Z-0.0667
G1 X24.8991 Y36.6047 Z-0.0726
G1 X23.99 Y38.2648 Z-0.0784
G1 X23.2516 Y40.0076 Z-0.0842
G1 X22.6912 Y41.8155 Z-0.09
G1 X22.3144 Y43.6704 Z-0.0958
G1 X22.1251 Y45.5536 Z-0.1017
G1 Y47.4464 Z-0.1075
G1 X22.3144 Y49.3296 Z-0.1133
G1 X22.6912 Y51.1845 Z-0.1191
G1 X23.2516 Y52.9924 Z-0.1249
G1 X23.99 Y54.7352 Z-0.1308
G1 X24.8991 Y56.3953 Z-0.1366
G1 X25.9696 Y57.9562 Z-0.1424
G1 X27.1909 Y59.4022 Z-0.1482
G1 X28.5508 Y60.7188 Z-0.154
G1 X30.0355 Y61.8927 Z-0.1598
G1 X31.6302 Y62.9123 Z-0.1657
G1 X33.3188 Y63.7672 Z-0.1715
G1 X35.0845 Y64.449 Z-0.1773
G1 X35.8476 Y64.6587 Z-0.1797
G1 X35.9119 Y64.3685 Z-0.1806
G1 X35.2308 Y64.1813 Z-0.1828
G3 X35.1261 Y64.1468 Z-0.1832 I0.2916 J-1.0607
G1 X33.4911 Y63.5155 Z-0.1885
G3 X33.3904 Y63.4707 Z-0.1889 I0.3962 J-1.0262
G1 X31.8267 Y62.6791 Z-0.1943
G3 X31.7311 Y62.6245 Z-0.1946 I0.4969 J-0.9814
G1 X30.2544 Y61.6804 Z-0.2
G3 X30.1646 Y61.6164 Z-0.2003 I0.5925 J-0.9268
G1 X28.7898 Y60.5294 Z-0.2057
G3 X28.7069 Y60.4568 Z-0.2061 I0.6823 J-0.8629
G1 X27.4477 Y59.2377 Z-0.2114
G3 X27.3725 Y59.1572 Z-0.2118 I0.7651 J-0.7903
G1 X26.2416 Y57.8182 Z-0.2172
G3 X26.1748 Y57.7306 Z-0.2175 I0.8404 J-0.7098
G1 X25.1835 Y56.2852 Z-0.2229
G3 X25.1258 Y56.1913 Z-0.2232 I0.9071 J-0.6222
G1 X24.284 Y54.654 Z-0.2286
G3 X24.236 Y54.5549 Z-0.229 I0.9648 J-0.5283
G1 X23.5522 Y52.9411 Z-0.2344
G3 X23.5144 Y52.8376 Z-0.2347 I1.0128 J-0.4291
G1 X22.9955 Y51.1635 Z-0.2401
G3 X22.9682 Y51.0568 Z-0.2404 I1.0507 J-0.3257
G1 X22.6193 Y49.3392 Z-0.2458
G3 X22.6028 Y49.2303 Z-0.2461 I1.078 J-0.219
G1 X22.4275 Y47.4864 Z-0.2515
G3 X22.422 Y47.3763 Z-0.2519 I1.0945 J-0.11
G1 Y45.6237 Z-0.2573
G3 X22.4275 Y45.5136 Z-0.2576 I1.1 J0.0
G1 X22.6028 Y43.7697 Z-0.263
G3 X22.6193 Y43.6608 Z-0.2633 I1.0945 J0.11
G1 X22.9682 Y41.9432 Z-0.2687
G3 X22.9955 Y41.8365 Z-0.2691 I1.078 J0.219
G1 X23.5144 Y40.1624 Z-0.2744
G3 X23.5522 Y40.0589 Z-0.2748 I1.0507 J0.3257
G1 X24.236 Y38.4451 Z-0.2802
G3 X24.284 Y38.346 Z-0.2805 I1.0128 J0.4291
G1 X25.1258 Y36.8087 Z-0.2859
G3 X25.1835 Y36.7148 Z-0.2862 I0.9648 J0.5283
G1 X26.1748 Y35.2694 Z-0.2916
G3 X26.2416 Y35.1818 Z-0.292 I0.9071 J0.6222
G1 X27.3725 Y33.8428 Z-0.2973
G3 X27.4477 Y33.7623 Z-0.2977 I0.8404 J0.7098
G1 X27.9883 Y33.239 Z-0.3
G1 X28.7069 Y32.5432 Z-0.3031
G3 X28.7898 Y32.4706 Z-0.3034 I0.7651 J0.7903
G1 X30.1646 Y31.3836 Z-0.3088
G3 X30.2544 Y31.3196 Z-0.3091 I0.6823 J0.8629
G1 X31.7311 Y30.3755 Z-0.3145
G3 X31.8267 Y30.3209 Z-0.3149 I0.5925 J0.9268
G1 X33.3904 Y29.5293 Z-0.3203
G3 X33.4911 Y29.4845 Z-0.3206 I0.4969 J0.9814
G1 X35.1261 Y28.8532 Z-0.326
G3 X35.2308 Y28.8187 Z-0.3263 I0.3962 J1.0262
G1 X35.9119 Y28.6315 Z-0.3285
G1 X35.8476 Y28.3413 Z-0.3294
G1 X35.0845 Y28.551 Z-0.3318
G1 X33.3188 Y29.2328 Z-0.3377
G1 X31.6302 Y30.0877 Z-0.3435
G1 X30.0355 Y31.1073 Z-0.3493
G1 X28.5508 Y32.2812 Z-0.3551
G1 X27.1909 Y33.5978 Z-0.3609
G1 X25.9696 Y35.0438 Z-0.3667
G1 X24.8991 Y36.6047 Z-0.3726
G1 X23.99 Y38.2648 Z-0.3784
G1 X23.2516 Y40.0076 Z-0.3842
G1 X22.6912 Y41.8155 Z-0.39
G1 X22.3144 Y43.6704 Z-0.3958
G1 X22.1251 Y45.5536 Z-0.4017
G1 Y47.4464 Z-0.4075
G1 X22.3144 Y49.3296 Z-0.4133
G1 X22.6912 Y51.1845 Z-0.4191
G1 X23.2516 Y52.9924 Z-0.4249
G1 X23.99 Y54.7352 Z-0.4308
G1 X24.8991 Y56.3953 Z-0.4366
G1 X25.9696 Y57.9562 Z-0.4424
G1 X27.1909 Y59.4022 Z-0.4482
G1 X28.5508 Y60.7188 Z-0.454
G1 X30.0355 Y61.8927 Z-0.4598
G1 X31.6302 Y62.9123 Z-0.4657
G1 X33.3188 Y63.7672 Z-0.4715
G1 X35.0845 Y64.449 Z-0.4773
G1 X35.8476 Y64.6587 Z-0.4797
G1 X35.9119 Y64.3685 Z-0.4806
G1 X35.2308 Y64.1813 Z-0.4828
G3 X35.1261 Y64.1468 Z-0.4832 I0.2916 J-1.0607
G1 X33.4911 Y63.5155 Z-0.4885
G3 X33.3904 Y63.4707 Z-0.4889 I0.3962 J-1.0262
G1 X31.8267 Y62.6791 Z-0.4943
G3 X31.7311 Y62.6245 Z-0.4946 I0.4969 J-0.9814
G1 X30.2544 Y61.6804 Z-0.5
G3 X30.1646 Y61.6164 Z-0.5003 I0.5925 J-0.9268
G1 X28.7898 Y60.5294 Z-0.5057
G3 X28.7069 Y60.4568 Z-0.5061 I0.6823 J-0.8629
G1 X27.4477 Y59.2377 Z-0.5114
G3 X27.3725 Y59.1572 Z-0.5118 I0.7651 J-0.7903
G1 X26.2416 Y57.8182 Z-0.5172
G3 X26.1748 Y57.7306 Z-0.5175 I0.8404 J-0.7098
G1 X25.1835 Y56.2852 Z-0.5229
G3 X25.1258 Y56.1913 Z-0.5232 I0.9071 J-0.6222
G1 X24.284 Y54.654 Z-0.5286
G3 X24.236 Y54.5549 Z-0.529 I0.9648 J-0.5283
G1 X23.5522 Y52.9411 Z-0.5344
G3 X23.5144 Y52.8376 Z-0.5347 I1.0128 J-0.4291
G1 X22.9955 Y51.1635 Z-0.5401
G3 X22.9682 Y51.0568 Z-0.5404 I1.0507 J-0.3257
G1 X22.6193 Y49.3392 Z-0.5458
G3 X22.6028 Y49.2303 Z-0.5461 I1.078 J-0.219
G1 X22.4275 Y47.4864 Z-0.5515
G3 X22.422 Y47.3763 Z-0.5519 I1.0945 J-0.11
G1 Y45.6237 Z-0.5573
G3 X22.4275 Y45.5136 Z-0.5576 I1.1 J0.0
G1 X22.6028 Y43.7697 Z-0.563
G3 X22.6193 Y43.6608 Z-0.5633 I1.0945 J0.11
G1 X22.9682 Y41.9432 Z-0.5687
G3 X22.9955 Y41.8365 Z-0.5691 I1.078 J0.219
G1 X23.5144 Y40.1624 Z-0.5744
G3 X23.5522 Y40.0589 Z-0.5748 I1.0507 J0.3257
G1 X24.236 Y38.4451 Z-0.5802
G3 X24.284 Y38.346 Z-0.5805 I1.0128 J0.4291
G1 X25.1258 Y36.8087 Z-0.5859
G3 X25.1835 Y36.7148 Z-0.5862 I0.9648 J0.5283
G1 X26.1748 Y35.2694 Z-0.5916
G3 X26.2416 Y35.1818 Z-0.592 I0.9071 J0.6222
G1 X27.3725 Y33.8428 Z-0.5973
G3 X27.4477 Y33.7623 Z-0.5977 I0.8404 J0.7098
G1 X27.9883 Y33.239 Z-0.6
G1 X28.7069 Y32.5432 Z-0.6031
G3 X28.7898 Y32.4706 Z-0.6034 I0.7651 J0.7903
G1 X30.1646 Y31.3836 Z-0.6088
G3 X30.2544 Y31.3196 Z-0.6091 I0.6823 J0.8629
G1 X31.7311 Y30.3755 Z-0.6145
G3 X31.8267 Y30.3209 Z-0.6149 I0.5925 J0.9268
G1 X33.3904 Y29.5293 Z-0.6203
G3 X33.4911 Y29.4845 Z-0.6206 I0.4969 J0.9814
G1 X35.1261 Y28.8532 Z-0.626
G3 X35.2308 Y28.8187 Z-0.6263 I0.3962 J1.0262
G1 X35.9119 Y28.6315 Z-0.6285
G1 X35.8476 Y28.3413 Z-0.6294
G1 X35.0845 Y28.551 Z-0.6318
G1 X33.3188 Y29.2328 Z-0.6377
G1 X31.6302 Y30.0877 Z-0.6435
G1 X30.0355 Y31.1073 Z-0.6493
G1 X28.5508 Y32.2812 Z-0.6551
G1 X27.1909 Y33.5978 Z-0.6609
G1 X25.9696 Y35.0438 Z-0.6667
G1 X24.8991 Y36.6047 Z-0.6726
G1 X23.99 Y38.2648 Z-0.6784
G1 X23.2516 Y40.0076 Z-0.6842
G1 X22.6912 Y41.8155 Z-0.69
G1 X22.3144 Y43.6704 Z-0.6958
G1 X22.1251 Y45.5536 Z-0.7017
G1 Y47.4464 Z-0.7075
G1 X22.3144 Y49.3296 Z-0.7133
G1 X22.6912 Y51.1845 Z-0.7191
G1 X23.2516 Y52.9924 Z-0.7249
G1 X23.99 Y54.7352 Z-0.7308
G1 X24.8991 Y56.3953 Z-0.7366
G1 X25.9696 Y57.9562 Z-0.7424
G1 X27.1909 Y59.4022 Z-0.7482
G1 X28.5508 Y60.7188 Z-0.754
G1 X30.0355 Y61.8927 Z-0.7598
G1 X31.6302 Y62.9123 Z-0.7657
G1 X33.3188 Y63.7672 Z-0.7715
G1 X35.0845 Y64.449 Z-0.7773
G1 X35.8476 Y64.6587 Z-0.7797
G1 X35.9119 Y64.3685 Z-0.7806
G1 X35.2308 Y64.1813 Z-0.7828
G3 X35.1261 Y64.1468 Z-0.7832 I0.2916 J-1.0607
G1 X33.4911 Y63.5155 Z-0.7885
G3 X33.3904 Y63.4707 Z-0.7889 I0.3962 J-1.0262
G1 X31.8267 Y62.6791 Z-0.7943
G3 X31.7311 Y62.6245 Z-0.7946 I0.4969 J-0.9814
G1 X30.2544 Y61.6804 Z-0.8
G3 X30.1646 Y61.6164 Z-0.8003 I0.5925 J-0.9268
G1 X28.7898 Y60.5294 Z-0.8057
G3 X28.7069 Y60.4568 Z-0.8061 I0.6823 J-0.8629
G1 X27.4477 Y59.2377 Z-0.8114
G3 X27.3725 Y59.1572 Z-0.8118 I0.7651 J-0.7903
G1 X26.2416 Y57.8182 Z-0.8172
G3 X26.1748 Y57.7306 Z-0.8175 I0.8404 J-0.7098
G1 X25.1835 Y56.2852 Z-0.8229
G3 X25.1258 Y56.1913 Z-0.8232 I0.9071 J-0.6222
G1 X24.284 Y54.654 Z-0.8286
G3 X24.236 Y54.5549 Z-0.829 I0.9648 J-0.5283
G1 X23.5522 Y52.9411 Z-0.8344
G3 X23.5144 Y52.8376 Z-0.8347 I1.0128 J-0.4291
G1 X22.9955 Y51.1635 Z-0.8401
G3 X22.9682 Y51.0568 Z-0.8404 I1.0507 J-0.3257
G1 X22.6193 Y49.3392 Z-0.8458
G3 X22.6028 Y49.2303 Z-0.8461 I1.078 J-0.219
G1 X22.4275 Y47.4864 Z-0.8515
G3 X22.422 Y47.3763 Z-0.8519 I1.0945 J-0.11
G1 Y45.6237 Z-0.8573
G3 X22.4275 Y45.5136 Z-0.8576 I1.1 J0.0
G1 X22.6028 Y43.7697 Z-0.863
G3 X22.6193 Y43.6608 Z-0.8633 I1.0945 J0.11
G1 X22.9682 Y41.9432 Z-0.8687
G3 X22.9955 Y41.8365 Z-0.8691 I1.078 J0.219
G1 X23.5144 Y40.1624 Z-0.8744
G3 X23.5522 Y40.0589 Z-0.8748 I1.0507 J0.3257
G1 X24.236 Y38.4451 Z-0.8802
G3 X24.284 Y38.346 Z-0.8805 I1.0128 J0.4291
G1 X25.1258 Y36.8087 Z-0.8859
G3 X25.1835 Y36.7148 Z-0.8862 I0.9648 J0.5283
G1 X26.1748 Y35.2694 Z-0.8916
G3 X26.2416 Y35.1818 Z-0.892 I0.9071 J0.6222
G1 X27.3725 Y33.8428 Z-0.8973
G3 X27.4477 Y33.7623 Z-0.8977 I0.8404 J0.7098
G1 X27.9883 Y33.239 Z-0.9
G1 X28.7069 Y32.5432 Z-0.9031
G3 X28.7898 Y32.4706 Z-0.9034 I0.7651 J0.7903
G1 X30.1646 Y31.3836 Z-0.9088
G3 X30.2544 Y31.3196 Z-0.9091 I0.6823 J0.8629
G1 X31.7311 Y30.3755 Z-0.9145
G3 X31.8267 Y30.3209 Z-0.9149 I0.5925 J0.9268
G1 X33.3904 Y29.5293 Z-0.9203
G3 X33.4911 Y29.4845 Z-0.9206 I0.4969 J0.9814
G1 X35.1261 Y28.8532 Z-0.926
G3 X35.2308 Y28.8187 Z-0.9263 I0.3962 J1.0262
G1 X35.9119 Y28.6315 Z-0.9285
G1 X35.8476 Y28.3413 Z-0.9294
G1 X35.0845 Y28.551 Z-0.9318
G1 X33.3188 Y29.2328 Z-0.9377
G1 X31.6302 Y30.0877 Z-0.9435
G1 X30.0355 Y31.1073 Z-0.9493
G1 X28.5508 Y32.2812 Z-0.9551
G1 X27.1909 Y33.5978 Z-0.9609
G1 X25.9696 Y35.0438 Z-0.9667
G1 X24.8991 Y36.6047 Z-0.9726
G1 X23.99 Y38.2648 Z-0.9784
G1 X23.2516 Y40.0076 Z-0.9842
G1 X22.6912 Y41.8155 Z-0.99
G1 X22.3144 Y43.6704 Z-0.9958
G1 X22.1251 Y45.5536 Z-1.0017
G1 Y47.4464 Z-1.0075
G1 X22.3144 Y49.3296 Z-1.0133
G1 X22.6912 Y51.1845 Z-1.0191
G1 X23.2516 Y52.9924 Z-1.0249
G1 X23.99 Y54.7352 Z-1.0308
G1 X24.8991 Y56.3953 Z-1.0366
G1 X25.9696 Y57.9562 Z-1.0424
G1 X27.1909 Y59.4022 Z-1.0482
G1 X28.5508 Y60.7188 Z-1.054
G1 X30.0355 Y61.8927 Z-1.0598
G1 X31.6302 Y62.9123 Z-1.0657
G1 X33.3188 Y63.7672 Z-1.0715
G1 X35.0845 Y64.449 Z-1.0773
G1 X35.8476 Y64.6587 Z-1.0797
G1 X35.9119 Y64.3685 Z-1.0806
G1 X35.2308 Y64.1813 Z-1.0828
G3 X35.1261 Y64.1468 Z-1.0832 I0.2916 J-1.0607
G1 X33.4911 Y63.5155 Z-1.0885
G3 X33.3904 Y63.4707 Z-1.0889 I0.3962 J-1.0262
G1 X31.8267 Y62.6791 Z-1.0943
G3 X31.7311 Y62.6245 Z-1.0946 I0.4969 J-0.9814
G1 X30.2544 Y61.6804 Z-1.1
G3 X30.1646 Y61.6164 Z-1.1003 I0.5925 J-0.9268
G1 X28.7898 Y60.5294 Z-1.1057
G3 X28.7069 Y60.4568 Z-1.1061 I0.6823 J-0.8629
G1 X27.4477 Y59.2377 Z-1.1114
G3 X27.3725 Y59.1572 Z-1.1118 I0.7651 J-0.7903
G1 X26.2416 Y57.8182 Z-1.1172
G3 X26.1748 Y57.7306 Z-1.1175 I0.8404 J-0.7098
G1 X25.1835 Y56.2852 Z-1.1229
G3 X25.1258 Y56.1913 Z-1.1232 I0.9071 J-0.6222
G1 X24.284 Y54.654 Z-1.1286
G3 X24.236 Y54.5549 Z-1.129 I0.9648 J-0.5283
G1 X23.5522 Y52.9411 Z-1.1344
G3 X23.5144 Y52.8376 Z-1.1347 I1.0128 J-0.4291
G1 X22.9955 Y51.1635 Z-1.1401
G3 X22.9682 Y51.0568 Z-1.1404 I1.0507 J-0.3257
G1 X22.6193 Y49.3392 Z-1.1458
G3 X22.6028 Y49.2303 Z-1.1461 I1.078 J-0.219
G1 X22.4275 Y47.4864 Z-1.1515
G3 X22.422 Y47.3763 Z-1.1519 I1.0945 J-0.11
G1 Y45.6237 Z-1.1573
G3 X22.4275 Y45.5136 Z-1.1576 I1.1 J0.0
G1 X22.6028 Y43.7697 Z-1.163
G3 X22.6193 Y43.6608 Z-1.1633 I1.0945 J0.11
G1 X22.9682 Y41.9432 Z-1.1687
G3 X22.9955 Y41.8365 Z-1.1691 I1.078 J0.219
G1 X23.5144 Y40.1624 Z-1.1744
G3 X23.5522 Y40.0589 Z-1.1748 I1.0507 J0.3257
G1 X24.236 Y38.4451 Z-1.1802
G3 X24.284 Y38.346 Z-1.1805 I1.0128 J0.4291
G1 X25.1258 Y36.8087 Z-1.1859
G3 X25.1835 Y36.7148 Z-1.1862 I0.9648 J0.5283
G1 X26.1748 Y35.2694 Z-1.1916
G3 X26.2416 Y35.1818 Z-1.192 I0.9071 J0.6222
G1 X27.3725 Y33.8428 Z-1.1973
G3 X27.4477 Y33.7623 Z-1.1977 I0.8404 J0.7098
G1 X27.9883 Y33.239 Z-1.2
G1 X28.7069 Y32.5432 Z-1.2031
G3 X28.7898 Y32.4706 Z-1.2034 I0.7651 J0.7903
G1 X30.1646 Y31.3836 Z-1.2088
G3 X30.2544 Y31.3196 Z-1.2091 I0.6823 J0.8629
G1 X31.7311 Y30.3755 Z-1.2145
G3 X31.8267 Y30.3209 Z-1.2149 I0.5925 J0.9268
G1 X33.3904 Y29.5293 Z-1.2203
G3 X33.4911 Y29.4845 Z-1.2206 I0.4969 J0.9814
G1 X35.1261 Y28.8532 Z-1.226
G3 X35.2308 Y28.8187 Z-1.2263 I0.3962 J1.0262
G1 X35.9119 Y28.6315 Z-1.2285
G1 X35.8476 Y28.3413 Z-1.2294
G1 X35.0845 Y28.551 Z-1.2318
G1 X33.3188 Y29.2328 Z-1.2377
G1 X31.6302 Y30.0877 Z-1.2435
G1 X30.0355 Y31.1073 Z-1.2493
G1 X28.5508 Y32.2812 Z-1.2551
G1 X27.1909 Y33.5978 Z-1.2609
G1 X25.9696 Y35.0438 Z-1.2667
G1 X24.8991 Y36.6047 Z-1.2726
G1 X23.99 Y38.2648 Z-1.2784
G1 X23.2516 Y40.0076 Z-1.2842
G1 X22.6912 Y41.8155 Z-1.29
G1 X22.3144 Y43.6704 Z-1.2958
G1 X22.1251 Y45.5536 Z-1.3017
G1 Y47.4464 Z-1.3075
G1 X22.3144 Y49.3296 Z-1.3133
G1 X22.6912 Y51.1845 Z-1.3191
G1 X23.2516 Y52.9924 Z-1.3249
G1 X23.99 Y54.7352 Z-1.3308
G1 X24.8991 Y56.3953 Z-1.3366
G1 X25.9696 Y57.9562 Z-1.3424
G1 X27.1909 Y59.4022 Z-1.3482
G1 X28.5508 Y60.7188 Z-1.354
G1 X30.0355 Y61.8927 Z-1.3598
G1 X31.6302 Y62.9123 Z-1.3657
G1 X33.3188 Y63.7672 Z-1.3715
G1 X35.0845 Y64.449 Z-1.3773
G1 X35.8476 Y64.6587 Z-1.3797
G1 X35.9119 Y64.3685 Z-1.3806
G1 X35.2308 Y64.1813 Z-1.3828
G3 X35.1261 Y64.1468 Z-1.3832 I0.2916 J-1.0607
G1 X33.4911 Y63.5155 Z-1.3885
G3 X33.3904 Y63.4707 Z-1.3889 I0.3962 J-1.0262
G1 X31.8267 Y62.6791 Z-1.3943
G3 X31.7311 Y62.6245 Z-1.3946 I0.4969 J-0.9814
G1 X30.2544 Y61.6804 Z-1.4
G3 X30.1646 Y61.6164 Z-1.4003 I0.5925 J-0.9268
G1 X28.7898 Y60.5294 Z-1.4057
G3 X28.7069 Y60.4568 Z-1.4061 I0.6823 J-0.8629
G1 X27.4477 Y59.2377 Z-1.4114
G3 X27.3725 Y59.1572 Z-1.4118 I0.7651 J-0.7903
G1 X26.2416 Y57.8182 Z-1.4172
G3 X26.1748 Y57.7306 Z-1.4175 I0.8404 J-0.7098
G1 X25.1835 Y56.2852 Z-1.4229
G3 X25.1258 Y56.1913 Z-1.4232 I0.9071 J-0.6222
G1 X24.284 Y54.654 Z-1.4286
G3 X24.236 Y54.5549 Z-1.429 I0.9648 J-0.5283
G1 X23.5522 Y52.9411 Z-1.4344
G3 X23.5144 Y52.8376 Z-1.4347 I1.0128 J-0.4291
G1 X22.9955 Y51.1635 Z-1.4401
G3 X22.9682 Y51.0568 Z-1.4404 I1.0507 J-0.3257
G1 X22.6193 Y49.3392 Z-1.4458
G3 X22.6028 Y49.2303 Z-1.4461 I1.078 J-0.219
G1 X22.4275 Y47.4864 Z-1.4515
G3 X22.422 Y47.3763 Z-1.4519 I1.0945 J-0.11
G1 Y45.6237 Z-1.4573
G3 X22.4275 Y45.5136 Z-1.4576 I1.1 J0.0
G1 X22.6028 Y43.7697 Z-1.463
G3 X22.6193 Y43.6608 Z-1.4633 I1.0945 J0.11
G1 X22.9682 Y41.9432 Z-1.4687
G3 X22.9955 Y41.8365 Z-1.4691 I1.078 J0.219
G1 X23.5144 Y40.1624 Z-1.4744
G3 X23.5522 Y40.0589 Z-1.4748 I1.0507 J0.3257
G1 X24.236 Y38.4451 Z-1.4802
G3 X24.284 Y38.346 Z-1.4805 I1.0128 J0.4291
G1 X25.1258 Y36.8087 Z-1.4859
G3 X25.1835 Y36.7148 Z-1.4862 I0.9648 J0.5283
G1 X26.1748 Y35.2694 Z-1.4916
G3 X26.2416 Y35.1818 Z-1.492 I0.9071 J0.6222
G1 X27.3725 Y33.8428 Z-1.4973
G3 X27.4477 Y33.7623 Z-1.4977 I0.8404 J0.7098
G1 X27.9883 Y33.239 Z-1.5
G1 X28.7069 Y32.5432 Z-1.5031
G3 X28.7898 Y32.4706 Z-1.5034 I0.7651 J0.7903
G1 X30.1646 Y31.3836 Z-1.5088
G3 X30.2544 Y31.3196 Z-1.5091 I0.6823 J0.8629
G1 X31.7311 Y30.3755 Z-1.5145
G3 X31.8267 Y30.3209 Z-1.5149 I0.5925 J0.9268
G1 X33.3904 Y29.5293 Z-1.5203
G3 X33.4911 Y29.4845 Z-1.5206 I0.4969 J0.9814
G1 X35.1261 Y28.8532 Z-1.526
G3 X35.2308 Y28.8187 Z-1.5263 I0.3962 J1.0262
G1 X35.9119 Y28.6315 Z-1.5285
G1 X35.8476 Y28.3413 Z-1.5294
G1 X35.0845 Y28.551 Z-1.5318
G1 X33.3188 Y29.2328 Z-1.5377
G1 X31.6302 Y30.0877 Z-1.5435
G1 X30.0355 Y31.1073 Z-1.5493
G1 X28.5508 Y32.2812 Z-1.5551
G1 X27.1909 Y33.5978 Z-1.5609
G1 X25.9696 Y35.0438 Z-1.5667
G1 X24.8991 Y36.6047 Z-1.5726
G1 X23.99 Y38.2648 Z-1.5784
G1 X23.2516 Y40.0076 Z-1.5842
G1 X22.6912 Y41.8155 Z-1.59
G1 X22.3144 Y43.6704 Z-1.5958
G1 X22.1251 Y45.5536 Z-1.6017
G1 Y47.4464 Z-1.6075
G1 X22.3144 Y49.3296 Z-1.6133
G1 X22.6912 Y51.1845 Z-1.6191
G1 X23.2516 Y52.9924 Z-1.6249
G1 X23.99 Y54.7352 Z-1.6308
G1 X24.8991 Y56.3953 Z-1.6366
G1 X25.9696 Y57.9562 Z-1.6424
G1 X27.1909 Y59.4022 Z-1.6482
G1 X28.5508 Y60.7188 Z-1.654
G1 X30.0355 Y61.8927 Z-1.6598
G1 X31.6302 Y62.9123 Z-1.6657
G1 X33.3188 Y63.7672 Z-1.6715
G1 X35.0845 Y64.449 Z-1.6773
G1 X35.8476 Y64.6587 Z-1.6797
G1 X35.9119 Y64.3685 Z-1.6806
G1 X35.2308 Y64.1813 Z-1.6828
G3 X35.1261 Y64.1468 Z-1.6832 I0.2916 J-1.0607
G1 X33.4911 Y63.5155 Z-1.6885
G3 X33.3904 Y63.4707 Z-1.6889 I0.3962 J-1.0262
G1 X31.8267 Y62.6791 Z-1.6943
G3 X31.7311 Y62.6245 Z-1.6946 I0.4969 J-0.9814
G1 X30.2544 Y61.6804 Z-1.7
G3 X30.1646 Y61.6164 Z-1.7003 I0.5925 J-0.9268
G1 X28.7898 Y60.5294 Z-1.7057
G3 X28.7069 Y60.4568 Z-1.7061 I0.6823 J-0.8629
G1 X27.4477 Y59.2377 Z-1.7114
G3 X27.3725 Y59.1572 Z-1.7118 I0.7651 J-0.7903
G1 X26.2416 Y57.8182 Z-1.7172
G3 X26.1748 Y57.7306 Z-1.7175 I0.8404 J-0.7098
G1 X25.1835 Y56.2852 Z-1.7229
G3 X25.1258 Y56.1913 Z-1.7232 I0.9071 J-0.6222
G1 X24.284 Y54.654 Z-1.7286
G3 X24.236 Y54.5549 Z-1.729 I0.9648 J-0.5283
G1 X23.5522 Y52.9411 Z-1.7344
G3 X23.5144 Y52.8376 Z-1.7347 I1.0128 J-0.4291
G1 X22.9955 Y51.1635 Z-1.7401
G3 X22.9682 Y51.0568 Z-1.7404 I1.0507 J-0.3257
G1 X22.6193 Y49.3392 Z-1.7458
G3 X22.6028 Y49.2303 Z-1.7461 I1.078 J-0.219
G1 X22.4275 Y47.4864 Z-1.7515
G3 X22.422 Y47.3763 Z-1.7519 I1.0945 J-0.11
G1 Y45.6237 Z-1.7573
G3 X22.4275 Y45.5136 Z-1.7576 I1.1 J0.0
G1 X22.6028 Y43.7697 Z-1.763
G3 X22.6193 Y43.6608 Z-1.7633 I1.0945 J0.11
G1 X22.9682 Y41.9432 Z-1.7687
G3 X22.9955 Y41.8365 Z-1.7691 I1.078 J0.219
G1 X23.5144 Y40.1624 Z-1.7744
G3 X23.5522 Y40.0589 Z-1.7748 I1.0507 J0.3257
G1 X24.236 Y38.4451 Z-1.7802
G3 X24.284 Y38.346 Z-1.7805 I1.0128 J0.4291
G1 X25.1258 Y36.8087 Z-1.7859
G3 X25.1835 Y36.7148 Z-1.7862 I0.9648 J0.5283
G1 X26.1748 Y35.2694 Z-1.7916
G3 X26.2416 Y35.1818 Z-1.792 I0.9071 J0.6222
G1 X27.3725 Y33.8428 Z-1.7973
G3 X27.4477 Y33.7623 Z-1.7977 I0.8404 J0.7098
G1 X27.9883 Y33.239 Z-1.8
G1 X28.7069 Y32.5432 Z-1.8031
G3 X28.7898 Y32.4706 Z-1.8034 I0.7651 J0.7903
G1 X30.1646 Y31.3836 Z-1.8088
G3 X30.2544 Y31.3196 Z-1.8091 I0.6823 J0.8629
G1 X31.7311 Y30.3755 Z-1.8145
G3 X31.8267 Y30.3209 Z-1.8149 I0.5925 J0.9268
G1 X33.3904 Y29.5293 Z-1.8203
G3 X33.4911 Y29.4845 Z-1.8206 I0.4969 J0.9814
G1 X35.1261 Y28.8532 Z-1.826
G3 X35.2308 Y28.8187 Z-1.8263 I0.3962 J1.0262
G1 X35.9119 Y28.6315 Z-1.8285
G1 X35.8476 Y28.3413 Z-1.8294
G1 X35.0845 Y28.551 Z-1.8318
G1 X33.3188 Y29.2328 Z-1.8377
G1 X31.6302 Y30.0877 Z-1.8435
G1 X30.0355 Y31.1073 Z-1.8493
G1 X28.5508 Y32.2812 Z-1.8551
G1 X27.1909 Y33.5978 Z-1.8609
G1 X25.9696 Y35.0438 Z-1.8667
G1 X24.8991 Y36.6047 Z-1.8726
G1 X23.99 Y38.2648 Z-1.8784
G1 X23.2516 Y40.0076 Z-1.8842
G1 X22.6912 Y41.8155 Z-1.89
G1 X22.3144 Y43.6704 Z-1.8958
G1 X22.1251 Y45.5536 Z-1.9017
G1 Y47.4464 Z-1.9075
G1 X22.3144 Y49.3296 Z-1.9133
G1 X22.6912 Y51.1845 Z-1.9191
G1 X23.2516 Y52.9924 Z-1.9249
G1 X23.99 Y54.7352 Z-1.9308
G1 X24.8991 Y56.3953 Z-1.9366
G1 X25.9696 Y57.9562 Z-1.9424
G1 X27.1909 Y59.4022 Z-1.9482
G1 X28.5508 Y60.7188 Z-1.954
G1 X30.0355 Y61.8927 Z-1.9598
G1 X31.6302 Y62.9123 Z-1.9657
G1 X33.3188 Y63.7672 Z-1.9715
G1 X35.0845 Y64.449 Z-1.9773
G1 X35.8476 Y64.6587 Z-1.9797
G1 X35.9119 Y64.3685 Z-1.9806
G1 X35.2308 Y64.1813 Z-1.9828
G3 X35.1261 Y64.1468 Z-1.9832 I0.2916 J-1.0607
G1 X33.4911 Y63.5155 Z-1.9885
G3 X33.3904 Y63.4707 Z-1.9889 I0.3962 J-1.0262
G1 X31.8267 Y62.6791 Z-1.9943
G3 X31.7311 Y62.6245 Z-1.9946 I0.4969 J-0.9814
G1 X30.2544 Y61.6804 Z-2.0
G3 X30.1646 Y61.6164 Z-2.0003 I0.5925 J-0.9268
G1 X28.7898 Y60.5294 Z-2.0057
G3 X28.7069 Y60.4568 Z-2.0061 I0.6823 J-0.8629
G1 X27.4477 Y59.2377 Z-2.0114
G3 X27.3725 Y59.1572 Z-2.0118 I0.7651 J-0.7903
G1 X26.2416 Y57.8182 Z-2.0172
G3 X26.1748 Y57.7306 Z-2.0175 I0.8404 J-0.7098
G1 X25.1835 Y56.2852 Z-2.0229
G3 X25.1258 Y56.1913 Z-2.0232 I0.9071 J-0.6222
G1 X24.284 Y54.654 Z-2.0286
G3 X24.236 Y54.5549 Z-2.029 I0.9648 J-0.5283
G1 X23.5522 Y52.9411 Z-2.0344
G3 X23.5144 Y52.8376 Z-2.0347 I1.0128 J-0.4291
G1 X22.9955 Y51.1635 Z-2.0401
G3 X22.9682 Y51.0568 Z-2.0404 I1.0507 J-0.3257
G1 X22.6193 Y49.3392 Z-2.0458
G3 X22.6028 Y49.2303 Z-2.0461 I1.078 J-0.219
G1 X22.4275 Y47.4864 Z-2.0515
G3 X22.422 Y47.3763 Z-2.0519 I1.0945 J-0.11
G1 Y45.6237 Z-2.0573
G3 X22.4275 Y45.5136 Z-2.0576 I1.1 J0.0
G1 X22.6028 Y43.7697 Z-2.063
G3 X22.6193 Y43.6608 Z-2.0633 I1.0945 J0.11
G1 X22.9682 Y41.9432 Z-2.0687
G3 X22.9955 Y41.8365 Z-2.0691 I1.078 J0.219
G1 X23.5144 Y40.1624 Z-2.0744
G3 X23.5522 Y40.0589 Z-2.0748 I1.0507 J0.3257
G1 X24.236 Y38.4451 Z-2.0802
G3 X24.284 Y38.346 Z-2.0805 I1.0128 J0.4291
G1 X25.1258 Y36.8087 Z-2.0859
G3 X25.1835 Y36.7148 Z-2.0862 I0.9648 J0.5283
G1 X26.1748 Y35.2694 Z-2.0916
G3 X26.2416 Y35.1818 Z-2.092 I0.9071 J0.6222
G1 X27.3725 Y33.8428 Z-2.0973
G3 X27.4477 Y33.7623 Z-2.0977 I0.8404 J0.7098
G1 X27.9883 Y33.239 Z-2.1
G1 X28.7069 Y32.5432 Z-2.1031
G3 X28.7898 Y32.4706 Z-2.1034 I0.7651 J0.7903
G1 X30.1646 Y31.3836 Z-2.1088
G3 X30.2544 Y31.3196 Z-2.1091 I0.6823 J0.8629
G1 X31.7311 Y30.3755 Z-2.1145
G3 X31.8267 Y30.3209 Z-2.1149 I0.5925 J0.9268
G1 X33.3904 Y29.5293 Z-2.1203
G3 X33.4911 Y29.4845 Z-2.1206 I0.4969 J0.9814
G1 X35.1261 Y28.8532 Z-2.126
G3 X35.2308 Y28.8187 Z-2.1263 I0.3962 J1.0262
G1 X35.9119 Y28.6315 Z-2.1285
G1 X35.8476 Y28.3413 Z-2.1294
G1 X35.0845 Y28.551 Z-2.1318
G1 X33.3188 Y29.2328 Z-2.1377
G1 X31.6302 Y30.0877 Z-2.1435
G1 X30.0355 Y31.1073 Z-2.1493
G1 X28.5508 Y32.2812 Z-2.1551
G1 X27.1909 Y33.5978 Z-2.1609
G1 X25.9696 Y35.0438 Z-2.1667
G1 X24.8991 Y36.6047 Z-2.1726
G1 X23.99 Y38.2648 Z-2.1784
G1 X23.2516 Y40.0076 Z-2.1842
G1 X22.6912 Y41.8155 Z-2.19
G1 X22.3144 Y43.6704 Z-2.1958
G1 X22.1251 Y45.5536 Z-2.2017
G1 Y47.4464 Z-2.2075
G1 X22.3144 Y49.3296 Z-2.2133
G1 X22.6912 Y51.1845 Z-2.2191
G1 X23.2516 Y52.9924 Z-2.2249
G1 X23.99 Y54.7352 Z-2.2308
G1 X24.8991 Y56.3953 Z-2.2366
G1 X25.9696 Y57.9562 Z-2.2424
G1 X27.1909 Y59.4022 Z-2.2482
G1 X28.5508 Y60.7188 Z-2.254
G1 X30.0355 Y61.8927 Z-2.2598
G1 X31.6302 Y62.9123 Z-2.2657
G1 X33.3188 Y63.7672 Z-2.2715
G1 X35.0845 Y64.449 Z-2.2773
G1 X35.8476 Y64.6587 Z-2.2797
G1 X35.9119 Y64.3685 Z-2.2806
G1 X35.2308 Y64.1813 Z-2.2828
G3 X35.1261 Y64.1468 Z-2.2832 I0.2916 J-1.0607
G1 X33.4911 Y63.5155 Z-2.2885
G3 X33.3904 Y63.4707 Z-2.2889 I0.3962 J-1.0262
G1 X31.8267 Y62.6791 Z-2.2943
G3 X31.7311 Y62.6245 Z-2.2946 I0.4969 J-0.9814
G1 X30.2544 Y61.6804 Z-2.3
G3 X30.1646 Y61.6164 Z-2.3003 I0.5925 J-0.9268
G1 X28.7898 Y60.5294 Z-2.3057
G3 X28.7069 Y60.4568 Z-2.3061 I0.6823 J-0.8629
G1 X27.4477 Y59.2377 Z-2.3114
G3 X27.3725 Y59.1572 Z-2.3118 I0.7651 J-0.7903
G1 X26.2416 Y57.8182 Z-2.3172
G3 X26.1748 Y57.7306 Z-2.3175 I0.8404 J-0.7098
G1 X25.1835 Y56.2852 Z-2.3229
G3 X25.1258 Y56.1913 Z-2.3232 I0.9071 J-0.6222
G1 X24.284 Y54.654 Z-2.3286
G3 X24.236 Y54.5549 Z-2.329 I0.9648 J-0.5283
G1 X23.5522 Y52.9411 Z-2.3344
G3 X23.5144 Y52.8376 Z-2.3347 I1.0128 J-0.4291
G1 X22.9955 Y51.1635 Z-2.3401
G3 X22.9682 Y51.0568 Z-2.3404 I1.0507 J-0.3257
G1 X22.6193 Y49.3392 Z-2.3458
G3 X22.6028 Y49.2303 Z-2.3461 I1.078 J-0.219
G1 X22.4275 Y47.4864 Z-2.3515
G3 X22.422 Y47.3763 Z-2.3519 I1.0945 J-0.11
G1 Y45.6237 Z-2.3573
G3 X22.4275 Y45.5136 Z-2.3576 I1.1 J0.0
G1 X22.6028 Y43.7697 Z-2.363
G3 X22.6193 Y43.6608 Z-2.3633 I1.0945 J0.11
G1 X22.9682 Y41.9432 Z-2.3687
G3 X22.9955 Y41.8365 Z-2.3691 I1.078 J0.219
G1 X23.5144 Y40.1624 Z-2.3744
G3 X23.5522 Y40.0589 Z-2.3748 I1.0507 J0.3257
G1 X24.236 Y38.4451 Z-2.3802
G3 X24.284 Y38.346 Z-2.3805 I1.0128 J0.4291
G1 X25.1258 Y36.8087 Z-2.3859
G3 X25.1835 Y36.7148 Z-2.3862 I0.9648 J0.5283
G1 X26.1748 Y35.2694 Z-2.3916
G3 X26.2416 Y35.1818 Z-2.392 I0.9071 J0.6222
G1 X27.3725 Y33.8428 Z-2.3973
G3 X27.4477 Y33.7623 Z-2.3977 I0.8404 J0.7098
G1 X27.9883 Y33.239 Z-2.4
G1 X28.7069 Y32.5432 Z-2.4031
G3 X28.7898 Y32.4706 Z-2.4034 I0.7651 J0.7903
G1 X30.1646 Y31.3836 Z-2.4088
G3 X30.2544 Y31.3196 Z-2.4091 I0.6823 J0.8629
G1 X31.7311 Y30.3755 Z-2.4145
G3 X31.8267 Y30.3209 Z-2.4149 I0.5925 J0.9268
G1 X33.3904 Y29.5293 Z-2.4203
G3 X33.4911 Y29.4845 Z-2.4206 I0.4969 J0.9814
G1 X35.1261 Y28.8532 Z-2.426
G3 X35.2308 Y28.8187 Z-2.4263 I0.3962 J1.0262
G1 X35.9119 Y28.6315 Z-2.4285
G1 X35.8476 Y28.3413 Z-2.4294
G1 X35.0845 Y28.551 Z-2.4318
G1 X33.3188 Y29.2328 Z-2.4377
G1 X31.6302 Y30.0877 Z-2.4435
G1 X30.0355 Y31.1073 Z-2.4493
G1 X28.5508 Y32.2812 Z-2.4551
G1 X27.1909 Y33.5978 Z-2.4609
G1 X25.9696 Y35.0438 Z-2.4667
G1 X24.8991 Y36.6047 Z-2.4726
G1 X23.99 Y38.2648 Z-2.4784
G1 X23.2516 Y40.0076 Z-2.4842
G1 X22.6912 Y41.8155 Z-2.49
G1 X22.3144 Y43.6704 Z-2.4958
G1 X22.1251 Y45.5536 Z-2.5017
G1 Y47.4464 Z-2.5075
G1 X22.3144 Y49.3296 Z-2.5133
G1 X22.6912 Y51.1845 Z-2.5191
G1 X23.2516 Y52.9924 Z-2.5249
G1 X23.99 Y54.7352 Z-2.5308
G1 X24.8991 Y56.3953 Z-2.5366
G1 X25.9696 Y57.9562 Z-2.5424
G1 X27.1909 Y59.4022 Z-2.5482
G1 X28.5508 Y60.7188 Z-2.554
G1 X30.0355 Y61.8927 Z-2.5598
G1 X31.6302 Y62.9123 Z-2.5657
G1 X33.3188 Y63.7672 Z-2.5715
G1 X35.0845 Y64.449 Z-2.5773
G1 X35.8476 Y64.6587 Z-2.5797
G1 X35.9119 Y64.3685 Z-2.5806
G1 X35.2308 Y64.1813 Z-2.5828
G3 X35.1261 Y64.1468 Z-2.5832 I0.2916 J-1.0607
G1 X33.4911 Y63.5155 Z-2.5885
G3 X33.3904 Y63.4707 Z-2.5889 I0.3962 J-1.0262
G1 X31.8267 Y62.6791 Z-2.5943
G3 X31.7311 Y62.6245 Z-2.5946 I0.4969 J-0.9814
G1 X30.2544 Y61.6804 Z-2.6
G3 X30.1646 Y61.6164 Z-2.6003 I0.5925 J-0.9268
G1 X28.7898 Y60.5294 Z-2.6057
G3 X28.7069 Y60.4568 Z-2.6061 I0.6823 J-0.8629
G1 X27.4477 Y59.2377 Z-2.6114
G3 X27.3725 Y59.1572 Z-2.6118 I0.7651 J-0.7903
G1 X26.2416 Y57.8182 Z-2.6172
G3 X26.1748 Y57.7306 Z-2.6175 I0.8404 J-0.7098
G1 X25.1835 Y56.2852 Z-2.6229
G3 X25.1258 Y56.1913 Z-2.6232 I0.9071 J-0.6222
G1 X24.284 Y54.654 Z-2.6286
G3 X24.236 Y54.5549 Z-2.629 I0.9648 J-0.5283
G1 X23.5522 Y52.9411 Z-2.6344
G3 X23.5144 Y52.8376 Z-2.6347 I1.0128 J-0.4291
G1 X22.9955 Y51.1635 Z-2.6401
G3 X22.9682 Y51.0568 Z-2.6404 I1.0507 J-0.3257
G1 X22.6193 Y49.3392 Z-2.6458
G3 X22.6028 Y49.2303 Z-2.6461 I1.078 J-0.219
G1 X22.4275 Y47.4864 Z-2.6515
G3 X22.422 Y47.3763 Z-2.6519 I1.0945 J-0.11
G1 Y45.6237 Z-2.6573
G3 X22.4275 Y45.5136 Z-2.6576 I1.1 J0.0
G1 X22.6028 Y43.7697 Z-2.663
G3 X22.6193 Y43.6608 Z-2.6633 I1.0945 J0.11
G1 X22.9682 Y41.9432 Z-2.6687
G3 X22.9955 Y41.8365 Z-2.6691 I1.078 J0.219
G1 X23.5144 Y40.1624 Z-2.6744
G3 X23.5522 Y40.0589 Z-2.6748 I1.0507 J0.3257
G1 X24.236 Y38.4451 Z-2.6802
G3 X24.284 Y38.346 Z-2.6805 I1.0128 J0.4291
G1 X25.1258 Y36.8087 Z-2.6859
G3 X25.1835 Y36.7148 Z-2.6862 I0.9648 J0.5283
G1 X26.1748 Y35.2694 Z-2.6916
G3 X26.2416 Y35.1818 Z-2.692 I0.9071 J0.6222
G1 X27.3725 Y33.8428 Z-2.6973
G3 X27.4477 Y33.7623 Z-2.6977 I0.8404 J0.7098
G1 X27.9883 Y33.239 Z-2.7
G1 X28.7069 Y32.5432 Z-2.7031
G3 X28.7898 Y32.4706 Z-2.7034 I0.7651 J0.7903
G1 X30.1646 Y31.3836 Z-2.7088
G3 X30.2544 Y31.3196 Z-2.7091 I0.6823 J0.8629
G1 X31.7311 Y30.3755 Z-2.7145
G3 X31.8267 Y30.3209 Z-2.7149 I0.5925 J0.9268
G1 X33.3904 Y29.5293 Z-2.7203
G3 X33.4911 Y29.4845 Z-2.7206 I0.4969 J0.9814
G1 X35.1261 Y28.8532 Z-2.726
G3 X35.2308 Y28.8187 Z-2.7263 I0.3962 J1.0262
G1 X35.9119 Y28.6315 Z-2.7285
G1 X35.8476 Y28.3413 Z-2.7294
G1 X35.0845 Y28.551 Z-2.7318
G1 X33.3188 Y29.2328 Z-2.7377
G1 X31.6302 Y30.0877 Z-2.7435
G1 X30.0355 Y31.1073 Z-2.7493
G1 X28.5508 Y32.2812 Z-2.7551
G1 X27.1909 Y33.5978 Z-2.7609
G1 X25.9696 Y35.0438 Z-2.7667
G1 X24.8991 Y36.6047 Z-2.7726
G1 X23.99 Y38.2648 Z-2.7784
G1 X23.2516 Y40.0076 Z-2.7842
G1 X22.6912 Y41.8155 Z-2.79
G1 X22.3144 Y43.6704 Z-2.7958
G1 X22.1251 Y45.5536 Z-2.8017
G1 Y47.4464 Z-2.8075
G1 X22.3144 Y49.3296 Z-2.8133
G1 X22.6912 Y51.1845 Z-2.8191
G1 X23.2516 Y52.9924 Z-2.8249
G1 X23.99 Y54.7352 Z-2.8308
G1 X24.8991 Y56.3953 Z-2.8366
G1 X25.9696 Y57.9562 Z-2.8424
G1 X27.1909 Y59.4022 Z-2.8482
G1 X28.5508 Y60.7188 Z-2.854
G1 X30.0355 Y61.8927 Z-2.8598
G1 X31.6302 Y62.9123 Z-2.8657
G1 X33.3188 Y63.7672 Z-2.8715
G1 X35.0845 Y64.449 Z-2.8773
G1 X35.8476 Y64.6587 Z-2.8797
G1 X35.9119 Y64.3685 Z-2.8806
G1 X35.2308 Y64.1813 Z-2.8828
G3 X35.1261 Y64.1468 Z-2.8832 I0.2916 J-1.0607
G1 X33.4911 Y63.5155 Z-2.8885
G3 X33.3904 Y63.4707 Z-2.8889 I0.3962 J-1.0262
G1 X31.8267 Y62.6791 Z-2.8943
G3 X31.7311 Y62.6245 Z-2.8946 I0.4969 J-0.9814
G1 X30.2544 Y61.6804 Z-2.9
G3 X30.1646 Y61.6164 Z-2.9003 I0.5925 J-0.9268
G1 X28.7898 Y60.5294 Z-2.9057
G3 X28.7069 Y60.4568 Z-2.9061 I0.6823 J-0.8629
G1 X27.4477 Y59.2377 Z-2.9114
G3 X27.3725 Y59.1572 Z-2.9118 I0.7651 J-0.7903
G1 X26.2416 Y57.8182 Z-2.9172
G3 X26.1748 Y57.7306 Z-2.9175 I0.8404 J-0.7098
G1 X25.1835 Y56.2852 Z-2.9229
G3 X25.1258 Y56.1913 Z-2.9232 I0.9071 J-0.6222
G1 X24.284 Y54.654 Z-2.9286
G3 X24.236 Y54.5549 Z-2.929 I0.9648 J-0.5283
G1 X23.5522 Y52.9411 Z-2.9344
G3 X23.5144 Y52.8376 Z-2.9347 I1.0128 J-0.4291
G1 X22.9955 Y51.1635 Z-2.9401
G3 X22.9682 Y51.0568 Z-2.9404 I1.0507 J-0.3257
G1 X22.6193 Y49.3392 Z-2.9458
G3 X22.6028 Y49.2303 Z-2.9461 I1.078 J-0.219
G1 X22.4275 Y47.4864 Z-2.9515
G3 X22.422 Y47.3763 Z-2.9519 I1.0945 J-0.11
G1 Y45.6237 Z-2.9573
G3 X22.4275 Y45.5136 Z-2.9576 I1.1 J0.0
G1 X22.6028 Y43.7697 Z-2.963
G3 X22.6193 Y43.6608 Z-2.9633 I1.0945 J0.11
G1 X22.9682 Y41.9432 Z-2.9687
G3 X22.9955 Y41.8365 Z-2.9691 I1.078 J0.219
G1 X23.5144 Y40.1624 Z-2.9744
G3 X23.5522 Y40.0589 Z-2.9748 I1.0507 J0.3257
G1 X24.236 Y38.4451 Z-2.9802
G3 X24.284 Y38.346 Z-2.9805 I1.0128 J0.4291
G1 X25.1258 Y36.8087 Z-2.9859
G3 X25.1835 Y36.7148 Z-2.9862 I0.9648 J0.5283
G1 X26.1748 Y35.2694 Z-2.9916
G3 X26.2416 Y35.1818 Z-2.992 I0.9071 J0.6222
G1 X27.3725 Y33.8428 Z-2.9973
G3 X27.4477 Y33.7623 Z-2.9977 I0.8404 J0.7098
G1 X27.9883 Y33.239 Z-3.0
G1 X28.7069 Y32.5432 Z-3.0031
G3 X28.7898 Y32.4706 Z-3.0034 I0.7651 J0.7903
G1 X30.1646 Y31.3836 Z-3.0088
G3 X30.2544 Y31.3196 Z-3.0091 I0.6823 J0.8629
G1 X31.7311 Y30.3755 Z-3.0145
G3 X31.8267 Y30.3209 Z-3.0149 I0.5925 J0.9268
G1 X33.3904 Y29.5293 Z-3.0203
G3 X33.4911 Y29.4845 Z-3.0206 I0.4969 J0.9814
G1 X35.1261 Y28.8532 Z-3.026
G3 X35.2308 Y28.8187 Z-3.0263 I0.3962 J1.0262
G1 X35.9119 Y28.6315 Z-3.0285
G1 X35.8476 Y28.3413 Z-3.0294
G1 X35.0845 Y28.551 Z-3.0318
G1 X33.3188 Y29.2328 Z-3.0377
G1 X31.6302 Y30.0877 Z-3.0435
G1 X30.0355 Y31.1073 Z-3.0493
G1 X28.5508 Y32.2812 Z-3.0551
G1 X27.1909 Y33.5978 Z-3.0609
G1 X25.9696 Y35.0438 Z-3.0667
G1 X24.8991 Y36.6047 Z-3.0726
G1 X23.99 Y38.2648 Z-3.0784
G1 X23.2516 Y40.0076 Z-3.0842
G1 X22.6912 Y41.8155 Z-3.09
G1 X22.3144 Y43.6704 Z-3.0958
G1 X22.1251 Y45.5536 Z-3.1017
G1 Y47.4464 Z-3.1075
G1 X22.3144 Y49.3296 Z-3.1133
G1 X22.6912 Y51.1845 Z-3.1191
G1 X23.2516 Y52.9924 Z-3.1249
G1 X23.99 Y54.7352 Z-3.1308
G1 X24.8991 Y56.3953 Z-3.1366
G1 X25.9696 Y57.9562 Z-3.1424
G1 X27.1909 Y59.4022 Z-3.1482
G1 X28.5508 Y60.7188 Z-3.154
G1 X30.0355 Y61.8927 Z-3.1598
G1 X31.6302 Y62.9123 Z-3.1657
G1 X33.3188 Y63.7672 Z-3.1715
G1 X35.0845 Y64.449 Z-3.1773
G1 X35.8476 Y64.6587 Z-3.1797
G1 X35.9119 Y64.3685 Z-3.1806
G1 X35.2308 Y64.1813 Z-3.1828
G3 X35.1261 Y64.1468 Z-3.1832 I0.2916 J-1.0607
G1 X33.4911 Y63.5155 Z-3.1885
G3 X33.3904 Y63.4707 Z-3.1889 I0.3962 J-1.0262
G1 X31.8267 Y62.6791 Z-3.1943
G3 X31.7311 Y62.6245 Z-3.1946 I0.4969 J-0.9814
G1 X30.2544 Y61.6804 Z-3.2
G3 X30.1646 Y61.6164 Z-3.2003 I0.5925 J-0.9268
G1 X28.7898 Y60.5294 Z-3.2057
G3 X28.7069 Y60.4568 Z-3.2061 I0.6823 J-0.8629
G1 X27.4477 Y59.2377 Z-3.2114
G3 X27.3725 Y59.1572 Z-3.2118 I0.7651 J-0.7903
G1 X26.2416 Y57.8182 Z-3.2172
G3 X26.1748 Y57.7306 Z-3.2175 I0.8404 J-0.7098
G1 X25.1835 Y56.2852 Z-3.2229
G3 X25.1258 Y56.1913 Z-3.2232 I0.9071 J-0.6222
G1 X24.284 Y54.654 Z-3.2286
G3 X24.236 Y54.5549 Z-3.229 I0.9648 J-0.5283
G1 X23.5522 Y52.9411 Z-3.2344
G3 X23.5144 Y52.8376 Z-3.2347 I1.0128 J-0.4291
G1 X22.9955 Y51.1635 Z-3.2401
G3 X22.9682 Y51.0568 Z-3.2404 I1.0507 J-0.3257
G1 X22.6193 Y49.3392 Z-3.2458
G3 X22.6028 Y49.2303 Z-3.2461 I1.078 J-0.219
G1 X22.4275 Y47.4864 Z-3.2515
G3 X22.422 Y47.3763 Z-3.2519 I1.0945 J-0.11
G1 Y45.6237 Z-3.2573
G3 X22.4275 Y45.5136 Z-3.2576 I1.1 J0.0
G1 X22.6028 Y43.7697 Z-3.263
G3 X22.6193 Y43.6608 Z-3.2633 I1.0945 J0.11
G1 X22.9682 Y41.9432 Z-3.2687
G3 X22.9955 Y41.8365 Z-3.2691 I1.078 J0.219
G1 X23.5144 Y40.1624 Z-3.2744
G3 X23.5522 Y40.0589 Z-3.2748 I1.0507 J0.3257
G1 X24.236 Y38.4451 Z-3.2802
G3 X24.284 Y38.346 Z-3.2805 I1.0128 J0.4291
G1 X25.1258 Y36.8087 Z-3.2859
G3 X25.1835 Y36.7148 Z-3.2862 I0.9648 J0.5283
G1 X26.1748 Y35.2694 Z-3.2916
G3 X26.2416 Y35.1818 Z-3.292 I0.9071 J0.6222
G1 X27.3725 Y33.8428 Z-3.2973
G3 X27.4477 Y33.7623 Z-3.2977 I0.8404 J0.7098
G1 X27.9883 Y33.239 Z-3.3
G1 X28.7069 Y32.5432 Z-3.3031
G3 X28.7898 Y32.4706 Z-3.3034 I0.7651 J0.7903
G1 X30.1646 Y31.3836 Z-3.3088
G3 X30.2544 Y31.3196 Z-3.3091 I0.6823 J0.8629
G1 X31.7311 Y30.3755 Z-3.3145
G3 X31.8267 Y30.3209 Z-3.3149 I0.5925 J0.9268
G1 X33.3904 Y29.5293 Z-3.3203
G3 X33.4911 Y29.4845 Z-3.3206 I0.4969 J0.9814
G1 X35.1261 Y28.8532 Z-3.326
G3 X35.2308 Y28.8187 Z-3.3263 I0.3962 J1.0262
G1 X35.9119 Y28.6315 Z-3.3285
G1 X35.8476 Y28.3413 Z-3.3294
G1 X35.0845 Y28.551 Z-3.3318
G1 X33.3188 Y29.2328 Z-3.3377
G1 X31.6302 Y30.0877 Z-3.3435
G1 X30.0355 Y31.1073 Z-3.3493
G1 X28.5508 Y32.2812 Z-3.3551
G1 X27.1909 Y33.5978 Z-3.3609
G1 X25.9696 Y35.0438 Z-3.3667
G1 X24.8991 Y36.6047 Z-3.3726
G1 X23.99 Y38.2648 Z-3.3784
G1 X23.2516 Y40.0076 Z-3.3842
G1 X22.6912 Y41.8155 Z-3.39
G1 X22.3144 Y43.6704 Z-3.3958
G1 X22.1251 Y45.5536 Z-3.4017
G1 Y47.4464 Z-3.4075
G1 X22.3144 Y49.3296 Z-3.4133
G1 X22.6912 Y51.1845 Z-3.4191
G1 X23.2516 Y52.9924 Z-3.4249
G1 X23.99 Y54.7352 Z-3.4308
G1 X24.8991 Y56.3953 Z-3.4366
G1 X25.9696 Y57.9562 Z-3.4424
G1 X27.1909 Y59.4022 Z-3.4482
G1 X28.5508 Y60.7188 Z-3.454
G1 X30.0355 Y61.8927 Z-3.4598
G1 X31.6302 Y62.9123 Z-3.4657
G1 X33.3188 Y63.7672 Z-3.4715
G1 X35.0845 Y64.449 Z-3.4773
G1 X35.8476 Y64.6587 Z-3.4797
G1 X35.9119 Y64.3685 Z-3.4806
G1 X35.2308 Y64.1813 Z-3.4828
G3 X35.1261 Y64.1468 Z-3.4832 I0.2916 J-1.0607
G1 X33.4911 Y63.5155 Z-3.4885
G3 X33.3904 Y63.4707 Z-3.4889 I0.3962 J-1.0262
G1 X31.8267 Y62.6791 Z-3.4943
G3 X31.7311 Y62.6245 Z-3.4946 I0.4969 J-0.9814
G1 X30.2544 Y61.6804 Z-3.5
G3 X30.1646 Y61.6164 Z-3.5003 I0.5925 J-0.9268
G1 X28.7898 Y60.5294 Z-3.5057
G3 X28.7069 Y60.4568 Z-3.5061 I0.6823 J-0.8629
G1 X27.4477 Y59.2377 Z-3.5114
G3 X27.3725 Y59.1572 Z-3.5118 I0.7651 J-0.7903
G1 X26.2416 Y57.8182 Z-3.5172
G3 X26.1748 Y57.7306 Z-3.5175 I0.8404 J-0.7098
G1 X25.1835 Y56.2852 Z-3.5229
G3 X25.1258 Y56.1913 Z-3.5232 I0.9071 J-0.6222
G1 X24.284 Y54.654 Z-3.5286
G3 X24.236 Y54.5549 Z-3.529 I0.9648 J-0.5283
G1 X23.5522 Y52.9411 Z-3.5344
G3 X23.5144 Y52.8376 Z-3.5347 I1.0128 J-0.4291
G1 X22.9955 Y51.1635 Z-3.5401
G3 X22.9682 Y51.0568 Z-3.5404 I1.0507 J-0.3257
G1 X22.6193 Y49.3392 Z-3.5458
G3 X22.6028 Y49.2303 Z-3.5461 I1.078 J-0.219
G1 X22.4275 Y47.4864 Z-3.5515
G3 X22.422 Y47.3763 Z-3.5519 I1.0945 J-0.11
G1 Y45.6237 Z-3.5573
G3 X22.4275 Y45.5136 Z-3.5576 I1.1 J0.0
G1 X22.6028 Y43.7697 Z-3.563
G3 X22.6193 Y43.6608 Z-3.5633 I1.0945 J0.11
G1 X22.9682 Y41.9432 Z-3.5687
G3 X22.9955 Y41.8365 Z-3.5691 I1.078 J0.219
G1 X23.5144 Y40.1624 Z-3.5744
G3 X23.5522 Y40.0589 Z-3.5748 I1.0507 J0.3257
G1 X24.236 Y38.4451 Z-3.5802
G3 X24.284 Y38.346 Z-3.5805 I1.0128 J0.4291
G1 X25.1258 Y36.8087 Z-3.5859
G3 X25.1835 Y36.7148 Z-3.5862 I0.9648 J0.5283
G1 X26.1748 Y35.2694 Z-3.5916
G3 X26.2416 Y35.1818 Z-3.592 I0.9071 J0.6222
G1 X27.3725 Y33.8428 Z-3.5973
G3 X27.4477 Y33.7623 Z-3.5977 I0.8404 J0.7098
G1 X27.9883 Y33.239 Z-3.6
G1 X28.7069 Y32.5432 Z-3.6031
G3 X28.7898 Y32.4706 Z-3.6034 I0.7651 J0.7903
G1 X30.1646 Y31.3836 Z-3.6088
G3 X30.2544 Y31.3196 Z-3.6091 I0.6823 J0.8629
G1 X31.7311 Y30.3755 Z-3.6145
G3 X31.8267 Y30.3209 Z-3.6149 I0.5925 J0.9268
G1 X33.3904 Y29.5293 Z-3.6203
G3 X33.4911 Y29.4845 Z-3.6206 I0.4969 J0.9814
G1 X35.1261 Y28.8532 Z-3.626
G3 X35.2308 Y28.8187 Z-3.6263 I0.3962 J1.0262
G1 X35.9119 Y28.6315 Z-3.6285
G1 X35.8476 Y28.3413 Z-3.6294
G1 X35.0845 Y28.551 Z-3.6318
G1 X33.3188 Y29.2328 Z-3.6377
G1 X31.6302 Y30.0877 Z-3.6435
G1 X30.0355 Y31.1073 Z-3.6493
G1 X28.5508 Y32.2812 Z-3.6551
G1 X27.1909 Y33.5978 Z-3.6609
G1 X25.9696 Y35.0438 Z-3.6667
G1 X24.8991 Y36.6047 Z-3.6726
G1 X23.99 Y38.2648 Z-3.6784
G1 X23.2516 Y40.0076 Z-3.6842
G1 X22.6912 Y41.8155 Z-3.69
G1 X22.3144 Y43.6704 Z-3.6958
G1 X22.1251 Y45.5536 Z-3.7017
G1 Y47.4464 Z-3.7075
G1 X22.3144 Y49.3296 Z-3.7133
G1 X22.6912 Y51.1845 Z-3.7191
G1 X23.2516 Y52.9924 Z-3.7249
G1 X23.99 Y54.7352 Z-3.7308
G1 X24.8991 Y56.3953 Z-3.7366
G1 X25.9696 Y57.9562 Z-3.7424
G1 X27.1909 Y59.4022 Z-3.7482
G1 X28.5508 Y60.7188 Z-3.754
G1 X30.0355 Y61.8927 Z-3.7598
G1 X31.6302 Y62.9123 Z-3.7657
G1 X33.3188 Y63.7672 Z-3.7715
G1 X35.0845 Y64.449 Z-3.7773
G1 X35.8476 Y64.6587 Z-3.7797
G1 X35.9119 Y64.3685 Z-3.7806
G1 X35.2308 Y64.1813 Z-3.7828
G3 X35.1261 Y64.1468 Z-3.7832 I0.2916 J-1.0607
G1 X33.4911 Y63.5155 Z-3.7885
G3 X33.3904 Y63.4707 Z-3.7889 I0.3962 J-1.0262
G1 X31.8267 Y62.6791 Z-3.7943
G3 X31.7311 Y62.6245 Z-3.7946 I0.4969 J-0.9814
G1 X30.2544 Y61.6804 Z-3.8
G3 X30.1646 Y61.6164 Z-3.8003 I0.5925 J-0.9268
G1 X28.7898 Y60.5294 Z-3.8057
G3 X28.7069 Y60.4568 Z-3.8061 I0.6823 J-0.8629
G1 X27.4477 Y59.2377 Z-3.8114
G3 X27.3725 Y59.1572 Z-3.8118 I0.7651 J-0.7903
G1 X26.2416 Y57.8182 Z-3.8172
G3 X26.1748 Y57.7306 Z-3.8175 I0.8404 J-0.7098
G1 X25.1835 Y56.2852 Z-3.8229
G3 X25.1258 Y56.1913 Z-3.8232 I0.9071 J-0.6222
G1 X24.284 Y54.654 Z-3.8286
G3 X24.236 Y54.5549 Z-3.829 I0.9648 J-0.5283
G1 X23.5522 Y52.9411 Z-3.8344
G3 X23.5144 Y52.8376 Z-3.8347 I1.0128 J-0.4291
G1 X22.9955 Y51.1635 Z-3.8401
G3 X22.9682 Y51.0568 Z-3.8404 I1.0507 J-0.3257
G1 X22.6193 Y49.3392 Z-3.8458
G3 X22.6028 Y49.2303 Z-3.8461 I1.078 J-0.219
G1 X22.4275 Y47.4864 Z-3.8515
G3 X22.422 Y47.3763 Z-3.8519 I1.0945 J-0.11
G1 Y45.6237 Z-3.8573
G3 X22.4275 Y45.5136 Z-3.8576 I1.1 J0.0
G1 X22.6028 Y43.7697 Z-3.863
G3 X22.6193 Y43.6608 Z-3.8633 I1.0945 J0.11
G1 X22.9682 Y41.9432 Z-3.8687
G3 X22.9955 Y41.8365 Z-3.8691 I1.078 J0.219
G1 X23.5144 Y40.1624 Z-3.8744
G3 X23.5522 Y40.0589 Z-3.8748 I1.0507 J0.3257
G1 X24.236 Y38.4451 Z-3.8802
G3 X24.284 Y38.346 Z-3.8805 I1.0128 J0.4291
G1 X25.1258 Y36.8087 Z-3.8859
G3 X25.1835 Y36.7148 Z-3.8862 I0.9648 J0.5283
G1 X26.1748 Y35.2694 Z-3.8916
G3 X26.2416 Y35.1818 Z-3.892 I0.9071 J0.6222
G1 X27.3725 Y33.8428 Z-3.8973
G3 X27.4477 Y33.7623 Z-3.8977 I0.8404 J0.7098
G1 X27.9883 Y33.239 Z-3.9
G1 X28.7069 Y32.5432 Z-3.9021
G3 X28.7898 Y32.4706 Z-3.9023 I0.7651 J0.7903
G1 X30.1646 Y31.3836 Z-3.9059
G3 X30.2544 Y31.3196 Z-3.9061 I0.6823 J0.8629
G1 X31.7311 Y30.3755 Z-3.9097
G3 X31.8267 Y30.3209 Z-3.9099 I0.5925 J0.9268
G1 X33.3904 Y29.5293 Z-3.9135
G3 X33.4911 Y29.4845 Z-3.9137 I0.4969 J0.9814
G1 X35.1261 Y28.8532 Z-3.9173
G3 X35.2308 Y28.8187 Z-3.9175 I0.3962 J1.0262
G1 X35.9119 Y28.6315 Z-3.919
G1 X35.8476 Y28.3413 Z-3.9196
G1 X35.0845 Y28.551 Z-3.9212
G1 X33.3188 Y29.2328 Z-3.9251
G1 X31.6302 Y30.0877 Z-3.929
G1 X30.0355 Y31.1073 Z-3.9329
G1 X28.5508 Y32.2812 Z-3.9367
G1 X27.1909 Y33.5978 Z-3.9406
G1 X25.9696 Y35.0438 Z-3.9445
G1 X24.8991 Y36.6047 Z-3.9484
G1 X23.99 Y38.2648 Z-3.9523
G1 X23.2516 Y40.0076 Z-3.9561
G1 X22.6912 Y41.8155 Z-3.96
G1 X22.3144 Y43.6704 Z-3.9639
G1 X22.1251 Y45.5536 Z-3.9678
G1 Y47.4464 Z-3.9717
G1 X22.3144 Y49.3296 Z-3.9755
G1 X22.6912 Y51.1845 Z-3.9794
G1 X23.2516 Y52.9924 Z-3.9833
G1 X23.99 Y54.7352 Z-3.9872
G1 X24.8991 Y56.3953 Z-3.991
G1 X25.9696 Y57.9562 Z-3.9949
G1 X27.1909 Y59.4022 Z-3.9988
G1 X28.5508 Y60.7188 Z-4.0027
G1 X30.0355 Y61.8927 Z-4.0066
G1 X31.6302 Y62.9123 Z-4.0104
G1 X33.3188 Y63.7672 Z-4.0143
G1 X35.0845 Y64.449 Z-4.0182
G1 X35.8476 Y64.6587 Z-4.0198
G1 X35.9119 Y64.3685 Z-4.0204
G1 X35.2308 Y64.1813 Z-4.0219
G3 X35.1261 Y64.1468 Z-4.0221 I0.2916 J-1.0607
G1 X33.4911 Y63.5155 Z-4.0257
G3 X33.3904 Y63.4707 Z-4.0259 I0.3962 J-1.0262
G1 X31.8267 Y62.6791 Z-4.0295
G3 X31.7311 Y62.6245 Z-4.0297 I0.4969 J-0.9814
G1 X30.2544 Y61.6804 Z-4.0333
G3 X30.1646 Y61.6164 Z-4.0336 I0.5925 J-0.9268
G1 X28.7898 Y60.5294 Z-4.0371
G3 X28.7069 Y60.4568 Z-4.0374 I0.6823 J-0.8629
G1 X27.4477 Y59.2377 Z-4.041
G3 X27.3725 Y59.1572 Z-4.0412 I0.7651 J-0.7903
G1 X26.2416 Y57.8182 Z-4.0448
G3 X26.1748 Y57.7306 Z-4.045 I0.8404 J-0.7098
G1 X25.1835 Y56.2852 Z-4.0486
G3 X25.1258 Y56.1913 Z-4.0488 I0.9071 J-0.6222
G1 X24.284 Y54.654 Z-4.0524
G3 X24.236 Y54.5549 Z-4.0526 I0.9648 J-0.5283
G1 X23.5522 Y52.9411 Z-4.0562
G3 X23.5144 Y52.8376 Z-4.0565 I1.0128 J-0.4291
G1 X22.9955 Y51.1635 Z-4.0601
G3 X22.9682 Y51.0568 Z-4.0603 I1.0507 J-0.3257
G1 X22.6193 Y49.3392 Z-4.0639
G3 X22.6028 Y49.2303 Z-4.0641 I1.078 J-0.219
G1 X22.4275 Y47.4864 Z-4.0677
G3 X22.422 Y47.3763 Z-4.0679 I1.0945 J-0.11
G1 Y45.6237 Z-4.0715
G3 X22.4275 Y45.5136 Z-4.0717 I1.1 J0.0
G1 X22.6028 Y43.7697 Z-4.0753
G3 X22.6193 Y43.6608 Z-4.0756 I1.0945 J0.11
G1 X22.9682 Y41.9432 Z-4.0791
G3 X22.9955 Y41.8365 Z-4.0794 I1.078 J0.219
G1 X23.5144 Y40.1624 Z-4.083
G3 X23.5522 Y40.0589 Z-4.0832 I1.0507 J0.3257
G1 X24.236 Y38.4451 Z-4.0868
G3 X24.284 Y38.346 Z-4.087 I1.0128 J0.4291
G1 X25.1258 Y36.8087 Z-4.0906
G3 X25.1835 Y36.7148 Z-4.0908 I0.9648 J0.5283
G1 X26.1748 Y35.2694 Z-4.0944
G3 X26.2416 Y35.1818 Z-4.0946 I0.9071 J0.6222
G1 X27.3725 Y33.8428 Z-4.0982
G3 X27.4477 Y33.7623 Z-4.0985 I0.8404 J0.7098
G1 X27.9883 Y33.239 Z-4.1
G1 X28.7069 Y32.5432 Z-4.101
G3 X28.7898 Y32.4706 Z-4.1011 I0.7651 J0.7903
G1 X30.1646 Y31.3836 Z-4.1029
G3 X30.2544 Y31.3196 Z-4.103 I0.6823 J0.8629
G1 X31.7311 Y30.3755 Z-4.1048
G3 X31.8267 Y30.3209 Z-4.105 I0.5925 J0.9268
G1 X33.3904 Y29.5293 Z-4.1068
G3 X33.4911 Y29.4845 Z-4.1069 I0.4969 J0.9814
G1 X35.1261 Y28.8532 Z-4.1087
G3 X35.2308 Y28.8187 Z-4.1088 I0.3962 J1.0262
G1 X35.9119 Y28.6315 Z-4.1095
G1 X35.8476 Y28.3413 Z-4.1098
G1 X35.0845 Y28.551 Z-4.1106
G1 X33.3188 Y29.2328 Z-4.1126
G1 X31.6302 Y30.0877 Z-4.1145
G1 X30.0355 Y31.1073 Z-4.1164
G1 X28.5508 Y32.2812 Z-4.1184
G1 X27.1909 Y33.5978 Z-4.1203
G1 X25.9696 Y35.0438 Z-4.1222
G1 X24.8991 Y36.6047 Z-4.1242
G1 X23.99 Y38.2648 Z-4.1261
G1 X23.2516 Y40.0076 Z-4.1281
G1 X22.6912 Y41.8155 Z-4.13
G1 X22.3144 Y43.6704 Z-4.1319
G1 X22.1251 Y45.5536 Z-4.1339
G1 Y47.4464 Z-4.1358
G1 X22.3144 Y49.3296 Z-4.1378
G1 X22.6912 Y51.1845 Z-4.1397
G1 X23.2516 Y52.9924 Z-4.1416
G1 X23.99 Y54.7352 Z-4.1436
G1 X24.8991 Y56.3953 Z-4.1455
G1 X25.9696 Y57.9562 Z-4.1475
G1 X27.1909 Y59.4022 Z-4.1494
G1 X28.5508 Y60.7188 Z-4.1513
G1 X30.0355 Y61.8927 Z-4.1533
G1 X31.6302 Y62.9123 Z-4.1552
G1 X33.3188 Y63.7672 Z-4.1572
G1 X35.0845 Y64.449 Z-4.1591
G1 X35.8476 Y64.6587 Z-4.1599
G1 X35.9119 Y64.3685 Z-4.1602
G1 X35.2308 Y64.1813 Z-4.1609
G3 X35.1261 Y64.1468 Z-4.1611 I0.2916 J-1.0607
G1 X33.4911 Y63.5155 Z-4.1628
G3 X33.3904 Y63.4707 Z-4.163 I0.3962 J-1.0262
G1 X31.8267 Y62.6791 Z-4.1648
G3 X31.7311 Y62.6245 Z-4.1649 I0.4969 J-0.9814
G1 X30.2544 Y61.6804 Z-4.1667
G3 X30.1646 Y61.6164 Z-4.1668 I0.5925 J-0.9268
G1 X28.7898 Y60.5294 Z-4.1686
G3 X28.7069 Y60.4568 Z-4.1687 I0.6823 J-0.8629
G1 X27.4477 Y59.2377 Z-4.1705
G3 X27.3725 Y59.1572 Z-4.1706 I0.7651 J-0.7903
G1 X26.2416 Y57.8182 Z-4.1724
G3 X26.1748 Y57.7306 Z-4.1725 I0.8404 J-0.7098
G1 X25.1835 Y56.2852 Z-4.1743
G3 X25.1258 Y56.1913 Z-4.1744 I0.9071 J-0.6222
G1 X24.284 Y54.654 Z-4.1762
G3 X24.236 Y54.5549 Z-4.1763 I0.9648 J-0.5283
G1 X23.5522 Y52.9411 Z-4.1781
G3 X23.5144 Y52.8376 Z-4.1782 I1.0128 J-0.4291
G1 X22.9955 Y51.1635 Z-4.18
G3 X22.9682 Y51.0568 Z-4.1801 I1.0507 J-0.3257
G1 X22.6193 Y49.3392 Z-4.1819
G3 X22.6028 Y49.2303 Z-4.182 I1.078 J-0.219
G1 X22.4275 Y47.4864 Z-4.1838
G3 X22.422 Y47.3763 Z-4.184 I1.0945 J-0.11
G1 Y45.6237 Z-4.1858
G3 X22.4275 Y45.5136 Z-4.1859 I1.1 J0.0
G1 X22.6028 Y43.7697 Z-4.1877
G3 X22.6193 Y43.6608 Z-4.1878 I1.0945 J0.11
G1 X22.9682 Y41.9432 Z-4.1896
G3 X22.9955 Y41.8365 Z-4.1897 I1.078 J0.219
G1 X23.5144 Y40.1624 Z-4.1915
G3 X23.5522 Y40.0589 Z-4.1916 I1.0507 J0.3257
G1 X24.236 Y38.4451 Z-4.1934
G3 X24.284 Y38.346 Z-4.1935 I1.0128 J0.4291
G1 X25.1258 Y36.8087 Z-4.1953
G3 X25.1835 Y36.7148 Z-4.1954 I0.9648 J0.5283
G1 X26.1748 Y35.2694 Z-4.1972
G3 X26.2416 Y35.1818 Z-4.1973 I0.9071 J0.6222
G1 X27.3725 Y33.8428 Z-4.1991
G3 X27.4477 Y33.7623 Z-4.1992 I0.8404 J0.7098
G1 X27.9883 Y33.239 Z-4.2
G1 X28.7069 Y32.5432
G3 X28.7898 Y32.4706 I0.7651 J0.7903
G1 X30.1646 Y31.3836
G3 X30.2544 Y31.3196 I0.6823 J0.8629
G1 X31.7311 Y30.3755
G3 X31.8267 Y30.3209 I0.5925 J0.9268
G1 X33.3904 Y29.5293
G3 X33.4911 Y29.4845 I0.4969 J0.9814
G1 X35.1261 Y28.8532
G3 X35.2308 Y28.8187 I0.3962 J1.0262
G1 X35.9119 Y28.6315
G1 X35.8476 Y28.3413
G1 X35.0845 Y28.551
G1 X33.3188 Y29.2328
G1 X31.6302 Y30.0877
G1 X30.0355 Y31.1073
G1 X28.5508 Y32.2812
G1 X27.1909 Y33.5978
G1 X25.9696 Y35.0438
G1 X24.8991 Y36.6047
G1 X23.99 Y38.2648
G1 X23.2516 Y40.0076
G1 X22.6912 Y41.8155
G1 X22.3144 Y43.6704
G1 X22.1251 Y45.5536
G1 Y47.4464
G1 X22.3144 Y49.3296
G1 X22.6912 Y51.1845
G1 X23.2516 Y52.9924
G1 X23.99 Y54.7352
G1 X24.8991 Y56.3953
G1 X25.9696 Y57.9562
G1 X27.1909 Y59.4022
G1 X28.5508 Y60.7188
G1 X30.0355 Y61.8927
G1 X31.6302 Y62.9123
G1 X33.3188 Y63.7672
G1 X35.0845 Y64.449
G1 X35.8476 Y64.6587
G1 X35.9119 Y64.3685
G1 X35.2308 Y64.1813
G3 X35.1261 Y64.1468 I0.2916 J-1.0607
G1 X33.4911 Y63.5155
G3 X33.3904 Y63.4707 I0.3962 J-1.0262
G1 X31.8267 Y62.6791
G3 X31.7311 Y62.6245 I0.4969 J-0.9814
G1 X30.2544 Y61.6804
G3 X30.1646 Y61.6164 I0.5925 J-0.9268
G1 X28.7898 Y60.5294
G3 X28.7069 Y60.4568 I0.6823 J-0.8629
G1 X27.4477 Y59.2377
G3 X27.3725 Y59.1572 I0.7651 J-0.7903
G1 X26.2416 Y57.8182
G3 X26.1748 Y57.7306 I0.8404 J-0.7098
G1 X25.1835 Y56.2852
G3 X25.1258 Y56.1913 I0.9071 J-0.6222
G1 X24.284 Y54.654
G3 X24.236 Y54.5549 I0.9648 J-0.5283
G1 X23.5522 Y52.9411
G3 X23.5144 Y52.8376 I1.0128 J-0.4291
G1 X22.9955 Y51.1635
G3 X22.9682 Y51.0568 I1.0507 J-0.3257
G1 X22.6193 Y49.3392
G3 X22.6028 Y49.2303 I1.078 J-0.219
G1 X22.4275 Y47.4864
G3 X22.422 Y47.3763 I1.0945 J-0.11
G1 Y45.6237
G3 X22.4275 Y45.5136 I1.1 J0.0
G1 X22.6028 Y43.7697
G3 X22.6193 Y43.6608 I1.0945 J0.11
G1 X22.9682 Y41.9432
G3 X22.9955 Y41.8365 I1.078 J0.219
G1 X23.5144 Y40.1624
G3 X23.5522 Y40.0589 I1.0507 J0.3257
G1 X24.236 Y38.4451
G3 X24.284 Y38.346 I1.0128 J0.4291
G1 X25.1258 Y36.8087
G3 X25.1835 Y36.7148 I0.9648 J0.5283
G1 X26.1748 Y35.2694
G3 X26.2416 Y35.1818 I0.9071 J0.6222
G1 X27.3725 Y33.8428
G3 X27.4477 Y33.7623 I0.8404 J0.7098
G1 X27.9883 Y33.239
G0 Z3.0
G0 X26.9614 Y24.533
G0 Z1.0
G1 F200.0 Z0.0
G1 F700.0 X28.1856 Y23.7638 Z-0.003
G3 X28.2813 Y23.7102 Z-0.0033 I0.5852 J0.9314
G1 X30.5131 Y22.6009 Z-0.0085
G3 X30.6136 Y22.5571 Z-0.0087 I0.4896 J0.985
G1 X32.9448 Y21.6755 Z-0.014
G3 X33.0492 Y21.6419 Z-0.0142 I0.3891 J1.0289
G1 X35.4566 Y20.9968 Z-0.0194
G3 X35.5638 Y20.9738 Z-0.0197 I0.2847 J1.0625
G1 X38.0234 Y20.5716 Z-0.0249
G3 X38.1324 Y20.5593 Z-0.0251 I0.1775 J1.0856
G1 X40.6198 Y20.4041 Z-0.0304
G3 X40.7295 Y20.4027 Z-0.0306 I0.0685 J1.0979
G1 X43.22 Y20.4959 Z-0.0359
G3 X43.3293 Y20.5055 Z-0.0361 I-0.0411 J1.0992
G1 X45.7982 Y20.8462 Z-0.0413
G3 X45.9059 Y20.8666 Z-0.0416 I-0.1504 J1.0897
G1 X48.3286 Y21.4514 Z-0.0468
G3 X48.4338 Y21.4824 Z-0.047 I-0.2581 J1.0693
G1 X50.7862 Y22.3056 Z-0.0523
G3 X50.8878 Y22.3469 Z-0.0525 I-0.3633 J1.0383
G1 X53.1466 Y23.4002 Z-0.0577
G3 X53.2435 Y23.4514 Z-0.058 I-0.4649 J0.9969
G1 X55.3862 Y24.7244 Z-0.0632
G3 X55.4776 Y24.785 Z-0.0634 I-0.5618 J0.9457
G1 X57.4829 Y26.265 Z-0.0687
G3 X57.5678 Y26.3344 Z-0.0689 I-0.6532 J0.8851
G1 X59.4157 Y28.0067 Z-0.0741
G3 X59.4933 Y28.0843 Z-0.0744 I-0.7381 J0.8156
G1 X61.1656 Y29.9322 Z-0.0796
G3 X61.235 Y30.0171 Z-0.0798 I-0.8156 J0.7381
G1 X62.715 Y32.0224 Z-0.0851
G3 X62.7756 Y32.1138 Z-0.0853 I-0.8851 J0.6532
G1 X64.0486 Y34.2565 Z-0.0905
G3 X64.0998 Y34.3534 Z-0.0908 I-0.9457 J0.5618
G1 X65.1531 Y36.6122 Z-0.096
G3 X65.1944 Y36.7138 Z-0.0962 I-0.9969 J0.4649
G1 X66.0176 Y39.0662 Z-0.1015
G3 X66.0486 Y39.1714 Z-0.1017 I-1.0383 J0.3633
G1 X66.6334 Y41.5941 Z-0.1069
G3 X66.6538 Y41.7018 Z-0.1072 I-1.0693 J0.2581
G1 X66.9945 Y44.1707 Z-0.1124
G3 X67.0041 Y44.28 Z-0.1126 I-1.0897 J0.1504
G1 X67.0973 Y46.7705 Z-0.1179
G3 X67.0959 Y46.8802 Z-0.1181 I-1.0992 J0.0411
G1 X66.9407 Y49.3676 Z-0.1234
G3 X66.9284 Y49.4766 Z-0.1236 I-1.0979 J-0.0685
G1 X66.5262 Y51.9362 Z-0.1288
G3 X66.5032 Y52.0434 Z-0.1291 I-1.0856 J-0.1775
G1 X65.8581 Y54.4508 Z-0.1343
G3 X65.8245 Y54.5552 Z-0.1345 I-1.0625 J-0.2847
G1 X64.9429 Y56.8864 Z-0.1398
G3 X64.8991 Y56.9869 Z-0.14 I-1.0289 J-0.3891
G1 X63.7898 Y59.2187 Z-0.1452
G3 X63.7362 Y59.3144 Z-0.1455 I-0.985 J-0.4896
G1 X62.967 Y60.5386 Z-0.1485
G1 X63.2105 Y60.7091 Z-0.1491
G1 X64.0247 Y59.4133 Z-0.1523
G1 X65.196 Y57.0566 Z-0.1579
G1 X66.1269 Y54.595 Z-0.1634
G1 X66.808 Y52.0529 Z-0.1689
G1 X67.2326 Y49.4557 Z-0.1745
G1 X67.3966 Y46.8291 Z-0.18
G1 X67.2982 Y44.1992 Z-0.1855
G1 X66.9384 Y41.5922 Z-0.1911
G1 X66.3209 Y39.0339 Z-0.1966
G1 X65.4517 Y36.5499 Z-0.2021
G1 X64.3394 Y34.1647 Z-0.2077
G1 X62.9953 Y31.9022 Z-0.2132
G1 X61.4325 Y29.7847 Z-0.2187
G1 X59.6667 Y27.8333 Z-0.2243
G1 X57.7153 Y26.0675 Z-0.2298
G1 X55.5978 Y24.5047 Z-0.2353
G1 X53.3353 Y23.1606 Z-0.2408
G1 X50.9501 Y22.0483 Z-0.2464
G1 X48.4661 Y21.1791 Z-0.2519
G1 X45.9078 Y20.5616 Z-0.2574
G1 X43.3008 Y20.2018 Z-0.263
G1 X40.6709 Y20.1034 Z-0.2685
G1 X38.0443 Y20.2674 Z-0.274
G1 X35.4471 Y20.692 Z-0.2796
G1 X32.905 Y21.3731 Z-0.2851
G1 X30.4434 Y22.304 Z-0.2906
G1 X28.0867 Y23.4753 Z-0.2962
G1 X26.7909 Y24.2895 Z-0.2994
G1 X26.9614 Y24.533 Z-0.3
G1 X28.1856 Y23.7638 Z-0.303
G3 X28.2813 Y23.7102 Z-0.3033 I0.5852 J0.9314
G1 X30.5131 Y22.6009 Z-0.3085
G3 X30.6136 Y22.5571 Z-0.3087 I0.4896 J0.985
G1 X32.9448 Y21.6755 Z-0.314
G3 X33.0492 Y21.6419 Z-0.3142 I0.3891 J1.0289
G1 X35.4566 Y20.9968 Z-0.3194
G3 X35.5638 Y20.9738 Z-0.3197 I0.2847 J1.0625
G1 X38.0234 Y20.5716 Z-0.3249
G3 X38.1324 Y20.5593 Z-0.3251 I0.1775 J1.0856
G1 X40.6198 Y20.4041 Z-0.3304
G3 X40.7295 Y20.4027 Z-0.3306 I0.0685 J1.0979
G1 X43.22 Y20.4959 Z-0.3359
G3 X43.3293 Y20.5055 Z-0.3361 I-0.0411 J1.0992
G1 X45.7982 Y20.8462 Z-0.3413
G3 X45.9059 Y20.8666 Z-0.3416 I-0.1504 J1.0897
G1 X48.3286 Y21.4514 Z-0.3468
G3 X48.4338 Y21.4824 Z-0.347 I-0.2581 J1.0693
G1 X50.7862 Y22.3056 Z-0.3523
G3 X50.8878 Y22.3469 Z-0.3525 I-0.3633 J1.0383
G1 X53.1466 Y23.4002 Z-0.3577
G3 X53.2435 Y23.4514 Z-0.358 I-0.4649 J0.9969
G1 X55.3862 Y24.7244 Z-0.3632
G3 X55.4776 Y24.785 Z-0.3634 I-0.5618 J0.9457
G1 X57.4829 Y26.265 Z-0.3687
G3 X57.5678 Y26.3344 Z-0.3689 I-0.6532 J0.8851
G1 X59.4157 Y28.0067 Z-0.3741
G3 X59.4933 Y28.0843 Z-0.3744 I-0.7381 J0.8156
G1 X61.1656 Y29.9322 Z-0.3796
G3 X61.235 Y30.0171 Z-0.3798 I-0.8156 J0.7381
G1 X62.715 Y32.0224 Z-0.3851
G3 X62.7756 Y32.1138 Z-0.3853 I-0.8851 J0.6532
G1 X64.0486 Y34.2565 Z-0.3905
G3 X64.0998 Y34.3534 Z-0.3908 I-0.9457 J0.5618
G1 X65.1531 Y36.6122 Z-0.396
G3 X65.1944 Y36.7138 Z-0.3962 I-0.9969 J0.4649
G1 X66.0176 Y39.0662 Z-0.4015
G3 X66.0486 Y39.1714 Z-0.4017 I-1.0383 J0.3633
G1 X66.6334 Y41.5941 Z-0.4069
G3 X66.6538 Y41.7018 Z-0.4072 I-1.0693 J0.2581
G1 X66.9945 Y44.1707 Z-0.4124
G3 X67.0041 Y44.28 Z-0.4126 I-1.0897 J0.1504
G1 X67.0973 Y46.7705 Z-0.4179
G3 X67.0959 Y46.8802 Z-0.4181 I-1.0992 J0.0411
G1 X66.9407 Y49.3676 Z-0.4234
G3 X66.9284 Y49.4766 Z-0.4236 I-1.0979 J-0.0685
G1 X66.5262 Y51.9362 Z-0.4288
G3 X66.5032 Y52.0434 Z-0.4291 I-1.0856 J-0.1775
G1 X65.8581 Y54.4508 Z-0.4343
G3 X65.8245 Y54.5552 Z-0.4345 I-1.0625 J-0.2847
G1 X64.9429 Y56.8864 Z-0.4398
G3 X64.8991 Y56.9869 Z-0.44 I-1.0289 J-0.3891
G1 X63.7898 Y59.2187 Z-0.4452
G3 X63.7362 Y59.3144 Z-0.4455 I-0.985 J-0.4896
G1 X62.967 Y60.5386 Z-0.4485
G1 X63.2105 Y60.7091 Z-0.4491
G1 X64.0247 Y59.4133 Z-0.4523
G1 X65.196 Y57.0566 Z-0.4579
G1 X66.1269 Y54.595 Z-0.4634
G1 X66.808 Y52.0529 Z-0.4689
G1 X67.2326 Y49.4557 Z-0.4745
G1 X67.3966 Y46.8291 Z-0.48
G1 X67.2982 Y44.1992 Z-0.4855
G1 X66.9384 Y41.5922 Z-0.4911
G1 X66.3209 Y39.0339 Z-0.4966
G1 X65.4517 Y36.5499 Z-0.5021
G1 X64.3394 Y34.1647 Z-0.5077
G1 X62.9953 Y31.9022 Z-0.5132
G1 X61.4325 Y29.7847 Z-0.5187
G1 X59.6667 Y27.8333 Z-0.5243
G1 X57.7153 Y26.0675 Z-0.5298
G1 X55.5978 Y24.5047 Z-0.5353
G1 X53.3353 Y23.1606 Z-0.5408
G1 X50.9501 Y22.0483 Z-0.5464
G1 X48.4661 Y21.1791 Z-0.5519
G1 X45.9078 Y20.5616 Z-0.5574
G1 X43.3008 Y20.2018 Z-0.563
G1 X40.6709 Y20.1034 Z-0.5685
G1 X38.0443 Y20.2674 Z-0.574
G1 X35.4471 Y20.692 Z-0.5796
G1 X32.905 Y21.3731 Z-0.5851
G1 X30.4434 Y22.304 Z-0.5906
G1 X28.0867 Y23.4753 Z-0.5962
G1 X26.7909 Y24.2895 Z-0.5994
G1 X26.9614 Y24.533 Z-0.6
G1 X28.1856 Y23.7638 Z-0.603
G3 X28.2813 Y23.7102 Z-0.6033 I0.5852 J0.9314
G1 X30.5131 Y22.6009 Z-0.6085
G3 X30.6136 Y22.5571 Z-0.6087 I0.4896 J0.985
G1 X32.9448 Y21.6755 Z-0.614
G3 X33.0492 Y21.6419 Z-0.6142 I0.3891 J1.0289
G1 X35.4566 Y20.9968 Z-0.6194
G3 X35.5638 Y20.9738 Z-0.6197 I0.2847 J1.0625
G1 X38.0234 Y20.5716 Z-0.6249
G3 X38.1324 Y20.5593 Z-0.6251 I0.1775 J1.0856
G1 X40.6198 Y20.4041 Z-0.6304
G3 X40.7295 Y20.4027 Z-0.6306 I0.0685 J1.0979
G1 X43.22 Y20.4959 Z-0.6359
G3 X43.3293 Y20.5055 Z-0.6361 I-0.0411 J1.0992
G1 X45.7982 Y20.8462 Z-0.6413
G3 X45.9059 Y20.8666 Z-0.6416 I-0.1504 J1.0897
G1 X48.3286 Y21.4514 Z-0.6468
G3 X48.4338 Y21.4824 Z-0.647 I-0.2581 J1.0693
G1 X50.7862 Y22.3056 Z-0.6523
G3 X50.8878 Y22.3469 Z-0.6525 I-0.3633 J1.0383
G1 X53.1466 Y23.4002 Z-0.6577
G3 X53.2435 Y23.4514 Z-0.658 I-0.4649 J0.9969
G1 X55.3862 Y24.7244 Z-0.6632
G3 X55.4776 Y24.785 Z-0.6634 I-0.5618 J0.9457
G1 X57.4829 Y26.265 Z-0.6687
G3 X57.5678 Y26.3344 Z-0.6689 I-0.6532 J0.8851
G1 X59.4157 Y28.0067 Z-0.6741
G3 X59.4933 Y28.0843 Z-0.6744 I-0.7381 J0.8156
G1 X61.1656 Y29.9322 Z-0.6796
G3 X61.235 Y30.0171 Z-0.6798 I-0.8156 J0.7381
G1 X62.715 Y32.0224 Z-0.6851
G3 X62.7756 Y32.1138 Z-0.6853 I-0.8851 J0.6532
G1 X64.0486 Y34.2565 Z-0.6905
G3 X64.0998 Y34.3534 Z-0.6908 I-0.9457 J0.5618
G1 X65.1531 Y36.6122 Z-0.696
G3 X65.1944 Y36.7138 Z-0.6962 I-0.9969 J0.4649
G1 X66.0176 Y39.0662 Z-0.7015
G3 X66.0486 Y39.1714 Z-0.7017 I-1.0383 J0.3633
G1 X66.6334 Y41.5941 Z-0.7069
G3 X66.6538 Y41.7018 Z-0.7072 I-1.0693 J0.2581
G1 X66.9945 Y44.1707 Z-0.7124
G3 X67.0041 Y44.28 Z-0.7126 I-1.0897 J0.1504
G1 X67.0973 Y46.7705 Z-0.7179
G3 X67.0959 Y46.8802 Z-0.7181 I-1.0992 J0.0411
G1 X66.9407 Y49.3676 Z-0.7234
G3 X66.9284 Y49.4766 Z-0.7236 I-1.0979 J-0.0685
G1 X66.5262 Y51.9362 Z-0.7288
G3 X66.5032 Y52.0434 Z-0.7291 I-1.0856 J-0.1775
G1 X65.8581 Y54.4508 Z-0.7343
G3 X65.8245 Y54.5552 Z-0.7345 I-1.0625 J-0.2847
G1 X64.9429 Y56.8864 Z-0.7398
G3 X64.8991 Y56.9869 Z-0.74 I-1.0289 J-0.3891
G1 X63.7898 Y59.2187 Z-0.7452
G3 X63.7362 Y59.3144 Z-0.7455 I-0.985 J-0.4896
G1 X62.967 Y60.5386 Z-0.7485
G1 X63.2105 Y60.7091 Z-0.7491
G1 X64.0247 Y59.4133 Z-0.7523
G1 X65.196 Y57.0566 Z-0.7579
G1 X66.1269 Y54.595 Z-0.7634
G1 X66.808 Y52.0529 Z-0.7689
G1 X67.2326 Y49.4557 Z-0.7745
G1 X67.3966 Y46.8291 Z-0.78
G1 X67.2982 Y44.1992 Z-0.7855
G1 X66.9384 Y41.5922 Z-0.7911
G1 X66.3209 Y39.0339 Z-0.7966
G1 X65.4517 Y36.5499 Z-0.8021
G1 X64.3394 Y34.1647 Z-0.8077
G1 X62.9953 Y31.9022 Z-0.8132
G1 X61.4325 Y29.7847 Z-0.8187
G1 X59.6667 Y27.8333 Z-0.8243
G1 X57.7153 Y26.0675 Z-0.8298
G1 X55.5978 Y24.5047 Z-0.8353
G1 X53.3353 Y23.1606 Z-0.8408
G1 X50.9501 Y22.0483 Z-0.8464
G1 X48.4661 Y21.1791 Z-0.8519
G1 X45.9078 Y20.5616 Z-0.8574
G1 X43.3008 Y20.2018 Z-0.863
G1 X40.6709 Y20.1034 Z-0.8685
G1 X38.0443 Y20.2674 Z-0.874
G1 X35.4471 Y20.692 Z-0.8796
G1 X32.905 Y21.3731 Z-0.8851
G1 X30.4434 Y22.304 Z-0.8906
G1 X28.0867 Y23.4753 Z-0.8962
G1 X26.7909 Y24.2895 Z-0.8994
G1 X26.9614 Y24.533 Z-0.9
G1 X28.1856 Y23.7638 Z-0.903
G3 X28.2813 Y23.7102 Z-0.9033 I0.5852 J0.9314
G1 X30.5131 Y22.6009 Z-0.9085
G3 X30.6136 Y22.5571 Z-0.9087 I0.4896 J0.985
G1 X32.9448 Y21.6755 Z-0.914
G3 X33.0492 Y21.6419 Z-0.9142 I0.3891 J1.0289
G1 X35.4566 Y20.9968 Z-0.9194
G3 X35.5638 Y20.9738 Z-0.9197 I0.2847 J1.0625
G1 X38.0234 Y20.5716 Z-0.9249
G3 X38.1324 Y20.5593 Z-0.9251 I0.1775 J1.0856
G1 X40.6198 Y20.4041 Z-0.9304
G3 X40.7295 Y20.4027 Z-0.9306 I0.0685 J1.0979
G1 X43.22 Y20.4959 Z-0.9359
G3 X43.3293 Y20.5055 Z-0.9361 I-0.0411 J1.0992
G1 X45.7982 Y20.8462 Z-0.9413
G3 X45.9059 Y20.8666 Z-0.9416 I-0.1504 J1.0897
G1 X48.3286 Y21.4514 Z-0.9468
G3 X48.4338 Y21.4824 Z-0.947 I-0.2581 J1.0693
G1 X50.7862 Y22.3056 Z-0.9523
G3 X50.8878 Y22.3469 Z-0.9525 I-0.3633 J1.0383
G1 X53.1466 Y23.4002 Z-0.9577
G3 X53.2435 Y23.4514 Z-0.958 I-0.4649 J0.9969
G1 X55.3862 Y24.7244 Z-0.9632
G3 X55.4776 Y24.785 Z-0.9634 I-0.5618 J0.9457
G1 X57.4829 Y26.265 Z-0.9687
G3 X57.5678 Y26.3344 Z-0.9689 I-0.6532 J0.8851
G1 X59.4157 Y28.0067 Z-0.9741
G3 X59.4933 Y28.0843 Z-0.9744 I-0.7381 J0.8156
G1 X61.1656 Y29.9322 Z-0.9796
G3 X61.235 Y30.0171 Z-0.9798 I-0.8156 J0.7381
G1 X62.715 Y32.0224 Z-0.9851
G3 X62.7756 Y32.1138 Z-0.9853 I-0.8851 J0.6532
G1 X64.0486 Y34.2565 Z-0.9905
G3 X64.0998 Y34.3534 Z-0.9908 I-0.9457 J0.5618
G1 X65.1531 Y36.6122 Z-0.996
G3 X65.1944 Y36.7138 Z-0.9962 I-0.9969 J0.4649
G1 X66.0176 Y39.0662 Z-1.0015
G3 X66.0486 Y39.1714 Z-1.0017 I-1.0383 J0.3633
G1 X66.6334 Y41.5941 Z-1.0069
G3 X66.6538 Y41.7018 Z-1.0072 I-1.0693 J0.2581
G1 X66.9945 Y44.1707 Z-1.0124
G3 X67.0041 Y44.28 Z-1.0126 I-1.0897 J0.1504
G1 X67.0973 Y46.7705 Z-1.0179
G3 X67.0959 Y46.8802 Z-1.0181 I-1.0992 J0.0411
G1 X66.9407 Y49.3676 Z-1.0234
G3 X66.9284 Y49.4766 Z-1.0236 I-1.0979 J-0.0685
G1 X66.5262 Y51.9362 Z-1.0288
G3 X66.5032 Y52.0434 Z-1.0291 I-1.0856 J-0.1775
G1 X65.8581 Y54.4508 Z-1.0343
G3 X65.8245 Y54.5552 Z-1.0345 I-1.0625 J-0.2847
G1 X64.9429 Y56.8864 Z-1.0398
G3 X64.8991 Y56.9869 Z-1.04 I-1.0289 J-0.3891
G1 X63.7898 Y59.2187 Z-1.0452
G3 X63.7362 Y59.3144 Z-1.0455 I-0.985 J-0.4896
G1 X62.967 Y60.5386 Z-1.0485
G1 X63.2105 Y60.7091 Z-1.0491
G1 X64.0247 Y59.4133 Z-1.0523
G1 X65.196 Y57.0566 Z-1.0579
G1 X66.1269 Y54.595 Z-1.0634
G1 X66.808 Y52.0529 Z-1.0689
G1 X67.2326 Y49.4557 Z-1.0745
G1 X67.3966 Y46.8291 Z-1.08
G1 X67.2982 Y44.1992 Z-1.0855
G1 X66.9384 Y41.5922 Z-1.0911
G1 X66.3209 Y39.0339 Z-1.0966
G1 X65.4517 Y36.5499 Z-1.1021
G1 X64.3394 Y34.1647 Z-1.1077
G1 X62.9953 Y31.9022 Z-1.1132
G1 X61.4325 Y29.7847 Z-1.1187
G1 X59.6667 Y27.8333 Z-1.1243
G1 X57.7153 Y26.0675 Z-1.1298
G1 X55.5978 Y24.5047 Z-1.1353
G1 X53.3353 Y23.1606 Z-1.1408
G1 X50.9501 Y22.0483 Z-1.1464
G1 X48.4661 Y21.1791 Z-1.1519
G1 X45.9078 Y20.5616 Z-1.1574
G1 X43.3008 Y20.2018 Z-1.163
G1 X40.6709 Y20.1034 Z-1.1685
G1 X38.0443 Y20.2674 Z-1.174
G1 X35.4471 Y20.692 Z-1.1796
G1 X32.905 Y21.3731 Z-1.1851
G1 X30.4434 Y22.304 Z-1.1906
G1 X28.0867 Y23.4753 Z-1.1962
G1 X26.7909 Y24.2895 Z-1.1994
G1 X26.9614 Y24.533 Z-1.2
G1 X28.1856 Y23.7638 Z-1.203
G3 X28.2813 Y23.7102 Z-1.2033 I0.5852 J0.9314
G1 X30.5131 Y22.6009 Z-1.2085
G3 X30.6136 Y22.5571 Z-1.2087 I0.4896 J0.985
G1 X32.9448 Y21.6755 Z-1.214
G3 X33.0492 Y21.6419 Z-1.2142 I0.3891 J1.0289
G1 X35.4566 Y20.9968 Z-1.2194
G3 X35.5638 Y20.9738 Z-1.2197 I0.2847 J1.0625
G1 X38.0234 Y20.5716 Z-1.2249
G3 X38.1324 Y20.5593 Z-1.2251 I0.1775 J1.0856
G1 X40.6198 Y20.4041 Z-1.2304
G3 X40.7295 Y20.4027 Z-1.2306 I0.0685 J1.0979
