( Made using CamBam - http://www.cambam.co.uk )
( ssc_plexi_ModularDC_test 2/25/2021 11:24:16 PM )
( T2 : 2.0 )
( CUTVIEWER )
( FROM/0,0,5 )
( Select dummy tool to avoid warnings )
( TOOL/MILL,1,0,20.0,0 )
( STOCK/BLOCK,50.0,40.0,4.0,0.0,0.0,4.0 )
G21 G90 G91.1 G64 G40
G0 Z3.0
( T2 : 2.0 )
( Tool Taper coming soon )
( TOOL/MILL,2.0,0.0,0.0,0 )
T2 M6
( DC_Pocket )
G17
M3 S1000
G0 X9.8264 Y15.8411
G0 Z1.0
G1 F100.0 Z0.0
G1 F500.0 X9.7884 Y15.8354 Z-0.0047
G1 X9.75 Y15.8336 Z-0.0094
G1 X9.7116 Y15.8354 Z-0.0141
G1 X9.6736 Y15.8411 Z-0.0188
G1 X9.6364 Y15.8504 Z-0.0234
G1 X9.6002 Y15.8634 Z-0.0281
G1 X9.5655 Y15.8798 Z-0.0328
G1 X9.5325 Y15.8995 Z-0.0375
G1 X9.5017 Y15.9224 Z-0.0422
G1 X9.4732 Y15.9482 Z-0.0469
G1 X9.4474 Y15.9767 Z-0.0516
G1 X9.4245 Y16.0075 Z-0.0563
G1 X9.4048 Y16.0405 Z-0.0609
G1 X9.3884 Y16.0752 Z-0.0656
G1 X9.3754 Y16.1114 Z-0.0703
G1 X9.3661 Y16.1486 Z-0.075
G1 X9.3604 Y16.1866 Z-0.0797
G1 X9.3586 Y16.225 Z-0.0844
G1 X9.3604 Y16.2634 Z-0.0891
G1 X9.3661 Y16.3014 Z-0.0937
G1 X9.3754 Y16.3386 Z-0.0984
G1 X9.3884 Y16.3748 Z-0.1031
G1 X9.4048 Y16.4095 Z-0.1078
G1 X9.4245 Y16.4425 Z-0.1125
G1 X9.4474 Y16.4733 Z-0.1172
G1 X9.4732 Y16.5018 Z-0.1219
G1 X9.5017 Y16.5276 Z-0.1266
G1 X9.5325 Y16.5505 Z-0.1312
G1 X9.5655 Y16.5702 Z-0.1359
G1 X9.6002 Y16.5866 Z-0.1406
G1 X9.6364 Y16.5996 Z-0.1453
G1 X9.6736 Y16.6089 Z-0.15
G1 X9.7116 Y16.6146 Z-0.1547
G1 X9.75 Y16.6164 Z-0.1594
G1 X9.7884 Y16.6146 Z-0.1641
G1 X9.8264 Y16.6089 Z-0.1687
G1 X9.8636 Y16.5996 Z-0.1734
G1 X9.8998 Y16.5866 Z-0.1781
G1 X9.9345 Y16.5702 Z-0.1828
G1 X9.9675 Y16.5505 Z-0.1875
G1 X9.9983 Y16.5276 Z-0.1922
G1 X10.0268 Y16.5018 Z-0.1969
G1 X10.0526 Y16.4733 Z-0.2016
G1 X10.0755 Y16.4425 Z-0.2063
G1 X10.0952 Y16.4095 Z-0.2109
G1 X10.1116 Y16.3748 Z-0.2156
G1 X10.1246 Y16.3386 Z-0.2203
G1 X10.1339 Y16.3014 Z-0.225
G1 X10.1396 Y16.2634 Z-0.2297
G1 X10.1414 Y16.225 Z-0.2344
G1 X10.1396 Y16.1866 Z-0.2391
G1 X10.1339 Y16.1486 Z-0.2437
G1 X10.1246 Y16.1114 Z-0.2484
G1 X10.1116 Y16.0752 Z-0.2531
G1 X10.0952 Y16.0405 Z-0.2578
G1 X10.0755 Y16.0075 Z-0.2625
G1 X10.0526 Y15.9767 Z-0.2672
G1 X10.0268 Y15.9482 Z-0.2719
G1 X9.9983 Y15.9224 Z-0.2766
G1 X9.9675 Y15.8995 Z-0.2813
G1 X9.9345 Y15.8798 Z-0.2859
G1 X9.8998 Y15.8634 Z-0.2906
G1 X9.8636 Y15.8504 Z-0.2953
G1 X9.8264 Y15.8411 Z-0.3
G1 F100.0 X9.8851 Y15.4454
G1 F500.0 X9.8276 Y15.4369
G1 X9.75 Y15.4331
G1 X9.6724 Y15.4369
G1 X9.5955 Y15.4483
G1 X9.5201 Y15.4672
G1 X9.4469 Y15.4934
G1 X9.3767 Y15.5266
G1 X9.31 Y15.5665
G1 X9.2476 Y15.6128
G1 X9.19 Y15.665
G1 X9.1378 Y15.7226
G1 X9.0915 Y15.785
G1 X9.0516 Y15.8517
G1 X9.0184 Y15.9219
G1 X8.9922 Y15.9951
G1 X8.9733 Y16.0705
G1 X8.9619 Y16.1474
G1 X8.9581 Y16.225
G1 X8.9619 Y16.3026
G1 X8.9733 Y16.3795
G1 X8.9922 Y16.4549
G1 X9.0184 Y16.5281
G1 X9.0516 Y16.5983
G1 X9.0915 Y16.665
G1 X9.1378 Y16.7274
G1 X9.19 Y16.785
G1 X9.2476 Y16.8372
G1 X9.31 Y16.8835
G1 X9.3767 Y16.9234
G1 X9.4469 Y16.9566
G1 X9.5201 Y16.9828
G1 X9.5955 Y17.0017
G1 X9.6724 Y17.0131
G1 X9.75 Y17.0169
G1 X9.8276 Y17.0131
G1 X9.9045 Y17.0017
G1 X9.9799 Y16.9828
G1 X10.0531 Y16.9566
G1 X10.1233 Y16.9234
G1 X10.19 Y16.8835
G1 X10.2524 Y16.8372
G1 X10.31 Y16.785
G1 X10.3622 Y16.7274
G1 X10.4085 Y16.665
G1 X10.4484 Y16.5983
G1 X10.4816 Y16.5281
G1 X10.5078 Y16.4549
G1 X10.5267 Y16.3795
G1 X10.5381 Y16.3026
G1 X10.5419 Y16.225
G1 X10.5381 Y16.1474
G1 X10.5267 Y16.0705
G1 X10.5078 Y15.9951
G1 X10.4816 Y15.9219
G1 X10.4484 Y15.8517
G1 X10.4085 Y15.785
G1 X10.3622 Y15.7226
G1 X10.31 Y15.665
G1 X10.2524 Y15.6128
G1 X10.19 Y15.5665
G1 X10.1233 Y15.5266
G1 X10.0531 Y15.4934
G1 X9.9799 Y15.4672
G1 X9.9045 Y15.4483
G1 X9.8851 Y15.4454
G1 F100.0 X10.0024 Y14.6541
G1 F500.0 X9.9061 Y14.6398
G1 X9.75 Y14.6321
G1 X9.5939 Y14.6398
G1 X9.4392 Y14.6627
G1 X9.2876 Y14.7007
G1 X9.1404 Y14.7534
G1 X8.9991 Y14.8202
G1 X8.865 Y14.9006
G1 X8.7395 Y14.9937
G1 X8.6237 Y15.0987
G1 X8.5187 Y15.2145
G1 X8.4256 Y15.34
G1 X8.3452 Y15.4741
G1 X8.2784 Y15.6154
G1 X8.2257 Y15.7626
G1 X8.1877 Y15.9143
G1 X8.1648 Y16.0689
G1 X8.1571 Y16.225
G1 X8.1648 Y16.3811
G1 X8.1877 Y16.5357
G1 X8.2257 Y16.6874
G1 X8.2784 Y16.8346
G1 X8.3452 Y16.9759
G1 X8.4256 Y17.11
G1 X8.5187 Y17.2355
G1 X8.6237 Y17.3513
G1 X8.7395 Y17.4563
G1 X8.865 Y17.5494
G1 X8.9991 Y17.6298
G1 X9.1404 Y17.6966
G1 X9.2876 Y17.7493
G1 X9.4392 Y17.7873
G1 X9.5939 Y17.8102
G1 X9.75 Y17.8179
G1 X9.9061 Y17.8102
G1 X10.0608 Y17.7873
G1 X10.2124 Y17.7493
G1 X10.3596 Y17.6966
G1 X10.5009 Y17.6298
G1 X10.635 Y17.5494
G1 X10.7605 Y17.4563
G1 X10.8763 Y17.3513
G1 X10.9813 Y17.2355
G1 X11.0744 Y17.11
G1 X11.1548 Y16.9759
G1 X11.2216 Y16.8346
G1 X11.2743 Y16.6874
G1 X11.3123 Y16.5358
G1 X11.3352 Y16.3811
G1 X11.3429 Y16.225
G1 X11.3352 Y16.0689
G1 X11.3123 Y15.9142
G1 X11.2743 Y15.7626
G1 X11.2216 Y15.6154
G1 X11.1548 Y15.4741
G1 X11.0744 Y15.34
G1 X10.9813 Y15.2145
G1 X10.8763 Y15.0987
G1 X10.7605 Y14.9937
G1 X10.635 Y14.9006
G1 X10.5009 Y14.8202
G1 X10.3596 Y14.7534
G1 X10.2124 Y14.7007
G1 X10.0608 Y14.6627
G1 X10.0024 Y14.6541
G1 F100.0 X10.1198 Y13.8627
G1 F500.0 X9.9846 Y13.8427
G1 X9.75 Y13.8312
G1 X9.5154 Y13.8427
G1 X9.283 Y13.8771
G1 X9.0551 Y13.9342
G1 X8.8339 Y14.0134
G1 X8.6215 Y14.1138
G1 X8.42 Y14.2346
G1 X8.2314 Y14.3745
G1 X8.0573 Y14.5323
G1 X7.8995 Y14.7064
G1 X7.7596 Y14.8951
G1 X7.6388 Y15.0965
G1 X7.5384 Y15.3089
G1 X7.4592 Y15.5301
G1 X7.4021 Y15.758
G1 X7.3677 Y15.9904
G1 X7.3562 Y16.225
G1 X7.3677 Y16.4596
G1 X7.4021 Y16.692
G1 X7.4592 Y16.9199
G1 X7.5384 Y17.1411
G1 X7.6388 Y17.3535
G1 X7.7596 Y17.5549
G1 X7.8995 Y17.7436
G1 X8.0573 Y17.9177
G1 X8.2314 Y18.0755
G1 X8.42 Y18.2154
G1 X8.6215 Y18.3362
G1 X8.8339 Y18.4366
G1 X9.0551 Y18.5158
G1 X9.283 Y18.5729
G1 X9.5154 Y18.6073
G1 X9.75 Y18.6188
G1 X9.9846 Y18.6073
G1 X10.217 Y18.5729
G1 X10.4449 Y18.5158
G1 X10.6661 Y18.4366
G1 X10.8785 Y18.3362
G1 X11.0799 Y18.2154
G1 X11.2686 Y18.0755
G1 X11.4427 Y17.9177
G1 X11.6005 Y17.7436
G1 X11.7404 Y17.5549
G1 X11.8612 Y17.3535
G1 X11.9616 Y17.1411
G1 X12.0408 Y16.9199
G1 X12.0979 Y16.692
G1 X12.1323 Y16.4596
G1 X12.1438 Y16.225
G1 X12.1323 Y15.9904
G1 X12.0979 Y15.758
G1 X12.0408 Y15.5301
G1 X11.9616 Y15.3089
G1 X11.8612 Y15.0965
G1 X11.7404 Y14.895
G1 X11.6005 Y14.7064
G1 X11.4427 Y14.5323
G1 X11.2686 Y14.3745
G1 X11.0799 Y14.2346
G1 X10.8785 Y14.1138
G1 X10.6661 Y14.0134
G1 X10.4449 Y13.9342
G1 X10.217 Y13.8771
G1 X10.1198 Y13.8627
G1 F100.0 X10.2372 Y13.0714
G1 F500.0 X10.0631 Y13.0456
G1 X9.75 Y13.0302
G1 X9.4369 Y13.0456
G1 X9.1267 Y13.0916
G1 X8.8226 Y13.1678
G1 X8.5274 Y13.2734
G1 X8.244 Y13.4074
G1 X7.9751 Y13.5686
G1 X7.7232 Y13.7554
G1 X7.4909 Y13.9659
G1 X7.2804 Y14.1982
G1 X7.0936 Y14.4501
G1 X6.9324 Y14.719
G1 X6.7984 Y15.0024
G1 X6.6928 Y15.2976
G1 X6.6166 Y15.6017
G1 X6.5706 Y15.9119
G1 X6.5552 Y16.225
G1 X6.5706 Y16.5381
G1 X6.6166 Y16.8483
G1 X6.6928 Y17.1524
G1 X6.7984 Y17.4476
G1 X6.9324 Y17.731
G1 X7.0936 Y17.9999
G1 X7.2804 Y18.2518
G1 X7.4909 Y18.4841
G1 X7.7232 Y18.6946
G1 X7.9751 Y18.8814
G1 X8.244 Y19.0426
G1 X8.5274 Y19.1766
G1 X8.8226 Y19.2822
G1 X9.1267 Y19.3584
G1 X9.4369 Y19.4044
G1 X9.75 Y19.4198
G1 X10.0631 Y19.4044
G1 X10.3733 Y19.3584
G1 X10.6774 Y19.2822
G1 X10.9726 Y19.1766
G1 X11.256 Y19.0426
G1 X11.5249 Y18.8814
G1 X11.7768 Y18.6946
G1 X12.0091 Y18.4841
G1 X12.2196 Y18.2518
G1 X12.4064 Y17.9999
G1 X12.5676 Y17.731
G1 X12.7016 Y17.4476
G1 X12.8072 Y17.1524
G1 X12.8834 Y16.8483
G1 X12.9294 Y16.5381
G1 X12.9448 Y16.225
G1 X12.9294 Y15.9119
G1 X12.8834 Y15.6017
G1 X12.8072 Y15.2976
G1 X12.7016 Y15.0024
G1 X12.5676 Y14.719
G1 X12.4064 Y14.4501
G1 X12.2196 Y14.1982
G1 X12.0091 Y13.9659
G1 X11.7768 Y13.7554
G1 X11.5249 Y13.5686
G1 X11.256 Y13.4074
G1 X10.9726 Y13.2734
G1 X10.6774 Y13.1678
G1 X10.3733 Y13.0916
G1 X10.2372 Y13.0714
G1 F100.0 X10.3546 Y12.28
G1 F500.0 X10.1417 Y12.2485
G1 X9.75 Y12.2292
G1 X9.3583 Y12.2485
G1 X8.9705 Y12.306
G1 X8.5901 Y12.4013
G1 X8.2209 Y12.5334
G1 X7.8664 Y12.701
G1 X7.5301 Y12.9026
G1 X7.2151 Y13.1362
G1 X6.9246 Y13.3996
G1 X6.6612 Y13.6901
G1 X6.4276 Y14.0051
G1 X6.226 Y14.3414
G1 X6.0584 Y14.6959
G1 X5.9263 Y15.0651
G1 X5.831 Y15.4455
G1 X5.7735 Y15.8333
G1 X5.7542 Y16.225
G1 X5.7735 Y16.6167
G1 X5.831 Y17.0045
G1 X5.9263 Y17.3849
G1 X6.0584 Y17.7541
G1 X6.226 Y18.1086
G1 X6.4276 Y18.4449
G1 X6.6612 Y18.7599
G1 X6.9246 Y19.0504
G1 X7.2151 Y19.3138
G1 X7.5301 Y19.5474
G1 X7.8664 Y19.749
G1 X8.2209 Y19.9166
G1 X8.5901 Y20.0487
G1 X8.9705 Y20.144
G1 X9.3583 Y20.2015
G1 X9.75 Y20.2208
G1 X10.1417 Y20.2015
G1 X10.5295 Y20.144
G1 X10.9099 Y20.0487
G1 X11.2791 Y19.9166
G1 X11.6336 Y19.749
G1 X11.9699 Y19.5474
G1 X12.2849 Y19.3138
G1 X12.5754 Y19.0504
G1 X12.8388 Y18.7599
G1 X13.0724 Y18.4449
G1 X13.274 Y18.1086
G1 X13.4416 Y17.7541
G1 X13.5737 Y17.3849
G1 X13.669 Y17.0045
G1 X13.7265 Y16.6167
G1 X13.7458 Y16.225
G1 X13.7265 Y15.8333
G1 X13.669 Y15.4455
G1 X13.5737 Y15.0651
G1 X13.4416 Y14.6959
G1 X13.274 Y14.3414
G1 X13.0724 Y14.0051
G1 X12.8388 Y13.6901
G1 X12.5754 Y13.3996
G1 X12.2849 Y13.1362
G1 X11.9699 Y12.9026
G1 X11.6336 Y12.701
G1 X11.2791 Y12.5334
G1 X10.9099 Y12.4013
G1 X10.5295 Y12.306
G1 X10.3546 Y12.28
G1 F100.0 X10.472 Y11.4887
G1 F500.0 X10.2202 Y11.4514
G1 X9.75 Y11.4283
G1 X9.2798 Y11.4514
G1 X8.8142 Y11.5204
G1 X8.3576 Y11.6348
G1 X7.9144 Y11.7934
G1 X7.4888 Y11.9946
G1 X7.0851 Y12.2367
G1 X6.707 Y12.5171
G1 X6.3582 Y12.8332
G1 X6.0421 Y13.182
G1 X5.7617 Y13.5601
G1 X5.5197 Y13.9638
G1 X5.3184 Y14.3894
G1 X5.1598 Y14.8326
G1 X5.0454 Y15.2892
G1 X4.9764 Y15.7548
G1 X4.9533 Y16.225
G1 X4.9764 Y16.6952
G1 X5.0454 Y17.1608
G1 X5.1598 Y17.6174
G1 X5.3184 Y18.0606
G1 X5.5197 Y18.4862
G1 X5.7617 Y18.8899
G1 X6.0421 Y19.268
G1 X6.3582 Y19.6168
G1 X6.707 Y19.9329
G1 X7.0851 Y20.2133
G1 X7.4888 Y20.4553
G1 X7.9144 Y20.6566
G1 X8.3576 Y20.8152
G1 X8.8142 Y20.9296
G1 X9.2798 Y20.9986
G1 X9.75 Y21.0217
G1 X10.2202 Y20.9986
G1 X10.6858 Y20.9296
G1 X11.1424 Y20.8152
G1 X11.5856 Y20.6566
G1 X12.0112 Y20.4553
G1 X12.4149 Y20.2133
G1 X12.793 Y19.9329
G1 X13.1418 Y19.6168
G1 X13.4579 Y19.268
G1 X13.7383 Y18.8899
G1 X13.9804 Y18.4862
G1 X14.1816 Y18.0606
G1 X14.3402 Y17.6174
G1 X14.4546 Y17.1608
G1 X14.5236 Y16.6952
G1 X14.5467 Y16.225
G1 X14.5236 Y15.7548
G1 X14.4546 Y15.2892
G1 X14.3402 Y14.8326
G1 X14.1816 Y14.3894
G1 X13.9804 Y13.9638
G1 X13.7383 Y13.5601
G1 X13.4579 Y13.182
G1 X13.1418 Y12.8332
G1 X12.793 Y12.5171
G1 X12.4149 Y12.2367
G1 X12.0112 Y11.9946
G1 X11.5856 Y11.7934
G1 X11.1424 Y11.6348
G1 X10.6858 Y11.5204
G1 X10.472 Y11.4887
G1 F100.0 X10.5894 Y10.6974
G1 F500.0 X10.2987 Y10.6542
G1 X9.75 Y10.6273
G1 X9.2013 Y10.6542
G1 X8.6579 Y10.7348
G1 X8.1251 Y10.8683
G1 X7.6079 Y11.0534
G1 X7.1113 Y11.2883
G1 X6.6401 Y11.5707
G1 X6.1989 Y11.8979
G1 X5.7918 Y12.2668
G1 X5.4229 Y12.6739
G1 X5.0957 Y13.1151
G1 X4.8133 Y13.5863
G1 X4.5784 Y14.0828
G1 X4.3933 Y14.6001
G1 X4.2599 Y15.1329
G1 X4.1792 Y15.6763
G1 X4.1523 Y16.225
G1 X4.1792 Y16.7737
G1 X4.2599 Y17.3171
G1 X4.3933 Y17.8499
G1 X4.5784 Y18.3672
G1 X4.8133 Y18.8637
G1 X5.0957 Y19.3349
G1 X5.4229 Y19.7761
G1 X5.7918 Y20.1832
G1 X6.1989 Y20.5521
G1 X6.6401 Y20.8793
G1 X7.1113 Y21.1617
G1 X7.6079 Y21.3966
G1 X8.1251 Y21.5817
G1 X8.6579 Y21.7151
G1 X9.2013 Y21.7958
G1 X9.75 Y21.8227
G1 X10.2987 Y21.7958
G1 X10.8421 Y21.7151
G1 X11.3749 Y21.5817
G1 X11.8921 Y21.3966
G1 X12.3887 Y21.1617
G1 X12.8599 Y20.8793
G1 X13.3011 Y20.5521
G1 X13.7082 Y20.1832
G1 X14.0771 Y19.7761
G1 X14.4043 Y19.3349
G1 X14.6867 Y18.8637
G1 X14.9216 Y18.3671
G1 X15.1067 Y17.8499
G1 X15.2402 Y17.3171
G1 X15.3208 Y16.7737
G1 X15.3477 Y16.225
G1 X15.3208 Y15.6763
G1 X15.2402 Y15.1329
G1 X15.1067 Y14.6001
G1 X14.9216 Y14.0829
G1 X14.6867 Y13.5863
G1 X14.4043 Y13.1151
G1 X14.0771 Y12.6739
G1 X13.7082 Y12.2668
G1 X13.3011 Y11.8979
G1 X12.8599 Y11.5707
G1 X12.3887 Y11.2883
G1 X11.8921 Y11.0534
G1 X11.3749 Y10.8683
G1 X10.8421 Y10.7348
G1 X10.5894 Y10.6974
G1 F100.0 X10.7068 Y9.906
G1 F500.0 X10.3772 Y9.8571
G1 X9.75 Y9.8263
G1 X9.1228 Y9.8571
G1 X8.5017 Y9.9493
G1 X7.8926 Y10.1019
G1 X7.3013 Y10.3134
G1 X6.7337 Y10.5819
G1 X6.1951 Y10.9047
G1 X5.6907 Y11.2788
G1 X5.2255 Y11.7005
G1 X4.8038 Y12.1657
G1 X4.4297 Y12.6701
G1 X4.1069 Y13.2087
G1 X3.8384 Y13.7763
G1 X3.6269 Y14.3676
G1 X3.4743 Y14.9767
G1 X3.3821 Y15.5978
G1 X3.3513 Y16.225
G1 X3.3821 Y16.8522
G1 X3.4743 Y17.4733
G1 X3.6269 Y18.0824
G1 X3.8384 Y18.6737
G1 X4.1069 Y19.2413
G1 X4.4297 Y19.7799
G1 X4.8038 Y20.2843
G1 X5.2255 Y20.7495
G1 X5.6907 Y21.1712
G1 X6.1951 Y21.5453
G1 X6.7337 Y21.8681
G1 X7.3013 Y22.1366
G1 X7.8926 Y22.3481
G1 X8.5017 Y22.5007
G1 X9.1228 Y22.5929
G1 X9.75 Y22.6237
G1 X10.3772 Y22.5929
G1 X10.9983 Y22.5007
G1 X11.6074 Y22.3481
G1 X12.1987 Y22.1366
G1 X12.7663 Y21.8681
G1 X13.3049 Y21.5453
G1 X13.8093 Y21.1712
G1 X14.2745 Y20.7495
G1 X14.6962 Y20.2843
G1 X15.0703 Y19.7799
G1 X15.3931 Y19.2413
G1 X15.6616 Y18.6737
G1 X15.8731 Y18.0824
G1 X16.0257 Y17.4733
G1 X16.1179 Y16.8522
G1 X16.1487 Y16.225
G1 X16.1179 Y15.5978
G1 X16.0257 Y14.9767
G1 X15.8731 Y14.3676
G1 X15.6616 Y13.7763
G1 X15.3931 Y13.2087
G1 X15.0703 Y12.6701
G1 X14.6962 Y12.1657
G1 X14.2745 Y11.7005
G1 X13.8093 Y11.2788
G1 X13.3049 Y10.9047
G1 X12.7663 Y10.5819
G1 X12.1987 Y10.3134
G1 X11.6074 Y10.1019
G1 X10.9983 Y9.9493
G1 X10.7068 Y9.906
G0 Z3.0
G0 X9.8264 Y15.8411
G0 Z0.7
G1 F100.0 Z-0.3
G1 F500.0 X9.7884 Y15.8354 Z-0.3047
G1 X9.75 Y15.8336 Z-0.3094
G1 X9.7116 Y15.8354 Z-0.3141
G1 X9.6736 Y15.8411 Z-0.3188
G1 X9.6364 Y15.8504 Z-0.3234
G1 X9.6002 Y15.8634 Z-0.3281
G1 X9.5655 Y15.8798 Z-0.3328
G1 X9.5325 Y15.8995 Z-0.3375
G1 X9.5017 Y15.9224 Z-0.3422
G1 X9.4732 Y15.9482 Z-0.3469
G1 X9.4474 Y15.9767 Z-0.3516
G1 X9.4245 Y16.0075 Z-0.3563
G1 X9.4048 Y16.0405 Z-0.3609
G1 X9.3884 Y16.0752 Z-0.3656
G1 X9.3754 Y16.1114 Z-0.3703
G1 X9.3661 Y16.1486 Z-0.375
G1 X9.3604 Y16.1866 Z-0.3797
G1 X9.3586 Y16.225 Z-0.3844
G1 X9.3604 Y16.2634 Z-0.3891
G1 X9.3661 Y16.3014 Z-0.3937
G1 X9.3754 Y16.3386 Z-0.3984
G1 X9.3884 Y16.3748 Z-0.4031
G1 X9.4048 Y16.4095 Z-0.4078
G1 X9.4245 Y16.4425 Z-0.4125
G1 X9.4474 Y16.4733 Z-0.4172
G1 X9.4732 Y16.5018 Z-0.4219
G1 X9.5017 Y16.5276 Z-0.4266
G1 X9.5325 Y16.5505 Z-0.4312
G1 X9.5655 Y16.5702 Z-0.4359
G1 X9.6002 Y16.5866 Z-0.4406
G1 X9.6364 Y16.5996 Z-0.4453
G1 X9.6736 Y16.6089 Z-0.45
G1 X9.7116 Y16.6146 Z-0.4547
G1 X9.75 Y16.6164 Z-0.4594
G1 X9.7884 Y16.6146 Z-0.4641
G1 X9.8264 Y16.6089 Z-0.4687
G1 X9.8636 Y16.5996 Z-0.4734
G1 X9.8998 Y16.5866 Z-0.4781
G1 X9.9345 Y16.5702 Z-0.4828
G1 X9.9675 Y16.5505 Z-0.4875
G1 X9.9983 Y16.5276 Z-0.4922
G1 X10.0268 Y16.5018 Z-0.4969
G1 X10.0526 Y16.4733 Z-0.5016
G1 X10.0755 Y16.4425 Z-0.5063
G1 X10.0952 Y16.4095 Z-0.5109
G1 X10.1116 Y16.3748 Z-0.5156
G1 X10.1246 Y16.3386 Z-0.5203
G1 X10.1339 Y16.3014 Z-0.525
G1 X10.1396 Y16.2634 Z-0.5297
G1 X10.1414 Y16.225 Z-0.5344
G1 X10.1396 Y16.1866 Z-0.5391
G1 X10.1339 Y16.1486 Z-0.5437
G1 X10.1246 Y16.1114 Z-0.5484
G1 X10.1116 Y16.0752 Z-0.5531
G1 X10.0952 Y16.0405 Z-0.5578
G1 X10.0755 Y16.0075 Z-0.5625
G1 X10.0526 Y15.9767 Z-0.5672
G1 X10.0268 Y15.9482 Z-0.5719
G1 X9.9983 Y15.9224 Z-0.5766
G1 X9.9675 Y15.8995 Z-0.5813
G1 X9.9345 Y15.8798 Z-0.5859
G1 X9.8998 Y15.8634 Z-0.5906
G1 X9.8636 Y15.8504 Z-0.5953
G1 X9.8264 Y15.8411 Z-0.6
G1 F100.0 X9.8851 Y15.4454
G1 F500.0 X9.8276 Y15.4369
G1 X9.75 Y15.4331
G1 X9.6724 Y15.4369
G1 X9.5955 Y15.4483
G1 X9.5201 Y15.4672
G1 X9.4469 Y15.4934
G1 X9.3767 Y15.5266
G1 X9.31 Y15.5665
G1 X9.2476 Y15.6128
G1 X9.19 Y15.665
G1 X9.1378 Y15.7226
G1 X9.0915 Y15.785
G1 X9.0516 Y15.8517
G1 X9.0184 Y15.9219
G1 X8.9922 Y15.9951
G1 X8.9733 Y16.0705
G1 X8.9619 Y16.1474
G1 X8.9581 Y16.225
G1 X8.9619 Y16.3026
G1 X8.9733 Y16.3795
G1 X8.9922 Y16.4549
G1 X9.0184 Y16.5281
G1 X9.0516 Y16.5983
G1 X9.0915 Y16.665
G1 X9.1378 Y16.7274
G1 X9.19 Y16.785
G1 X9.2476 Y16.8372
G1 X9.31 Y16.8835
G1 X9.3767 Y16.9234
G1 X9.4469 Y16.9566
G1 X9.5201 Y16.9828
G1 X9.5955 Y17.0017
G1 X9.6724 Y17.0131
G1 X9.75 Y17.0169
G1 X9.8276 Y17.0131
G1 X9.9045 Y17.0017
G1 X9.9799 Y16.9828
G1 X10.0531 Y16.9566
G1 X10.1233 Y16.9234
G1 X10.19 Y16.8835
G1 X10.2524 Y16.8372
G1 X10.31 Y16.785
G1 X10.3622 Y16.7274
G1 X10.4085 Y16.665
G1 X10.4484 Y16.5983
G1 X10.4816 Y16.5281
G1 X10.5078 Y16.4549
G1 X10.5267 Y16.3795
G1 X10.5381 Y16.3026
G1 X10.5419 Y16.225
G1 X10.5381 Y16.1474
G1 X10.5267 Y16.0705
G1 X10.5078 Y15.9951
G1 X10.4816 Y15.9219
G1 X10.4484 Y15.8517
G1 X10.4085 Y15.785
G1 X10.3622 Y15.7226
G1 X10.31 Y15.665
G1 X10.2524 Y15.6128
G1 X10.19 Y15.5665
G1 X10.1233 Y15.5266
G1 X10.0531 Y15.4934
G1 X9.9799 Y15.4672
G1 X9.9045 Y15.4483
G1 X9.8851 Y15.4454
G1 F100.0 X10.0024 Y14.6541
G1 F500.0 X9.9061 Y14.6398
G1 X9.75 Y14.6321
G1 X9.5939 Y14.6398
G1 X9.4392 Y14.6627
G1 X9.2876 Y14.7007
G1 X9.1404 Y14.7534
G1 X8.9991 Y14.8202
G1 X8.865 Y14.9006
G1 X8.7395 Y14.9937
G1 X8.6237 Y15.0987
G1 X8.5187 Y15.2145
G1 X8.4256 Y15.34
G1 X8.3452 Y15.4741
G1 X8.2784 Y15.6154
G1 X8.2257 Y15.7626
G1 X8.1877 Y15.9143
G1 X8.1648 Y16.0689
G1 X8.1571 Y16.225
G1 X8.1648 Y16.3811
G1 X8.1877 Y16.5357
G1 X8.2257 Y16.6874
G1 X8.2784 Y16.8346
G1 X8.3452 Y16.9759
G1 X8.4256 Y17.11
G1 X8.5187 Y17.2355
G1 X8.6237 Y17.3513
G1 X8.7395 Y17.4563
G1 X8.865 Y17.5494
G1 X8.9991 Y17.6298
G1 X9.1404 Y17.6966
G1 X9.2876 Y17.7493
G1 X9.4392 Y17.7873
G1 X9.5939 Y17.8102
G1 X9.75 Y17.8179
G1 X9.9061 Y17.8102
G1 X10.0608 Y17.7873
G1 X10.2124 Y17.7493
G1 X10.3596 Y17.6966
G1 X10.5009 Y17.6298
G1 X10.635 Y17.5494
G1 X10.7605 Y17.4563
G1 X10.8763 Y17.3513
G1 X10.9813 Y17.2355
G1 X11.0744 Y17.11
G1 X11.1548 Y16.9759
G1 X11.2216 Y16.8346
G1 X11.2743 Y16.6874
G1 X11.3123 Y16.5358
G1 X11.3352 Y16.3811
G1 X11.3429 Y16.225
G1 X11.3352 Y16.0689
G1 X11.3123 Y15.9142
G1 X11.2743 Y15.7626
G1 X11.2216 Y15.6154
G1 X11.1548 Y15.4741
G1 X11.0744 Y15.34
G1 X10.9813 Y15.2145
G1 X10.8763 Y15.0987
G1 X10.7605 Y14.9937
G1 X10.635 Y14.9006
G1 X10.5009 Y14.8202
G1 X10.3596 Y14.7534
G1 X10.2124 Y14.7007
G1 X10.0608 Y14.6627
G1 X10.0024 Y14.6541
G1 F100.0 X10.1198 Y13.8627
G1 F500.0 X9.9846 Y13.8427
G1 X9.75 Y13.8312
G1 X9.5154 Y13.8427
G1 X9.283 Y13.8771
G1 X9.0551 Y13.9342
G1 X8.8339 Y14.0134
G1 X8.6215 Y14.1138
G1 X8.42 Y14.2346
G1 X8.2314 Y14.3745
G1 X8.0573 Y14.5323
G1 X7.8995 Y14.7064
G1 X7.7596 Y14.8951
G1 X7.6388 Y15.0965
G1 X7.5384 Y15.3089
G1 X7.4592 Y15.5301
G1 X7.4021 Y15.758
G1 X7.3677 Y15.9904
G1 X7.3562 Y16.225
G1 X7.3677 Y16.4596
G1 X7.4021 Y16.692
G1 X7.4592 Y16.9199
G1 X7.5384 Y17.1411
G1 X7.6388 Y17.3535
G1 X7.7596 Y17.5549
G1 X7.8995 Y17.7436
G1 X8.0573 Y17.9177
G1 X8.2314 Y18.0755
G1 X8.42 Y18.2154
G1 X8.6215 Y18.3362
G1 X8.8339 Y18.4366
G1 X9.0551 Y18.5158
G1 X9.283 Y18.5729
G1 X9.5154 Y18.6073
G1 X9.75 Y18.6188
G1 X9.9846 Y18.6073
G1 X10.217 Y18.5729
G1 X10.4449 Y18.5158
G1 X10.6661 Y18.4366
G1 X10.8785 Y18.3362
G1 X11.0799 Y18.2154
G1 X11.2686 Y18.0755
G1 X11.4427 Y17.9177
G1 X11.6005 Y17.7436
G1 X11.7404 Y17.5549
G1 X11.8612 Y17.3535
G1 X11.9616 Y17.1411
G1 X12.0408 Y16.9199
G1 X12.0979 Y16.692
G1 X12.1323 Y16.4596
G1 X12.1438 Y16.225
G1 X12.1323 Y15.9904
G1 X12.0979 Y15.758
G1 X12.0408 Y15.5301
G1 X11.9616 Y15.3089
G1 X11.8612 Y15.0965
G1 X11.7404 Y14.895
G1 X11.6005 Y14.7064
G1 X11.4427 Y14.5323
G1 X11.2686 Y14.3745
G1 X11.0799 Y14.2346
G1 X10.8785 Y14.1138
G1 X10.6661 Y14.0134
G1 X10.4449 Y13.9342
G1 X10.217 Y13.8771
G1 X10.1198 Y13.8627
G1 F100.0 X10.2372 Y13.0714
G1 F500.0 X10.0631 Y13.0456
G1 X9.75 Y13.0302
G1 X9.4369 Y13.0456
G1 X9.1267 Y13.0916
G1 X8.8226 Y13.1678
G1 X8.5274 Y13.2734
G1 X8.244 Y13.4074
G1 X7.9751 Y13.5686
G1 X7.7232 Y13.7554
G1 X7.4909 Y13.9659
G1 X7.2804 Y14.1982
G1 X7.0936 Y14.4501
G1 X6.9324 Y14.719
G1 X6.7984 Y15.0024
G1 X6.6928 Y15.2976
G1 X6.6166 Y15.6017
G1 X6.5706 Y15.9119
G1 X6.5552 Y16.225
G1 X6.5706 Y16.5381
G1 X6.6166 Y16.8483
G1 X6.6928 Y17.1524
G1 X6.7984 Y17.4476
G1 X6.9324 Y17.731
G1 X7.0936 Y17.9999
G1 X7.2804 Y18.2518
G1 X7.4909 Y18.4841
G1 X7.7232 Y18.6946
G1 X7.9751 Y18.8814
G1 X8.244 Y19.0426
G1 X8.5274 Y19.1766
G1 X8.8226 Y19.2822
G1 X9.1267 Y19.3584
G1 X9.4369 Y19.4044
G1 X9.75 Y19.4198
G1 X10.0631 Y19.4044
G1 X10.3733 Y19.3584
G1 X10.6774 Y19.2822
G1 X10.9726 Y19.1766
G1 X11.256 Y19.0426
G1 X11.5249 Y18.8814
G1 X11.7768 Y18.6946
G1 X12.0091 Y18.4841
G1 X12.2196 Y18.2518
G1 X12.4064 Y17.9999
G1 X12.5676 Y17.731
G1 X12.7016 Y17.4476
G1 X12.8072 Y17.1524
G1 X12.8834 Y16.8483
G1 X12.9294 Y16.5381
G1 X12.9448 Y16.225
G1 X12.9294 Y15.9119
G1 X12.8834 Y15.6017
G1 X12.8072 Y15.2976
G1 X12.7016 Y15.0024
G1 X12.5676 Y14.719
G1 X12.4064 Y14.4501
G1 X12.2196 Y14.1982
G1 X12.0091 Y13.9659
G1 X11.7768 Y13.7554
G1 X11.5249 Y13.5686
G1 X11.256 Y13.4074
G1 X10.9726 Y13.2734
G1 X10.6774 Y13.1678
G1 X10.3733 Y13.0916
G1 X10.2372 Y13.0714
G1 F100.0 X10.3546 Y12.28
G1 F500.0 X10.1417 Y12.2485
G1 X9.75 Y12.2292
G1 X9.3583 Y12.2485
G1 X8.9705 Y12.306
G1 X8.5901 Y12.4013
G1 X8.2209 Y12.5334
G1 X7.8664 Y12.701
G1 X7.5301 Y12.9026
G1 X7.2151 Y13.1362
G1 X6.9246 Y13.3996
G1 X6.6612 Y13.6901
G1 X6.4276 Y14.0051
G1 X6.226 Y14.3414
G1 X6.0584 Y14.6959
G1 X5.9263 Y15.0651
G1 X5.831 Y15.4455
G1 X5.7735 Y15.8333
G1 X5.7542 Y16.225
G1 X5.7735 Y16.6167
G1 X5.831 Y17.0045
G1 X5.9263 Y17.3849
G1 X6.0584 Y17.7541
G1 X6.226 Y18.1086
G1 X6.4276 Y18.4449
G1 X6.6612 Y18.7599
G1 X6.9246 Y19.0504
G1 X7.2151 Y19.3138
G1 X7.5301 Y19.5474
G1 X7.8664 Y19.749
G1 X8.2209 Y19.9166
G1 X8.5901 Y20.0487
G1 X8.9705 Y20.144
G1 X9.3583 Y20.2015
G1 X9.75 Y20.2208
G1 X10.1417 Y20.2015
G1 X10.5295 Y20.144
G1 X10.9099 Y20.0487
G1 X11.2791 Y19.9166
G1 X11.6336 Y19.749
G1 X11.9699 Y19.5474
G1 X12.2849 Y19.3138
G1 X12.5754 Y19.0504
G1 X12.8388 Y18.7599
G1 X13.0724 Y18.4449
G1 X13.274 Y18.1086
G1 X13.4416 Y17.7541
G1 X13.5737 Y17.3849
G1 X13.669 Y17.0045
G1 X13.7265 Y16.6167
G1 X13.7458 Y16.225
G1 X13.7265 Y15.8333
G1 X13.669 Y15.4455
G1 X13.5737 Y15.0651
G1 X13.4416 Y14.6959
G1 X13.274 Y14.3414
G1 X13.0724 Y14.0051
G1 X12.8388 Y13.6901
G1 X12.5754 Y13.3996
G1 X12.2849 Y13.1362
G1 X11.9699 Y12.9026
G1 X11.6336 Y12.701
G1 X11.2791 Y12.5334
G1 X10.9099 Y12.4013
G1 X10.5295 Y12.306
G1 X10.3546 Y12.28
G1 F100.0 X10.472 Y11.4887
G1 F500.0 X10.2202 Y11.4514
G1 X9.75 Y11.4283
G1 X9.2798 Y11.4514
G1 X8.8142 Y11.5204
G1 X8.3576 Y11.6348
G1 X7.9144 Y11.7934
G1 X7.4888 Y11.9946
G1 X7.0851 Y12.2367
G1 X6.707 Y12.5171
G1 X6.3582 Y12.8332
G1 X6.0421 Y13.182
G1 X5.7617 Y13.5601
G1 X5.5197 Y13.9638
G1 X5.3184 Y14.3894
G1 X5.1598 Y14.8326
G1 X5.0454 Y15.2892
G1 X4.9764 Y15.7548
G1 X4.9533 Y16.225
G1 X4.9764 Y16.6952
G1 X5.0454 Y17.1608
G1 X5.1598 Y17.6174
G1 X5.3184 Y18.0606
G1 X5.5197 Y18.4862
G1 X5.7617 Y18.8899
G1 X6.0421 Y19.268
G1 X6.3582 Y19.6168
G1 X6.707 Y19.9329
G1 X7.0851 Y20.2133
G1 X7.4888 Y20.4553
G1 X7.9144 Y20.6566
G1 X8.3576 Y20.8152
G1 X8.8142 Y20.9296
G1 X9.2798 Y20.9986
G1 X9.75 Y21.0217
G1 X10.2202 Y20.9986
G1 X10.6858 Y20.9296
G1 X11.1424 Y20.8152
G1 X11.5856 Y20.6566
G1 X12.0112 Y20.4553
G1 X12.4149 Y20.2133
G1 X12.793 Y19.9329
G1 X13.1418 Y19.6168
G1 X13.4579 Y19.268
G1 X13.7383 Y18.8899
G1 X13.9804 Y18.4862
G1 X14.1816 Y18.0606
G1 X14.3402 Y17.6174
G1 X14.4546 Y17.1608
G1 X14.5236 Y16.6952
G1 X14.5467 Y16.225
G1 X14.5236 Y15.7548
G1 X14.4546 Y15.2892
G1 X14.3402 Y14.8326
G1 X14.1816 Y14.3894
G1 X13.9804 Y13.9638
G1 X13.7383 Y13.5601
G1 X13.4579 Y13.182
G1 X13.1418 Y12.8332
G1 X12.793 Y12.5171
G1 X12.4149 Y12.2367
G1 X12.0112 Y11.9946
G1 X11.5856 Y11.7934
G1 X11.1424 Y11.6348
G1 X10.6858 Y11.5204
G1 X10.472 Y11.4887
G1 F100.0 X10.5894 Y10.6974
G1 F500.0 X10.2987 Y10.6542
G1 X9.75 Y10.6273
G1 X9.2013 Y10.6542
G1 X8.6579 Y10.7348
G1 X8.1251 Y10.8683
G1 X7.6079 Y11.0534
G1 X7.1113 Y11.2883
G1 X6.6401 Y11.5707
G1 X6.1989 Y11.8979
G1 X5.7918 Y12.2668
G1 X5.4229 Y12.6739
G1 X5.0957 Y13.1151
G1 X4.8133 Y13.5863
G1 X4.5784 Y14.0828
G1 X4.3933 Y14.6001
G1 X4.2599 Y15.1329
G1 X4.1792 Y15.6763
G1 X4.1523 Y16.225
G1 X4.1792 Y16.7737
G1 X4.2599 Y17.3171
G1 X4.3933 Y17.8499
G1 X4.5784 Y18.3672
G1 X4.8133 Y18.8637
G1 X5.0957 Y19.3349
G1 X5.4229 Y19.7761
G1 X5.7918 Y20.1832
G1 X6.1989 Y20.5521
G1 X6.6401 Y20.8793
G1 X7.1113 Y21.1617
G1 X7.6079 Y21.3966
G1 X8.1251 Y21.5817
G1 X8.6579 Y21.7151
G1 X9.2013 Y21.7958
G1 X9.75 Y21.8227
G1 X10.2987 Y21.7958
G1 X10.8421 Y21.7151
G1 X11.3749 Y21.5817
G1 X11.8921 Y21.3966
G1 X12.3887 Y21.1617
G1 X12.8599 Y20.8793
G1 X13.3011 Y20.5521
G1 X13.7082 Y20.1832
G1 X14.0771 Y19.7761
G1 X14.4043 Y19.3349
G1 X14.6867 Y18.8637
G1 X14.9216 Y18.3671
G1 X15.1067 Y17.8499
G1 X15.2402 Y17.3171
G1 X15.3208 Y16.7737
G1 X15.3477 Y16.225
G1 X15.3208 Y15.6763
G1 X15.2402 Y15.1329
G1 X15.1067 Y14.6001
G1 X14.9216 Y14.0829
G1 X14.6867 Y13.5863
G1 X14.4043 Y13.1151
G1 X14.0771 Y12.6739
G1 X13.7082 Y12.2668
G1 X13.3011 Y11.8979
G1 X12.8599 Y11.5707
G1 X12.3887 Y11.2883
G1 X11.8921 Y11.0534
G1 X11.3749 Y10.8683
G1 X10.8421 Y10.7348
G1 X10.5894 Y10.6974
G1 F100.0 X10.7068 Y9.906
G1 F500.0 X10.3772 Y9.8571
G1 X9.75 Y9.8263
G1 X9.1228 Y9.8571
G1 X8.5017 Y9.9493
G1 X7.8926 Y10.1019
G1 X7.3013 Y10.3134
G1 X6.7337 Y10.5819
G1 X6.1951 Y10.9047
G1 X5.6907 Y11.2788
G1 X5.2255 Y11.7005
G1 X4.8038 Y12.1657
G1 X4.4297 Y12.6701
G1 X4.1069 Y13.2087
G1 X3.8384 Y13.7763
G1 X3.6269 Y14.3676
G1 X3.4743 Y14.9767
G1 X3.3821 Y15.5978
G1 X3.3513 Y16.225
G1 X3.3821 Y16.8522
G1 X3.4743 Y17.4733
G1 X3.6269 Y18.0824
G1 X3.8384 Y18.6737
G1 X4.1069 Y19.2413
G1 X4.4297 Y19.7799
G1 X4.8038 Y20.2843
G1 X5.2255 Y20.7495
G1 X5.6907 Y21.1712
G1 X6.1951 Y21.5453
G1 X6.7337 Y21.8681
G1 X7.3013 Y22.1366
G1 X7.8926 Y22.3481
G1 X8.5017 Y22.5007
G1 X9.1228 Y22.5929
G1 X9.75 Y22.6237
G1 X10.3772 Y22.5929
G1 X10.9983 Y22.5007
G1 X11.6074 Y22.3481
G1 X12.1987 Y22.1366
G1 X12.7663 Y21.8681
G1 X13.3049 Y21.5453
G1 X13.8093 Y21.1712
G1 X14.2745 Y20.7495
G1 X14.6962 Y20.2843
G1 X15.0703 Y19.7799
G1 X15.3931 Y19.2413
G1 X15.6616 Y18.6737
G1 X15.8731 Y18.0824
G1 X16.0257 Y17.4733
G1 X16.1179 Y16.8522
G1 X16.1487 Y16.225
G1 X16.1179 Y15.5978
G1 X16.0257 Y14.9767
G1 X15.8731 Y14.3676
G1 X15.6616 Y13.7763
G1 X15.3931 Y13.2087
G1 X15.0703 Y12.6701
G1 X14.6962 Y12.1657
G1 X14.2745 Y11.7005
G1 X13.8093 Y11.2788
G1 X13.3049 Y10.9047
G1 X12.7663 Y10.5819
G1 X12.1987 Y10.3134
G1 X11.6074 Y10.1019
G1 X10.9983 Y9.9493
G1 X10.7068 Y9.906
G0 Z3.0
G0 X9.8264 Y15.8411
G0 Z0.4
G1 F100.0 Z-0.6
G1 F500.0 X9.7884 Y15.8354 Z-0.6047
G1 X9.75 Y15.8336 Z-0.6094
G1 X9.7116 Y15.8354 Z-0.6141
G1 X9.6736 Y15.8411 Z-0.6188
G1 X9.6364 Y15.8504 Z-0.6234
G1 X9.6002 Y15.8634 Z-0.6281
G1 X9.5655 Y15.8798 Z-0.6328
G1 X9.5325 Y15.8995 Z-0.6375
G1 X9.5017 Y15.9224 Z-0.6422
G1 X9.4732 Y15.9482 Z-0.6469
G1 X9.4474 Y15.9767 Z-0.6516
G1 X9.4245 Y16.0075 Z-0.6563
G1 X9.4048 Y16.0405 Z-0.6609
G1 X9.3884 Y16.0752 Z-0.6656
G1 X9.3754 Y16.1114 Z-0.6703
G1 X9.3661 Y16.1486 Z-0.675
G1 X9.3604 Y16.1866 Z-0.6797
G1 X9.3586 Y16.225 Z-0.6844
G1 X9.3604 Y16.2634 Z-0.6891
G1 X9.3661 Y16.3014 Z-0.6937
G1 X9.3754 Y16.3386 Z-0.6984
G1 X9.3884 Y16.3748 Z-0.7031
G1 X9.4048 Y16.4095 Z-0.7078
G1 X9.4245 Y16.4425 Z-0.7125
G1 X9.4474 Y16.4733 Z-0.7172
G1 X9.4732 Y16.5018 Z-0.7219
G1 X9.5017 Y16.5276 Z-0.7266
G1 X9.5325 Y16.5505 Z-0.7312
G1 X9.5655 Y16.5702 Z-0.7359
G1 X9.6002 Y16.5866 Z-0.7406
G1 X9.6364 Y16.5996 Z-0.7453
G1 X9.6736 Y16.6089 Z-0.75
G1 X9.7116 Y16.6146 Z-0.7547
G1 X9.75 Y16.6164 Z-0.7594
G1 X9.7884 Y16.6146 Z-0.7641
G1 X9.8264 Y16.6089 Z-0.7687
G1 X9.8636 Y16.5996 Z-0.7734
G1 X9.8998 Y16.5866 Z-0.7781
G1 X9.9345 Y16.5702 Z-0.7828
G1 X9.9675 Y16.5505 Z-0.7875
G1 X9.9983 Y16.5276 Z-0.7922
G1 X10.0268 Y16.5018 Z-0.7969
G1 X10.0526 Y16.4733 Z-0.8016
G1 X10.0755 Y16.4425 Z-0.8063
G1 X10.0952 Y16.4095 Z-0.8109
G1 X10.1116 Y16.3748 Z-0.8156
G1 X10.1246 Y16.3386 Z-0.8203
G1 X10.1339 Y16.3014 Z-0.825
G1 X10.1396 Y16.2634 Z-0.8297
G1 X10.1414 Y16.225 Z-0.8344
G1 X10.1396 Y16.1866 Z-0.8391
G1 X10.1339 Y16.1486 Z-0.8437
G1 X10.1246 Y16.1114 Z-0.8484
G1 X10.1116 Y16.0752 Z-0.8531
G1 X10.0952 Y16.0405 Z-0.8578
G1 X10.0755 Y16.0075 Z-0.8625
G1 X10.0526 Y15.9767 Z-0.8672
G1 X10.0268 Y15.9482 Z-0.8719
G1 X9.9983 Y15.9224 Z-0.8766
G1 X9.9675 Y15.8995 Z-0.8813
G1 X9.9345 Y15.8798 Z-0.8859
G1 X9.8998 Y15.8634 Z-0.8906
G1 X9.8636 Y15.8504 Z-0.8953
G1 X9.8264 Y15.8411 Z-0.9
G1 F100.0 X9.8851 Y15.4454
G1 F500.0 X9.8276 Y15.4369
G1 X9.75 Y15.4331
G1 X9.6724 Y15.4369
G1 X9.5955 Y15.4483
G1 X9.5201 Y15.4672
G1 X9.4469 Y15.4934
G1 X9.3767 Y15.5266
G1 X9.31 Y15.5665
G1 X9.2476 Y15.6128
G1 X9.19 Y15.665
G1 X9.1378 Y15.7226
G1 X9.0915 Y15.785
G1 X9.0516 Y15.8517
G1 X9.0184 Y15.9219
G1 X8.9922 Y15.9951
G1 X8.9733 Y16.0705
G1 X8.9619 Y16.1474
G1 X8.9581 Y16.225
G1 X8.9619 Y16.3026
G1 X8.9733 Y16.3795
G1 X8.9922 Y16.4549
G1 X9.0184 Y16.5281
G1 X9.0516 Y16.5983
G1 X9.0915 Y16.665
G1 X9.1378 Y16.7274
G1 X9.19 Y16.785
G1 X9.2476 Y16.8372
G1 X9.31 Y16.8835
G1 X9.3767 Y16.9234
G1 X9.4469 Y16.9566
G1 X9.5201 Y16.9828
G1 X9.5955 Y17.0017
G1 X9.6724 Y17.0131
G1 X9.75 Y17.0169
G1 X9.8276 Y17.0131
G1 X9.9045 Y17.0017
G1 X9.9799 Y16.9828
G1 X10.0531 Y16.9566
G1 X10.1233 Y16.9234
G1 X10.19 Y16.8835
G1 X10.2524 Y16.8372
G1 X10.31 Y16.785
G1 X10.3622 Y16.7274
G1 X10.4085 Y16.665
G1 X10.4484 Y16.5983
G1 X10.4816 Y16.5281
G1 X10.5078 Y16.4549
G1 X10.5267 Y16.3795
G1 X10.5381 Y16.3026
G1 X10.5419 Y16.225
G1 X10.5381 Y16.1474
G1 X10.5267 Y16.0705
G1 X10.5078 Y15.9951
G1 X10.4816 Y15.9219
G1 X10.4484 Y15.8517
G1 X10.4085 Y15.785
G1 X10.3622 Y15.7226
G1 X10.31 Y15.665
G1 X10.2524 Y15.6128
G1 X10.19 Y15.5665
G1 X10.1233 Y15.5266
G1 X10.0531 Y15.4934
G1 X9.9799 Y15.4672
G1 X9.9045 Y15.4483
G1 X9.8851 Y15.4454
G1 F100.0 X10.0024 Y14.6541
G1 F500.0 X9.9061 Y14.6398
G1 X9.75 Y14.6321
G1 X9.5939 Y14.6398
G1 X9.4392 Y14.6627
G1 X9.2876 Y14.7007
G1 X9.1404 Y14.7534
G1 X8.9991 Y14.8202
G1 X8.865 Y14.9006
G1 X8.7395 Y14.9937
G1 X8.6237 Y15.0987
G1 X8.5187 Y15.2145
G1 X8.4256 Y15.34
G1 X8.3452 Y15.4741
G1 X8.2784 Y15.6154
G1 X8.2257 Y15.7626
G1 X8.1877 Y15.9143
G1 X8.1648 Y16.0689
G1 X8.1571 Y16.225
G1 X8.1648 Y16.3811
G1 X8.1877 Y16.5357
G1 X8.2257 Y16.6874
G1 X8.2784 Y16.8346
G1 X8.3452 Y16.9759
G1 X8.4256 Y17.11
G1 X8.5187 Y17.2355
G1 X8.6237 Y17.3513
G1 X8.7395 Y17.4563
G1 X8.865 Y17.5494
G1 X8.9991 Y17.6298
G1 X9.1404 Y17.6966
G1 X9.2876 Y17.7493
G1 X9.4392 Y17.7873
G1 X9.5939 Y17.8102
G1 X9.75 Y17.8179
G1 X9.9061 Y17.8102
G1 X10.0608 Y17.7873
G1 X10.2124 Y17.7493
G1 X10.3596 Y17.6966
G1 X10.5009 Y17.6298
G1 X10.635 Y17.5494
G1 X10.7605 Y17.4563
G1 X10.8763 Y17.3513
G1 X10.9813 Y17.2355
G1 X11.0744 Y17.11
G1 X11.1548 Y16.9759
G1 X11.2216 Y16.8346
G1 X11.2743 Y16.6874
G1 X11.3123 Y16.5358
G1 X11.3352 Y16.3811
G1 X11.3429 Y16.225
G1 X11.3352 Y16.0689
G1 X11.3123 Y15.9142
G1 X11.2743 Y15.7626
G1 X11.2216 Y15.6154
G1 X11.1548 Y15.4741
G1 X11.0744 Y15.34
G1 X10.9813 Y15.2145
G1 X10.8763 Y15.0987
G1 X10.7605 Y14.9937
G1 X10.635 Y14.9006
G1 X10.5009 Y14.8202
G1 X10.3596 Y14.7534
G1 X10.2124 Y14.7007
G1 X10.0608 Y14.6627
G1 X10.0024 Y14.6541
G1 F100.0 X10.1198 Y13.8627
G1 F500.0 X9.9846 Y13.8427
G1 X9.75 Y13.8312
G1 X9.5154 Y13.8427
G1 X9.283 Y13.8771
G1 X9.0551 Y13.9342
G1 X8.8339 Y14.0134
G1 X8.6215 Y14.1138
G1 X8.42 Y14.2346
G1 X8.2314 Y14.3745
G1 X8.0573 Y14.5323
G1 X7.8995 Y14.7064
G1 X7.7596 Y14.8951
G1 X7.6388 Y15.0965
G1 X7.5384 Y15.3089
G1 X7.4592 Y15.5301
G1 X7.4021 Y15.758
G1 X7.3677 Y15.9904
G1 X7.3562 Y16.225
G1 X7.3677 Y16.4596
G1 X7.4021 Y16.692
G1 X7.4592 Y16.9199
G1 X7.5384 Y17.1411
G1 X7.6388 Y17.3535
G1 X7.7596 Y17.5549
G1 X7.8995 Y17.7436
G1 X8.0573 Y17.9177
G1 X8.2314 Y18.0755
G1 X8.42 Y18.2154
G1 X8.6215 Y18.3362
G1 X8.8339 Y18.4366
G1 X9.0551 Y18.5158
G1 X9.283 Y18.5729
G1 X9.5154 Y18.6073
G1 X9.75 Y18.6188
G1 X9.9846 Y18.6073
G1 X10.217 Y18.5729
G1 X10.4449 Y18.5158
G1 X10.6661 Y18.4366
G1 X10.8785 Y18.3362
G1 X11.0799 Y18.2154
G1 X11.2686 Y18.0755
G1 X11.4427 Y17.9177
G1 X11.6005 Y17.7436
G1 X11.7404 Y17.5549
G1 X11.8612 Y17.3535
G1 X11.9616 Y17.1411
G1 X12.0408 Y16.9199
G1 X12.0979 Y16.692
G1 X12.1323 Y16.4596
G1 X12.1438 Y16.225
G1 X12.1323 Y15.9904
G1 X12.0979 Y15.758
G1 X12.0408 Y15.5301
G1 X11.9616 Y15.3089
G1 X11.8612 Y15.0965
G1 X11.7404 Y14.895
G1 X11.6005 Y14.7064
G1 X11.4427 Y14.5323
G1 X11.2686 Y14.3745
G1 X11.0799 Y14.2346
G1 X10.8785 Y14.1138
G1 X10.6661 Y14.0134
G1 X10.4449 Y13.9342
G1 X10.217 Y13.8771
G1 X10.1198 Y13.8627
G1 F100.0 X10.2372 Y13.0714
G1 F500.0 X10.0631 Y13.0456
G1 X9.75 Y13.0302
G1 X9.4369 Y13.0456
G1 X9.1267 Y13.0916
G1 X8.8226 Y13.1678
G1 X8.5274 Y13.2734
G1 X8.244 Y13.4074
G1 X7.9751 Y13.5686
G1 X7.7232 Y13.7554
G1 X7.4909 Y13.9659
G1 X7.2804 Y14.1982
G1 X7.0936 Y14.4501
G1 X6.9324 Y14.719
G1 X6.7984 Y15.0024
G1 X6.6928 Y15.2976
G1 X6.6166 Y15.6017
G1 X6.5706 Y15.9119
G1 X6.5552 Y16.225
G1 X6.5706 Y16.5381
G1 X6.6166 Y16.8483
G1 X6.6928 Y17.1524
G1 X6.7984 Y17.4476
G1 X6.9324 Y17.731
G1 X7.0936 Y17.9999
G1 X7.2804 Y18.2518
G1 X7.4909 Y18.4841
G1 X7.7232 Y18.6946
G1 X7.9751 Y18.8814
G1 X8.244 Y19.0426
G1 X8.5274 Y19.1766
G1 X8.8226 Y19.2822
G1 X9.1267 Y19.3584
G1 X9.4369 Y19.4044
G1 X9.75 Y19.4198
G1 X10.0631 Y19.4044
G1 X10.3733 Y19.3584
G1 X10.6774 Y19.2822
G1 X10.9726 Y19.1766
G1 X11.256 Y19.0426
G1 X11.5249 Y18.8814
G1 X11.7768 Y18.6946
G1 X12.0091 Y18.4841
G1 X12.2196 Y18.2518
G1 X12.4064 Y17.9999
G1 X12.5676 Y17.731
G1 X12.7016 Y17.4476
G1 X12.8072 Y17.1524
G1 X12.8834 Y16.8483
G1 X12.9294 Y16.5381
G1 X12.9448 Y16.225
G1 X12.9294 Y15.9119
G1 X12.8834 Y15.6017
G1 X12.8072 Y15.2976
G1 X12.7016 Y15.0024
G1 X12.5676 Y14.719
G1 X12.4064 Y14.4501
G1 X12.2196 Y14.1982
G1 X12.0091 Y13.9659
G1 X11.7768 Y13.7554
G1 X11.5249 Y13.5686
G1 X11.256 Y13.4074
G1 X10.9726 Y13.2734
G1 X10.6774 Y13.1678
G1 X10.3733 Y13.0916
G1 X10.2372 Y13.0714
G1 F100.0 X10.3546 Y12.28
G1 F500.0 X10.1417 Y12.2485
G1 X9.75 Y12.2292
G1 X9.3583 Y12.2485
G1 X8.9705 Y12.306
G1 X8.5901 Y12.4013
G1 X8.2209 Y12.5334
G1 X7.8664 Y12.701
G1 X7.5301 Y12.9026
G1 X7.2151 Y13.1362
G1 X6.9246 Y13.3996
G1 X6.6612 Y13.6901
G1 X6.4276 Y14.0051
G1 X6.226 Y14.3414
G1 X6.0584 Y14.6959
G1 X5.9263 Y15.0651
G1 X5.831 Y15.4455
G1 X5.7735 Y15.8333
G1 X5.7542 Y16.225
G1 X5.7735 Y16.6167
G1 X5.831 Y17.0045
G1 X5.9263 Y17.3849
G1 X6.0584 Y17.7541
G1 X6.226 Y18.1086
G1 X6.4276 Y18.4449
G1 X6.6612 Y18.7599
G1 X6.9246 Y19.0504
G1 X7.2151 Y19.3138
G1 X7.5301 Y19.5474
G1 X7.8664 Y19.749
G1 X8.2209 Y19.9166
G1 X8.5901 Y20.0487
G1 X8.9705 Y20.144
G1 X9.3583 Y20.2015
G1 X9.75 Y20.2208
G1 X10.1417 Y20.2015
G1 X10.5295 Y20.144
G1 X10.9099 Y20.0487
G1 X11.2791 Y19.9166
G1 X11.6336 Y19.749
G1 X11.9699 Y19.5474
G1 X12.2849 Y19.3138
G1 X12.5754 Y19.0504
G1 X12.8388 Y18.7599
G1 X13.0724 Y18.4449
G1 X13.274 Y18.1086
G1 X13.4416 Y17.7541
G1 X13.5737 Y17.3849
G1 X13.669 Y17.0045
G1 X13.7265 Y16.6167
G1 X13.7458 Y16.225
G1 X13.7265 Y15.8333
G1 X13.669 Y15.4455
G1 X13.5737 Y15.0651
G1 X13.4416 Y14.6959
G1 X13.274 Y14.3414
G1 X13.0724 Y14.0051
G1 X12.8388 Y13.6901
G1 X12.5754 Y13.3996
G1 X12.2849 Y13.1362
G1 X11.9699 Y12.9026
G1 X11.6336 Y12.701
G1 X11.2791 Y12.5334
G1 X10.9099 Y12.4013
G1 X10.5295 Y12.306
G1 X10.3546 Y12.28
G1 F100.0 X10.472 Y11.4887
G1 F500.0 X10.2202 Y11.4514
G1 X9.75 Y11.4283
G1 X9.2798 Y11.4514
G1 X8.8142 Y11.5204
G1 X8.3576 Y11.6348
G1 X7.9144 Y11.7934
G1 X7.4888 Y11.9946
G1 X7.0851 Y12.2367
G1 X6.707 Y12.5171
G1 X6.3582 Y12.8332
G1 X6.0421 Y13.182
G1 X5.7617 Y13.5601
G1 X5.5197 Y13.9638
G1 X5.3184 Y14.3894
G1 X5.1598 Y14.8326
G1 X5.0454 Y15.2892
G1 X4.9764 Y15.7548
G1 X4.9533 Y16.225
G1 X4.9764 Y16.6952
G1 X5.0454 Y17.1608
G1 X5.1598 Y17.6174
G1 X5.3184 Y18.0606
G1 X5.5197 Y18.4862
G1 X5.7617 Y18.8899
G1 X6.0421 Y19.268
G1 X6.3582 Y19.6168
G1 X6.707 Y19.9329
G1 X7.0851 Y20.2133
G1 X7.4888 Y20.4553
G1 X7.9144 Y20.6566
G1 X8.3576 Y20.8152
G1 X8.8142 Y20.9296
G1 X9.2798 Y20.9986
G1 X9.75 Y21.0217
G1 X10.2202 Y20.9986
G1 X10.6858 Y20.9296
G1 X11.1424 Y20.8152
G1 X11.5856 Y20.6566
G1 X12.0112 Y20.4553
G1 X12.4149 Y20.2133
G1 X12.793 Y19.9329
G1 X13.1418 Y19.6168
G1 X13.4579 Y19.268
G1 X13.7383 Y18.8899
G1 X13.9804 Y18.4862
G1 X14.1816 Y18.0606
G1 X14.3402 Y17.6174
G1 X14.4546 Y17.1608
G1 X14.5236 Y16.6952
G1 X14.5467 Y16.225
G1 X14.5236 Y15.7548
G1 X14.4546 Y15.2892
G1 X14.3402 Y14.8326
G1 X14.1816 Y14.3894
G1 X13.9804 Y13.9638
G1 X13.7383 Y13.5601
G1 X13.4579 Y13.182
G1 X13.1418 Y12.8332
G1 X12.793 Y12.5171
G1 X12.4149 Y12.2367
G1 X12.0112 Y11.9946
G1 X11.5856 Y11.7934
G1 X11.1424 Y11.6348
G1 X10.6858 Y11.5204
G1 X10.472 Y11.4887
G1 F100.0 X10.5894 Y10.6974
G1 F500.0 X10.2987 Y10.6542
G1 X9.75 Y10.6273
G1 X9.2013 Y10.6542
G1 X8.6579 Y10.7348
G1 X8.1251 Y10.8683
G1 X7.6079 Y11.0534
G1 X7.1113 Y11.2883
G1 X6.6401 Y11.5707
G1 X6.1989 Y11.8979
G1 X5.7918 Y12.2668
G1 X5.4229 Y12.6739
G1 X5.0957 Y13.1151
G1 X4.8133 Y13.5863
G1 X4.5784 Y14.0828
G1 X4.3933 Y14.6001
G1 X4.2599 Y15.1329
G1 X4.1792 Y15.6763
G1 X4.1523 Y16.225
G1 X4.1792 Y16.7737
G1 X4.2599 Y17.3171
G1 X4.3933 Y17.8499
G1 X4.5784 Y18.3672
G1 X4.8133 Y18.8637
G1 X5.0957 Y19.3349
G1 X5.4229 Y19.7761
G1 X5.7918 Y20.1832
G1 X6.1989 Y20.5521
G1 X6.6401 Y20.8793
G1 X7.1113 Y21.1617
G1 X7.6079 Y21.3966
G1 X8.1251 Y21.5817
G1 X8.6579 Y21.7151
G1 X9.2013 Y21.7958
G1 X9.75 Y21.8227
G1 X10.2987 Y21.7958
G1 X10.8421 Y21.7151
G1 X11.3749 Y21.5817
G1 X11.8921 Y21.3966
G1 X12.3887 Y21.1617
G1 X12.8599 Y20.8793
G1 X13.3011 Y20.5521
G1 X13.7082 Y20.1832
G1 X14.0771 Y19.7761
G1 X14.4043 Y19.3349
G1 X14.6867 Y18.8637
G1 X14.9216 Y18.3671
G1 X15.1067 Y17.8499
G1 X15.2402 Y17.3171
G1 X15.3208 Y16.7737
G1 X15.3477 Y16.225
G1 X15.3208 Y15.6763
G1 X15.2402 Y15.1329
G1 X15.1067 Y14.6001
G1 X14.9216 Y14.0829
G1 X14.6867 Y13.5863
G1 X14.4043 Y13.1151
G1 X14.0771 Y12.6739
G1 X13.7082 Y12.2668
G1 X13.3011 Y11.8979
G1 X12.8599 Y11.5707
G1 X12.3887 Y11.2883
G1 X11.8921 Y11.0534
G1 X11.3749 Y10.8683
G1 X10.8421 Y10.7348
G1 X10.5894 Y10.6974
G1 F100.0 X10.7068 Y9.906
G1 F500.0 X10.3772 Y9.8571
G1 X9.75 Y9.8263
G1 X9.1228 Y9.8571
G1 X8.5017 Y9.9493
G1 X7.8926 Y10.1019
G1 X7.3013 Y10.3134
G1 X6.7337 Y10.5819
G1 X6.1951 Y10.9047
G1 X5.6907 Y11.2788
G1 X5.2255 Y11.7005
G1 X4.8038 Y12.1657
G1 X4.4297 Y12.6701
G1 X4.1069 Y13.2087
G1 X3.8384 Y13.7763
G1 X3.6269 Y14.3676
G1 X3.4743 Y14.9767
G1 X3.3821 Y15.5978
G1 X3.3513 Y16.225
G1 X3.3821 Y16.8522
G1 X3.4743 Y17.4733
G1 X3.6269 Y18.0824
G1 X3.8384 Y18.6737
G1 X4.1069 Y19.2413
G1 X4.4297 Y19.7799
G1 X4.8038 Y20.2843
G1 X5.2255 Y20.7495
G1 X5.6907 Y21.1712
G1 X6.1951 Y21.5453
G1 X6.7337 Y21.8681
G1 X7.3013 Y22.1366
G1 X7.8926 Y22.3481
G1 X8.5017 Y22.5007
G1 X9.1228 Y22.5929
G1 X9.75 Y22.6237
G1 X10.3772 Y22.5929
G1 X10.9983 Y22.5007
G1 X11.6074 Y22.3481
G1 X12.1987 Y22.1366
G1 X12.7663 Y21.8681
G1 X13.3049 Y21.5453
G1 X13.8093 Y21.1712
G1 X14.2745 Y20.7495
G1 X14.6962 Y20.2843
G1 X15.0703 Y19.7799
G1 X15.3931 Y19.2413
G1 X15.6616 Y18.6737
G1 X15.8731 Y18.0824
G1 X16.0257 Y17.4733
G1 X16.1179 Y16.8522
G1 X16.1487 Y16.225
G1 X16.1179 Y15.5978
G1 X16.0257 Y14.9767
G1 X15.8731 Y14.3676
G1 X15.6616 Y13.7763
G1 X15.3931 Y13.2087
G1 X15.0703 Y12.6701
G1 X14.6962 Y12.1657
G1 X14.2745 Y11.7005
G1 X13.8093 Y11.2788
G1 X13.3049 Y10.9047
G1 X12.7663 Y10.5819
G1 X12.1987 Y10.3134
G1 X11.6074 Y10.1019
G1 X10.9983 Y9.9493
G1 X10.7068 Y9.906
G0 Z3.0
G0 X9.8264 Y15.8411
G1 F100.0 Z-0.9
G1 F500.0 X9.7884 Y15.8354 Z-0.9047
G1 X9.75 Y15.8336 Z-0.9094
G1 X9.7116 Y15.8354 Z-0.9141
G1 X9.6736 Y15.8411 Z-0.9188
G1 X9.6364 Y15.8504 Z-0.9234
G1 X9.6002 Y15.8634 Z-0.9281
G1 X9.5655 Y15.8798 Z-0.9328
G1 X9.5325 Y15.8995 Z-0.9375
G1 X9.5017 Y15.9224 Z-0.9422
G1 X9.4732 Y15.9482 Z-0.9469
G1 X9.4474 Y15.9767 Z-0.9516
G1 X9.4245 Y16.0075 Z-0.9563
G1 X9.4048 Y16.0405 Z-0.9609
G1 X9.3884 Y16.0752 Z-0.9656
G1 X9.3754 Y16.1114 Z-0.9703
G1 X9.3661 Y16.1486 Z-0.975
G1 X9.3604 Y16.1866 Z-0.9797
G1 X9.3586 Y16.225 Z-0.9844
G1 X9.3604 Y16.2634 Z-0.9891
G1 X9.3661 Y16.3014 Z-0.9937
G1 X9.3754 Y16.3386 Z-0.9984
G1 X9.3884 Y16.3748 Z-1.0031
G1 X9.4048 Y16.4095 Z-1.0078
G1 X9.4245 Y16.4425 Z-1.0125
G1 X9.4474 Y16.4733 Z-1.0172
G1 X9.4732 Y16.5018 Z-1.0219
G1 X9.5017 Y16.5276 Z-1.0266
G1 X9.5325 Y16.5505 Z-1.0312
G1 X9.5655 Y16.5702 Z-1.0359
G1 X9.6002 Y16.5866 Z-1.0406
G1 X9.6364 Y16.5996 Z-1.0453
G1 X9.6736 Y16.6089 Z-1.05
G1 X9.7116 Y16.6146 Z-1.0547
G1 X9.75 Y16.6164 Z-1.0594
G1 X9.7884 Y16.6146 Z-1.0641
G1 X9.8264 Y16.6089 Z-1.0687
G1 X9.8636 Y16.5996 Z-1.0734
G1 X9.8998 Y16.5866 Z-1.0781
G1 X9.9345 Y16.5702 Z-1.0828
G1 X9.9675 Y16.5505 Z-1.0875
G1 X9.9983 Y16.5276 Z-1.0922
G1 X10.0268 Y16.5018 Z-1.0969
G1 X10.0526 Y16.4733 Z-1.1016
G1 X10.0755 Y16.4425 Z-1.1063
G1 X10.0952 Y16.4095 Z-1.1109
G1 X10.1116 Y16.3748 Z-1.1156
G1 X10.1246 Y16.3386 Z-1.1203
G1 X10.1339 Y16.3014 Z-1.125
G1 X10.1396 Y16.2634 Z-1.1297
G1 X10.1414 Y16.225 Z-1.1344
G1 X10.1396 Y16.1866 Z-1.1391
G1 X10.1339 Y16.1486 Z-1.1437
G1 X10.1246 Y16.1114 Z-1.1484
G1 X10.1116 Y16.0752 Z-1.1531
G1 X10.0952 Y16.0405 Z-1.1578
G1 X10.0755 Y16.0075 Z-1.1625
G1 X10.0526 Y15.9767 Z-1.1672
G1 X10.0268 Y15.9482 Z-1.1719
G1 X9.9983 Y15.9224 Z-1.1766
G1 X9.9675 Y15.8995 Z-1.1813
G1 X9.9345 Y15.8798 Z-1.1859
G1 X9.8998 Y15.8634 Z-1.1906
G1 X9.8636 Y15.8504 Z-1.1953
G1 X9.8264 Y15.8411 Z-1.2
G1 F100.0 X9.8851 Y15.4454
G1 F500.0 X9.8276 Y15.4369
G1 X9.75 Y15.4331
G1 X9.6724 Y15.4369
G1 X9.5955 Y15.4483
G1 X9.5201 Y15.4672
G1 X9.4469 Y15.4934
G1 X9.3767 Y15.5266
G1 X9.31 Y15.5665
G1 X9.2476 Y15.6128
G1 X9.19 Y15.665
G1 X9.1378 Y15.7226
G1 X9.0915 Y15.785
G1 X9.0516 Y15.8517
G1 X9.0184 Y15.9219
G1 X8.9922 Y15.9951
G1 X8.9733 Y16.0705
G1 X8.9619 Y16.1474
G1 X8.9581 Y16.225
G1 X8.9619 Y16.3026
G1 X8.9733 Y16.3795
G1 X8.9922 Y16.4549
G1 X9.0184 Y16.5281
G1 X9.0516 Y16.5983
G1 X9.0915 Y16.665
G1 X9.1378 Y16.7274
G1 X9.19 Y16.785
G1 X9.2476 Y16.8372
G1 X9.31 Y16.8835
G1 X9.3767 Y16.9234
G1 X9.4469 Y16.9566
G1 X9.5201 Y16.9828
G1 X9.5955 Y17.0017
G1 X9.6724 Y17.0131
G1 X9.75 Y17.0169
G1 X9.8276 Y17.0131
G1 X9.9045 Y17.0017
G1 X9.9799 Y16.9828
G1 X10.0531 Y16.9566
G1 X10.1233 Y16.9234
G1 X10.19 Y16.8835
G1 X10.2524 Y16.8372
G1 X10.31 Y16.785
G1 X10.3622 Y16.7274
G1 X10.4085 Y16.665
G1 X10.4484 Y16.5983
G1 X10.4816 Y16.5281
G1 X10.5078 Y16.4549
G1 X10.5267 Y16.3795
G1 X10.5381 Y16.3026
G1 X10.5419 Y16.225
G1 X10.5381 Y16.1474
G1 X10.5267 Y16.0705
G1 X10.5078 Y15.9951
G1 X10.4816 Y15.9219
G1 X10.4484 Y15.8517
G1 X10.4085 Y15.785
G1 X10.3622 Y15.7226
G1 X10.31 Y15.665
G1 X10.2524 Y15.6128
G1 X10.19 Y15.5665
G1 X10.1233 Y15.5266
G1 X10.0531 Y15.4934
G1 X9.9799 Y15.4672
G1 X9.9045 Y15.4483
G1 X9.8851 Y15.4454
G1 F100.0 X10.0024 Y14.6541
G1 F500.0 X9.9061 Y14.6398
G1 X9.75 Y14.6321
G1 X9.5939 Y14.6398
G1 X9.4392 Y14.6627
G1 X9.2876 Y14.7007
G1 X9.1404 Y14.7534
G1 X8.9991 Y14.8202
G1 X8.865 Y14.9006
G1 X8.7395 Y14.9937
G1 X8.6237 Y15.0987
G1 X8.5187 Y15.2145
G1 X8.4256 Y15.34
G1 X8.3452 Y15.4741
G1 X8.2784 Y15.6154
G1 X8.2257 Y15.7626
G1 X8.1877 Y15.9143
G1 X8.1648 Y16.0689
G1 X8.1571 Y16.225
G1 X8.1648 Y16.3811
G1 X8.1877 Y16.5357
G1 X8.2257 Y16.6874
G1 X8.2784 Y16.8346
G1 X8.3452 Y16.9759
G1 X8.4256 Y17.11
G1 X8.5187 Y17.2355
G1 X8.6237 Y17.3513
G1 X8.7395 Y17.4563
G1 X8.865 Y17.5494
G1 X8.9991 Y17.6298
G1 X9.1404 Y17.6966
G1 X9.2876 Y17.7493
G1 X9.4392 Y17.7873
G1 X9.5939 Y17.8102
G1 X9.75 Y17.8179
G1 X9.9061 Y17.8102
G1 X10.0608 Y17.7873
G1 X10.2124 Y17.7493
G1 X10.3596 Y17.6966
G1 X10.5009 Y17.6298
G1 X10.635 Y17.5494
G1 X10.7605 Y17.4563
G1 X10.8763 Y17.3513
G1 X10.9813 Y17.2355
G1 X11.0744 Y17.11
G1 X11.1548 Y16.9759
G1 X11.2216 Y16.8346
G1 X11.2743 Y16.6874
G1 X11.3123 Y16.5358
G1 X11.3352 Y16.3811
G1 X11.3429 Y16.225
G1 X11.3352 Y16.0689
G1 X11.3123 Y15.9142
G1 X11.2743 Y15.7626
G1 X11.2216 Y15.6154
G1 X11.1548 Y15.4741
G1 X11.0744 Y15.34
G1 X10.9813 Y15.2145
G1 X10.8763 Y15.0987
G1 X10.7605 Y14.9937
G1 X10.635 Y14.9006
G1 X10.5009 Y14.8202
G1 X10.3596 Y14.7534
G1 X10.2124 Y14.7007
G1 X10.0608 Y14.6627
G1 X10.0024 Y14.6541
G1 F100.0 X10.1198 Y13.8627
G1 F500.0 X9.9846 Y13.8427
G1 X9.75 Y13.8312
G1 X9.5154 Y13.8427
G1 X9.283 Y13.8771
G1 X9.0551 Y13.9342
G1 X8.8339 Y14.0134
G1 X8.6215 Y14.1138
G1 X8.42 Y14.2346
G1 X8.2314 Y14.3745
G1 X8.0573 Y14.5323
G1 X7.8995 Y14.7064
G1 X7.7596 Y14.8951
G1 X7.6388 Y15.0965
G1 X7.5384 Y15.3089
G1 X7.4592 Y15.5301
G1 X7.4021 Y15.758
G1 X7.3677 Y15.9904
G1 X7.3562 Y16.225
G1 X7.3677 Y16.4596
G1 X7.4021 Y16.692
G1 X7.4592 Y16.9199
G1 X7.5384 Y17.1411
G1 X7.6388 Y17.3535
G1 X7.7596 Y17.5549
G1 X7.8995 Y17.7436
G1 X8.0573 Y17.9177
G1 X8.2314 Y18.0755
G1 X8.42 Y18.2154
G1 X8.6215 Y18.3362
G1 X8.8339 Y18.4366
G1 X9.0551 Y18.5158
G1 X9.283 Y18.5729
G1 X9.5154 Y18.6073
G1 X9.75 Y18.6188
G1 X9.9846 Y18.6073
G1 X10.217 Y18.5729
G1 X10.4449 Y18.5158
G1 X10.6661 Y18.4366
G1 X10.8785 Y18.3362
G1 X11.0799 Y18.2154
G1 X11.2686 Y18.0755
G1 X11.4427 Y17.9177
G1 X11.6005 Y17.7436
G1 X11.7404 Y17.5549
G1 X11.8612 Y17.3535
G1 X11.9616 Y17.1411
G1 X12.0408 Y16.9199
G1 X12.0979 Y16.692
G1 X12.1323 Y16.4596
G1 X12.1438 Y16.225
G1 X12.1323 Y15.9904
G1 X12.0979 Y15.758
G1 X12.0408 Y15.5301
G1 X11.9616 Y15.3089
G1 X11.8612 Y15.0965
G1 X11.7404 Y14.895
G1 X11.6005 Y14.7064
G1 X11.4427 Y14.5323
G1 X11.2686 Y14.3745
G1 X11.0799 Y14.2346
G1 X10.8785 Y14.1138
G1 X10.6661 Y14.0134
G1 X10.4449 Y13.9342
G1 X10.217 Y13.8771
G1 X10.1198 Y13.8627
G1 F100.0 X10.2372 Y13.0714
G1 F500.0 X10.0631 Y13.0456
G1 X9.75 Y13.0302
G1 X9.4369 Y13.0456
G1 X9.1267 Y13.0916
G1 X8.8226 Y13.1678
G1 X8.5274 Y13.2734
G1 X8.244 Y13.4074
G1 X7.9751 Y13.5686
G1 X7.7232 Y13.7554
G1 X7.4909 Y13.9659
G1 X7.2804 Y14.1982
G1 X7.0936 Y14.4501
G1 X6.9324 Y14.719
G1 X6.7984 Y15.0024
G1 X6.6928 Y15.2976
G1 X6.6166 Y15.6017
G1 X6.5706 Y15.9119
G1 X6.5552 Y16.225
G1 X6.5706 Y16.5381
G1 X6.6166 Y16.8483
G1 X6.6928 Y17.1524
G1 X6.7984 Y17.4476
G1 X6.9324 Y17.731
G1 X7.0936 Y17.9999
G1 X7.2804 Y18.2518
G1 X7.4909 Y18.4841
G1 X7.7232 Y18.6946
G1 X7.9751 Y18.8814
G1 X8.244 Y19.0426
G1 X8.5274 Y19.1766
G1 X8.8226 Y19.2822
G1 X9.1267 Y19.3584
G1 X9.4369 Y19.4044
G1 X9.75 Y19.4198
G1 X10.0631 Y19.4044
G1 X10.3733 Y19.3584
G1 X10.6774 Y19.2822
G1 X10.9726 Y19.1766
G1 X11.256 Y19.0426
G1 X11.5249 Y18.8814
G1 X11.7768 Y18.6946
G1 X12.0091 Y18.4841
G1 X12.2196 Y18.2518
G1 X12.4064 Y17.9999
G1 X12.5676 Y17.731
G1 X12.7016 Y17.4476
G1 X12.8072 Y17.1524
G1 X12.8834 Y16.8483
G1 X12.9294 Y16.5381
G1 X12.9448 Y16.225
G1 X12.9294 Y15.9119
G1 X12.8834 Y15.6017
G1 X12.8072 Y15.2976
G1 X12.7016 Y15.0024
G1 X12.5676 Y14.719
G1 X12.4064 Y14.4501
G1 X12.2196 Y14.1982
G1 X12.0091 Y13.9659
G1 X11.7768 Y13.7554
G1 X11.5249 Y13.5686
G1 X11.256 Y13.4074
G1 X10.9726 Y13.2734
G1 X10.6774 Y13.1678
G1 X10.3733 Y13.0916
G1 X10.2372 Y13.0714
G1 F100.0 X10.3546 Y12.28
G1 F500.0 X10.1417 Y12.2485
G1 X9.75 Y12.2292
G1 X9.3583 Y12.2485
G1 X8.9705 Y12.306
G1 X8.5901 Y12.4013
G1 X8.2209 Y12.5334
G1 X7.8664 Y12.701
G1 X7.5301 Y12.9026
G1 X7.2151 Y13.1362
G1 X6.9246 Y13.3996
G1 X6.6612 Y13.6901
G1 X6.4276 Y14.0051
G1 X6.226 Y14.3414
G1 X6.0584 Y14.6959
G1 X5.9263 Y15.0651
G1 X5.831 Y15.4455
G1 X5.7735 Y15.8333
G1 X5.7542 Y16.225
G1 X5.7735 Y16.6167
G1 X5.831 Y17.0045
G1 X5.9263 Y17.3849
G1 X6.0584 Y17.7541
G1 X6.226 Y18.1086
G1 X6.4276 Y18.4449
G1 X6.6612 Y18.7599
G1 X6.9246 Y19.0504
G1 X7.2151 Y19.3138
G1 X7.5301 Y19.5474
G1 X7.8664 Y19.749
G1 X8.2209 Y19.9166
G1 X8.5901 Y20.0487
G1 X8.9705 Y20.144
G1 X9.3583 Y20.2015
G1 X9.75 Y20.2208
G1 X10.1417 Y20.2015
G1 X10.5295 Y20.144
G1 X10.9099 Y20.0487
G1 X11.2791 Y19.9166
G1 X11.6336 Y19.749
G1 X11.9699 Y19.5474
G1 X12.2849 Y19.3138
G1 X12.5754 Y19.0504
G1 X12.8388 Y18.7599
G1 X13.0724 Y18.4449
G1 X13.274 Y18.1086
G1 X13.4416 Y17.7541
G1 X13.5737 Y17.3849
G1 X13.669 Y17.0045
G1 X13.7265 Y16.6167
G1 X13.7458 Y16.225
G1 X13.7265 Y15.8333
G1 X13.669 Y15.4455
G1 X13.5737 Y15.0651
G1 X13.4416 Y14.6959
G1 X13.274 Y14.3414
G1 X13.0724 Y14.0051
G1 X12.8388 Y13.6901
G1 X12.5754 Y13.3996
G1 X12.2849 Y13.1362
G1 X11.9699 Y12.9026
G1 X11.6336 Y12.701
G1 X11.2791 Y12.5334
G1 X10.9099 Y12.4013
G1 X10.5295 Y12.306
G1 X10.3546 Y12.28
G1 F100.0 X10.472 Y11.4887
G1 F500.0 X10.2202 Y11.4514
G1 X9.75 Y11.4283
G1 X9.2798 Y11.4514
G1 X8.8142 Y11.5204
G1 X8.3576 Y11.6348
G1 X7.9144 Y11.7934
G1 X7.4888 Y11.9946
G1 X7.0851 Y12.2367
G1 X6.707 Y12.5171
G1 X6.3582 Y12.8332
G1 X6.0421 Y13.182
G1 X5.7617 Y13.5601
G1 X5.5197 Y13.9638
G1 X5.3184 Y14.3894
G1 X5.1598 Y14.8326
G1 X5.0454 Y15.2892
G1 X4.9764 Y15.7548
G1 X4.9533 Y16.225
G1 X4.9764 Y16.6952
G1 X5.0454 Y17.1608
G1 X5.1598 Y17.6174
G1 X5.3184 Y18.0606
G1 X5.5197 Y18.4862
G1 X5.7617 Y18.8899
G1 X6.0421 Y19.268
G1 X6.3582 Y19.6168
G1 X6.707 Y19.9329
G1 X7.0851 Y20.2133
G1 X7.4888 Y20.4553
G1 X7.9144 Y20.6566
G1 X8.3576 Y20.8152
G1 X8.8142 Y20.9296
G1 X9.2798 Y20.9986
G1 X9.75 Y21.0217
G1 X10.2202 Y20.9986
G1 X10.6858 Y20.9296
G1 X11.1424 Y20.8152
G1 X11.5856 Y20.6566
G1 X12.0112 Y20.4553
G1 X12.4149 Y20.2133
G1 X12.793 Y19.9329
G1 X13.1418 Y19.6168
G1 X13.4579 Y19.268
G1 X13.7383 Y18.8899
G1 X13.9804 Y18.4862
G1 X14.1816 Y18.0606
G1 X14.3402 Y17.6174
G1 X14.4546 Y17.1608
G1 X14.5236 Y16.6952
G1 X14.5467 Y16.225
G1 X14.5236 Y15.7548
G1 X14.4546 Y15.2892
G1 X14.3402 Y14.8326
G1 X14.1816 Y14.3894
G1 X13.9804 Y13.9638
G1 X13.7383 Y13.5601
G1 X13.4579 Y13.182
G1 X13.1418 Y12.8332
G1 X12.793 Y12.5171
G1 X12.4149 Y12.2367
G1 X12.0112 Y11.9946
G1 X11.5856 Y11.7934
G1 X11.1424 Y11.6348
G1 X10.6858 Y11.5204
G1 X10.472 Y11.4887
G1 F100.0 X10.5894 Y10.6974
G1 F500.0 X10.2987 Y10.6542
G1 X9.75 Y10.6273
G1 X9.2013 Y10.6542
G1 X8.6579 Y10.7348
G1 X8.1251 Y10.8683
G1 X7.6079 Y11.0534
G1 X7.1113 Y11.2883
G1 X6.6401 Y11.5707
G1 X6.1989 Y11.8979
G1 X5.7918 Y12.2668
G1 X5.4229 Y12.6739
G1 X5.0957 Y13.1151
G1 X4.8133 Y13.5863
G1 X4.5784 Y14.0828
G1 X4.3933 Y14.6001
G1 X4.2599 Y15.1329
G1 X4.1792 Y15.6763
G1 X4.1523 Y16.225
G1 X4.1792 Y16.7737
G1 X4.2599 Y17.3171
G1 X4.3933 Y17.8499
G1 X4.5784 Y18.3672
G1 X4.8133 Y18.8637
G1 X5.0957 Y19.3349
G1 X5.4229 Y19.7761
G1 X5.7918 Y20.1832
G1 X6.1989 Y20.5521
G1 X6.6401 Y20.8793
G1 X7.1113 Y21.1617
G1 X7.6079 Y21.3966
G1 X8.1251 Y21.5817
G1 X8.6579 Y21.7151
G1 X9.2013 Y21.7958
G1 X9.75 Y21.8227
G1 X10.2987 Y21.7958
G1 X10.8421 Y21.7151
G1 X11.3749 Y21.5817
G1 X11.8921 Y21.3966
G1 X12.3887 Y21.1617
G1 X12.8599 Y20.8793
G1 X13.3011 Y20.5521
G1 X13.7082 Y20.1832
G1 X14.0771 Y19.7761
G1 X14.4043 Y19.3349
G1 X14.6867 Y18.8637
G1 X14.9216 Y18.3671
G1 X15.1067 Y17.8499
G1 X15.2402 Y17.3171
G1 X15.3208 Y16.7737
G1 X15.3477 Y16.225
G1 X15.3208 Y15.6763
G1 X15.2402 Y15.1329
G1 X15.1067 Y14.6001
G1 X14.9216 Y14.0829
G1 X14.6867 Y13.5863
G1 X14.4043 Y13.1151
G1 X14.0771 Y12.6739
G1 X13.7082 Y12.2668
G1 X13.3011 Y11.8979
G1 X12.8599 Y11.5707
G1 X12.3887 Y11.2883
G1 X11.8921 Y11.0534
G1 X11.3749 Y10.8683
G1 X10.8421 Y10.7348
G1 X10.5894 Y10.6974
G1 F100.0 X10.7068 Y9.906
G1 F500.0 X10.3772 Y9.8571
G1 X9.75 Y9.8263
G1 X9.1228 Y9.8571
G1 X8.5017 Y9.9493
G1 X7.8926 Y10.1019
G1 X7.3013 Y10.3134
G1 X6.7337 Y10.5819
G1 X6.1951 Y10.9047
G1 X5.6907 Y11.2788
G1 X5.2255 Y11.7005
G1 X4.8038 Y12.1657
G1 X4.4297 Y12.6701
G1 X4.1069 Y13.2087
G1 X3.8384 Y13.7763
G1 X3.6269 Y14.3676
G1 X3.4743 Y14.9767
G1 X3.3821 Y15.5978
G1 X3.3513 Y16.225
G1 X3.3821 Y16.8522
G1 X3.4743 Y17.4733
G1 X3.6269 Y18.0824
G1 X3.8384 Y18.6737
G1 X4.1069 Y19.2413
G1 X4.4297 Y19.7799
G1 X4.8038 Y20.2843
G1 X5.2255 Y20.7495
G1 X5.6907 Y21.1712
G1 X6.1951 Y21.5453
G1 X6.7337 Y21.8681
G1 X7.3013 Y22.1366
G1 X7.8926 Y22.3481
G1 X8.5017 Y22.5007
G1 X9.1228 Y22.5929
G1 X9.75 Y22.6237
G1 X10.3772 Y22.5929
G1 X10.9983 Y22.5007
G1 X11.6074 Y22.3481
G1 X12.1987 Y22.1366
G1 X12.7663 Y21.8681
G1 X13.3049 Y21.5453
G1 X13.8093 Y21.1712
G1 X14.2745 Y20.7495
G1 X14.6962 Y20.2843
G1 X15.0703 Y19.7799
G1 X15.3931 Y19.2413
G1 X15.6616 Y18.6737
G1 X15.8731 Y18.0824
G1 X16.0257 Y17.4733
G1 X16.1179 Y16.8522
G1 X16.1487 Y16.225
G1 X16.1179 Y15.5978
G1 X16.0257 Y14.9767
G1 X15.8731 Y14.3676
G1 X15.6616 Y13.7763
G1 X15.3931 Y13.2087
G1 X15.0703 Y12.6701
G1 X14.6962 Y12.1657
G1 X14.2745 Y11.7005
G1 X13.8093 Y11.2788
G1 X13.3049 Y10.9047
G1 X12.7663 Y10.5819
G1 X12.1987 Y10.3134
G1 X11.6074 Y10.1019
G1 X10.9983 Y9.9493
G1 X10.7068 Y9.906
G0 Z3.0
G0 X9.8264 Y15.8411
G0 Z-0.2
G1 F100.0 Z-1.2
G1 F500.0 X9.7884 Y15.8354 Z-1.2047
G1 X9.75 Y15.8336 Z-1.2094
G1 X9.7116 Y15.8354 Z-1.2141
G1 X9.6736 Y15.8411 Z-1.2188
G1 X9.6364 Y15.8504 Z-1.2234
G1 X9.6002 Y15.8634 Z-1.2281
G1 X9.5655 Y15.8798 Z-1.2328
G1 X9.5325 Y15.8995 Z-1.2375
G1 X9.5017 Y15.9224 Z-1.2422
G1 X9.4732 Y15.9482 Z-1.2469
G1 X9.4474 Y15.9767 Z-1.2516
G1 X9.4245 Y16.0075 Z-1.2563
G1 X9.4048 Y16.0405 Z-1.2609
G1 X9.3884 Y16.0752 Z-1.2656
G1 X9.3754 Y16.1114 Z-1.2703
G1 X9.3661 Y16.1486 Z-1.275
G1 X9.3604 Y16.1866 Z-1.2797
G1 X9.3586 Y16.225 Z-1.2844
G1 X9.3604 Y16.2634 Z-1.2891
G1 X9.3661 Y16.3014 Z-1.2937
G1 X9.3754 Y16.3386 Z-1.2984
G1 X9.3884 Y16.3748 Z-1.3031
G1 X9.4048 Y16.4095 Z-1.3078
G1 X9.4245 Y16.4425 Z-1.3125
G1 X9.4474 Y16.4733 Z-1.3172
G1 X9.4732 Y16.5018 Z-1.3219
G1 X9.5017 Y16.5276 Z-1.3266
G1 X9.5325 Y16.5505 Z-1.3312
G1 X9.5655 Y16.5702 Z-1.3359
G1 X9.6002 Y16.5866 Z-1.3406
G1 X9.6364 Y16.5996 Z-1.3453
G1 X9.6736 Y16.6089 Z-1.35
G1 X9.7116 Y16.6146 Z-1.3547
G1 X9.75 Y16.6164 Z-1.3594
G1 X9.7884 Y16.6146 Z-1.3641
G1 X9.8264 Y16.6089 Z-1.3687
G1 X9.8636 Y16.5996 Z-1.3734
G1 X9.8998 Y16.5866 Z-1.3781
G1 X9.9345 Y16.5702 Z-1.3828
G1 X9.9675 Y16.5505 Z-1.3875
G1 X9.9983 Y16.5276 Z-1.3922
G1 X10.0268 Y16.5018 Z-1.3969
G1 X10.0526 Y16.4733 Z-1.4016
G1 X10.0755 Y16.4425 Z-1.4063
G1 X10.0952 Y16.4095 Z-1.4109
G1 X10.1116 Y16.3748 Z-1.4156
G1 X10.1246 Y16.3386 Z-1.4203
G1 X10.1339 Y16.3014 Z-1.425
G1 X10.1396 Y16.2634 Z-1.4297
G1 X10.1414 Y16.225 Z-1.4344
G1 X10.1396 Y16.1866 Z-1.4391
G1 X10.1339 Y16.1486 Z-1.4437
G1 X10.1246 Y16.1114 Z-1.4484
G1 X10.1116 Y16.0752 Z-1.4531
G1 X10.0952 Y16.0405 Z-1.4578
G1 X10.0755 Y16.0075 Z-1.4625
G1 X10.0526 Y15.9767 Z-1.4672
G1 X10.0268 Y15.9482 Z-1.4719
G1 X9.9983 Y15.9224 Z-1.4766
G1 X9.9675 Y15.8995 Z-1.4813
G1 X9.9345 Y15.8798 Z-1.4859
G1 X9.8998 Y15.8634 Z-1.4906
G1 X9.8636 Y15.8504 Z-1.4953
G1 X9.8264 Y15.8411 Z-1.5
G1 F100.0 X9.8851 Y15.4454
G1 F500.0 X9.8276 Y15.4369
G1 X9.75 Y15.4331
G1 X9.6724 Y15.4369
G1 X9.5955 Y15.4483
G1 X9.5201 Y15.4672
G1 X9.4469 Y15.4934
G1 X9.3767 Y15.5266
G1 X9.31 Y15.5665
G1 X9.2476 Y15.6128
G1 X9.19 Y15.665
G1 X9.1378 Y15.7226
G1 X9.0915 Y15.785
G1 X9.0516 Y15.8517
G1 X9.0184 Y15.9219
G1 X8.9922 Y15.9951
G1 X8.9733 Y16.0705
G1 X8.9619 Y16.1474
G1 X8.9581 Y16.225
G1 X8.9619 Y16.3026
G1 X8.9733 Y16.3795
G1 X8.9922 Y16.4549
G1 X9.0184 Y16.5281
G1 X9.0516 Y16.5983
G1 X9.0915 Y16.665
G1 X9.1378 Y16.7274
G1 X9.19 Y16.785
G1 X9.2476 Y16.8372
G1 X9.31 Y16.8835
G1 X9.3767 Y16.9234
G1 X9.4469 Y16.9566
G1 X9.5201 Y16.9828
G1 X9.5955 Y17.0017
G1 X9.6724 Y17.0131
G1 X9.75 Y17.0169
G1 X9.8276 Y17.0131
G1 X9.9045 Y17.0017
G1 X9.9799 Y16.9828
G1 X10.0531 Y16.9566
G1 X10.1233 Y16.9234
G1 X10.19 Y16.8835
G1 X10.2524 Y16.8372
G1 X10.31 Y16.785
G1 X10.3622 Y16.7274
G1 X10.4085 Y16.665
G1 X10.4484 Y16.5983
G1 X10.4816 Y16.5281
G1 X10.5078 Y16.4549
G1 X10.5267 Y16.3795
G1 X10.5381 Y16.3026
G1 X10.5419 Y16.225
G1 X10.5381 Y16.1474
G1 X10.5267 Y16.0705
G1 X10.5078 Y15.9951
G1 X10.4816 Y15.9219
G1 X10.4484 Y15.8517
G1 X10.4085 Y15.785
G1 X10.3622 Y15.7226
G1 X10.31 Y15.665
G1 X10.2524 Y15.6128
G1 X10.19 Y15.5665
G1 X10.1233 Y15.5266
G1 X10.0531 Y15.4934
G1 X9.9799 Y15.4672
G1 X9.9045 Y15.4483
G1 X9.8851 Y15.4454
G1 F100.0 X10.0024 Y14.6541
G1 F500.0 X9.9061 Y14.6398
G1 X9.75 Y14.6321
G1 X9.5939 Y14.6398
G1 X9.4392 Y14.6627
G1 X9.2876 Y14.7007
G1 X9.1404 Y14.7534
G1 X8.9991 Y14.8202
G1 X8.865 Y14.9006
G1 X8.7395 Y14.9937
G1 X8.6237 Y15.0987
G1 X8.5187 Y15.2145
G1 X8.4256 Y15.34
G1 X8.3452 Y15.4741
G1 X8.2784 Y15.6154
G1 X8.2257 Y15.7626
G1 X8.1877 Y15.9143
G1 X8.1648 Y16.0689
G1 X8.1571 Y16.225
G1 X8.1648 Y16.3811
G1 X8.1877 Y16.5357
G1 X8.2257 Y16.6874
G1 X8.2784 Y16.8346
G1 X8.3452 Y16.9759
G1 X8.4256 Y17.11
G1 X8.5187 Y17.2355
G1 X8.6237 Y17.3513
G1 X8.7395 Y17.4563
G1 X8.865 Y17.5494
G1 X8.9991 Y17.6298
G1 X9.1404 Y17.6966
G1 X9.2876 Y17.7493
G1 X9.4392 Y17.7873
G1 X9.5939 Y17.8102
G1 X9.75 Y17.8179
G1 X9.9061 Y17.8102
G1 X10.0608 Y17.7873
G1 X10.2124 Y17.7493
G1 X10.3596 Y17.6966
G1 X10.5009 Y17.6298
G1 X10.635 Y17.5494
G1 X10.7605 Y17.4563
G1 X10.8763 Y17.3513
G1 X10.9813 Y17.2355
G1 X11.0744 Y17.11
G1 X11.1548 Y16.9759
G1 X11.2216 Y16.8346
G1 X11.2743 Y16.6874
G1 X11.3123 Y16.5358
G1 X11.3352 Y16.3811
G1 X11.3429 Y16.225
G1 X11.3352 Y16.0689
G1 X11.3123 Y15.9142
G1 X11.2743 Y15.7626
G1 X11.2216 Y15.6154
G1 X11.1548 Y15.4741
G1 X11.0744 Y15.34
G1 X10.9813 Y15.2145
G1 X10.8763 Y15.0987
G1 X10.7605 Y14.9937
G1 X10.635 Y14.9006
G1 X10.5009 Y14.8202
G1 X10.3596 Y14.7534
G1 X10.2124 Y14.7007
G1 X10.0608 Y14.6627
G1 X10.0024 Y14.6541
G1 F100.0 X10.1198 Y13.8627
G1 F500.0 X9.9846 Y13.8427
G1 X9.75 Y13.8312
G1 X9.5154 Y13.8427
G1 X9.283 Y13.8771
G1 X9.0551 Y13.9342
G1 X8.8339 Y14.0134
G1 X8.6215 Y14.1138
G1 X8.42 Y14.2346
G1 X8.2314 Y14.3745
G1 X8.0573 Y14.5323
G1 X7.8995 Y14.7064
G1 X7.7596 Y14.8951
G1 X7.6388 Y15.0965
G1 X7.5384 Y15.3089
G1 X7.4592 Y15.5301
G1 X7.4021 Y15.758
G1 X7.3677 Y15.9904
G1 X7.3562 Y16.225
G1 X7.3677 Y16.4596
G1 X7.4021 Y16.692
G1 X7.4592 Y16.9199
G1 X7.5384 Y17.1411
G1 X7.6388 Y17.3535
G1 X7.7596 Y17.5549
G1 X7.8995 Y17.7436
G1 X8.0573 Y17.9177
G1 X8.2314 Y18.0755
G1 X8.42 Y18.2154
G1 X8.6215 Y18.3362
G1 X8.8339 Y18.4366
G1 X9.0551 Y18.5158
G1 X9.283 Y18.5729
G1 X9.5154 Y18.6073
G1 X9.75 Y18.6188
G1 X9.9846 Y18.6073
G1 X10.217 Y18.5729
G1 X10.4449 Y18.5158
G1 X10.6661 Y18.4366
G1 X10.8785 Y18.3362
G1 X11.0799 Y18.2154
G1 X11.2686 Y18.0755
G1 X11.4427 Y17.9177
G1 X11.6005 Y17.7436
G1 X11.7404 Y17.5549
G1 X11.8612 Y17.3535
G1 X11.9616 Y17.1411
G1 X12.0408 Y16.9199
G1 X12.0979 Y16.692
G1 X12.1323 Y16.4596
G1 X12.1438 Y16.225
G1 X12.1323 Y15.9904
G1 X12.0979 Y15.758
G1 X12.0408 Y15.5301
G1 X11.9616 Y15.3089
G1 X11.8612 Y15.0965
G1 X11.7404 Y14.895
G1 X11.6005 Y14.7064
G1 X11.4427 Y14.5323
G1 X11.2686 Y14.3745
G1 X11.0799 Y14.2346
G1 X10.8785 Y14.1138
G1 X10.6661 Y14.0134
G1 X10.4449 Y13.9342
G1 X10.217 Y13.8771
G1 X10.1198 Y13.8627
G1 F100.0 X10.2372 Y13.0714
G1 F500.0 X10.0631 Y13.0456
G1 X9.75 Y13.0302
G1 X9.4369 Y13.0456
G1 X9.1267 Y13.0916
G1 X8.8226 Y13.1678
G1 X8.5274 Y13.2734
G1 X8.244 Y13.4074
G1 X7.9751 Y13.5686
G1 X7.7232 Y13.7554
G1 X7.4909 Y13.9659
G1 X7.2804 Y14.1982
G1 X7.0936 Y14.4501
G1 X6.9324 Y14.719
G1 X6.7984 Y15.0024
G1 X6.6928 Y15.2976
G1 X6.6166 Y15.6017
G1 X6.5706 Y15.9119
G1 X6.5552 Y16.225
G1 X6.5706 Y16.5381
G1 X6.6166 Y16.8483
G1 X6.6928 Y17.1524
G1 X6.7984 Y17.4476
G1 X6.9324 Y17.731
G1 X7.0936 Y17.9999
G1 X7.2804 Y18.2518
G1 X7.4909 Y18.4841
G1 X7.7232 Y18.6946
G1 X7.9751 Y18.8814
G1 X8.244 Y19.0426
G1 X8.5274 Y19.1766
G1 X8.8226 Y19.2822
G1 X9.1267 Y19.3584
G1 X9.4369 Y19.4044
G1 X9.75 Y19.4198
G1 X10.0631 Y19.4044
G1 X10.3733 Y19.3584
G1 X10.6774 Y19.2822
G1 X10.9726 Y19.1766
G1 X11.256 Y19.0426
G1 X11.5249 Y18.8814
G1 X11.7768 Y18.6946
G1 X12.0091 Y18.4841
G1 X12.2196 Y18.2518
G1 X12.4064 Y17.9999
G1 X12.5676 Y17.731
G1 X12.7016 Y17.4476
G1 X12.8072 Y17.1524
G1 X12.8834 Y16.8483
G1 X12.9294 Y16.5381
G1 X12.9448 Y16.225
G1 X12.9294 Y15.9119
G1 X12.8834 Y15.6017
G1 X12.8072 Y15.2976
G1 X12.7016 Y15.0024
G1 X12.5676 Y14.719
G1 X12.4064 Y14.4501
G1 X12.2196 Y14.1982
G1 X12.0091 Y13.9659
G1 X11.7768 Y13.7554
G1 X11.5249 Y13.5686
G1 X11.256 Y13.4074
G1 X10.9726 Y13.2734
G1 X10.6774 Y13.1678
G1 X10.3733 Y13.0916
G1 X10.2372 Y13.0714
G1 F100.0 X10.3546 Y12.28
G1 F500.0 X10.1417 Y12.2485
G1 X9.75 Y12.2292
G1 X9.3583 Y12.2485
G1 X8.9705 Y12.306
G1 X8.5901 Y12.4013
G1 X8.2209 Y12.5334
G1 X7.8664 Y12.701
G1 X7.5301 Y12.9026
G1 X7.2151 Y13.1362
G1 X6.9246 Y13.3996
G1 X6.6612 Y13.6901
G1 X6.4276 Y14.0051
G1 X6.226 Y14.3414
G1 X6.0584 Y14.6959
G1 X5.9263 Y15.0651
G1 X5.831 Y15.4455
G1 X5.7735 Y15.8333
G1 X5.7542 Y16.225
G1 X5.7735 Y16.6167
G1 X5.831 Y17.0045
G1 X5.9263 Y17.3849
G1 X6.0584 Y17.7541
G1 X6.226 Y18.1086
G1 X6.4276 Y18.4449
G1 X6.6612 Y18.7599
G1 X6.9246 Y19.0504
G1 X7.2151 Y19.3138
G1 X7.5301 Y19.5474
G1 X7.8664 Y19.749
G1 X8.2209 Y19.9166
G1 X8.5901 Y20.0487
G1 X8.9705 Y20.144
G1 X9.3583 Y20.2015
G1 X9.75 Y20.2208
G1 X10.1417 Y20.2015
G1 X10.5295 Y20.144
G1 X10.9099 Y20.0487
G1 X11.2791 Y19.9166
G1 X11.6336 Y19.749
G1 X11.9699 Y19.5474
G1 X12.2849 Y19.3138
G1 X12.5754 Y19.0504
G1 X12.8388 Y18.7599
G1 X13.0724 Y18.4449
G1 X13.274 Y18.1086
G1 X13.4416 Y17.7541
G1 X13.5737 Y17.3849
G1 X13.669 Y17.0045
G1 X13.7265 Y16.6167
G1 X13.7458 Y16.225
G1 X13.7265 Y15.8333
G1 X13.669 Y15.4455
G1 X13.5737 Y15.0651
G1 X13.4416 Y14.6959
G1 X13.274 Y14.3414
G1 X13.0724 Y14.0051
G1 X12.8388 Y13.6901
G1 X12.5754 Y13.3996
G1 X12.2849 Y13.1362
G1 X11.9699 Y12.9026
G1 X11.6336 Y12.701
G1 X11.2791 Y12.5334
G1 X10.9099 Y12.4013
G1 X10.5295 Y12.306
G1 X10.3546 Y12.28
G1 F100.0 X10.472 Y11.4887
G1 F500.0 X10.2202 Y11.4514
G1 X9.75 Y11.4283
G1 X9.2798 Y11.4514
G1 X8.8142 Y11.5204
G1 X8.3576 Y11.6348
G1 X7.9144 Y11.7934
G1 X7.4888 Y11.9946
G1 X7.0851 Y12.2367
G1 X6.707 Y12.5171
G1 X6.3582 Y12.8332
G1 X6.0421 Y13.182
G1 X5.7617 Y13.5601
G1 X5.5197 Y13.9638
G1 X5.3184 Y14.3894
G1 X5.1598 Y14.8326
G1 X5.0454 Y15.2892
G1 X4.9764 Y15.7548
G1 X4.9533 Y16.225
G1 X4.9764 Y16.6952
G1 X5.0454 Y17.1608
G1 X5.1598 Y17.6174
G1 X5.3184 Y18.0606
G1 X5.5197 Y18.4862
G1 X5.7617 Y18.8899
G1 X6.0421 Y19.268
G1 X6.3582 Y19.6168
G1 X6.707 Y19.9329
G1 X7.0851 Y20.2133
G1 X7.4888 Y20.4553
G1 X7.9144 Y20.6566
G1 X8.3576 Y20.8152
G1 X8.8142 Y20.9296
G1 X9.2798 Y20.9986
G1 X9.75 Y21.0217
G1 X10.2202 Y20.9986
G1 X10.6858 Y20.9296
G1 X11.1424 Y20.8152
G1 X11.5856 Y20.6566
G1 X12.0112 Y20.4553
G1 X12.4149 Y20.2133
G1 X12.793 Y19.9329
G1 X13.1418 Y19.6168
G1 X13.4579 Y19.268
G1 X13.7383 Y18.8899
G1 X13.9804 Y18.4862
G1 X14.1816 Y18.0606
G1 X14.3402 Y17.6174
G1 X14.4546 Y17.1608
G1 X14.5236 Y16.6952
G1 X14.5467 Y16.225
G1 X14.5236 Y15.7548
G1 X14.4546 Y15.2892
G1 X14.3402 Y14.8326
G1 X14.1816 Y14.3894
G1 X13.9804 Y13.9638
G1 X13.7383 Y13.5601
G1 X13.4579 Y13.182
G1 X13.1418 Y12.8332
G1 X12.793 Y12.5171
G1 X12.4149 Y12.2367
G1 X12.0112 Y11.9946
G1 X11.5856 Y11.7934
G1 X11.1424 Y11.6348
G1 X10.6858 Y11.5204
G1 X10.472 Y11.4887
G1 F100.0 X10.5894 Y10.6974
G1 F500.0 X10.2987 Y10.6542
G1 X9.75 Y10.6273
G1 X9.2013 Y10.6542
G1 X8.6579 Y10.7348
G1 X8.1251 Y10.8683
G1 X7.6079 Y11.0534
G1 X7.1113 Y11.2883
G1 X6.6401 Y11.5707
G1 X6.1989 Y11.8979
G1 X5.7918 Y12.2668
G1 X5.4229 Y12.6739
G1 X5.0957 Y13.1151
G1 X4.8133 Y13.5863
G1 X4.5784 Y14.0828
G1 X4.3933 Y14.6001
G1 X4.2599 Y15.1329
G1 X4.1792 Y15.6763
G1 X4.1523 Y16.225
G1 X4.1792 Y16.7737
G1 X4.2599 Y17.3171
G1 X4.3933 Y17.8499
G1 X4.5784 Y18.3672
G1 X4.8133 Y18.8637
G1 X5.0957 Y19.3349
G1 X5.4229 Y19.7761
G1 X5.7918 Y20.1832
G1 X6.1989 Y20.5521
G1 X6.6401 Y20.8793
G1 X7.1113 Y21.1617
G1 X7.6079 Y21.3966
G1 X8.1251 Y21.5817
G1 X8.6579 Y21.7151
G1 X9.2013 Y21.7958
G1 X9.75 Y21.8227
G1 X10.2987 Y21.7958
G1 X10.8421 Y21.7151
G1 X11.3749 Y21.5817
G1 X11.8921 Y21.3966
G1 X12.3887 Y21.1617
G1 X12.8599 Y20.8793
G1 X13.3011 Y20.5521
G1 X13.7082 Y20.1832
G1 X14.0771 Y19.7761
G1 X14.4043 Y19.3349
G1 X14.6867 Y18.8637
G1 X14.9216 Y18.3671
G1 X15.1067 Y17.8499
G1 X15.2402 Y17.3171
G1 X15.3208 Y16.7737
G1 X15.3477 Y16.225
G1 X15.3208 Y15.6763
G1 X15.2402 Y15.1329
G1 X15.1067 Y14.6001
G1 X14.9216 Y14.0829
G1 X14.6867 Y13.5863
G1 X14.4043 Y13.1151
G1 X14.0771 Y12.6739
G1 X13.7082 Y12.2668
G1 X13.3011 Y11.8979
G1 X12.8599 Y11.5707
G1 X12.3887 Y11.2883
G1 X11.8921 Y11.0534
G1 X11.3749 Y10.8683
G1 X10.8421 Y10.7348
G1 X10.5894 Y10.6974
G1 F100.0 X10.7068 Y9.906
G1 F500.0 X10.3772 Y9.8571
G1 X9.75 Y9.8263
G1 X9.1228 Y9.8571
G1 X8.5017 Y9.9493
G1 X7.8926 Y10.1019
G1 X7.3013 Y10.3134
G1 X6.7337 Y10.5819
G1 X6.1951 Y10.9047
G1 X5.6907 Y11.2788
G1 X5.2255 Y11.7005
G1 X4.8038 Y12.1657
G1 X4.4297 Y12.6701
G1 X4.1069 Y13.2087
G1 X3.8384 Y13.7763
G1 X3.6269 Y14.3676
G1 X3.4743 Y14.9767
G1 X3.3821 Y15.5978
G1 X3.3513 Y16.225
G1 X3.3821 Y16.8522
G1 X3.4743 Y17.4733
G1 X3.6269 Y18.0824
G1 X3.8384 Y18.6737
G1 X4.1069 Y19.2413
G1 X4.4297 Y19.7799
G1 X4.8038 Y20.2843
G1 X5.2255 Y20.7495
G1 X5.6907 Y21.1712
G1 X6.1951 Y21.5453
G1 X6.7337 Y21.8681
G1 X7.3013 Y22.1366
G1 X7.8926 Y22.3481
G1 X8.5017 Y22.5007
G1 X9.1228 Y22.5929
G1 X9.75 Y22.6237
G1 X10.3772 Y22.5929
G1 X10.9983 Y22.5007
G1 X11.6074 Y22.3481
G1 X12.1987 Y22.1366
G1 X12.7663 Y21.8681
G1 X13.3049 Y21.5453
G1 X13.8093 Y21.1712
G1 X14.2745 Y20.7495
G1 X14.6962 Y20.2843
G1 X15.0703 Y19.7799
G1 X15.3931 Y19.2413
G1 X15.6616 Y18.6737
G1 X15.8731 Y18.0824
G1 X16.0257 Y17.4733
G1 X16.1179 Y16.8522
G1 X16.1487 Y16.225
G1 X16.1179 Y15.5978
G1 X16.0257 Y14.9767
G1 X15.8731 Y14.3676
G1 X15.6616 Y13.7763
G1 X15.3931 Y13.2087
G1 X15.0703 Y12.6701
G1 X14.6962 Y12.1657
G1 X14.2745 Y11.7005
G1 X13.8093 Y11.2788
G1 X13.3049 Y10.9047
G1 X12.7663 Y10.5819
G1 X12.1987 Y10.3134
G1 X11.6074 Y10.1019
G1 X10.9983 Y9.9493
G1 X10.7068 Y9.906
G0 Z3.0
G0 X9.8264 Y15.8411
G0 Z-0.5
G1 F100.0 Z-1.5
G1 F500.0 X9.7884 Y15.8354 Z-1.5047
G1 X9.75 Y15.8336 Z-1.5094
G1 X9.7116 Y15.8354 Z-1.5141
G1 X9.6736 Y15.8411 Z-1.5188
G1 X9.6364 Y15.8504 Z-1.5234
G1 X9.6002 Y15.8634 Z-1.5281
G1 X9.5655 Y15.8798 Z-1.5328
G1 X9.5325 Y15.8995 Z-1.5375
G1 X9.5017 Y15.9224 Z-1.5422
G1 X9.4732 Y15.9482 Z-1.5469
G1 X9.4474 Y15.9767 Z-1.5516
G1 X9.4245 Y16.0075 Z-1.5563
G1 X9.4048 Y16.0405 Z-1.5609
G1 X9.3884 Y16.0752 Z-1.5656
G1 X9.3754 Y16.1114 Z-1.5703
G1 X9.3661 Y16.1486 Z-1.575
G1 X9.3604 Y16.1866 Z-1.5797
G1 X9.3586 Y16.225 Z-1.5844
G1 X9.3604 Y16.2634 Z-1.5891
G1 X9.3661 Y16.3014 Z-1.5937
G1 X9.3754 Y16.3386 Z-1.5984
G1 X9.3884 Y16.3748 Z-1.6031
G1 X9.4048 Y16.4095 Z-1.6078
G1 X9.4245 Y16.4425 Z-1.6125
G1 X9.4474 Y16.4733 Z-1.6172
G1 X9.4732 Y16.5018 Z-1.6219
G1 X9.5017 Y16.5276 Z-1.6266
G1 X9.5325 Y16.5505 Z-1.6312
G1 X9.5655 Y16.5702 Z-1.6359
G1 X9.6002 Y16.5866 Z-1.6406
G1 X9.6364 Y16.5996 Z-1.6453
G1 X9.6736 Y16.6089 Z-1.65
G1 X9.7116 Y16.6146 Z-1.6547
G1 X9.75 Y16.6164 Z-1.6594
G1 X9.7884 Y16.6146 Z-1.6641
G1 X9.8264 Y16.6089 Z-1.6687
G1 X9.8636 Y16.5996 Z-1.6734
G1 X9.8998 Y16.5866 Z-1.6781
G1 X9.9345 Y16.5702 Z-1.6828
G1 X9.9675 Y16.5505 Z-1.6875
G1 X9.9983 Y16.5276 Z-1.6922
G1 X10.0268 Y16.5018 Z-1.6969
G1 X10.0526 Y16.4733 Z-1.7016
G1 X10.0755 Y16.4425 Z-1.7063
G1 X10.0952 Y16.4095 Z-1.7109
G1 X10.1116 Y16.3748 Z-1.7156
G1 X10.1246 Y16.3386 Z-1.7203
G1 X10.1339 Y16.3014 Z-1.725
G1 X10.1396 Y16.2634 Z-1.7297
G1 X10.1414 Y16.225 Z-1.7344
G1 X10.1396 Y16.1866 Z-1.7391
G1 X10.1339 Y16.1486 Z-1.7437
G1 X10.1246 Y16.1114 Z-1.7484
G1 X10.1116 Y16.0752 Z-1.7531
G1 X10.0952 Y16.0405 Z-1.7578
G1 X10.0755 Y16.0075 Z-1.7625
G1 X10.0526 Y15.9767 Z-1.7672
G1 X10.0268 Y15.9482 Z-1.7719
G1 X9.9983 Y15.9224 Z-1.7766
G1 X9.9675 Y15.8995 Z-1.7813
G1 X9.9345 Y15.8798 Z-1.7859
G1 X9.8998 Y15.8634 Z-1.7906
G1 X9.8636 Y15.8504 Z-1.7953
G1 X9.8264 Y15.8411 Z-1.8
G1 F100.0 X9.8851 Y15.4454
G1 F500.0 X9.8276 Y15.4369
G1 X9.75 Y15.4331
G1 X9.6724 Y15.4369
G1 X9.5955 Y15.4483
G1 X9.5201 Y15.4672
G1 X9.4469 Y15.4934
G1 X9.3767 Y15.5266
G1 X9.31 Y15.5665
G1 X9.2476 Y15.6128
G1 X9.19 Y15.665
G1 X9.1378 Y15.7226
G1 X9.0915 Y15.785
G1 X9.0516 Y15.8517
G1 X9.0184 Y15.9219
G1 X8.9922 Y15.9951
G1 X8.9733 Y16.0705
G1 X8.9619 Y16.1474
G1 X8.9581 Y16.225
G1 X8.9619 Y16.3026
G1 X8.9733 Y16.3795
G1 X8.9922 Y16.4549
G1 X9.0184 Y16.5281
G1 X9.0516 Y16.5983
G1 X9.0915 Y16.665
G1 X9.1378 Y16.7274
G1 X9.19 Y16.785
G1 X9.2476 Y16.8372
G1 X9.31 Y16.8835
G1 X9.3767 Y16.9234
G1 X9.4469 Y16.9566
G1 X9.5201 Y16.9828
G1 X9.5955 Y17.0017
G1 X9.6724 Y17.0131
G1 X9.75 Y17.0169
G1 X9.8276 Y17.0131
G1 X9.9045 Y17.0017
G1 X9.9799 Y16.9828
G1 X10.0531 Y16.9566
G1 X10.1233 Y16.9234
G1 X10.19 Y16.8835
G1 X10.2524 Y16.8372
G1 X10.31 Y16.785
G1 X10.3622 Y16.7274
G1 X10.4085 Y16.665
G1 X10.4484 Y16.5983
G1 X10.4816 Y16.5281
G1 X10.5078 Y16.4549
G1 X10.5267 Y16.3795
G1 X10.5381 Y16.3026
G1 X10.5419 Y16.225
G1 X10.5381 Y16.1474
G1 X10.5267 Y16.0705
G1 X10.5078 Y15.9951
G1 X10.4816 Y15.9219
G1 X10.4484 Y15.8517
G1 X10.4085 Y15.785
G1 X10.3622 Y15.7226
G1 X10.31 Y15.665
G1 X10.2524 Y15.6128
G1 X10.19 Y15.5665
G1 X10.1233 Y15.5266
G1 X10.0531 Y15.4934
G1 X9.9799 Y15.4672
G1 X9.9045 Y15.4483
G1 X9.8851 Y15.4454
G1 F100.0 X10.0024 Y14.6541
G1 F500.0 X9.9061 Y14.6398
G1 X9.75 Y14.6321
G1 X9.5939 Y14.6398
G1 X9.4392 Y14.6627
G1 X9.2876 Y14.7007
G1 X9.1404 Y14.7534
G1 X8.9991 Y14.8202
G1 X8.865 Y14.9006
G1 X8.7395 Y14.9937
G1 X8.6237 Y15.0987
G1 X8.5187 Y15.2145
G1 X8.4256 Y15.34
G1 X8.3452 Y15.4741
G1 X8.2784 Y15.6154
G1 X8.2257 Y15.7626
G1 X8.1877 Y15.9143
G1 X8.1648 Y16.0689
G1 X8.1571 Y16.225
G1 X8.1648 Y16.3811
G1 X8.1877 Y16.5357
G1 X8.2257 Y16.6874
G1 X8.2784 Y16.8346
G1 X8.3452 Y16.9759
G1 X8.4256 Y17.11
G1 X8.5187 Y17.2355
G1 X8.6237 Y17.3513
G1 X8.7395 Y17.4563
G1 X8.865 Y17.5494
G1 X8.9991 Y17.6298
G1 X9.1404 Y17.6966
G1 X9.2876 Y17.7493
G1 X9.4392 Y17.7873
G1 X9.5939 Y17.8102
G1 X9.75 Y17.8179
G1 X9.9061 Y17.8102
G1 X10.0608 Y17.7873
G1 X10.2124 Y17.7493
G1 X10.3596 Y17.6966
G1 X10.5009 Y17.6298
G1 X10.635 Y17.5494
G1 X10.7605 Y17.4563
G1 X10.8763 Y17.3513
G1 X10.9813 Y17.2355
G1 X11.0744 Y17.11
G1 X11.1548 Y16.9759
G1 X11.2216 Y16.8346
G1 X11.2743 Y16.6874
G1 X11.3123 Y16.5358
G1 X11.3352 Y16.3811
G1 X11.3429 Y16.225
G1 X11.3352 Y16.0689
G1 X11.3123 Y15.9142
G1 X11.2743 Y15.7626
G1 X11.2216 Y15.6154
G1 X11.1548 Y15.4741
G1 X11.0744 Y15.34
G1 X10.9813 Y15.2145
G1 X10.8763 Y15.0987
G1 X10.7605 Y14.9937
G1 X10.635 Y14.9006
G1 X10.5009 Y14.8202
G1 X10.3596 Y14.7534
G1 X10.2124 Y14.7007
G1 X10.0608 Y14.6627
G1 X10.0024 Y14.6541
G1 F100.0 X10.1198 Y13.8627
G1 F500.0 X9.9846 Y13.8427
G1 X9.75 Y13.8312
G1 X9.5154 Y13.8427
G1 X9.283 Y13.8771
G1 X9.0551 Y13.9342
G1 X8.8339 Y14.0134
G1 X8.6215 Y14.1138
G1 X8.42 Y14.2346
G1 X8.2314 Y14.3745
G1 X8.0573 Y14.5323
G1 X7.8995 Y14.7064
G1 X7.7596 Y14.8951
G1 X7.6388 Y15.0965
G1 X7.5384 Y15.3089
G1 X7.4592 Y15.5301
G1 X7.4021 Y15.758
G1 X7.3677 Y15.9904
G1 X7.3562 Y16.225
G1 X7.3677 Y16.4596
G1 X7.4021 Y16.692
G1 X7.4592 Y16.9199
G1 X7.5384 Y17.1411
G1 X7.6388 Y17.3535
G1 X7.7596 Y17.5549
G1 X7.8995 Y17.7436
G1 X8.0573 Y17.9177
G1 X8.2314 Y18.0755
G1 X8.42 Y18.2154
G1 X8.6215 Y18.3362
G1 X8.8339 Y18.4366
G1 X9.0551 Y18.5158
G1 X9.283 Y18.5729
G1 X9.5154 Y18.6073
G1 X9.75 Y18.6188
G1 X9.9846 Y18.6073
G1 X10.217 Y18.5729
G1 X10.4449 Y18.5158
G1 X10.6661 Y18.4366
G1 X10.8785 Y18.3362
G1 X11.0799 Y18.2154
G1 X11.2686 Y18.0755
G1 X11.4427 Y17.9177
G1 X11.6005 Y17.7436
G1 X11.7404 Y17.5549
G1 X11.8612 Y17.3535
G1 X11.9616 Y17.1411
G1 X12.0408 Y16.9199
G1 X12.0979 Y16.692
G1 X12.1323 Y16.4596
G1 X12.1438 Y16.225
G1 X12.1323 Y15.9904
G1 X12.0979 Y15.758
G1 X12.0408 Y15.5301
G1 X11.9616 Y15.3089
G1 X11.8612 Y15.0965
G1 X11.7404 Y14.895
G1 X11.6005 Y14.7064
G1 X11.4427 Y14.5323
G1 X11.2686 Y14.3745
G1 X11.0799 Y14.2346
G1 X10.8785 Y14.1138
G1 X10.6661 Y14.0134
G1 X10.4449 Y13.9342
G1 X10.217 Y13.8771
G1 X10.1198 Y13.8627
G1 F100.0 X10.2372 Y13.0714
G1 F500.0 X10.0631 Y13.0456
G1 X9.75 Y13.0302
G1 X9.4369 Y13.0456
G1 X9.1267 Y13.0916
G1 X8.8226 Y13.1678
G1 X8.5274 Y13.2734
G1 X8.244 Y13.4074
G1 X7.9751 Y13.5686
G1 X7.7232 Y13.7554
G1 X7.4909 Y13.9659
G1 X7.2804 Y14.1982
G1 X7.0936 Y14.4501
G1 X6.9324 Y14.719
G1 X6.7984 Y15.0024
G1 X6.6928 Y15.2976
G1 X6.6166 Y15.6017
G1 X6.5706 Y15.9119
G1 X6.5552 Y16.225
G1 X6.5706 Y16.5381
G1 X6.6166 Y16.8483
G1 X6.6928 Y17.1524
G1 X6.7984 Y17.4476
G1 X6.9324 Y17.731
G1 X7.0936 Y17.9999
G1 X7.2804 Y18.2518
G1 X7.4909 Y18.4841
G1 X7.7232 Y18.6946
G1 X7.9751 Y18.8814
G1 X8.244 Y19.0426
G1 X8.5274 Y19.1766
G1 X8.8226 Y19.2822
G1 X9.1267 Y19.3584
G1 X9.4369 Y19.4044
G1 X9.75 Y19.4198
G1 X10.0631 Y19.4044
G1 X10.3733 Y19.3584
G1 X10.6774 Y19.2822
G1 X10.9726 Y19.1766
G1 X11.256 Y19.0426
G1 X11.5249 Y18.8814
G1 X11.7768 Y18.6946
G1 X12.0091 Y18.4841
G1 X12.2196 Y18.2518
G1 X12.4064 Y17.9999
G1 X12.5676 Y17.731
G1 X12.7016 Y17.4476
G1 X12.8072 Y17.1524
G1 X12.8834 Y16.8483
G1 X12.9294 Y16.5381
G1 X12.9448 Y16.225
G1 X12.9294 Y15.9119
G1 X12.8834 Y15.6017
G1 X12.8072 Y15.2976
G1 X12.7016 Y15.0024
G1 X12.5676 Y14.719
G1 X12.4064 Y14.4501
G1 X12.2196 Y14.1982
G1 X12.0091 Y13.9659
G1 X11.7768 Y13.7554
G1 X11.5249 Y13.5686
G1 X11.256 Y13.4074
G1 X10.9726 Y13.2734
G1 X10.6774 Y13.1678
G1 X10.3733 Y13.0916
G1 X10.2372 Y13.0714
G1 F100.0 X10.3546 Y12.28
G1 F500.0 X10.1417 Y12.2485
G1 X9.75 Y12.2292
G1 X9.3583 Y12.2485
G1 X8.9705 Y12.306
G1 X8.5901 Y12.4013
G1 X8.2209 Y12.5334
G1 X7.8664 Y12.701
G1 X7.5301 Y12.9026
G1 X7.2151 Y13.1362
G1 X6.9246 Y13.3996
G1 X6.6612 Y13.6901
G1 X6.4276 Y14.0051
G1 X6.226 Y14.3414
G1 X6.0584 Y14.6959
G1 X5.9263 Y15.0651
G1 X5.831 Y15.4455
G1 X5.7735 Y15.8333
G1 X5.7542 Y16.225
G1 X5.7735 Y16.6167
G1 X5.831 Y17.0045
G1 X5.9263 Y17.3849
G1 X6.0584 Y17.7541
G1 X6.226 Y18.1086
G1 X6.4276 Y18.4449
G1 X6.6612 Y18.7599
G1 X6.9246 Y19.0504
G1 X7.2151 Y19.3138
G1 X7.5301 Y19.5474
G1 X7.8664 Y19.749
G1 X8.2209 Y19.9166
G1 X8.5901 Y20.0487
G1 X8.9705 Y20.144
G1 X9.3583 Y20.2015
G1 X9.75 Y20.2208
G1 X10.1417 Y20.2015
G1 X10.5295 Y20.144
G1 X10.9099 Y20.0487
G1 X11.2791 Y19.9166
G1 X11.6336 Y19.749
G1 X11.9699 Y19.5474
G1 X12.2849 Y19.3138
G1 X12.5754 Y19.0504
G1 X12.8388 Y18.7599
G1 X13.0724 Y18.4449
G1 X13.274 Y18.1086
G1 X13.4416 Y17.7541
G1 X13.5737 Y17.3849
G1 X13.669 Y17.0045
G1 X13.7265 Y16.6167
G1 X13.7458 Y16.225
G1 X13.7265 Y15.8333
G1 X13.669 Y15.4455
G1 X13.5737 Y15.0651
G1 X13.4416 Y14.6959
G1 X13.274 Y14.3414
G1 X13.0724 Y14.0051
G1 X12.8388 Y13.6901
G1 X12.5754 Y13.3996
G1 X12.2849 Y13.1362
G1 X11.9699 Y12.9026
G1 X11.6336 Y12.701
G1 X11.2791 Y12.5334
G1 X10.9099 Y12.4013
G1 X10.5295 Y12.306
G1 X10.3546 Y12.28
G1 F100.0 X10.472 Y11.4887
G1 F500.0 X10.2202 Y11.4514
G1 X9.75 Y11.4283
G1 X9.2798 Y11.4514
G1 X8.8142 Y11.5204
G1 X8.3576 Y11.6348
G1 X7.9144 Y11.7934
G1 X7.4888 Y11.9946
G1 X7.0851 Y12.2367
G1 X6.707 Y12.5171
G1 X6.3582 Y12.8332
G1 X6.0421 Y13.182
G1 X5.7617 Y13.5601
G1 X5.5197 Y13.9638
G1 X5.3184 Y14.3894
G1 X5.1598 Y14.8326
G1 X5.0454 Y15.2892
G1 X4.9764 Y15.7548
G1 X4.9533 Y16.225
G1 X4.9764 Y16.6952
G1 X5.0454 Y17.1608
G1 X5.1598 Y17.6174
G1 X5.3184 Y18.0606
G1 X5.5197 Y18.4862
G1 X5.7617 Y18.8899
G1 X6.0421 Y19.268
G1 X6.3582 Y19.6168
G1 X6.707 Y19.9329
G1 X7.0851 Y20.2133
G1 X7.4888 Y20.4553
G1 X7.9144 Y20.6566
G1 X8.3576 Y20.8152
G1 X8.8142 Y20.9296
G1 X9.2798 Y20.9986
G1 X9.75 Y21.0217
G1 X10.2202 Y20.9986
G1 X10.6858 Y20.9296
G1 X11.1424 Y20.8152
G1 X11.5856 Y20.6566
G1 X12.0112 Y20.4553
G1 X12.4149 Y20.2133
G1 X12.793 Y19.9329
G1 X13.1418 Y19.6168
G1 X13.4579 Y19.268
G1 X13.7383 Y18.8899
G1 X13.9804 Y18.4862
G1 X14.1816 Y18.0606
G1 X14.3402 Y17.6174
G1 X14.4546 Y17.1608
G1 X14.5236 Y16.6952
G1 X14.5467 Y16.225
G1 X14.5236 Y15.7548
G1 X14.4546 Y15.2892
G1 X14.3402 Y14.8326
G1 X14.1816 Y14.3894
G1 X13.9804 Y13.9638
G1 X13.7383 Y13.5601
G1 X13.4579 Y13.182
G1 X13.1418 Y12.8332
G1 X12.793 Y12.5171
G1 X12.4149 Y12.2367
G1 X12.0112 Y11.9946
G1 X11.5856 Y11.7934
G1 X11.1424 Y11.6348
G1 X10.6858 Y11.5204
G1 X10.472 Y11.4887
G1 F100.0 X10.5894 Y10.6974
G1 F500.0 X10.2987 Y10.6542
G1 X9.75 Y10.6273
G1 X9.2013 Y10.6542
G1 X8.6579 Y10.7348
G1 X8.1251 Y10.8683
G1 X7.6079 Y11.0534
G1 X7.1113 Y11.2883
G1 X6.6401 Y11.5707
G1 X6.1989 Y11.8979
G1 X5.7918 Y12.2668
G1 X5.4229 Y12.6739
G1 X5.0957 Y13.1151
G1 X4.8133 Y13.5863
G1 X4.5784 Y14.0828
G1 X4.3933 Y14.6001
G1 X4.2599 Y15.1329
G1 X4.1792 Y15.6763
G1 X4.1523 Y16.225
G1 X4.1792 Y16.7737
G1 X4.2599 Y17.3171
G1 X4.3933 Y17.8499
G1 X4.5784 Y18.3672
G1 X4.8133 Y18.8637
G1 X5.0957 Y19.3349
G1 X5.4229 Y19.7761
G1 X5.7918 Y20.1832
G1 X6.1989 Y20.5521
G1 X6.6401 Y20.8793
G1 X7.1113 Y21.1617
G1 X7.6079 Y21.3966
G1 X8.1251 Y21.5817
G1 X8.6579 Y21.7151
G1 X9.2013 Y21.7958
G1 X9.75 Y21.8227
G1 X10.2987 Y21.7958
G1 X10.8421 Y21.7151
G1 X11.3749 Y21.5817
G1 X11.8921 Y21.3966
G1 X12.3887 Y21.1617
G1 X12.8599 Y20.8793
G1 X13.3011 Y20.5521
G1 X13.7082 Y20.1832
G1 X14.0771 Y19.7761
G1 X14.4043 Y19.3349
G1 X14.6867 Y18.8637
G1 X14.9216 Y18.3671
G1 X15.1067 Y17.8499
G1 X15.2402 Y17.3171
G1 X15.3208 Y16.7737
G1 X15.3477 Y16.225
G1 X15.3208 Y15.6763
G1 X15.2402 Y15.1329
G1 X15.1067 Y14.6001
G1 X14.9216 Y14.0829
G1 X14.6867 Y13.5863
G1 X14.4043 Y13.1151
G1 X14.0771 Y12.6739
G1 X13.7082 Y12.2668
G1 X13.3011 Y11.8979
G1 X12.8599 Y11.5707
G1 X12.3887 Y11.2883
G1 X11.8921 Y11.0534
G1 X11.3749 Y10.8683
G1 X10.8421 Y10.7348
G1 X10.5894 Y10.6974
G1 F100.0 X10.7068 Y9.906
G1 F500.0 X10.3772 Y9.8571
G1 X9.75 Y9.8263
G1 X9.1228 Y9.8571
G1 X8.5017 Y9.9493
G1 X7.8926 Y10.1019
G1 X7.3013 Y10.3134
G1 X6.7337 Y10.5819
G1 X6.1951 Y10.9047
G1 X5.6907 Y11.2788
G1 X5.2255 Y11.7005
G1 X4.8038 Y12.1657
G1 X4.4297 Y12.6701
G1 X4.1069 Y13.2087
G1 X3.8384 Y13.7763
G1 X3.6269 Y14.3676
G1 X3.4743 Y14.9767
G1 X3.3821 Y15.5978
G1 X3.3513 Y16.225
G1 X3.3821 Y16.8522
G1 X3.4743 Y17.4733
G1 X3.6269 Y18.0824
G1 X3.8384 Y18.6737
G1 X4.1069 Y19.2413
G1 X4.4297 Y19.7799
G1 X4.8038 Y20.2843
G1 X5.2255 Y20.7495
G1 X5.6907 Y21.1712
G1 X6.1951 Y21.5453
G1 X6.7337 Y21.8681
G1 X7.3013 Y22.1366
G1 X7.8926 Y22.3481
G1 X8.5017 Y22.5007
G1 X9.1228 Y22.5929
G1 X9.75 Y22.6237
G1 X10.3772 Y22.5929
G1 X10.9983 Y22.5007
G1 X11.6074 Y22.3481
G1 X12.1987 Y22.1366
G1 X12.7663 Y21.8681
G1 X13.3049 Y21.5453
G1 X13.8093 Y21.1712
G1 X14.2745 Y20.7495
G1 X14.6962 Y20.2843
G1 X15.0703 Y19.7799
G1 X15.3931 Y19.2413
G1 X15.6616 Y18.6737
G1 X15.8731 Y18.0824
G1 X16.0257 Y17.4733
G1 X16.1179 Y16.8522
G1 X16.1487 Y16.225
G1 X16.1179 Y15.5978
G1 X16.0257 Y14.9767
G1 X15.8731 Y14.3676
G1 X15.6616 Y13.7763
G1 X15.3931 Y13.2087
G1 X15.0703 Y12.6701
G1 X14.6962 Y12.1657
G1 X14.2745 Y11.7005
G1 X13.8093 Y11.2788
G1 X13.3049 Y10.9047
G1 X12.7663 Y10.5819
G1 X12.1987 Y10.3134
G1 X11.6074 Y10.1019
G1 X10.9983 Y9.9493
G1 X10.7068 Y9.906
G0 Z3.0
G0 X9.8264 Y15.8411
G0 Z-0.8
G1 F100.0 Z-1.8
G1 F500.0 X9.7884 Y15.8354 Z-1.8047
G1 X9.75 Y15.8336 Z-1.8094
G1 X9.7116 Y15.8354 Z-1.8141
G1 X9.6736 Y15.8411 Z-1.8188
G1 X9.6364 Y15.8504 Z-1.8234
G1 X9.6002 Y15.8634 Z-1.8281
G1 X9.5655 Y15.8798 Z-1.8328
G1 X9.5325 Y15.8995 Z-1.8375
G1 X9.5017 Y15.9224 Z-1.8422
G1 X9.4732 Y15.9482 Z-1.8469
G1 X9.4474 Y15.9767 Z-1.8516
G1 X9.4245 Y16.0075 Z-1.8563
G1 X9.4048 Y16.0405 Z-1.8609
G1 X9.3884 Y16.0752 Z-1.8656
G1 X9.3754 Y16.1114 Z-1.8703
G1 X9.3661 Y16.1486 Z-1.875
G1 X9.3604 Y16.1866 Z-1.8797
G1 X9.3586 Y16.225 Z-1.8844
G1 X9.3604 Y16.2634 Z-1.8891
G1 X9.3661 Y16.3014 Z-1.8937
G1 X9.3754 Y16.3386 Z-1.8984
G1 X9.3884 Y16.3748 Z-1.9031
G1 X9.4048 Y16.4095 Z-1.9078
G1 X9.4245 Y16.4425 Z-1.9125
G1 X9.4474 Y16.4733 Z-1.9172
G1 X9.4732 Y16.5018 Z-1.9219
G1 X9.5017 Y16.5276 Z-1.9266
G1 X9.5325 Y16.5505 Z-1.9312
G1 X9.5655 Y16.5702 Z-1.9359
G1 X9.6002 Y16.5866 Z-1.9406
G1 X9.6364 Y16.5996 Z-1.9453
G1 X9.6736 Y16.6089 Z-1.95
G1 X9.7116 Y16.6146 Z-1.9547
G1 X9.75 Y16.6164 Z-1.9594
G1 X9.7884 Y16.6146 Z-1.9641
G1 X9.8264 Y16.6089 Z-1.9687
G1 X9.8636 Y16.5996 Z-1.9734
G1 X9.8998 Y16.5866 Z-1.9781
G1 X9.9345 Y16.5702 Z-1.9828
G1 X9.9675 Y16.5505 Z-1.9875
G1 X9.9983 Y16.5276 Z-1.9922
G1 X10.0268 Y16.5018 Z-1.9969
G1 X10.0526 Y16.4733 Z-2.0016
G1 X10.0755 Y16.4425 Z-2.0063
G1 X10.0952 Y16.4095 Z-2.0109
G1 X10.1116 Y16.3748 Z-2.0156
G1 X10.1246 Y16.3386 Z-2.0203
G1 X10.1339 Y16.3014 Z-2.025
G1 X10.1396 Y16.2634 Z-2.0297
G1 X10.1414 Y16.225 Z-2.0344
G1 X10.1396 Y16.1866 Z-2.0391
G1 X10.1339 Y16.1486 Z-2.0437
G1 X10.1246 Y16.1114 Z-2.0484
G1 X10.1116 Y16.0752 Z-2.0531
G1 X10.0952 Y16.0405 Z-2.0578
G1 X10.0755 Y16.0075 Z-2.0625
G1 X10.0526 Y15.9767 Z-2.0672
G1 X10.0268 Y15.9482 Z-2.0719
G1 X9.9983 Y15.9224 Z-2.0766
G1 X9.9675 Y15.8995 Z-2.0813
G1 X9.9345 Y15.8798 Z-2.0859
G1 X9.8998 Y15.8634 Z-2.0906
G1 X9.8636 Y15.8504 Z-2.0953
G1 X9.8264 Y15.8411 Z-2.1
G1 F100.0 X9.8851 Y15.4454
G1 F500.0 X9.8276 Y15.4369
G1 X9.75 Y15.4331
G1 X9.6724 Y15.4369
G1 X9.5955 Y15.4483
G1 X9.5201 Y15.4672
G1 X9.4469 Y15.4934
G1 X9.3767 Y15.5266
G1 X9.31 Y15.5665
G1 X9.2476 Y15.6128
G1 X9.19 Y15.665
G1 X9.1378 Y15.7226
G1 X9.0915 Y15.785
G1 X9.0516 Y15.8517
G1 X9.0184 Y15.9219
G1 X8.9922 Y15.9951
G1 X8.9733 Y16.0705
G1 X8.9619 Y16.1474
G1 X8.9581 Y16.225
G1 X8.9619 Y16.3026
G1 X8.9733 Y16.3795
G1 X8.9922 Y16.4549
G1 X9.0184 Y16.5281
G1 X9.0516 Y16.5983
G1 X9.0915 Y16.665
G1 X9.1378 Y16.7274
G1 X9.19 Y16.785
G1 X9.2476 Y16.8372
G1 X9.31 Y16.8835
G1 X9.3767 Y16.9234
G1 X9.4469 Y16.9566
G1 X9.5201 Y16.9828
G1 X9.5955 Y17.0017
G1 X9.6724 Y17.0131
G1 X9.75 Y17.0169
G1 X9.8276 Y17.0131
G1 X9.9045 Y17.0017
G1 X9.9799 Y16.9828
G1 X10.0531 Y16.9566
G1 X10.1233 Y16.9234
G1 X10.19 Y16.8835
G1 X10.2524 Y16.8372
G1 X10.31 Y16.785
G1 X10.3622 Y16.7274
G1 X10.4085 Y16.665
G1 X10.4484 Y16.5983
G1 X10.4816 Y16.5281
G1 X10.5078 Y16.4549
G1 X10.5267 Y16.3795
G1 X10.5381 Y16.3026
G1 X10.5419 Y16.225
G1 X10.5381 Y16.1474
G1 X10.5267 Y16.0705
G1 X10.5078 Y15.9951
G1 X10.4816 Y15.9219
G1 X10.4484 Y15.8517
G1 X10.4085 Y15.785
G1 X10.3622 Y15.7226
G1 X10.31 Y15.665
G1 X10.2524 Y15.6128
G1 X10.19 Y15.5665
G1 X10.1233 Y15.5266
G1 X10.0531 Y15.4934
G1 X9.9799 Y15.4672
G1 X9.9045 Y15.4483
G1 X9.8851 Y15.4454
G1 F100.0 X10.0024 Y14.6541
G1 F500.0 X9.9061 Y14.6398
G1 X9.75 Y14.6321
G1 X9.5939 Y14.6398
G1 X9.4392 Y14.6627
G1 X9.2876 Y14.7007
G1 X9.1404 Y14.7534
G1 X8.9991 Y14.8202
G1 X8.865 Y14.9006
G1 X8.7395 Y14.9937
G1 X8.6237 Y15.0987
G1 X8.5187 Y15.2145
G1 X8.4256 Y15.34
G1 X8.3452 Y15.4741
G1 X8.2784 Y15.6154
G1 X8.2257 Y15.7626
G1 X8.1877 Y15.9143
G1 X8.1648 Y16.0689
G1 X8.1571 Y16.225
G1 X8.1648 Y16.3811
G1 X8.1877 Y16.5357
G1 X8.2257 Y16.6874
G1 X8.2784 Y16.8346
G1 X8.3452 Y16.9759
G1 X8.4256 Y17.11
G1 X8.5187 Y17.2355
G1 X8.6237 Y17.3513
G1 X8.7395 Y17.4563
G1 X8.865 Y17.5494
G1 X8.9991 Y17.6298
G1 X9.1404 Y17.6966
G1 X9.2876 Y17.7493
G1 X9.4392 Y17.7873
G1 X9.5939 Y17.8102
G1 X9.75 Y17.8179
G1 X9.9061 Y17.8102
G1 X10.0608 Y17.7873
G1 X10.2124 Y17.7493
G1 X10.3596 Y17.6966
G1 X10.5009 Y17.6298
G1 X10.635 Y17.5494
G1 X10.7605 Y17.4563
G1 X10.8763 Y17.3513
G1 X10.9813 Y17.2355
G1 X11.0744 Y17.11
G1 X11.1548 Y16.9759
G1 X11.2216 Y16.8346
G1 X11.2743 Y16.6874
G1 X11.3123 Y16.5358
G1 X11.3352 Y16.3811
G1 X11.3429 Y16.225
G1 X11.3352 Y16.0689
G1 X11.3123 Y15.9142
G1 X11.2743 Y15.7626
G1 X11.2216 Y15.6154
G1 X11.1548 Y15.4741
G1 X11.0744 Y15.34
G1 X10.9813 Y15.2145
G1 X10.8763 Y15.0987
G1 X10.7605 Y14.9937
G1 X10.635 Y14.9006
G1 X10.5009 Y14.8202
G1 X10.3596 Y14.7534
G1 X10.2124 Y14.7007
G1 X10.0608 Y14.6627
G1 X10.0024 Y14.6541
G1 F100.0 X10.1198 Y13.8627
G1 F500.0 X9.9846 Y13.8427
G1 X9.75 Y13.8312
G1 X9.5154 Y13.8427
G1 X9.283 Y13.8771
G1 X9.0551 Y13.9342
G1 X8.8339 Y14.0134
G1 X8.6215 Y14.1138
G1 X8.42 Y14.2346
G1 X8.2314 Y14.3745
G1 X8.0573 Y14.5323
G1 X7.8995 Y14.7064
G1 X7.7596 Y14.8951
G1 X7.6388 Y15.0965
G1 X7.5384 Y15.3089
G1 X7.4592 Y15.5301
G1 X7.4021 Y15.758
G1 X7.3677 Y15.9904
G1 X7.3562 Y16.225
G1 X7.3677 Y16.4596
G1 X7.4021 Y16.692
G1 X7.4592 Y16.9199
G1 X7.5384 Y17.1411
G1 X7.6388 Y17.3535
G1 X7.7596 Y17.5549
G1 X7.8995 Y17.7436
G1 X8.0573 Y17.9177
G1 X8.2314 Y18.0755
G1 X8.42 Y18.2154
G1 X8.6215 Y18.3362
G1 X8.8339 Y18.4366
G1 X9.0551 Y18.5158
G1 X9.283 Y18.5729
G1 X9.5154 Y18.6073
G1 X9.75 Y18.6188
G1 X9.9846 Y18.6073
G1 X10.217 Y18.5729
G1 X10.4449 Y18.5158
G1 X10.6661 Y18.4366
G1 X10.8785 Y18.3362
G1 X11.0799 Y18.2154
G1 X11.2686 Y18.0755
G1 X11.4427 Y17.9177
G1 X11.6005 Y17.7436
G1 X11.7404 Y17.5549
G1 X11.8612 Y17.3535
G1 X11.9616 Y17.1411
G1 X12.0408 Y16.9199
G1 X12.0979 Y16.692
G1 X12.1323 Y16.4596
G1 X12.1438 Y16.225
G1 X12.1323 Y15.9904
G1 X12.0979 Y15.758
G1 X12.0408 Y15.5301
G1 X11.9616 Y15.3089
G1 X11.8612 Y15.0965
G1 X11.7404 Y14.895
G1 X11.6005 Y14.7064
G1 X11.4427 Y14.5323
G1 X11.2686 Y14.3745
G1 X11.0799 Y14.2346
G1 X10.8785 Y14.1138
G1 X10.6661 Y14.0134
G1 X10.4449 Y13.9342
G1 X10.217 Y13.8771
G1 X10.1198 Y13.8627
G1 F100.0 X10.2372 Y13.0714
G1 F500.0 X10.0631 Y13.0456
G1 X9.75 Y13.0302
G1 X9.4369 Y13.0456
G1 X9.1267 Y13.0916
G1 X8.8226 Y13.1678
G1 X8.5274 Y13.2734
G1 X8.244 Y13.4074
G1 X7.9751 Y13.5686
G1 X7.7232 Y13.7554
G1 X7.4909 Y13.9659
G1 X7.2804 Y14.1982
G1 X7.0936 Y14.4501
G1 X6.9324 Y14.719
G1 X6.7984 Y15.0024
G1 X6.6928 Y15.2976
G1 X6.6166 Y15.6017
G1 X6.5706 Y15.9119
G1 X6.5552 Y16.225
G1 X6.5706 Y16.5381
G1 X6.6166 Y16.8483
G1 X6.6928 Y17.1524
G1 X6.7984 Y17.4476
G1 X6.9324 Y17.731
G1 X7.0936 Y17.9999
G1 X7.2804 Y18.2518
G1 X7.4909 Y18.4841
G1 X7.7232 Y18.6946
G1 X7.9751 Y18.8814
G1 X8.244 Y19.0426
G1 X8.5274 Y19.1766
G1 X8.8226 Y19.2822
G1 X9.1267 Y19.3584
G1 X9.4369 Y19.4044
G1 X9.75 Y19.4198
G1 X10.0631 Y19.4044
G1 X10.3733 Y19.3584
G1 X10.6774 Y19.2822
G1 X10.9726 Y19.1766
G1 X11.256 Y19.0426
G1 X11.5249 Y18.8814
G1 X11.7768 Y18.6946
G1 X12.0091 Y18.4841
G1 X12.2196 Y18.2518
G1 X12.4064 Y17.9999
G1 X12.5676 Y17.731
G1 X12.7016 Y17.4476
G1 X12.8072 Y17.1524
G1 X12.8834 Y16.8483
G1 X12.9294 Y16.5381
G1 X12.9448 Y16.225
G1 X12.9294 Y15.9119
G1 X12.8834 Y15.6017
G1 X12.8072 Y15.2976
G1 X12.7016 Y15.0024
G1 X12.5676 Y14.719
G1 X12.4064 Y14.4501
G1 X12.2196 Y14.1982
G1 X12.0091 Y13.9659
G1 X11.7768 Y13.7554
G1 X11.5249 Y13.5686
G1 X11.256 Y13.4074
G1 X10.9726 Y13.2734
G1 X10.6774 Y13.1678
G1 X10.3733 Y13.0916
G1 X10.2372 Y13.0714
G1 F100.0 X10.3546 Y12.28
G1 F500.0 X10.1417 Y12.2485
G1 X9.75 Y12.2292
G1 X9.3583 Y12.2485
G1 X8.9705 Y12.306
G1 X8.5901 Y12.4013
G1 X8.2209 Y12.5334
G1 X7.8664 Y12.701
G1 X7.5301 Y12.9026
G1 X7.2151 Y13.1362
G1 X6.9246 Y13.3996
G1 X6.6612 Y13.6901
G1 X6.4276 Y14.0051
G1 X6.226 Y14.3414
G1 X6.0584 Y14.6959
G1 X5.9263 Y15.0651
G1 X5.831 Y15.4455
G1 X5.7735 Y15.8333
G1 X5.7542 Y16.225
G1 X5.7735 Y16.6167
G1 X5.831 Y17.0045
G1 X5.9263 Y17.3849
G1 X6.0584 Y17.7541
G1 X6.226 Y18.1086
G1 X6.4276 Y18.4449
G1 X6.6612 Y18.7599
G1 X6.9246 Y19.0504
G1 X7.2151 Y19.3138
G1 X7.5301 Y19.5474
G1 X7.8664 Y19.749
G1 X8.2209 Y19.9166
G1 X8.5901 Y20.0487
G1 X8.9705 Y20.144
G1 X9.3583 Y20.2015
G1 X9.75 Y20.2208
G1 X10.1417 Y20.2015
G1 X10.5295 Y20.144
G1 X10.9099 Y20.0487
G1 X11.2791 Y19.9166
G1 X11.6336 Y19.749
G1 X11.9699 Y19.5474
G1 X12.2849 Y19.3138
G1 X12.5754 Y19.0504
G1 X12.8388 Y18.7599
G1 X13.0724 Y18.4449
G1 X13.274 Y18.1086
G1 X13.4416 Y17.7541
G1 X13.5737 Y17.3849
G1 X13.669 Y17.0045
G1 X13.7265 Y16.6167
G1 X13.7458 Y16.225
G1 X13.7265 Y15.8333
G1 X13.669 Y15.4455
G1 X13.5737 Y15.0651
G1 X13.4416 Y14.6959
G1 X13.274 Y14.3414
G1 X13.0724 Y14.0051
G1 X12.8388 Y13.6901
G1 X12.5754 Y13.3996
G1 X12.2849 Y13.1362
G1 X11.9699 Y12.9026
G1 X11.6336 Y12.701
G1 X11.2791 Y12.5334
G1 X10.9099 Y12.4013
G1 X10.5295 Y12.306
G1 X10.3546 Y12.28
G1 F100.0 X10.472 Y11.4887
G1 F500.0 X10.2202 Y11.4514
G1 X9.75 Y11.4283
G1 X9.2798 Y11.4514
G1 X8.8142 Y11.5204
G1 X8.3576 Y11.6348
G1 X7.9144 Y11.7934
G1 X7.4888 Y11.9946
G1 X7.0851 Y12.2367
G1 X6.707 Y12.5171
G1 X6.3582 Y12.8332
G1 X6.0421 Y13.182
G1 X5.7617 Y13.5601
G1 X5.5197 Y13.9638
G1 X5.3184 Y14.3894
G1 X5.1598 Y14.8326
G1 X5.0454 Y15.2892
G1 X4.9764 Y15.7548
G1 X4.9533 Y16.225
G1 X4.9764 Y16.6952
G1 X5.0454 Y17.1608
G1 X5.1598 Y17.6174
G1 X5.3184 Y18.0606
G1 X5.5197 Y18.4862
G1 X5.7617 Y18.8899
G1 X6.0421 Y19.268
G1 X6.3582 Y19.6168
G1 X6.707 Y19.9329
G1 X7.0851 Y20.2133
G1 X7.4888 Y20.4553
G1 X7.9144 Y20.6566
G1 X8.3576 Y20.8152
G1 X8.8142 Y20.9296
G1 X9.2798 Y20.9986
G1 X9.75 Y21.0217
G1 X10.2202 Y20.9986
G1 X10.6858 Y20.9296
G1 X11.1424 Y20.8152
G1 X11.5856 Y20.6566
G1 X12.0112 Y20.4553
G1 X12.4149 Y20.2133
G1 X12.793 Y19.9329
G1 X13.1418 Y19.6168
G1 X13.4579 Y19.268
G1 X13.7383 Y18.8899
G1 X13.9804 Y18.4862
G1 X14.1816 Y18.0606
G1 X14.3402 Y17.6174
G1 X14.4546 Y17.1608
G1 X14.5236 Y16.6952
G1 X14.5467 Y16.225
G1 X14.5236 Y15.7548
G1 X14.4546 Y15.2892
G1 X14.3402 Y14.8326
G1 X14.1816 Y14.3894
G1 X13.9804 Y13.9638
G1 X13.7383 Y13.5601
G1 X13.4579 Y13.182
G1 X13.1418 Y12.8332
G1 X12.793 Y12.5171
G1 X12.4149 Y12.2367
G1 X12.0112 Y11.9946
G1 X11.5856 Y11.7934
G1 X11.1424 Y11.6348
G1 X10.6858 Y11.5204
G1 X10.472 Y11.4887
G1 F100.0 X10.5894 Y10.6974
G1 F500.0 X10.2987 Y10.6542
G1 X9.75 Y10.6273
G1 X9.2013 Y10.6542
G1 X8.6579 Y10.7348
G1 X8.1251 Y10.8683
G1 X7.6079 Y11.0534
G1 X7.1113 Y11.2883
G1 X6.6401 Y11.5707
G1 X6.1989 Y11.8979
G1 X5.7918 Y12.2668
G1 X5.4229 Y12.6739
G1 X5.0957 Y13.1151
G1 X4.8133 Y13.5863
G1 X4.5784 Y14.0828
G1 X4.3933 Y14.6001
G1 X4.2599 Y15.1329
G1 X4.1792 Y15.6763
G1 X4.1523 Y16.225
G1 X4.1792 Y16.7737
G1 X4.2599 Y17.3171
G1 X4.3933 Y17.8499
G1 X4.5784 Y18.3672
G1 X4.8133 Y18.8637
G1 X5.0957 Y19.3349
G1 X5.4229 Y19.7761
G1 X5.7918 Y20.1832
G1 X6.1989 Y20.5521
G1 X6.6401 Y20.8793
G1 X7.1113 Y21.1617
G1 X7.6079 Y21.3966
G1 X8.1251 Y21.5817
G1 X8.6579 Y21.7151
G1 X9.2013 Y21.7958
G1 X9.75 Y21.8227
G1 X10.2987 Y21.7958
G1 X10.8421 Y21.7151
G1 X11.3749 Y21.5817
G1 X11.8921 Y21.3966
G1 X12.3887 Y21.1617
G1 X12.8599 Y20.8793
G1 X13.3011 Y20.5521
G1 X13.7082 Y20.1832
G1 X14.0771 Y19.7761
G1 X14.4043 Y19.3349
G1 X14.6867 Y18.8637
G1 X14.9216 Y18.3671
G1 X15.1067 Y17.8499
G1 X15.2402 Y17.3171
G1 X15.3208 Y16.7737
G1 X15.3477 Y16.225
G1 X15.3208 Y15.6763
G1 X15.2402 Y15.1329
G1 X15.1067 Y14.6001
G1 X14.9216 Y14.0829
G1 X14.6867 Y13.5863
G1 X14.4043 Y13.1151
G1 X14.0771 Y12.6739
G1 X13.7082 Y12.2668
G1 X13.3011 Y11.8979
G1 X12.8599 Y11.5707
G1 X12.3887 Y11.2883
G1 X11.8921 Y11.0534
G1 X11.3749 Y10.8683
G1 X10.8421 Y10.7348
G1 X10.5894 Y10.6974
G1 F100.0 X10.7068 Y9.906
G1 F500.0 X10.3772 Y9.8571
G1 X9.75 Y9.8263
G1 X9.1228 Y9.8571
G1 X8.5017 Y9.9493
G1 X7.8926 Y10.1019
G1 X7.3013 Y10.3134
G1 X6.7337 Y10.5819
G1 X6.1951 Y10.9047
G1 X5.6907 Y11.2788
G1 X5.2255 Y11.7005
G1 X4.8038 Y12.1657
G1 X4.4297 Y12.6701
G1 X4.1069 Y13.2087
G1 X3.8384 Y13.7763
G1 X3.6269 Y14.3676
G1 X3.4743 Y14.9767
G1 X3.3821 Y15.5978
G1 X3.3513 Y16.225
G1 X3.3821 Y16.8522
G1 X3.4743 Y17.4733
G1 X3.6269 Y18.0824
G1 X3.8384 Y18.6737
G1 X4.1069 Y19.2413
G1 X4.4297 Y19.7799
G1 X4.8038 Y20.2843
G1 X5.2255 Y20.7495
G1 X5.6907 Y21.1712
G1 X6.1951 Y21.5453
G1 X6.7337 Y21.8681
G1 X7.3013 Y22.1366
G1 X7.8926 Y22.3481
G1 X8.5017 Y22.5007
G1 X9.1228 Y22.5929
G1 X9.75 Y22.6237
G1 X10.3772 Y22.5929
G1 X10.9983 Y22.5007
G1 X11.6074 Y22.3481
G1 X12.1987 Y22.1366
G1 X12.7663 Y21.8681
G1 X13.3049 Y21.5453
G1 X13.8093 Y21.1712
G1 X14.2745 Y20.7495
G1 X14.6962 Y20.2843
G1 X15.0703 Y19.7799
G1 X15.3931 Y19.2413
G1 X15.6616 Y18.6737
G1 X15.8731 Y18.0824
G1 X16.0257 Y17.4733
G1 X16.1179 Y16.8522
G1 X16.1487 Y16.225
G1 X16.1179 Y15.5978
G1 X16.0257 Y14.9767
G1 X15.8731 Y14.3676
G1 X15.6616 Y13.7763
G1 X15.3931 Y13.2087
G1 X15.0703 Y12.6701
G1 X14.6962 Y12.1657
G1 X14.2745 Y11.7005
G1 X13.8093 Y11.2788
G1 X13.3049 Y10.9047
G1 X12.7663 Y10.5819
G1 X12.1987 Y10.3134
G1 X11.6074 Y10.1019
G1 X10.9983 Y9.9493
G1 X10.7068 Y9.906
G0 Z3.0
G0 X9.8264 Y15.8411
G0 Z-1.1
G1 F100.0 Z-2.1
G1 F500.0 X9.7884 Y15.8354 Z-2.1047
G1 X9.75 Y15.8336 Z-2.1094
G1 X9.7116 Y15.8354 Z-2.1141
G1 X9.6736 Y15.8411 Z-2.1188
G1 X9.6364 Y15.8504 Z-2.1234
G1 X9.6002 Y15.8634 Z-2.1281
G1 X9.5655 Y15.8798 Z-2.1328
G1 X9.5325 Y15.8995 Z-2.1375
G1 X9.5017 Y15.9224 Z-2.1422
G1 X9.4732 Y15.9482 Z-2.1469
G1 X9.4474 Y15.9767 Z-2.1516
G1 X9.4245 Y16.0075 Z-2.1563
G1 X9.4048 Y16.0405 Z-2.1609
G1 X9.3884 Y16.0752 Z-2.1656
G1 X9.3754 Y16.1114 Z-2.1703
G1 X9.3661 Y16.1486 Z-2.175
G1 X9.3604 Y16.1866 Z-2.1797
G1 X9.3586 Y16.225 Z-2.1844
G1 X9.3604 Y16.2634 Z-2.1891
G1 X9.3661 Y16.3014 Z-2.1937
G1 X9.3754 Y16.3386 Z-2.1984
G1 X9.3884 Y16.3748 Z-2.2031
G1 X9.4048 Y16.4095 Z-2.2078
G1 X9.4245 Y16.4425 Z-2.2125
G1 X9.4474 Y16.4733 Z-2.2172
G1 X9.4732 Y16.5018 Z-2.2219
G1 X9.5017 Y16.5276 Z-2.2266
G1 X9.5325 Y16.5505 Z-2.2312
G1 X9.5655 Y16.5702 Z-2.2359
G1 X9.6002 Y16.5866 Z-2.2406
G1 X9.6364 Y16.5996 Z-2.2453
G1 X9.6736 Y16.6089 Z-2.25
G1 X9.7116 Y16.6146 Z-2.2547
G1 X9.75 Y16.6164 Z-2.2594
G1 X9.7884 Y16.6146 Z-2.2641
G1 X9.8264 Y16.6089 Z-2.2687
G1 X9.8636 Y16.5996 Z-2.2734
G1 X9.8998 Y16.5866 Z-2.2781
G1 X9.9345 Y16.5702 Z-2.2828
G1 X9.9675 Y16.5505 Z-2.2875
G1 X9.9983 Y16.5276 Z-2.2922
G1 X10.0268 Y16.5018 Z-2.2969
G1 X10.0526 Y16.4733 Z-2.3016
G1 X10.0755 Y16.4425 Z-2.3063
G1 X10.0952 Y16.4095 Z-2.3109
G1 X10.1116 Y16.3748 Z-2.3156
G1 X10.1246 Y16.3386 Z-2.3203
G1 X10.1339 Y16.3014 Z-2.325
G1 X10.1396 Y16.2634 Z-2.3297
G1 X10.1414 Y16.225 Z-2.3344
G1 X10.1396 Y16.1866 Z-2.3391
G1 X10.1339 Y16.1486 Z-2.3437
G1 X10.1246 Y16.1114 Z-2.3484
G1 X10.1116 Y16.0752 Z-2.3531
G1 X10.0952 Y16.0405 Z-2.3578
G1 X10.0755 Y16.0075 Z-2.3625
G1 X10.0526 Y15.9767 Z-2.3672
G1 X10.0268 Y15.9482 Z-2.3719
G1 X9.9983 Y15.9224 Z-2.3766
G1 X9.9675 Y15.8995 Z-2.3813
G1 X9.9345 Y15.8798 Z-2.3859
G1 X9.8998 Y15.8634 Z-2.3906
G1 X9.8636 Y15.8504 Z-2.3953
G1 X9.8264 Y15.8411 Z-2.4
G1 F100.0 X9.8851 Y15.4454
G1 F500.0 X9.8276 Y15.4369
G1 X9.75 Y15.4331
G1 X9.6724 Y15.4369
G1 X9.5955 Y15.4483
G1 X9.5201 Y15.4672
G1 X9.4469 Y15.4934
G1 X9.3767 Y15.5266
G1 X9.31 Y15.5665
G1 X9.2476 Y15.6128
G1 X9.19 Y15.665
G1 X9.1378 Y15.7226
G1 X9.0915 Y15.785
G1 X9.0516 Y15.8517
G1 X9.0184 Y15.9219
G1 X8.9922 Y15.9951
G1 X8.9733 Y16.0705
G1 X8.9619 Y16.1474
G1 X8.9581 Y16.225
G1 X8.9619 Y16.3026
G1 X8.9733 Y16.3795
G1 X8.9922 Y16.4549
G1 X9.0184 Y16.5281
G1 X9.0516 Y16.5983
G1 X9.0915 Y16.665
G1 X9.1378 Y16.7274
G1 X9.19 Y16.785
G1 X9.2476 Y16.8372
G1 X9.31 Y16.8835
G1 X9.3767 Y16.9234
G1 X9.4469 Y16.9566
G1 X9.5201 Y16.9828
G1 X9.5955 Y17.0017
G1 X9.6724 Y17.0131
G1 X9.75 Y17.0169
G1 X9.8276 Y17.0131
G1 X9.9045 Y17.0017
G1 X9.9799 Y16.9828
G1 X10.0531 Y16.9566
G1 X10.1233 Y16.9234
G1 X10.19 Y16.8835
G1 X10.2524 Y16.8372
G1 X10.31 Y16.785
G1 X10.3622 Y16.7274
G1 X10.4085 Y16.665
G1 X10.4484 Y16.5983
G1 X10.4816 Y16.5281
G1 X10.5078 Y16.4549
G1 X10.5267 Y16.3795
G1 X10.5381 Y16.3026
G1 X10.5419 Y16.225
G1 X10.5381 Y16.1474
G1 X10.5267 Y16.0705
G1 X10.5078 Y15.9951
G1 X10.4816 Y15.9219
G1 X10.4484 Y15.8517
G1 X10.4085 Y15.785
G1 X10.3622 Y15.7226
G1 X10.31 Y15.665
G1 X10.2524 Y15.6128
G1 X10.19 Y15.5665
G1 X10.1233 Y15.5266
G1 X10.0531 Y15.4934
G1 X9.9799 Y15.4672
G1 X9.9045 Y15.4483
G1 X9.8851 Y15.4454
G1 F100.0 X10.0024 Y14.6541
G1 F500.0 X9.9061 Y14.6398
G1 X9.75 Y14.6321
G1 X9.5939 Y14.6398
G1 X9.4392 Y14.6627
G1 X9.2876 Y14.7007
G1 X9.1404 Y14.7534
G1 X8.9991 Y14.8202
G1 X8.865 Y14.9006
G1 X8.7395 Y14.9937
G1 X8.6237 Y15.0987
G1 X8.5187 Y15.2145
G1 X8.4256 Y15.34
G1 X8.3452 Y15.4741
G1 X8.2784 Y15.6154
G1 X8.2257 Y15.7626
G1 X8.1877 Y15.9143
G1 X8.1648 Y16.0689
G1 X8.1571 Y16.225
G1 X8.1648 Y16.3811
G1 X8.1877 Y16.5357
G1 X8.2257 Y16.6874
G1 X8.2784 Y16.8346
G1 X8.3452 Y16.9759
G1 X8.4256 Y17.11
G1 X8.5187 Y17.2355
G1 X8.6237 Y17.3513
G1 X8.7395 Y17.4563
G1 X8.865 Y17.5494
G1 X8.9991 Y17.6298
G1 X9.1404 Y17.6966
G1 X9.2876 Y17.7493
G1 X9.4392 Y17.7873
G1 X9.5939 Y17.8102
G1 X9.75 Y17.8179
G1 X9.9061 Y17.8102
G1 X10.0608 Y17.7873
G1 X10.2124 Y17.7493
G1 X10.3596 Y17.6966
G1 X10.5009 Y17.6298
G1 X10.635 Y17.5494
G1 X10.7605 Y17.4563
G1 X10.8763 Y17.3513
G1 X10.9813 Y17.2355
G1 X11.0744 Y17.11
G1 X11.1548 Y16.9759
G1 X11.2216 Y16.8346
G1 X11.2743 Y16.6874
G1 X11.3123 Y16.5358
G1 X11.3352 Y16.3811
G1 X11.3429 Y16.225
G1 X11.3352 Y16.0689
G1 X11.3123 Y15.9142
G1 X11.2743 Y15.7626
G1 X11.2216 Y15.6154
G1 X11.1548 Y15.4741
G1 X11.0744 Y15.34
G1 X10.9813 Y15.2145
G1 X10.8763 Y15.0987
G1 X10.7605 Y14.9937
G1 X10.635 Y14.9006
G1 X10.5009 Y14.8202
G1 X10.3596 Y14.7534
G1 X10.2124 Y14.7007
G1 X10.0608 Y14.6627
G1 X10.0024 Y14.6541
G1 F100.0 X10.1198 Y13.8627
G1 F500.0 X9.9846 Y13.8427
G1 X9.75 Y13.8312
G1 X9.5154 Y13.8427
G1 X9.283 Y13.8771
G1 X9.0551 Y13.9342
G1 X8.8339 Y14.0134
G1 X8.6215 Y14.1138
G1 X8.42 Y14.2346
G1 X8.2314 Y14.3745
G1 X8.0573 Y14.5323
G1 X7.8995 Y14.7064
G1 X7.7596 Y14.8951
G1 X7.6388 Y15.0965
G1 X7.5384 Y15.3089
G1 X7.4592 Y15.5301
G1 X7.4021 Y15.758
G1 X7.3677 Y15.9904
G1 X7.3562 Y16.225
G1 X7.3677 Y16.4596
G1 X7.4021 Y16.692
G1 X7.4592 Y16.9199
G1 X7.5384 Y17.1411
G1 X7.6388 Y17.3535
G1 X7.7596 Y17.5549
G1 X7.8995 Y17.7436
G1 X8.0573 Y17.9177
G1 X8.2314 Y18.0755
G1 X8.42 Y18.2154
G1 X8.6215 Y18.3362
G1 X8.8339 Y18.4366
G1 X9.0551 Y18.5158
G1 X9.283 Y18.5729
G1 X9.5154 Y18.6073
G1 X9.75 Y18.6188
G1 X9.9846 Y18.6073
G1 X10.217 Y18.5729
G1 X10.4449 Y18.5158
G1 X10.6661 Y18.4366
G1 X10.8785 Y18.3362
G1 X11.0799 Y18.2154
G1 X11.2686 Y18.0755
G1 X11.4427 Y17.9177
G1 X11.6005 Y17.7436
G1 X11.7404 Y17.5549
G1 X11.8612 Y17.3535
G1 X11.9616 Y17.1411
G1 X12.0408 Y16.9199
G1 X12.0979 Y16.692
G1 X12.1323 Y16.4596
G1 X12.1438 Y16.225
G1 X12.1323 Y15.9904
G1 X12.0979 Y15.758
G1 X12.0408 Y15.5301
G1 X11.9616 Y15.3089
G1 X11.8612 Y15.0965
G1 X11.7404 Y14.895
G1 X11.6005 Y14.7064
G1 X11.4427 Y14.5323
G1 X11.2686 Y14.3745
G1 X11.0799 Y14.2346
G1 X10.8785 Y14.1138
G1 X10.6661 Y14.0134
G1 X10.4449 Y13.9342
G1 X10.217 Y13.8771
G1 X10.1198 Y13.8627
G1 F100.0 X10.2372 Y13.0714
G1 F500.0 X10.0631 Y13.0456
G1 X9.75 Y13.0302
G1 X9.4369 Y13.0456
G1 X9.1267 Y13.0916
G1 X8.8226 Y13.1678
G1 X8.5274 Y13.2734
G1 X8.244 Y13.4074
G1 X7.9751 Y13.5686
G1 X7.7232 Y13.7554
G1 X7.4909 Y13.9659
G1 X7.2804 Y14.1982
G1 X7.0936 Y14.4501
G1 X6.9324 Y14.719
G1 X6.7984 Y15.0024
G1 X6.6928 Y15.2976
G1 X6.6166 Y15.6017
G1 X6.5706 Y15.9119
G1 X6.5552 Y16.225
G1 X6.5706 Y16.5381
G1 X6.6166 Y16.8483
G1 X6.6928 Y17.1524
G1 X6.7984 Y17.4476
G1 X6.9324 Y17.731
G1 X7.0936 Y17.9999
G1 X7.2804 Y18.2518
G1 X7.4909 Y18.4841
G1 X7.7232 Y18.6946
G1 X7.9751 Y18.8814
G1 X8.244 Y19.0426
G1 X8.5274 Y19.1766
G1 X8.8226 Y19.2822
G1 X9.1267 Y19.3584
G1 X9.4369 Y19.4044
G1 X9.75 Y19.4198
G1 X10.0631 Y19.4044
G1 X10.3733 Y19.3584
G1 X10.6774 Y19.2822
G1 X10.9726 Y19.1766
G1 X11.256 Y19.0426
G1 X11.5249 Y18.8814
G1 X11.7768 Y18.6946
G1 X12.0091 Y18.4841
G1 X12.2196 Y18.2518
G1 X12.4064 Y17.9999
G1 X12.5676 Y17.731
G1 X12.7016 Y17.4476
G1 X12.8072 Y17.1524
G1 X12.8834 Y16.8483
G1 X12.9294 Y16.5381
G1 X12.9448 Y16.225
G1 X12.9294 Y15.9119
G1 X12.8834 Y15.6017
G1 X12.8072 Y15.2976
G1 X12.7016 Y15.0024
G1 X12.5676 Y14.719
G1 X12.4064 Y14.4501
G1 X12.2196 Y14.1982
G1 X12.0091 Y13.9659
G1 X11.7768 Y13.7554
G1 X11.5249 Y13.5686
G1 X11.256 Y13.4074
G1 X10.9726 Y13.2734
G1 X10.6774 Y13.1678
G1 X10.3733 Y13.0916
G1 X10.2372 Y13.0714
G1 F100.0 X10.3546 Y12.28
G1 F500.0 X10.1417 Y12.2485
G1 X9.75 Y12.2292
G1 X9.3583 Y12.2485
G1 X8.9705 Y12.306
G1 X8.5901 Y12.4013
G1 X8.2209 Y12.5334
G1 X7.8664 Y12.701
G1 X7.5301 Y12.9026
G1 X7.2151 Y13.1362
G1 X6.9246 Y13.3996
G1 X6.6612 Y13.6901
G1 X6.4276 Y14.0051
G1 X6.226 Y14.3414
G1 X6.0584 Y14.6959
G1 X5.9263 Y15.0651
G1 X5.831 Y15.4455
G1 X5.7735 Y15.8333
G1 X5.7542 Y16.225
G1 X5.7735 Y16.6167
G1 X5.831 Y17.0045
G1 X5.9263 Y17.3849
G1 X6.0584 Y17.7541
G1 X6.226 Y18.1086
G1 X6.4276 Y18.4449
G1 X6.6612 Y18.7599
G1 X6.9246 Y19.0504
G1 X7.2151 Y19.3138
G1 X7.5301 Y19.5474
G1 X7.8664 Y19.749
G1 X8.2209 Y19.9166
G1 X8.5901 Y20.0487
G1 X8.9705 Y20.144
G1 X9.3583 Y20.2015
G1 X9.75 Y20.2208
G1 X10.1417 Y20.2015
G1 X10.5295 Y20.144
G1 X10.9099 Y20.0487
G1 X11.2791 Y19.9166
G1 X11.6336 Y19.749
G1 X11.9699 Y19.5474
G1 X12.2849 Y19.3138
G1 X12.5754 Y19.0504
G1 X12.8388 Y18.7599
G1 X13.0724 Y18.4449
G1 X13.274 Y18.1086
G1 X13.4416 Y17.7541
G1 X13.5737 Y17.3849
G1 X13.669 Y17.0045
G1 X13.7265 Y16.6167
G1 X13.7458 Y16.225
G1 X13.7265 Y15.8333
G1 X13.669 Y15.4455
G1 X13.5737 Y15.0651
G1 X13.4416 Y14.6959
G1 X13.274 Y14.3414
G1 X13.0724 Y14.0051
G1 X12.8388 Y13.6901
G1 X12.5754 Y13.3996
G1 X12.2849 Y13.1362
G1 X11.9699 Y12.9026
G1 X11.6336 Y12.701
G1 X11.2791 Y12.5334
G1 X10.9099 Y12.4013
G1 X10.5295 Y12.306
G1 X10.3546 Y12.28
G1 F100.0 X10.472 Y11.4887
G1 F500.0 X10.2202 Y11.4514
G1 X9.75 Y11.4283
G1 X9.2798 Y11.4514
G1 X8.8142 Y11.5204
G1 X8.3576 Y11.6348
G1 X7.9144 Y11.7934
G1 X7.4888 Y11.9946
G1 X7.0851 Y12.2367
G1 X6.707 Y12.5171
G1 X6.3582 Y12.8332
G1 X6.0421 Y13.182
G1 X5.7617 Y13.5601
G1 X5.5197 Y13.9638
G1 X5.3184 Y14.3894
G1 X5.1598 Y14.8326
G1 X5.0454 Y15.2892
G1 X4.9764 Y15.7548
G1 X4.9533 Y16.225
G1 X4.9764 Y16.6952
G1 X5.0454 Y17.1608
G1 X5.1598 Y17.6174
G1 X5.3184 Y18.0606
G1 X5.5197 Y18.4862
G1 X5.7617 Y18.8899
G1 X6.0421 Y19.268
G1 X6.3582 Y19.6168
G1 X6.707 Y19.9329
G1 X7.0851 Y20.2133
G1 X7.4888 Y20.4553
G1 X7.9144 Y20.6566
G1 X8.3576 Y20.8152
G1 X8.8142 Y20.9296
G1 X9.2798 Y20.9986
G1 X9.75 Y21.0217
G1 X10.2202 Y20.9986
G1 X10.6858 Y20.9296
G1 X11.1424 Y20.8152
G1 X11.5856 Y20.6566
G1 X12.0112 Y20.4553
G1 X12.4149 Y20.2133
G1 X12.793 Y19.9329
G1 X13.1418 Y19.6168
G1 X13.4579 Y19.268
G1 X13.7383 Y18.8899
G1 X13.9804 Y18.4862
G1 X14.1816 Y18.0606
G1 X14.3402 Y17.6174
G1 X14.4546 Y17.1608
G1 X14.5236 Y16.6952
G1 X14.5467 Y16.225
G1 X14.5236 Y15.7548
G1 X14.4546 Y15.2892
G1 X14.3402 Y14.8326
G1 X14.1816 Y14.3894
G1 X13.9804 Y13.9638
G1 X13.7383 Y13.5601
G1 X13.4579 Y13.182
G1 X13.1418 Y12.8332
G1 X12.793 Y12.5171
G1 X12.4149 Y12.2367
G1 X12.0112 Y11.9946
G1 X11.5856 Y11.7934
G1 X11.1424 Y11.6348
G1 X10.6858 Y11.5204
G1 X10.472 Y11.4887
G1 F100.0 X10.5894 Y10.6974
G1 F500.0 X10.2987 Y10.6542
G1 X9.75 Y10.6273
G1 X9.2013 Y10.6542
G1 X8.6579 Y10.7348
G1 X8.1251 Y10.8683
G1 X7.6079 Y11.0534
G1 X7.1113 Y11.2883
G1 X6.6401 Y11.5707
G1 X6.1989 Y11.8979
G1 X5.7918 Y12.2668
G1 X5.4229 Y12.6739
G1 X5.0957 Y13.1151
G1 X4.8133 Y13.5863
G1 X4.5784 Y14.0828
G1 X4.3933 Y14.6001
G1 X4.2599 Y15.1329
G1 X4.1792 Y15.6763
G1 X4.1523 Y16.225
G1 X4.1792 Y16.7737
G1 X4.2599 Y17.3171
G1 X4.3933 Y17.8499
G1 X4.5784 Y18.3672
G1 X4.8133 Y18.8637
G1 X5.0957 Y19.3349
G1 X5.4229 Y19.7761
G1 X5.7918 Y20.1832
G1 X6.1989 Y20.5521
G1 X6.6401 Y20.8793
G1 X7.1113 Y21.1617
G1 X7.6079 Y21.3966
G1 X8.1251 Y21.5817
G1 X8.6579 Y21.7151
G1 X9.2013 Y21.7958
G1 X9.75 Y21.8227
G1 X10.2987 Y21.7958
G1 X10.8421 Y21.7151
