( Made using CamBam - http://www.cambam.co.uk )
( ssc_plexi_Top_Panel 2/23/2021 11:04:39 PM )
( T2 : 2.0 )
( CUTVIEWER )
( FROM/0,0,5 )
( Select dummy tool to avoid warnings )
( TOOL/MILL,1,0,20.0,0 )
( STOCK/BLOCK,180.0,95.0,4.0,0.0,0.0,4.0 )
G21 G90 G91.1 G64 G40
G0 Z3.0
( T2 : 2.0 )
( Tool Taper coming soon )
( TOOL/MILL,2.0,0.0,0.0,0 )
T2 M6
( connectorSlot_cutout )
G17
M3 S1000
G0 X25.2 Y83.8
G0 Z1.0
G1 F200.0 Z-0.3
G1 F700.0 X11.9
G1 Y84.1
G1 X25.2
G1 Y83.8
G1 F200.0 X26.0
G1 F700.0 Y83.0
G1 X11.1
G1 Y84.9
G1 X26.0
G1 Y83.8
G1 F200.0 X25.2
G1 Z-0.4
G1 F700.0 X11.9
G1 Y84.1
G1 X25.2
G1 Y83.8
G1 F200.0 X26.0
G1 F700.0 Y83.0
G1 X11.1
G1 Y84.9
G1 X26.0
G1 Y83.8
G1 F200.0 X25.2
G1 Z-0.5
G1 F700.0 X11.9
G1 Y84.1
G1 X25.2
G1 Y83.8
G1 F200.0 X26.0
G1 F700.0 Y83.0
G1 X11.1
G1 Y84.9
G1 X26.0
G1 Y83.8
G0 Z3.0
G0 X25.2 Y13.2
G0 Z1.0
G1 F200.0 Z-0.3
G1 F700.0 Y12.9
G1 X11.9
G1 Y13.2
G1 X25.2
G1 F200.0 X26.0
G1 F700.0 Y12.1
G1 X11.1
G1 Y14.0
G1 X26.0
G1 Y13.2
G1 F200.0 X25.2
G1 Z-0.4
G1 F700.0 Y12.9
G1 X11.9
G1 Y13.2
G1 X25.2
G1 F200.0 X26.0
G1 F700.0 Y12.1
G1 X11.1
G1 Y14.0
G1 X26.0
G1 Y13.2
G1 F200.0 X25.2
G1 Z-0.5
G1 F700.0 Y12.9
G1 X11.9
G1 Y13.2
G1 X25.2
G1 F200.0 X26.0
G1 F700.0 Y12.1
G1 X11.1
G1 Y14.0
G1 X26.0
G1 Y13.2
G0 Z3.0
G0 X154.8
G0 Z1.0
G1 F200.0 Z-0.3
G1 F700.0 X168.1
G1 Y12.9
G1 X154.8
G1 Y13.2
G1 F200.0 Y14.0
G1 F700.0 X168.9
G1 Y12.1
G1 X154.0
G1 Y14.0
G1 X154.8
G1 F200.0 Y13.2
G1 Z-0.4
G1 F700.0 X168.1
G1 Y12.9
G1 X154.8
G1 Y13.2
G1 F200.0 Y14.0
G1 F700.0 X168.9
G1 Y12.1
G1 X154.0
G1 Y14.0
G1 X154.8
G1 F200.0 Y13.2
G1 Z-0.5
G1 F700.0 X168.1
G1 Y12.9
G1 X154.8
G1 Y13.2
G1 F200.0 Y14.0
G1 F700.0 X168.9
G1 Y12.1
G1 X154.0
G1 Y14.0
G1 X154.8
G0 Z3.0
G0 Y83.8
G0 Z1.0
G1 F200.0 Z-0.3
G1 F700.0 Y84.1
G1 X168.1
G1 Y83.8
G1 X154.8
G1 F200.0 Y83.0
G1 F700.0 X154.0
G1 Y84.9
G1 X168.9
G1 Y83.0
G1 X154.8
G1 F200.0 Y83.8
G1 Z-0.4
G1 F700.0 Y84.1
G1 X168.1
G1 Y83.8
G1 X154.8
G1 F200.0 Y83.0
G1 F700.0 X154.0
G1 Y84.9
G1 X168.9
G1 Y83.0
G1 X154.8
G1 F200.0 Y83.8
G1 Z-0.5
G1 F700.0 Y84.1
G1 X168.1
G1 Y83.8
G1 X154.8
G1 F200.0 Y83.0
G1 F700.0 X154.0
G1 Y84.9
G1 X168.9
G1 Y83.0
G1 X154.8
( connectorSlot_3D )
S1000
G0 Z3.0
G0 X25.3 Y83.7
G0 Z1.0
G1 F200.0 Z-0.5
G1 F700.0 X11.8
G1 Y84.2
G1 X25.3
G1 Y83.7
G1 F200.0 X26.1
G1 F700.0 Y82.9
G1 X11.0
G1 Y85.0
G1 X26.1
G1 Y83.7
G0 Z3.0
G0 X25.3 Y13.3
G0 Z1.0
G1 F200.0 Z-0.5
G1 F700.0 Y12.8
G1 X11.8
G1 Y13.3
G1 X25.3
G1 F200.0 X26.1
G1 F700.0 Y12.0
G1 X11.0
G1 Y14.1
G1 X26.1
G1 Y13.3
G0 Z3.0
G0 X154.7
G0 Z1.0
G1 F200.0 Z-0.5
G1 F700.0 X168.2
G1 Y12.8
G1 X154.7
G1 Y13.3
G1 F200.0 Y14.1
G1 F700.0 X169.0
G1 Y12.0
G1 X153.9
G1 Y14.1
G1 X154.7
G0 Z3.0
G0 Y83.7
G0 Z1.0
G1 F200.0 Z-0.5
G1 F700.0 Y84.2
G1 X168.2
G1 Y83.7
G1 X154.7
G1 F200.0 Y82.9
G1 F700.0 X153.9
G1 Y85.0
G1 X169.0
G1 Y82.9
G1 X154.7
( connectorSlot_Overcut )
S1000
G0 Z3.0
G0 X26.1
G1 F200.0 Z-0.3
G1 F700.0 X11.0
G1 Y85.0
G1 X26.1
G1 Y82.9
G1 F200.0 Z-0.5
G1 F700.0 X11.0
G1 Y85.0
G1 X26.1
G1 Y82.9
G0 Z3.0
G0 Y14.1
G1 F200.0 Z-0.3
G1 F700.0 Y12.0
G1 X11.0
G1 Y14.1
G1 X26.1
G1 F200.0 Z-0.5
G1 F700.0 Y12.0
G1 X11.0
G1 Y14.1
G1 X26.1
G0 Z3.0
G0 X153.9
G1 F200.0 Z-0.3
G1 F700.0 X169.0
G1 Y12.0
G1 X153.9
G1 Y14.1
G1 F200.0 Z-0.5
G1 F700.0 X169.0
G1 Y12.0
G1 X153.9
G1 Y14.1
G0 Z3.0
G0 Y82.9
G1 F200.0 Z-0.3
G1 F700.0 Y85.0
G1 X169.0
G1 Y82.9
G1 X153.9
G1 F200.0 Z-0.5
G1 F700.0 Y85.0
G1 X169.0
G1 Y82.9
G1 X153.9
( connectorSlot_WallTrail )
S1000
G0 Z3.0
G0 X154.0 Y14.0
G1 F200.0 Z-0.3
G1 F700.0 X170.0
G3 X171.1 Y15.1 I0.0 J1.1
G1 Y81.9
G3 X170.0 Y83.0 I-1.1 J0.0
G1 X154.0
G1 Y86.0
G3 X152.9 Y87.1 I-1.1 J0.0
G1 X27.1
G3 X26.0 Y86.0 I0.0 J-1.1
G1 Y83.0
G1 X10.0
G3 X8.9 Y81.9 I0.0 J-1.1
G1 Y15.1
G3 X10.0 Y14.0 I1.1 J0.0
G1 X26.0
G1 Y11.0
G3 X27.1 Y9.9 I1.1 J0.0
G1 X152.9
G3 X154.0 Y11.0 I0.0 J1.1
G1 Y14.0
G1 F200.0 Z-0.4
G1 F700.0 X170.0
G3 X171.1 Y15.1 I0.0 J1.1
G1 Y81.9
G3 X170.0 Y83.0 I-1.1 J0.0
G1 X154.0
G1 Y86.0
G3 X152.9 Y87.1 I-1.1 J0.0
G1 X27.1
G3 X26.0 Y86.0 I0.0 J-1.1
G1 Y83.0
G1 X10.0
G3 X8.9 Y81.9 I0.0 J-1.1
G1 Y15.1
G3 X10.0 Y14.0 I1.1 J0.0
G1 X26.0
G1 Y11.0
G3 X27.1 Y9.9 I1.1 J0.0
G1 X152.9
G3 X154.0 Y11.0 I0.0 J1.1
G1 Y14.0
G1 F200.0 Z-0.5
G1 F700.0 X170.0
G3 X171.1 Y15.1 I0.0 J1.1
G1 Y81.9
G3 X170.0 Y83.0 I-1.1 J0.0
G1 X154.0
G1 Y86.0
G3 X152.9 Y87.1 I-1.1 J0.0
G1 X27.1
G3 X26.0 Y86.0 I0.0 J-1.1
G1 Y83.0
G1 X10.0
G3 X8.9 Y81.9 I0.0 J-1.1
G1 Y15.1
G3 X10.0 Y14.0 I1.1 J0.0
G1 X26.0
G1 Y11.0
G3 X27.1 Y9.9 I1.1 J0.0
G1 X152.9
G3 X154.0 Y11.0 I0.0 J1.1
G1 Y14.0
( connectorWallTrail_3D )
S1000
G1 F200.0 X153.9 Y14.1
G1 F700.0 X170.0
G3 X171.0 Y15.1 I0.0 J1.0
G1 Y81.9
G3 X170.0 Y82.9 I-1.0 J0.0
G1 X153.9
G1 Y86.0
G3 X152.9 Y87.0 I-1.0 J0.0
G1 X27.1
G3 X26.1 Y86.0 I0.0 J-1.0
G1 Y82.9
G1 X10.0
G3 X9.0 Y81.9 I0.0 J-1.0
G1 Y15.1
G3 X10.0 Y14.1 I1.0 J0.0
G1 X26.1
G1 Y11.0
G3 X27.1 Y10.0 I1.0 J0.0
G1 X152.9
G3 X153.9 Y11.0 I0.0 J1.0
G1 Y14.1
( wallTrail_cutout )
S1000
G0 Z3.0
G0 X171.3 Y8.6354
G0 Z1.0
G1 F200.0 Z-0.3
G1 F700.0 Y7.7
G1 X8.7
G1 Y8.6354
G3 X10.0 Y8.3016 I1.3 J2.3646
G1 X170.0
G3 X171.3 Y8.6354 I0.0 J2.6984
G1 F200.0 X170.9146 Y9.3364
G3 F700.0 X171.8984 Y11.0 I-0.9146 J1.6636
G1 Y86.0
G3 X170.0 Y87.8984 I-1.8984 J0.0
G1 X10.0
G3 X8.1016 Y86.0 I0.0 J-1.8984
G1 Y11.0
G3 X10.0 Y9.1016 I1.8984 J0.0
G1 X170.0
G3 X170.9146 Y9.3364 I0.0 J1.8984
G1 F200.0 X170.5299 Y10.0361
G3 F700.0 X171.1 Y11.0 I-0.5299 J0.9639
G1 Y86.0
G3 X170.0 Y87.1 I-1.1 J0.0
G1 X10.0
G3 X8.9 Y86.0 I0.0 J-1.1
G1 Y11.0
G3 X10.0 Y9.9 I1.1 J0.0
G1 X170.0
G3 X170.5299 Y10.0361 I0.0 J1.1
G0 Z3.0
G0 X172.1
G0 Z1.0
G1 F200.0 Z-0.3
G1 F700.0 Y6.9
G1 X7.9
G1 Y88.1
G1 X172.1
G1 Y10.0361
G1 F200.0 X172.9
G1 F700.0 Y6.1
G1 X7.1
G1 Y88.9
G1 X172.9
G1 Y10.0361
G0 Z3.0
G0 X171.3 Y8.6354
G0 Z0.7
G1 F200.0 Z-0.6
G1 F700.0 Y7.7
G1 X8.7
G1 Y8.6354
G3 X10.0 Y8.3016 I1.3 J2.3646
G1 X170.0
G3 X171.3 Y8.6354 I0.0 J2.6984
G1 F200.0 X170.9146 Y9.3364
G3 F700.0 X171.8984 Y11.0 I-0.9146 J1.6636
G1 Y86.0
G3 X170.0 Y87.8984 I-1.8984 J0.0
G1 X10.0
G3 X8.1016 Y86.0 I0.0 J-1.8984
G1 Y11.0
G3 X10.0 Y9.1016 I1.8984 J0.0
G1 X170.0
G3 X170.9146 Y9.3364 I0.0 J1.8984
G1 F200.0 X170.5299 Y10.0361
G3 F700.0 X171.1 Y11.0 I-0.5299 J0.9639
G1 Y86.0
G3 X170.0 Y87.1 I-1.1 J0.0
G1 X10.0
G3 X8.9 Y86.0 I0.0 J-1.1
G1 Y11.0
G3 X10.0 Y9.9 I1.1 J0.0
G1 X170.0
G3 X170.5299 Y10.0361 I0.0 J1.1
G0 Z3.0
G0 X172.1
G0 Z0.7
G1 F200.0 Z-0.6
G1 F700.0 Y6.9
G1 X7.9
G1 Y88.1
G1 X172.1
G1 Y10.0361
G1 F200.0 X172.9
G1 F700.0 Y6.1
G1 X7.1
G1 Y88.9
G1 X172.9
G1 Y10.0361
G0 Z3.0
G0 X171.3 Y8.6354
G0 Z0.4
G1 F200.0 Z-0.9
G1 F700.0 Y7.7
G1 X8.7
G1 Y8.6354
G3 X10.0 Y8.3016 I1.3 J2.3646
G1 X170.0
G3 X171.3 Y8.6354 I0.0 J2.6984
G1 F200.0 X170.9146 Y9.3364
G3 F700.0 X171.8984 Y11.0 I-0.9146 J1.6636
G1 Y86.0
G3 X170.0 Y87.8984 I-1.8984 J0.0
G1 X10.0
G3 X8.1016 Y86.0 I0.0 J-1.8984
G1 Y11.0
G3 X10.0 Y9.1016 I1.8984 J0.0
G1 X170.0
G3 X170.9146 Y9.3364 I0.0 J1.8984
G1 F200.0 X170.5299 Y10.0361
G3 F700.0 X171.1 Y11.0 I-0.5299 J0.9639
G1 Y86.0
G3 X170.0 Y87.1 I-1.1 J0.0
G1 X10.0
G3 X8.9 Y86.0 I0.0 J-1.1
G1 Y11.0
G3 X10.0 Y9.9 I1.1 J0.0
G1 X170.0
G3 X170.5299 Y10.0361 I0.0 J1.1
G0 Z3.0
G0 X172.1
G0 Z0.4
G1 F200.0 Z-0.9
G1 F700.0 Y6.9
G1 X7.9
G1 Y88.1
G1 X172.1
G1 Y10.0361
G1 F200.0 X172.9
G1 F700.0 Y6.1
G1 X7.1
G1 Y88.9
G1 X172.9
G1 Y10.0361
G0 Z3.0
G0 X171.3 Y8.6354
G0 Z0.1
G1 F200.0 Z-1.2
G1 F700.0 Y7.7
G1 X8.7
G1 Y8.6354
G3 X10.0 Y8.3016 I1.3 J2.3646
G1 X170.0
G3 X171.3 Y8.6354 I0.0 J2.6984
G1 F200.0 X170.9146 Y9.3364
G3 F700.0 X171.8984 Y11.0 I-0.9146 J1.6636
G1 Y86.0
G3 X170.0 Y87.8984 I-1.8984 J0.0
G1 X10.0
G3 X8.1016 Y86.0 I0.0 J-1.8984
G1 Y11.0
G3 X10.0 Y9.1016 I1.8984 J0.0
G1 X170.0
G3 X170.9146 Y9.3364 I0.0 J1.8984
G1 F200.0 X170.5299 Y10.0361
G3 F700.0 X171.1 Y11.0 I-0.5299 J0.9639
G1 Y86.0
G3 X170.0 Y87.1 I-1.1 J0.0
G1 X10.0
G3 X8.9 Y86.0 I0.0 J-1.1
G1 Y11.0
G3 X10.0 Y9.9 I1.1 J0.0
G1 X170.0
G3 X170.5299 Y10.0361 I0.0 J1.1
G0 Z3.0
G0 X172.1
G0 Z0.1
G1 F200.0 Z-1.2
G1 F700.0 Y6.9
G1 X7.9
G1 Y88.1
G1 X172.1
G1 Y10.0361
G1 F200.0 X172.9
G1 F700.0 Y6.1
G1 X7.1
G1 Y88.9
G1 X172.9
G1 Y10.0361
G0 Z3.0
G0 X171.3 Y8.6354
G0 Z-0.2
G1 F200.0 Z-1.5
G1 F700.0 Y7.7
G1 X8.7
G1 Y8.6354
G3 X10.0 Y8.3016 I1.3 J2.3646
G1 X170.0
G3 X171.3 Y8.6354 I0.0 J2.6984
G1 F200.0 X170.9146 Y9.3364
G3 F700.0 X171.8984 Y11.0 I-0.9146 J1.6636
G1 Y86.0
G3 X170.0 Y87.8984 I-1.8984 J0.0
G1 X10.0
G3 X8.1016 Y86.0 I0.0 J-1.8984
G1 Y11.0
G3 X10.0 Y9.1016 I1.8984 J0.0
G1 X170.0
G3 X170.9146 Y9.3364 I0.0 J1.8984
G1 F200.0 X170.5299 Y10.0361
G3 F700.0 X171.1 Y11.0 I-0.5299 J0.9639
G1 Y86.0
G3 X170.0 Y87.1 I-1.1 J0.0
G1 X10.0
G3 X8.9 Y86.0 I0.0 J-1.1
G1 Y11.0
G3 X10.0 Y9.9 I1.1 J0.0
G1 X170.0
G3 X170.5299 Y10.0361 I0.0 J1.1
G0 Z3.0
G0 X172.1
G0 Z-0.2
G1 F200.0 Z-1.5
G1 F700.0 Y6.9
G1 X7.9
G1 Y88.1
G1 X172.1
G1 Y10.0361
G1 F200.0 X172.9
G1 F700.0 Y6.1
G1 X7.1
G1 Y88.9
G1 X172.9
G1 Y10.0361
G0 Z3.0
G0 X171.3 Y8.6354
G0 Z-0.5
G1 F200.0 Z-1.8
G1 F700.0 Y7.7
G1 X8.7
G1 Y8.6354
G3 X10.0 Y8.3016 I1.3 J2.3646
G1 X170.0
G3 X171.3 Y8.6354 I0.0 J2.6984
G1 F200.0 X170.9146 Y9.3364
G3 F700.0 X171.8984 Y11.0 I-0.9146 J1.6636
G1 Y86.0
G3 X170.0 Y87.8984 I-1.8984 J0.0
G1 X10.0
G3 X8.1016 Y86.0 I0.0 J-1.8984
G1 Y11.0
G3 X10.0 Y9.1016 I1.8984 J0.0
G1 X170.0
G3 X170.9146 Y9.3364 I0.0 J1.8984
G1 F200.0 X170.5299 Y10.0361
G3 F700.0 X171.1 Y11.0 I-0.5299 J0.9639
G1 Y86.0
G3 X170.0 Y87.1 I-1.1 J0.0
G1 X10.0
G3 X8.9 Y86.0 I0.0 J-1.1
G1 Y11.0
G3 X10.0 Y9.9 I1.1 J0.0
G1 X170.0
G3 X170.5299 Y10.0361 I0.0 J1.1
G0 Z3.0
G0 X172.1
G0 Z-0.5
G1 F200.0 Z-1.8
G1 F700.0 Y6.9
G1 X7.9
G1 Y88.1
G1 X172.1
G1 Y10.0361
G1 F200.0 X172.9
G1 F700.0 Y6.1
G1 X7.1
G1 Y88.9
G1 X172.9
G1 Y10.0361
G0 Z3.0
G0 X171.3 Y8.6354
G0 Z-0.8
G1 F200.0 Z-1.9
G1 F700.0 Y7.7
G1 X8.7
G1 Y8.6354
G3 X10.0 Y8.3016 I1.3 J2.3646
G1 X170.0
G3 X171.3 Y8.6354 I0.0 J2.6984
G1 F200.0 X170.9146 Y9.3364
G3 F700.0 X171.8984 Y11.0 I-0.9146 J1.6636
G1 Y86.0
G3 X170.0 Y87.8984 I-1.8984 J0.0
G1 X10.0
G3 X8.1016 Y86.0 I0.0 J-1.8984
G1 Y11.0
G3 X10.0 Y9.1016 I1.8984 J0.0
G1 X170.0
G3 X170.9146 Y9.3364 I0.0 J1.8984
G1 F200.0 X170.5299 Y10.0361
G3 F700.0 X171.1 Y11.0 I-0.5299 J0.9639
G1 Y86.0
G3 X170.0 Y87.1 I-1.1 J0.0
G1 X10.0
G3 X8.9 Y86.0 I0.0 J-1.1
G1 Y11.0
G3 X10.0 Y9.9 I1.1 J0.0
G1 X170.0
G3 X170.5299 Y10.0361 I0.0 J1.1
G0 Z3.0
G0 X172.1
G0 Z-0.8
G1 F200.0 Z-1.9
G1 F700.0 Y6.9
G1 X7.9
G1 Y88.1
G1 X172.1
G1 Y10.0361
G1 F200.0 X172.9
G1 F700.0 Y6.1
G1 X7.1
G1 Y88.9
G1 X172.9
G1 Y10.0361
G0 Z3.0
G0 X171.3 Y8.6354
G0 Z-0.9
G1 F200.0 Z-2.0
G1 F700.0 Y7.7
G1 X8.7
G1 Y8.6354
G3 X10.0 Y8.3016 I1.3 J2.3646
G1 X170.0
G3 X171.3 Y8.6354 I0.0 J2.6984
G1 F200.0 X170.9146 Y9.3364
G3 F700.0 X171.8984 Y11.0 I-0.9146 J1.6636
G1 Y86.0
G3 X170.0 Y87.8984 I-1.8984 J0.0
G1 X10.0
G3 X8.1016 Y86.0 I0.0 J-1.8984
G1 Y11.0
G3 X10.0 Y9.1016 I1.8984 J0.0
G1 X170.0
G3 X170.9146 Y9.3364 I0.0 J1.8984
G1 F200.0 X170.5299 Y10.0361
G3 F700.0 X171.1 Y11.0 I-0.5299 J0.9639
G1 Y86.0
G3 X170.0 Y87.1 I-1.1 J0.0
G1 X10.0
G3 X8.9 Y86.0 I0.0 J-1.1
G1 Y11.0
G3 X10.0 Y9.9 I1.1 J0.0
G1 X170.0
G3 X170.5299 Y10.0361 I0.0 J1.1
G0 Z3.0
G0 X172.1
G0 Z-0.9
G1 F200.0 Z-2.0
G1 F700.0 Y6.9
G1 X7.9
G1 Y88.1
G1 X172.1
G1 Y10.0361
G1 F200.0 X172.9
G1 F700.0 Y6.1
G1 X7.1
G1 Y88.9
G1 X172.9
G1 Y10.0361
( wallTrail_3D )
S1000
G0 Z3.0
G0 X171.0 Y8.1733
G0 Z1.0
G1 F200.0 Z-2.0
G1 F700.0 Y8.0
G1 X9.0
G1 Y8.1733
G3 X10.0 Y8.0016 I1.0 J2.8267
G1 X170.0
G3 X171.0 Y8.1733 I0.0 J2.9984
G1 F200.0 X171.4
G1 F700.0 Y7.6
G1 X8.6
G1 Y8.811
G3 X10.0 Y8.4016 I1.4 J2.189
G1 X170.0
G3 X171.4 Y8.811 I0.0 J2.5984
G1 Y8.1733
G1 F200.0 X170.7982 Y9.3884
G3 F700.0 X171.7984 Y11.0 I-0.7982 J1.6116
G1 Y86.0
G3 X170.0 Y87.7984 I-1.7984 J0.0
G1 X10.0
G3 X8.2016 Y86.0 I0.0 J-1.7984
G1 Y11.0
G3 X10.0 Y9.2016 I1.7984 J0.0
G1 X170.0
G3 X170.7982 Y9.3884 I0.0 J1.7984
G1 F200.0 X170.4438 Y10.1039
G3 F700.0 X171.0 Y11.0 I-0.4438 J0.8961
G1 Y86.0
G3 X170.0 Y87.0 I-1.0 J0.0
G1 X10.0
G3 X9.0 Y86.0 I0.0 J-1.0
G1 Y11.0
G3 X10.0 Y10.0 I1.0 J0.0
G1 X170.0
G3 X170.4438 Y10.1039 I0.0 J1.0
G0 Z3.0
G0 X172.2
G0 Z1.0
G1 F200.0 Z-2.0
G1 F700.0 Y6.8
G1 X7.8
G1 Y88.2
G1 X172.2
G1 Y10.1039
G1 F200.0 X173.0
G1 F700.0 Y6.0
G1 X7.0
G1 Y89.0
G1 X173.0
G1 Y10.1039
( panel_cutout )
S1000
G0 Z3.0
G0 X174.0 Y91.1
G0 Z1.0
G1 F200.0 Z-0.3
G1 F700.0 X6.0
G3 X4.9 Y90.0 I0.0 J-1.1
G1 Y5.0
G3 X6.0 Y3.9 I1.1 J0.0
G1 X174.0
G3 X175.1 Y5.0 I0.0 J1.1
G1 Y90.0
G3 X174.0 Y91.1 I-1.1 J0.0
G1 F200.0 Z-0.6
G1 F700.0 X6.0
G3 X4.9 Y90.0 I0.0 J-1.1
G1 Y5.0
G3 X6.0 Y3.9 I1.1 J0.0
G1 X174.0
G3 X175.1 Y5.0 I0.0 J1.1
G1 Y90.0
G3 X174.0 Y91.1 I-1.1 J0.0
G1 F200.0 Z-0.9
G1 F700.0 X6.0
G3 X4.9 Y90.0 I0.0 J-1.1
G1 Y5.0
G3 X6.0 Y3.9 I1.1 J0.0
G1 X174.0
G3 X175.1 Y5.0 I0.0 J1.1
G1 Y90.0
G3 X174.0 Y91.1 I-1.1 J0.0
G1 F200.0 Z-1.2
G1 F700.0 X6.0
G3 X4.9 Y90.0 I0.0 J-1.1
G1 Y5.0
G3 X6.0 Y3.9 I1.1 J0.0
G1 X174.0
G3 X175.1 Y5.0 I0.0 J1.1
G1 Y90.0
G3 X174.0 Y91.1 I-1.1 J0.0
G1 F200.0 Z-1.5
G1 F700.0 X6.0
G3 X4.9 Y90.0 I0.0 J-1.1
G1 Y5.0
G3 X6.0 Y3.9 I1.1 J0.0
G1 X174.0
G3 X175.1 Y5.0 I0.0 J1.1
G1 Y90.0
G3 X174.0 Y91.1 I-1.1 J0.0
G1 F200.0 Z-1.8
G1 F700.0 X6.0
G3 X4.9 Y90.0 I0.0 J-1.1
G1 Y5.0
G3 X6.0 Y3.9 I1.1 J0.0
G1 X174.0
G3 X175.1 Y5.0 I0.0 J1.1
G1 Y90.0
G3 X174.0 Y91.1 I-1.1 J0.0
G1 F200.0 Z-2.1
G1 F700.0 X6.0
G3 X4.9 Y90.0 I0.0 J-1.1
G1 Y5.0
G3 X6.0 Y3.9 I1.1 J0.0
G1 X174.0
G3 X175.1 Y5.0 I0.0 J1.1
G1 Y90.0
G3 X174.0 Y91.1 I-1.1 J0.0
G1 F200.0 Z-2.4
G1 F700.0 X6.0
G3 X4.9 Y90.0 I0.0 J-1.1
G1 Y5.0
G3 X6.0 Y3.9 I1.1 J0.0
G1 X174.0
G3 X175.1 Y5.0 I0.0 J1.1
G1 Y90.0
G3 X174.0 Y91.1 I-1.1 J0.0
G1 F200.0 Z-2.7
G1 F700.0 X6.0
G3 X4.9 Y90.0 I0.0 J-1.1
G1 Y5.0
G3 X6.0 Y3.9 I1.1 J0.0
G1 X174.0
G3 X175.1 Y5.0 I0.0 J1.1
G1 Y90.0
G3 X174.0 Y91.1 I-1.1 J0.0
G1 F200.0 Z-3.0
G1 F700.0 X6.0
G3 X4.9 Y90.0 I0.0 J-1.1
G1 Y5.0
G3 X6.0 Y3.9 I1.1 J0.0
G1 X174.0
G3 X175.1 Y5.0 I0.0 J1.1
G1 Y90.0
G3 X174.0 Y91.1 I-1.1 J0.0
G1 F200.0 Z-3.3
G1 F700.0 X6.0
G3 X4.9 Y90.0 I0.0 J-1.1
G1 Y5.0
G3 X6.0 Y3.9 I1.1 J0.0
G1 X174.0
G3 X175.1 Y5.0 I0.0 J1.1
G1 Y90.0
G3 X174.0 Y91.1 I-1.1 J0.0
G1 F200.0 Z-3.6
G1 F700.0 X6.0
G3 X4.9 Y90.0 I0.0 J-1.1
G1 Y5.0
G3 X6.0 Y3.9 I1.1 J0.0
G1 X174.0
G3 X175.1 Y5.0 I0.0 J1.1
G1 Y90.0
G3 X174.0 Y91.1 I-1.1 J0.0
G1 F200.0 Z-3.7
G1 F700.0 X6.0
G3 X4.9 Y90.0 I0.0 J-1.1
G1 Y5.0
G3 X6.0 Y3.9 I1.1 J0.0
G1 X174.0
G3 X175.1 Y5.0 I0.0 J1.1
G1 Y90.0
G3 X174.0 Y91.1 I-1.1 J0.0
G1 F200.0 Z-3.8
G1 F700.0 X6.0
G3 X4.9 Y90.0 I0.0 J-1.1
G1 Y5.0
G3 X6.0 Y3.9 I1.1 J0.0
G1 X174.0
G3 X175.1 Y5.0 I0.0 J1.1
G1 Y90.0
G3 X174.0 Y91.1 I-1.1 J0.0
( panel_3D )
S1000
G1 F200.0 Y91.0
G1 Z-4.2
G1 F700.0 X6.0
G3 X5.0 Y90.0 I0.0 J-1.0
G1 Y5.0
G3 X6.0 Y4.0 I1.0 J0.0
G1 X174.0
G3 X175.0 Y5.0 I0.0 J1.0
G1 Y90.0
G3 X174.0 Y91.0 I-1.0 J0.0
G0 Z3.0
M5
M30
