( Made using CamBam - http://www.cambam.co.uk )
( ssc_plexi_Left_Panel 2/23/2021 11:12:27 PM )
( T2 : 2.0 )
( CUTVIEWER )
( FROM/0,0,5 )
( Select dummy tool to avoid warnings )
( TOOL/MILL,1,0,20.0,0 )
( STOCK/BLOCK,85.0,95.0,4.0,0.0,0.0,4.0 )
G21 G90 G91.1 G64 G40
G0 Z3.0
( T2 : 2.0 )
( Tool Taper coming soon )
( TOOL/MILL,2.0,0.0,0.0,0 )
T2 M6
( RadioRose_cutout )
G17
M3 S1000
G0 X33.1912 Y38.613
G0 Z1.0
G1 F200.0 Z-0.3
G1 F700.0 X33.9379 Y37.938
G3 X34.0236 Y37.868 I0.7377 J0.816
G1 X34.8343 Y37.2714
G3 X34.9267 Y37.2104 I0.6519 J0.886
G1 X35.7932 Y36.6984
G3 X35.8912 Y36.6469 I0.5596 J0.947
G1 X36.8049 Y36.2246
G3 X36.9076 Y36.1833 I0.4615 J0.9985
G1 X37.859 Y35.855
G3 X37.9653 Y35.8242 I0.3588 J1.0398
G1 X38.945 Y35.5932
G3 X39.0539 Y35.5732 I0.2525 J1.0706
G1 X40.0518 Y35.4418
G3 X40.1621 Y35.4329 I0.1436 J1.0906
G1 X41.1681 Y35.4025
G3 X41.2788 Y35.4048 I0.0332 J1.0995
G1 X42.2828 Y35.4756
G3 X42.3927 Y35.489 I-0.0775 J1.0973
G1 X43.3845 Y35.6604
G3 X43.4925 Y35.6848 I-0.1874 J1.0839
G1 X44.4621 Y35.955
G3 X44.5671 Y35.9901 I-0.2954 J1.0596
G1 X45.5045 Y36.3565
G3 X45.57 Y36.3845 I-0.4004 J1.0245
G1 X45.719 Y36.1265
G1 X45.6781 Y36.1056
G1 X44.6096 Y35.688
G1 X43.5044 Y35.3799
G1 X42.374 Y35.1845
G1 X41.2295 Y35.1037
G1 X40.0828 Y35.1384
G1 X38.9453 Y35.2881
G1 X37.8287 Y35.5514
G1 X36.7442 Y35.9257
G1 X35.7028 Y36.407
G1 X34.7151 Y36.9906
G1 X33.791 Y37.6706
G1 X32.94 Y38.44
G1 X32.1706 Y39.291
G1 X31.4906 Y40.2151
G1 X30.907 Y41.2028
G1 X30.4257 Y42.2442
G1 X30.0514 Y43.3287
G1 X29.7881 Y44.4453
G1 X29.6384 Y45.5828
G1 X29.6037 Y46.7295
G1 X29.6845 Y47.874
G1 X29.8799 Y49.0044
G1 X30.188 Y50.1096
G1 X30.6056 Y51.1781
G1 X30.6265 Y51.219
G1 X30.8845 Y51.07
G3 X30.8565 Y51.0045 I0.9965 J-0.4659
G1 X30.4901 Y50.0671
G3 X30.455 Y49.9621 I1.0245 J-0.4004
G1 X30.1848 Y48.9925
G3 X30.1604 Y48.8845 I1.0596 J-0.2954
G1 X29.989 Y47.8927
G3 X29.9756 Y47.7828 I1.0839 J-0.1874
G1 X29.9048 Y46.7788
G3 X29.9025 Y46.6681 I1.0973 J-0.0775
G1 X29.9329 Y45.6621
G3 X29.9418 Y45.5518 I1.0995 J0.0332
G1 X30.0732 Y44.5539
G3 X30.0932 Y44.445 I1.0906 J0.1436
G1 X30.3242 Y43.4653
G3 X30.355 Y43.359 I1.0706 J0.2525
G1 X30.6833 Y42.4076
G3 X30.7246 Y42.3049 I1.0398 J0.3588
G1 X31.1469 Y41.3912
G3 X31.1984 Y41.2932 I0.9985 J0.4615
G1 X31.7104 Y40.4267
G3 X31.7714 Y40.3343 I0.947 J0.5596
G1 X32.368 Y39.5236
G3 X32.438 Y39.4379 I0.886 J0.6519
G1 X33.113 Y38.6912
G3 X33.1912 Y38.613 I0.816 J0.7377
G1 F200.0 Z-0.6
G1 F700.0 X33.9379 Y37.938
G3 X34.0236 Y37.868 I0.7377 J0.816
G1 X34.8343 Y37.2714
G3 X34.9267 Y37.2104 I0.6519 J0.886
G1 X35.7932 Y36.6984
G3 X35.8912 Y36.6469 I0.5596 J0.947
G1 X36.8049 Y36.2246
G3 X36.9076 Y36.1833 I0.4615 J0.9985
G1 X37.859 Y35.855
G3 X37.9653 Y35.8242 I0.3588 J1.0398
G1 X38.945 Y35.5932
G3 X39.0539 Y35.5732 I0.2525 J1.0706
G1 X40.0518 Y35.4418
G3 X40.1621 Y35.4329 I0.1436 J1.0906
G1 X41.1681 Y35.4025
G3 X41.2788 Y35.4048 I0.0332 J1.0995
G1 X42.2828 Y35.4756
G3 X42.3927 Y35.489 I-0.0775 J1.0973
G1 X43.3845 Y35.6604
G3 X43.4925 Y35.6848 I-0.1874 J1.0839
G1 X44.4621 Y35.955
G3 X44.5671 Y35.9901 I-0.2954 J1.0596
G1 X45.5045 Y36.3565
G3 X45.57 Y36.3845 I-0.4004 J1.0245
G1 X45.719 Y36.1265
G1 X45.6781 Y36.1056
G1 X44.6096 Y35.688
G1 X43.5044 Y35.3799
G1 X42.374 Y35.1845
G1 X41.2295 Y35.1037
G1 X40.0828 Y35.1384
G1 X38.9453 Y35.2881
G1 X37.8287 Y35.5514
G1 X36.7442 Y35.9257
G1 X35.7028 Y36.407
G1 X34.7151 Y36.9906
G1 X33.791 Y37.6706
G1 X32.94 Y38.44
G1 X32.1706 Y39.291
G1 X31.4906 Y40.2151
G1 X30.907 Y41.2028
G1 X30.4257 Y42.2442
G1 X30.0514 Y43.3287
G1 X29.7881 Y44.4453
G1 X29.6384 Y45.5828
G1 X29.6037 Y46.7295
G1 X29.6845 Y47.874
G1 X29.8799 Y49.0044
G1 X30.188 Y50.1096
G1 X30.6056 Y51.1781
G1 X30.6265 Y51.219
G1 X30.8845 Y51.07
G3 X30.8565 Y51.0045 I0.9965 J-0.4659
G1 X30.4901 Y50.0671
G3 X30.455 Y49.9621 I1.0245 J-0.4004
G1 X30.1848 Y48.9925
G3 X30.1604 Y48.8845 I1.0596 J-0.2954
G1 X29.989 Y47.8927
G3 X29.9756 Y47.7828 I1.0839 J-0.1874
G1 X29.9048 Y46.7788
G3 X29.9025 Y46.6681 I1.0973 J-0.0775
G1 X29.9329 Y45.6621
G3 X29.9418 Y45.5518 I1.0995 J0.0332
G1 X30.0732 Y44.5539
G3 X30.0932 Y44.445 I1.0906 J0.1436
G1 X30.3242 Y43.4653
G3 X30.355 Y43.359 I1.0706 J0.2525
G1 X30.6833 Y42.4076
G3 X30.7246 Y42.3049 I1.0398 J0.3588
G1 X31.1469 Y41.3912
G3 X31.1984 Y41.2932 I0.9985 J0.4615
G1 X31.7104 Y40.4267
G3 X31.7714 Y40.3343 I0.947 J0.5596
G1 X32.368 Y39.5236
G3 X32.438 Y39.4379 I0.886 J0.6519
G1 X33.113 Y38.6912
G3 X33.1912 Y38.613 I0.816 J0.7377
G1 F200.0 Z-0.9
G1 F700.0 X33.9379 Y37.938
G3 X34.0236 Y37.868 I0.7377 J0.816
G1 X34.8343 Y37.2714
G3 X34.9267 Y37.2104 I0.6519 J0.886
G1 X35.7932 Y36.6984
G3 X35.8912 Y36.6469 I0.5596 J0.947
G1 X36.8049 Y36.2246
G3 X36.9076 Y36.1833 I0.4615 J0.9985
G1 X37.859 Y35.855
G3 X37.9653 Y35.8242 I0.3588 J1.0398
G1 X38.945 Y35.5932
G3 X39.0539 Y35.5732 I0.2525 J1.0706
G1 X40.0518 Y35.4418
G3 X40.1621 Y35.4329 I0.1436 J1.0906
G1 X41.1681 Y35.4025
G3 X41.2788 Y35.4048 I0.0332 J1.0995
G1 X42.2828 Y35.4756
G3 X42.3927 Y35.489 I-0.0775 J1.0973
G1 X43.3845 Y35.6604
G3 X43.4925 Y35.6848 I-0.1874 J1.0839
G1 X44.4621 Y35.955
G3 X44.5671 Y35.9901 I-0.2954 J1.0596
G1 X45.5045 Y36.3565
G3 X45.57 Y36.3845 I-0.4004 J1.0245
G1 X45.719 Y36.1265
G1 X45.6781 Y36.1056
G1 X44.6096 Y35.688
G1 X43.5044 Y35.3799
G1 X42.374 Y35.1845
G1 X41.2295 Y35.1037
G1 X40.0828 Y35.1384
G1 X38.9453 Y35.2881
G1 X37.8287 Y35.5514
G1 X36.7442 Y35.9257
G1 X35.7028 Y36.407
G1 X34.7151 Y36.9906
G1 X33.791 Y37.6706
G1 X32.94 Y38.44
G1 X32.1706 Y39.291
G1 X31.4906 Y40.2151
G1 X30.907 Y41.2028
G1 X30.4257 Y42.2442
G1 X30.0514 Y43.3287
G1 X29.7881 Y44.4453
G1 X29.6384 Y45.5828
G1 X29.6037 Y46.7295
G1 X29.6845 Y47.874
G1 X29.8799 Y49.0044
G1 X30.188 Y50.1096
G1 X30.6056 Y51.1781
G1 X30.6265 Y51.219
G1 X30.8845 Y51.07
G3 X30.8565 Y51.0045 I0.9965 J-0.4659
G1 X30.4901 Y50.0671
G3 X30.455 Y49.9621 I1.0245 J-0.4004
G1 X30.1848 Y48.9925
G3 X30.1604 Y48.8845 I1.0596 J-0.2954
G1 X29.989 Y47.8927
G3 X29.9756 Y47.7828 I1.0839 J-0.1874
G1 X29.9048 Y46.7788
G3 X29.9025 Y46.6681 I1.0973 J-0.0775
G1 X29.9329 Y45.6621
G3 X29.9418 Y45.5518 I1.0995 J0.0332
G1 X30.0732 Y44.5539
G3 X30.0932 Y44.445 I1.0906 J0.1436
G1 X30.3242 Y43.4653
G3 X30.355 Y43.359 I1.0706 J0.2525
G1 X30.6833 Y42.4076
G3 X30.7246 Y42.3049 I1.0398 J0.3588
G1 X31.1469 Y41.3912
G3 X31.1984 Y41.2932 I0.9985 J0.4615
G1 X31.7104 Y40.4267
G3 X31.7714 Y40.3343 I0.947 J0.5596
G1 X32.368 Y39.5236
G3 X32.438 Y39.4379 I0.886 J0.6519
G1 X33.113 Y38.6912
G3 X33.1912 Y38.613 I0.816 J0.7377
G1 F200.0 Z-1.2
G1 F700.0 X33.9379 Y37.938
G3 X34.0236 Y37.868 I0.7377 J0.816
G1 X34.8343 Y37.2714
G3 X34.9267 Y37.2104 I0.6519 J0.886
G1 X35.7932 Y36.6984
G3 X35.8912 Y36.6469 I0.5596 J0.947
G1 X36.8049 Y36.2246
G3 X36.9076 Y36.1833 I0.4615 J0.9985
G1 X37.859 Y35.855
G3 X37.9653 Y35.8242 I0.3588 J1.0398
G1 X38.945 Y35.5932
G3 X39.0539 Y35.5732 I0.2525 J1.0706
G1 X40.0518 Y35.4418
G3 X40.1621 Y35.4329 I0.1436 J1.0906
G1 X41.1681 Y35.4025
G3 X41.2788 Y35.4048 I0.0332 J1.0995
G1 X42.2828 Y35.4756
G3 X42.3927 Y35.489 I-0.0775 J1.0973
G1 X43.3845 Y35.6604
G3 X43.4925 Y35.6848 I-0.1874 J1.0839
G1 X44.4621 Y35.955
G3 X44.5671 Y35.9901 I-0.2954 J1.0596
G1 X45.5045 Y36.3565
G3 X45.57 Y36.3845 I-0.4004 J1.0245
G1 X45.719 Y36.1265
G1 X45.6781 Y36.1056
G1 X44.6096 Y35.688
G1 X43.5044 Y35.3799
G1 X42.374 Y35.1845
G1 X41.2295 Y35.1037
G1 X40.0828 Y35.1384
G1 X38.9453 Y35.2881
G1 X37.8287 Y35.5514
G1 X36.7442 Y35.9257
G1 X35.7028 Y36.407
G1 X34.7151 Y36.9906
G1 X33.791 Y37.6706
G1 X32.94 Y38.44
G1 X32.1706 Y39.291
G1 X31.4906 Y40.2151
G1 X30.907 Y41.2028
G1 X30.4257 Y42.2442
G1 X30.0514 Y43.3287
G1 X29.7881 Y44.4453
G1 X29.6384 Y45.5828
G1 X29.6037 Y46.7295
G1 X29.6845 Y47.874
G1 X29.8799 Y49.0044
G1 X30.188 Y50.1096
G1 X30.6056 Y51.1781
G1 X30.6265 Y51.219
G1 X30.8845 Y51.07
G3 X30.8565 Y51.0045 I0.9965 J-0.4659
G1 X30.4901 Y50.0671
G3 X30.455 Y49.9621 I1.0245 J-0.4004
G1 X30.1848 Y48.9925
G3 X30.1604 Y48.8845 I1.0596 J-0.2954
G1 X29.989 Y47.8927
G3 X29.9756 Y47.7828 I1.0839 J-0.1874
G1 X29.9048 Y46.7788
G3 X29.9025 Y46.6681 I1.0973 J-0.0775
G1 X29.9329 Y45.6621
G3 X29.9418 Y45.5518 I1.0995 J0.0332
G1 X30.0732 Y44.5539
G3 X30.0932 Y44.445 I1.0906 J0.1436
G1 X30.3242 Y43.4653
G3 X30.355 Y43.359 I1.0706 J0.2525
G1 X30.6833 Y42.4076
G3 X30.7246 Y42.3049 I1.0398 J0.3588
G1 X31.1469 Y41.3912
G3 X31.1984 Y41.2932 I0.9985 J0.4615
G1 X31.7104 Y40.4267
G3 X31.7714 Y40.3343 I0.947 J0.5596
G1 X32.368 Y39.5236
G3 X32.438 Y39.4379 I0.886 J0.6519
G1 X33.113 Y38.6912
G3 X33.1912 Y38.613 I0.816 J0.7377
G1 F200.0 Z-1.5
G1 F700.0 X33.9379 Y37.938
G3 X34.0236 Y37.868 I0.7377 J0.816
G1 X34.8343 Y37.2714
G3 X34.9267 Y37.2104 I0.6519 J0.886
G1 X35.7932 Y36.6984
G3 X35.8912 Y36.6469 I0.5596 J0.947
G1 X36.8049 Y36.2246
G3 X36.9076 Y36.1833 I0.4615 J0.9985
G1 X37.859 Y35.855
G3 X37.9653 Y35.8242 I0.3588 J1.0398
G1 X38.945 Y35.5932
G3 X39.0539 Y35.5732 I0.2525 J1.0706
G1 X40.0518 Y35.4418
G3 X40.1621 Y35.4329 I0.1436 J1.0906
G1 X41.1681 Y35.4025
G3 X41.2788 Y35.4048 I0.0332 J1.0995
G1 X42.2828 Y35.4756
G3 X42.3927 Y35.489 I-0.0775 J1.0973
G1 X43.3845 Y35.6604
G3 X43.4925 Y35.6848 I-0.1874 J1.0839
G1 X44.4621 Y35.955
G3 X44.5671 Y35.9901 I-0.2954 J1.0596
G1 X45.5045 Y36.3565
G3 X45.57 Y36.3845 I-0.4004 J1.0245
G1 X45.719 Y36.1265
G1 X45.6781 Y36.1056
G1 X44.6096 Y35.688
G1 X43.5044 Y35.3799
G1 X42.374 Y35.1845
G1 X41.2295 Y35.1037
G1 X40.0828 Y35.1384
G1 X38.9453 Y35.2881
G1 X37.8287 Y35.5514
G1 X36.7442 Y35.9257
G1 X35.7028 Y36.407
G1 X34.7151 Y36.9906
G1 X33.791 Y37.6706
G1 X32.94 Y38.44
G1 X32.1706 Y39.291
G1 X31.4906 Y40.2151
G1 X30.907 Y41.2028
G1 X30.4257 Y42.2442
G1 X30.0514 Y43.3287
G1 X29.7881 Y44.4453
G1 X29.6384 Y45.5828
G1 X29.6037 Y46.7295
G1 X29.6845 Y47.874
G1 X29.8799 Y49.0044
G1 X30.188 Y50.1096
G1 X30.6056 Y51.1781
G1 X30.6265 Y51.219
G1 X30.8845 Y51.07
G3 X30.8565 Y51.0045 I0.9965 J-0.4659
G1 X30.4901 Y50.0671
G3 X30.455 Y49.9621 I1.0245 J-0.4004
G1 X30.1848 Y48.9925
G3 X30.1604 Y48.8845 I1.0596 J-0.2954
G1 X29.989 Y47.8927
G3 X29.9756 Y47.7828 I1.0839 J-0.1874
G1 X29.9048 Y46.7788
G3 X29.9025 Y46.6681 I1.0973 J-0.0775
G1 X29.9329 Y45.6621
G3 X29.9418 Y45.5518 I1.0995 J0.0332
G1 X30.0732 Y44.5539
G3 X30.0932 Y44.445 I1.0906 J0.1436
G1 X30.3242 Y43.4653
G3 X30.355 Y43.359 I1.0706 J0.2525
G1 X30.6833 Y42.4076
G3 X30.7246 Y42.3049 I1.0398 J0.3588
G1 X31.1469 Y41.3912
G3 X31.1984 Y41.2932 I0.9985 J0.4615
G1 X31.7104 Y40.4267
G3 X31.7714 Y40.3343 I0.947 J0.5596
G1 X32.368 Y39.5236
G3 X32.438 Y39.4379 I0.886 J0.6519
G1 X33.113 Y38.6912
G3 X33.1912 Y38.613 I0.816 J0.7377
G1 F200.0 Z-1.8
G1 F700.0 X33.9379 Y37.938
G3 X34.0236 Y37.868 I0.7377 J0.816
G1 X34.8343 Y37.2714
G3 X34.9267 Y37.2104 I0.6519 J0.886
G1 X35.7932 Y36.6984
G3 X35.8912 Y36.6469 I0.5596 J0.947
G1 X36.8049 Y36.2246
G3 X36.9076 Y36.1833 I0.4615 J0.9985
G1 X37.859 Y35.855
G3 X37.9653 Y35.8242 I0.3588 J1.0398
G1 X38.945 Y35.5932
G3 X39.0539 Y35.5732 I0.2525 J1.0706
G1 X40.0518 Y35.4418
G3 X40.1621 Y35.4329 I0.1436 J1.0906
G1 X41.1681 Y35.4025
G3 X41.2788 Y35.4048 I0.0332 J1.0995
G1 X42.2828 Y35.4756
G3 X42.3927 Y35.489 I-0.0775 J1.0973
G1 X43.3845 Y35.6604
G3 X43.4925 Y35.6848 I-0.1874 J1.0839
G1 X44.4621 Y35.955
G3 X44.5671 Y35.9901 I-0.2954 J1.0596
G1 X45.5045 Y36.3565
G3 X45.57 Y36.3845 I-0.4004 J1.0245
G1 X45.719 Y36.1265
G1 X45.6781 Y36.1056
G1 X44.6096 Y35.688
G1 X43.5044 Y35.3799
G1 X42.374 Y35.1845
G1 X41.2295 Y35.1037
G1 X40.0828 Y35.1384
G1 X38.9453 Y35.2881
G1 X37.8287 Y35.5514
G1 X36.7442 Y35.9257
G1 X35.7028 Y36.407
G1 X34.7151 Y36.9906
G1 X33.791 Y37.6706
G1 X32.94 Y38.44
G1 X32.1706 Y39.291
G1 X31.4906 Y40.2151
G1 X30.907 Y41.2028
G1 X30.4257 Y42.2442
G1 X30.0514 Y43.3287
G1 X29.7881 Y44.4453
G1 X29.6384 Y45.5828
G1 X29.6037 Y46.7295
G1 X29.6845 Y47.874
G1 X29.8799 Y49.0044
G1 X30.188 Y50.1096
G1 X30.6056 Y51.1781
G1 X30.6265 Y51.219
G1 X30.8845 Y51.07
G3 X30.8565 Y51.0045 I0.9965 J-0.4659
G1 X30.4901 Y50.0671
G3 X30.455 Y49.9621 I1.0245 J-0.4004
G1 X30.1848 Y48.9925
G3 X30.1604 Y48.8845 I1.0596 J-0.2954
G1 X29.989 Y47.8927
G3 X29.9756 Y47.7828 I1.0839 J-0.1874
G1 X29.9048 Y46.7788
G3 X29.9025 Y46.6681 I1.0973 J-0.0775
G1 X29.9329 Y45.6621
G3 X29.9418 Y45.5518 I1.0995 J0.0332
G1 X30.0732 Y44.5539
G3 X30.0932 Y44.445 I1.0906 J0.1436
G1 X30.3242 Y43.4653
G3 X30.355 Y43.359 I1.0706 J0.2525
G1 X30.6833 Y42.4076
G3 X30.7246 Y42.3049 I1.0398 J0.3588
G1 X31.1469 Y41.3912
G3 X31.1984 Y41.2932 I0.9985 J0.4615
G1 X31.7104 Y40.4267
G3 X31.7714 Y40.3343 I0.947 J0.5596
G1 X32.368 Y39.5236
G3 X32.438 Y39.4379 I0.886 J0.6519
G1 X33.113 Y38.6912
G3 X33.1912 Y38.613 I0.816 J0.7377
G1 F200.0 Z-2.1
G1 F700.0 X33.9379 Y37.938
G3 X34.0236 Y37.868 I0.7377 J0.816
G1 X34.8343 Y37.2714
G3 X34.9267 Y37.2104 I0.6519 J0.886
G1 X35.7932 Y36.6984
G3 X35.8912 Y36.6469 I0.5596 J0.947
G1 X36.8049 Y36.2246
G3 X36.9076 Y36.1833 I0.4615 J0.9985
G1 X37.859 Y35.855
G3 X37.9653 Y35.8242 I0.3588 J1.0398
G1 X38.945 Y35.5932
G3 X39.0539 Y35.5732 I0.2525 J1.0706
G1 X40.0518 Y35.4418
G3 X40.1621 Y35.4329 I0.1436 J1.0906
G1 X41.1681 Y35.4025
G3 X41.2788 Y35.4048 I0.0332 J1.0995
G1 X42.2828 Y35.4756
G3 X42.3927 Y35.489 I-0.0775 J1.0973
G1 X43.3845 Y35.6604
G3 X43.4925 Y35.6848 I-0.1874 J1.0839
G1 X44.4621 Y35.955
G3 X44.5671 Y35.9901 I-0.2954 J1.0596
G1 X45.5045 Y36.3565
G3 X45.57 Y36.3845 I-0.4004 J1.0245
G1 X45.719 Y36.1265
G1 X45.6781 Y36.1056
G1 X44.6096 Y35.688
G1 X43.5044 Y35.3799
G1 X42.374 Y35.1845
G1 X41.2295 Y35.1037
G1 X40.0828 Y35.1384
G1 X38.9453 Y35.2881
G1 X37.8287 Y35.5514
G1 X36.7442 Y35.9257
G1 X35.7028 Y36.407
G1 X34.7151 Y36.9906
G1 X33.791 Y37.6706
G1 X32.94 Y38.44
G1 X32.1706 Y39.291
G1 X31.4906 Y40.2151
G1 X30.907 Y41.2028
G1 X30.4257 Y42.2442
G1 X30.0514 Y43.3287
G1 X29.7881 Y44.4453
G1 X29.6384 Y45.5828
G1 X29.6037 Y46.7295
G1 X29.6845 Y47.874
G1 X29.8799 Y49.0044
G1 X30.188 Y50.1096
G1 X30.6056 Y51.1781
G1 X30.6265 Y51.219
G1 X30.8845 Y51.07
G3 X30.8565 Y51.0045 I0.9965 J-0.4659
G1 X30.4901 Y50.0671
G3 X30.455 Y49.9621 I1.0245 J-0.4004
G1 X30.1848 Y48.9925
G3 X30.1604 Y48.8845 I1.0596 J-0.2954
G1 X29.989 Y47.8927
G3 X29.9756 Y47.7828 I1.0839 J-0.1874
G1 X29.9048 Y46.7788
G3 X29.9025 Y46.6681 I1.0973 J-0.0775
G1 X29.9329 Y45.6621
G3 X29.9418 Y45.5518 I1.0995 J0.0332
G1 X30.0732 Y44.5539
G3 X30.0932 Y44.445 I1.0906 J0.1436
G1 X30.3242 Y43.4653
G3 X30.355 Y43.359 I1.0706 J0.2525
G1 X30.6833 Y42.4076
G3 X30.7246 Y42.3049 I1.0398 J0.3588
G1 X31.1469 Y41.3912
G3 X31.1984 Y41.2932 I0.9985 J0.4615
G1 X31.7104 Y40.4267
G3 X31.7714 Y40.3343 I0.947 J0.5596
G1 X32.368 Y39.5236
G3 X32.438 Y39.4379 I0.886 J0.6519
G1 X33.113 Y38.6912
G3 X33.1912 Y38.613 I0.816 J0.7377
G1 F200.0 Z-2.4
G1 F700.0 X33.9379 Y37.938
G3 X34.0236 Y37.868 I0.7377 J0.816
G1 X34.8343 Y37.2714
G3 X34.9267 Y37.2104 I0.6519 J0.886
G1 X35.7932 Y36.6984
G3 X35.8912 Y36.6469 I0.5596 J0.947
G1 X36.8049 Y36.2246
G3 X36.9076 Y36.1833 I0.4615 J0.9985
G1 X37.859 Y35.855
G3 X37.9653 Y35.8242 I0.3588 J1.0398
G1 X38.945 Y35.5932
G3 X39.0539 Y35.5732 I0.2525 J1.0706
G1 X40.0518 Y35.4418
G3 X40.1621 Y35.4329 I0.1436 J1.0906
G1 X41.1681 Y35.4025
G3 X41.2788 Y35.4048 I0.0332 J1.0995
G1 X42.2828 Y35.4756
G3 X42.3927 Y35.489 I-0.0775 J1.0973
G1 X43.3845 Y35.6604
G3 X43.4925 Y35.6848 I-0.1874 J1.0839
G1 X44.4621 Y35.955
G3 X44.5671 Y35.9901 I-0.2954 J1.0596
G1 X45.5045 Y36.3565
G3 X45.57 Y36.3845 I-0.4004 J1.0245
G1 X45.719 Y36.1265
G1 X45.6781 Y36.1056
G1 X44.6096 Y35.688
G1 X43.5044 Y35.3799
G1 X42.374 Y35.1845
G1 X41.2295 Y35.1037
G1 X40.0828 Y35.1384
G1 X38.9453 Y35.2881
G1 X37.8287 Y35.5514
G1 X36.7442 Y35.9257
G1 X35.7028 Y36.407
G1 X34.7151 Y36.9906
G1 X33.791 Y37.6706
G1 X32.94 Y38.44
G1 X32.1706 Y39.291
G1 X31.4906 Y40.2151
G1 X30.907 Y41.2028
G1 X30.4257 Y42.2442
G1 X30.0514 Y43.3287
G1 X29.7881 Y44.4453
G1 X29.6384 Y45.5828
G1 X29.6037 Y46.7295
G1 X29.6845 Y47.874
G1 X29.8799 Y49.0044
G1 X30.188 Y50.1096
G1 X30.6056 Y51.1781
G1 X30.6265 Y51.219
G1 X30.8845 Y51.07
G3 X30.8565 Y51.0045 I0.9965 J-0.4659
G1 X30.4901 Y50.0671
G3 X30.455 Y49.9621 I1.0245 J-0.4004
G1 X30.1848 Y48.9925
G3 X30.1604 Y48.8845 I1.0596 J-0.2954
G1 X29.989 Y47.8927
G3 X29.9756 Y47.7828 I1.0839 J-0.1874
G1 X29.9048 Y46.7788
G3 X29.9025 Y46.6681 I1.0973 J-0.0775
G1 X29.9329 Y45.6621
G3 X29.9418 Y45.5518 I1.0995 J0.0332
G1 X30.0732 Y44.5539
G3 X30.0932 Y44.445 I1.0906 J0.1436
G1 X30.3242 Y43.4653
G3 X30.355 Y43.359 I1.0706 J0.2525
G1 X30.6833 Y42.4076
G3 X30.7246 Y42.3049 I1.0398 J0.3588
G1 X31.1469 Y41.3912
G3 X31.1984 Y41.2932 I0.9985 J0.4615
G1 X31.7104 Y40.4267
G3 X31.7714 Y40.3343 I0.947 J0.5596
G1 X32.368 Y39.5236
G3 X32.438 Y39.4379 I0.886 J0.6519
G1 X33.113 Y38.6912
G3 X33.1912 Y38.613 I0.816 J0.7377
G1 F200.0 Z-2.7
G1 F700.0 X33.9379 Y37.938
G3 X34.0236 Y37.868 I0.7377 J0.816
G1 X34.8343 Y37.2714
G3 X34.9267 Y37.2104 I0.6519 J0.886
G1 X35.7932 Y36.6984
G3 X35.8912 Y36.6469 I0.5596 J0.947
G1 X36.8049 Y36.2246
G3 X36.9076 Y36.1833 I0.4615 J0.9985
G1 X37.859 Y35.855
G3 X37.9653 Y35.8242 I0.3588 J1.0398
G1 X38.945 Y35.5932
G3 X39.0539 Y35.5732 I0.2525 J1.0706
G1 X40.0518 Y35.4418
G3 X40.1621 Y35.4329 I0.1436 J1.0906
G1 X41.1681 Y35.4025
G3 X41.2788 Y35.4048 I0.0332 J1.0995
G1 X42.2828 Y35.4756
G3 X42.3927 Y35.489 I-0.0775 J1.0973
G1 X43.3845 Y35.6604
G3 X43.4925 Y35.6848 I-0.1874 J1.0839
G1 X44.4621 Y35.955
G3 X44.5671 Y35.9901 I-0.2954 J1.0596
G1 X45.5045 Y36.3565
G3 X45.57 Y36.3845 I-0.4004 J1.0245
G1 X45.719 Y36.1265
G1 X45.6781 Y36.1056
G1 X44.6096 Y35.688
G1 X43.5044 Y35.3799
G1 X42.374 Y35.1845
G1 X41.2295 Y35.1037
G1 X40.0828 Y35.1384
G1 X38.9453 Y35.2881
G1 X37.8287 Y35.5514
G1 X36.7442 Y35.9257
G1 X35.7028 Y36.407
G1 X34.7151 Y36.9906
G1 X33.791 Y37.6706
G1 X32.94 Y38.44
G1 X32.1706 Y39.291
G1 X31.4906 Y40.2151
G1 X30.907 Y41.2028
G1 X30.4257 Y42.2442
G1 X30.0514 Y43.3287
G1 X29.7881 Y44.4453
G1 X29.6384 Y45.5828
G1 X29.6037 Y46.7295
G1 X29.6845 Y47.874
G1 X29.8799 Y49.0044
G1 X30.188 Y50.1096
G1 X30.6056 Y51.1781
G1 X30.6265 Y51.219
G1 X30.8845 Y51.07
G3 X30.8565 Y51.0045 I0.9965 J-0.4659
G1 X30.4901 Y50.0671
G3 X30.455 Y49.9621 I1.0245 J-0.4004
G1 X30.1848 Y48.9925
G3 X30.1604 Y48.8845 I1.0596 J-0.2954
G1 X29.989 Y47.8927
G3 X29.9756 Y47.7828 I1.0839 J-0.1874
G1 X29.9048 Y46.7788
G3 X29.9025 Y46.6681 I1.0973 J-0.0775
G1 X29.9329 Y45.6621
G3 X29.9418 Y45.5518 I1.0995 J0.0332
G1 X30.0732 Y44.5539
G3 X30.0932 Y44.445 I1.0906 J0.1436
G1 X30.3242 Y43.4653
G3 X30.355 Y43.359 I1.0706 J0.2525
G1 X30.6833 Y42.4076
G3 X30.7246 Y42.3049 I1.0398 J0.3588
G1 X31.1469 Y41.3912
G3 X31.1984 Y41.2932 I0.9985 J0.4615
G1 X31.7104 Y40.4267
G3 X31.7714 Y40.3343 I0.947 J0.5596
G1 X32.368 Y39.5236
G3 X32.438 Y39.4379 I0.886 J0.6519
G1 X33.113 Y38.6912
G3 X33.1912 Y38.613 I0.816 J0.7377
G1 F200.0 Z-3.0
G1 F700.0 X33.9379 Y37.938
G3 X34.0236 Y37.868 I0.7377 J0.816
G1 X34.8343 Y37.2714
G3 X34.9267 Y37.2104 I0.6519 J0.886
G1 X35.7932 Y36.6984
G3 X35.8912 Y36.6469 I0.5596 J0.947
G1 X36.8049 Y36.2246
G3 X36.9076 Y36.1833 I0.4615 J0.9985
G1 X37.859 Y35.855
G3 X37.9653 Y35.8242 I0.3588 J1.0398
G1 X38.945 Y35.5932
G3 X39.0539 Y35.5732 I0.2525 J1.0706
G1 X40.0518 Y35.4418
G3 X40.1621 Y35.4329 I0.1436 J1.0906
G1 X41.1681 Y35.4025
G3 X41.2788 Y35.4048 I0.0332 J1.0995
G1 X42.2828 Y35.4756
G3 X42.3927 Y35.489 I-0.0775 J1.0973
G1 X43.3845 Y35.6604
G3 X43.4925 Y35.6848 I-0.1874 J1.0839
G1 X44.4621 Y35.955
G3 X44.5671 Y35.9901 I-0.2954 J1.0596
G1 X45.5045 Y36.3565
G3 X45.57 Y36.3845 I-0.4004 J1.0245
G1 X45.719 Y36.1265
G1 X45.6781 Y36.1056
G1 X44.6096 Y35.688
G1 X43.5044 Y35.3799
G1 X42.374 Y35.1845
G1 X41.2295 Y35.1037
G1 X40.0828 Y35.1384
G1 X38.9453 Y35.2881
G1 X37.8287 Y35.5514
G1 X36.7442 Y35.9257
G1 X35.7028 Y36.407
G1 X34.7151 Y36.9906
G1 X33.791 Y37.6706
G1 X32.94 Y38.44
G1 X32.1706 Y39.291
G1 X31.4906 Y40.2151
G1 X30.907 Y41.2028
G1 X30.4257 Y42.2442
G1 X30.0514 Y43.3287
G1 X29.7881 Y44.4453
G1 X29.6384 Y45.5828
G1 X29.6037 Y46.7295
G1 X29.6845 Y47.874
G1 X29.8799 Y49.0044
G1 X30.188 Y50.1096
G1 X30.6056 Y51.1781
G1 X30.6265 Y51.219
G1 X30.8845 Y51.07
G3 X30.8565 Y51.0045 I0.9965 J-0.4659
G1 X30.4901 Y50.0671
G3 X30.455 Y49.9621 I1.0245 J-0.4004
G1 X30.1848 Y48.9925
G3 X30.1604 Y48.8845 I1.0596 J-0.2954
G1 X29.989 Y47.8927
G3 X29.9756 Y47.7828 I1.0839 J-0.1874
G1 X29.9048 Y46.7788
G3 X29.9025 Y46.6681 I1.0973 J-0.0775
G1 X29.9329 Y45.6621
G3 X29.9418 Y45.5518 I1.0995 J0.0332
G1 X30.0732 Y44.5539
G3 X30.0932 Y44.445 I1.0906 J0.1436
G1 X30.3242 Y43.4653
G3 X30.355 Y43.359 I1.0706 J0.2525
G1 X30.6833 Y42.4076
G3 X30.7246 Y42.3049 I1.0398 J0.3588
G1 X31.1469 Y41.3912
G3 X31.1984 Y41.2932 I0.9985 J0.4615
G1 X31.7104 Y40.4267
G3 X31.7714 Y40.3343 I0.947 J0.5596
G1 X32.368 Y39.5236
G3 X32.438 Y39.4379 I0.886 J0.6519
G1 X33.113 Y38.6912
G3 X33.1912 Y38.613 I0.816 J0.7377
G1 F200.0 Z-3.3
G1 F700.0 X33.9379 Y37.938
G3 X34.0236 Y37.868 I0.7377 J0.816
G1 X34.8343 Y37.2714
G3 X34.9267 Y37.2104 I0.6519 J0.886
G1 X35.7932 Y36.6984
G3 X35.8912 Y36.6469 I0.5596 J0.947
G1 X36.8049 Y36.2246
G3 X36.9076 Y36.1833 I0.4615 J0.9985
G1 X37.859 Y35.855
G3 X37.9653 Y35.8242 I0.3588 J1.0398
G1 X38.945 Y35.5932
G3 X39.0539 Y35.5732 I0.2525 J1.0706
G1 X40.0518 Y35.4418
G3 X40.1621 Y35.4329 I0.1436 J1.0906
G1 X41.1681 Y35.4025
G3 X41.2788 Y35.4048 I0.0332 J1.0995
G1 X42.2828 Y35.4756
G3 X42.3927 Y35.489 I-0.0775 J1.0973
G1 X43.3845 Y35.6604
G3 X43.4925 Y35.6848 I-0.1874 J1.0839
G1 X44.4621 Y35.955
G3 X44.5671 Y35.9901 I-0.2954 J1.0596
G1 X45.5045 Y36.3565
G3 X45.57 Y36.3845 I-0.4004 J1.0245
G1 X45.719 Y36.1265
G1 X45.6781 Y36.1056
G1 X44.6096 Y35.688
G1 X43.5044 Y35.3799
G1 X42.374 Y35.1845
G1 X41.2295 Y35.1037
G1 X40.0828 Y35.1384
G1 X38.9453 Y35.2881
G1 X37.8287 Y35.5514
G1 X36.7442 Y35.9257
G1 X35.7028 Y36.407
G1 X34.7151 Y36.9906
G1 X33.791 Y37.6706
G1 X32.94 Y38.44
G1 X32.1706 Y39.291
G1 X31.4906 Y40.2151
G1 X30.907 Y41.2028
G1 X30.4257 Y42.2442
G1 X30.0514 Y43.3287
G1 X29.7881 Y44.4453
G1 X29.6384 Y45.5828
G1 X29.6037 Y46.7295
G1 X29.6845 Y47.874
G1 X29.8799 Y49.0044
G1 X30.188 Y50.1096
G1 X30.6056 Y51.1781
G1 X30.6265 Y51.219
G1 X30.8845 Y51.07
G3 X30.8565 Y51.0045 I0.9965 J-0.4659
G1 X30.4901 Y50.0671
G3 X30.455 Y49.9621 I1.0245 J-0.4004
G1 X30.1848 Y48.9925
G3 X30.1604 Y48.8845 I1.0596 J-0.2954
G1 X29.989 Y47.8927
G3 X29.9756 Y47.7828 I1.0839 J-0.1874
G1 X29.9048 Y46.7788
G3 X29.9025 Y46.6681 I1.0973 J-0.0775
G1 X29.9329 Y45.6621
G3 X29.9418 Y45.5518 I1.0995 J0.0332
G1 X30.0732 Y44.5539
G3 X30.0932 Y44.445 I1.0906 J0.1436
G1 X30.3242 Y43.4653
G3 X30.355 Y43.359 I1.0706 J0.2525
G1 X30.6833 Y42.4076
G3 X30.7246 Y42.3049 I1.0398 J0.3588
G1 X31.1469 Y41.3912
G3 X31.1984 Y41.2932 I0.9985 J0.4615
G1 X31.7104 Y40.4267
G3 X31.7714 Y40.3343 I0.947 J0.5596
G1 X32.368 Y39.5236
G3 X32.438 Y39.4379 I0.886 J0.6519
G1 X33.113 Y38.6912
G3 X33.1912 Y38.613 I0.816 J0.7377
G1 F200.0 Z-3.6
G1 F700.0 X33.9379 Y37.938
G3 X34.0236 Y37.868 I0.7377 J0.816
G1 X34.8343 Y37.2714
G3 X34.9267 Y37.2104 I0.6519 J0.886
G1 X35.7932 Y36.6984
G3 X35.8912 Y36.6469 I0.5596 J0.947
G1 X36.8049 Y36.2246
G3 X36.9076 Y36.1833 I0.4615 J0.9985
G1 X37.859 Y35.855
G3 X37.9653 Y35.8242 I0.3588 J1.0398
G1 X38.945 Y35.5932
G3 X39.0539 Y35.5732 I0.2525 J1.0706
G1 X40.0518 Y35.4418
G3 X40.1621 Y35.4329 I0.1436 J1.0906
G1 X41.1681 Y35.4025
G3 X41.2788 Y35.4048 I0.0332 J1.0995
G1 X42.2828 Y35.4756
G3 X42.3927 Y35.489 I-0.0775 J1.0973
G1 X43.3845 Y35.6604
G3 X43.4925 Y35.6848 I-0.1874 J1.0839
G1 X44.4621 Y35.955
G3 X44.5671 Y35.9901 I-0.2954 J1.0596
G1 X45.5045 Y36.3565
G3 X45.57 Y36.3845 I-0.4004 J1.0245
G1 X45.719 Y36.1265
G1 X45.6781 Y36.1056
G1 X44.6096 Y35.688
G1 X43.5044 Y35.3799
G1 X42.374 Y35.1845
G1 X41.2295 Y35.1037
G1 X40.0828 Y35.1384
G1 X38.9453 Y35.2881
G1 X37.8287 Y35.5514
G1 X36.7442 Y35.9257
G1 X35.7028 Y36.407
G1 X34.7151 Y36.9906
G1 X33.791 Y37.6706
G1 X32.94 Y38.44
G1 X32.1706 Y39.291
G1 X31.4906 Y40.2151
G1 X30.907 Y41.2028
G1 X30.4257 Y42.2442
G1 X30.0514 Y43.3287
G1 X29.7881 Y44.4453
G1 X29.6384 Y45.5828
G1 X29.6037 Y46.7295
G1 X29.6845 Y47.874
G1 X29.8799 Y49.0044
G1 X30.188 Y50.1096
G1 X30.6056 Y51.1781
G1 X30.6265 Y51.219
G1 X30.8845 Y51.07
G3 X30.8565 Y51.0045 I0.9965 J-0.4659
G1 X30.4901 Y50.0671
G3 X30.455 Y49.9621 I1.0245 J-0.4004
G1 X30.1848 Y48.9925
G3 X30.1604 Y48.8845 I1.0596 J-0.2954
G1 X29.989 Y47.8927
G3 X29.9756 Y47.7828 I1.0839 J-0.1874
G1 X29.9048 Y46.7788
G3 X29.9025 Y46.6681 I1.0973 J-0.0775
G1 X29.9329 Y45.6621
G3 X29.9418 Y45.5518 I1.0995 J0.0332
G1 X30.0732 Y44.5539
G3 X30.0932 Y44.445 I1.0906 J0.1436
G1 X30.3242 Y43.4653
G3 X30.355 Y43.359 I1.0706 J0.2525
G1 X30.6833 Y42.4076
G3 X30.7246 Y42.3049 I1.0398 J0.3588
G1 X31.1469 Y41.3912
G3 X31.1984 Y41.2932 I0.9985 J0.4615
G1 X31.7104 Y40.4267
G3 X31.7714 Y40.3343 I0.947 J0.5596
G1 X32.368 Y39.5236
G3 X32.438 Y39.4379 I0.886 J0.6519
G1 X33.113 Y38.6912
G3 X33.1912 Y38.613 I0.816 J0.7377
G1 F200.0 Z-3.9
G1 F700.0 X33.9379 Y37.938
G3 X34.0236 Y37.868 I0.7377 J0.816
G1 X34.8343 Y37.2714
G3 X34.9267 Y37.2104 I0.6519 J0.886
G1 X35.7932 Y36.6984
G3 X35.8912 Y36.6469 I0.5596 J0.947
G1 X36.8049 Y36.2246
G3 X36.9076 Y36.1833 I0.4615 J0.9985
G1 X37.859 Y35.855
G3 X37.9653 Y35.8242 I0.3588 J1.0398
G1 X38.945 Y35.5932
G3 X39.0539 Y35.5732 I0.2525 J1.0706
G1 X40.0518 Y35.4418
G3 X40.1621 Y35.4329 I0.1436 J1.0906
G1 X41.1681 Y35.4025
G3 X41.2788 Y35.4048 I0.0332 J1.0995
G1 X42.2828 Y35.4756
G3 X42.3927 Y35.489 I-0.0775 J1.0973
G1 X43.3845 Y35.6604
G3 X43.4925 Y35.6848 I-0.1874 J1.0839
G1 X44.4621 Y35.955
G3 X44.5671 Y35.9901 I-0.2954 J1.0596
G1 X45.5045 Y36.3565
G3 X45.57 Y36.3845 I-0.4004 J1.0245
G1 X45.719 Y36.1265
G1 X45.6781 Y36.1056
G1 X44.6096 Y35.688
G1 X43.5044 Y35.3799
G1 X42.374 Y35.1845
G1 X41.2295 Y35.1037
G1 X40.0828 Y35.1384
G1 X38.9453 Y35.2881
G1 X37.8287 Y35.5514
G1 X36.7442 Y35.9257
G1 X35.7028 Y36.407
G1 X34.7151 Y36.9906
G1 X33.791 Y37.6706
G1 X32.94 Y38.44
G1 X32.1706 Y39.291
G1 X31.4906 Y40.2151
G1 X30.907 Y41.2028
G1 X30.4257 Y42.2442
G1 X30.0514 Y43.3287
G1 X29.7881 Y44.4453
G1 X29.6384 Y45.5828
G1 X29.6037 Y46.7295
G1 X29.6845 Y47.874
G1 X29.8799 Y49.0044
G1 X30.188 Y50.1096
G1 X30.6056 Y51.1781
G1 X30.6265 Y51.219
G1 X30.8845 Y51.07
G3 X30.8565 Y51.0045 I0.9965 J-0.4659
G1 X30.4901 Y50.0671
G3 X30.455 Y49.9621 I1.0245 J-0.4004
G1 X30.1848 Y48.9925
G3 X30.1604 Y48.8845 I1.0596 J-0.2954
G1 X29.989 Y47.8927
G3 X29.9756 Y47.7828 I1.0839 J-0.1874
G1 X29.9048 Y46.7788
G3 X29.9025 Y46.6681 I1.0973 J-0.0775
G1 X29.9329 Y45.6621
G3 X29.9418 Y45.5518 I1.0995 J0.0332
G1 X30.0732 Y44.5539
G3 X30.0932 Y44.445 I1.0906 J0.1436
G1 X30.3242 Y43.4653
G3 X30.355 Y43.359 I1.0706 J0.2525
G1 X30.6833 Y42.4076
G3 X30.7246 Y42.3049 I1.0398 J0.3588
G1 X31.1469 Y41.3912
G3 X31.1984 Y41.2932 I0.9985 J0.4615
G1 X31.7104 Y40.4267
G3 X31.7714 Y40.3343 I0.947 J0.5596
G1 X32.368 Y39.5236
G3 X32.438 Y39.4379 I0.886 J0.6519
G1 X33.113 Y38.6912
G3 X33.1912 Y38.613 I0.816 J0.7377
G1 F200.0 Z-4.1
G1 F700.0 X33.9379 Y37.938
G3 X34.0236 Y37.868 I0.7377 J0.816
G1 X34.8343 Y37.2714
G3 X34.9267 Y37.2104 I0.6519 J0.886
G1 X35.7932 Y36.6984
G3 X35.8912 Y36.6469 I0.5596 J0.947
G1 X36.8049 Y36.2246
G3 X36.9076 Y36.1833 I0.4615 J0.9985
G1 X37.859 Y35.855
G3 X37.9653 Y35.8242 I0.3588 J1.0398
G1 X38.945 Y35.5932
G3 X39.0539 Y35.5732 I0.2525 J1.0706
G1 X40.0518 Y35.4418
G3 X40.1621 Y35.4329 I0.1436 J1.0906
G1 X41.1681 Y35.4025
G3 X41.2788 Y35.4048 I0.0332 J1.0995
G1 X42.2828 Y35.4756
G3 X42.3927 Y35.489 I-0.0775 J1.0973
G1 X43.3845 Y35.6604
G3 X43.4925 Y35.6848 I-0.1874 J1.0839
G1 X44.4621 Y35.955
G3 X44.5671 Y35.9901 I-0.2954 J1.0596
G1 X45.5045 Y36.3565
G3 X45.57 Y36.3845 I-0.4004 J1.0245
G1 X45.719 Y36.1265
G1 X45.6781 Y36.1056
G1 X44.6096 Y35.688
G1 X43.5044 Y35.3799
G1 X42.374 Y35.1845
G1 X41.2295 Y35.1037
G1 X40.0828 Y35.1384
G1 X38.9453 Y35.2881
G1 X37.8287 Y35.5514
G1 X36.7442 Y35.9257
G1 X35.7028 Y36.407
G1 X34.7151 Y36.9906
G1 X33.791 Y37.6706
G1 X32.94 Y38.44
G1 X32.1706 Y39.291
G1 X31.4906 Y40.2151
G1 X30.907 Y41.2028
G1 X30.4257 Y42.2442
G1 X30.0514 Y43.3287
G1 X29.7881 Y44.4453
G1 X29.6384 Y45.5828
G1 X29.6037 Y46.7295
G1 X29.6845 Y47.874
G1 X29.8799 Y49.0044
G1 X30.188 Y50.1096
G1 X30.6056 Y51.1781
G1 X30.6265 Y51.219
G1 X30.8845 Y51.07
G3 X30.8565 Y51.0045 I0.9965 J-0.4659
G1 X30.4901 Y50.0671
G3 X30.455 Y49.9621 I1.0245 J-0.4004
G1 X30.1848 Y48.9925
G3 X30.1604 Y48.8845 I1.0596 J-0.2954
G1 X29.989 Y47.8927
G3 X29.9756 Y47.7828 I1.0839 J-0.1874
G1 X29.9048 Y46.7788
G3 X29.9025 Y46.6681 I1.0973 J-0.0775
G1 X29.9329 Y45.6621
G3 X29.9418 Y45.5518 I1.0995 J0.0332
G1 X30.0732 Y44.5539
G3 X30.0932 Y44.445 I1.0906 J0.1436
G1 X30.3242 Y43.4653
G3 X30.355 Y43.359 I1.0706 J0.2525
G1 X30.6833 Y42.4076
G3 X30.7246 Y42.3049 I1.0398 J0.3588
G1 X31.1469 Y41.3912
G3 X31.1984 Y41.2932 I0.9985 J0.4615
G1 X31.7104 Y40.4267
G3 X31.7714 Y40.3343 I0.947 J0.5596
G1 X32.368 Y39.5236
G3 X32.438 Y39.4379 I0.886 J0.6519
G1 X33.113 Y38.6912
G3 X33.1912 Y38.613 I0.816 J0.7377
G1 F200.0 Z-4.2
G1 F700.0 X33.9379 Y37.938
G3 X34.0236 Y37.868 I0.7377 J0.816
G1 X34.8343 Y37.2714
G3 X34.9267 Y37.2104 I0.6519 J0.886
G1 X35.7932 Y36.6984
G3 X35.8912 Y36.6469 I0.5596 J0.947
G1 X36.8049 Y36.2246
G3 X36.9076 Y36.1833 I0.4615 J0.9985
G1 X37.859 Y35.855
G3 X37.9653 Y35.8242 I0.3588 J1.0398
G1 X38.945 Y35.5932
G3 X39.0539 Y35.5732 I0.2525 J1.0706
G1 X40.0518 Y35.4418
G3 X40.1621 Y35.4329 I0.1436 J1.0906
G1 X41.1681 Y35.4025
G3 X41.2788 Y35.4048 I0.0332 J1.0995
G1 X42.2828 Y35.4756
G3 X42.3927 Y35.489 I-0.0775 J1.0973
G1 X43.3845 Y35.6604
G3 X43.4925 Y35.6848 I-0.1874 J1.0839
G1 X44.4621 Y35.955
G3 X44.5671 Y35.9901 I-0.2954 J1.0596
G1 X45.5045 Y36.3565
G3 X45.57 Y36.3845 I-0.4004 J1.0245
G1 X45.719 Y36.1265
G1 X45.6781 Y36.1056
G1 X44.6096 Y35.688
G1 X43.5044 Y35.3799
G1 X42.374 Y35.1845
G1 X41.2295 Y35.1037
G1 X40.0828 Y35.1384
G1 X38.9453 Y35.2881
G1 X37.8287 Y35.5514
G1 X36.7442 Y35.9257
G1 X35.7028 Y36.407
G1 X34.7151 Y36.9906
G1 X33.791 Y37.6706
G1 X32.94 Y38.44
G1 X32.1706 Y39.291
G1 X31.4906 Y40.2151
G1 X30.907 Y41.2028
G1 X30.4257 Y42.2442
G1 X30.0514 Y43.3287
G1 X29.7881 Y44.4453
G1 X29.6384 Y45.5828
G1 X29.6037 Y46.7295
G1 X29.6845 Y47.874
G1 X29.8799 Y49.0044
G1 X30.188 Y50.1096
G1 X30.6056 Y51.1781
G1 X30.6265 Y51.219
G1 X30.8845 Y51.07
G3 X30.8565 Y51.0045 I0.9965 J-0.4659
G1 X30.4901 Y50.0671
G3 X30.455 Y49.9621 I1.0245 J-0.4004
G1 X30.1848 Y48.9925
G3 X30.1604 Y48.8845 I1.0596 J-0.2954
G1 X29.989 Y47.8927
G3 X29.9756 Y47.7828 I1.0839 J-0.1874
G1 X29.9048 Y46.7788
G3 X29.9025 Y46.6681 I1.0973 J-0.0775
G1 X29.9329 Y45.6621
G3 X29.9418 Y45.5518 I1.0995 J0.0332
G1 X30.0732 Y44.5539
G3 X30.0932 Y44.445 I1.0906 J0.1436
G1 X30.3242 Y43.4653
G3 X30.355 Y43.359 I1.0706 J0.2525
G1 X30.6833 Y42.4076
G3 X30.7246 Y42.3049 I1.0398 J0.3588
G1 X31.1469 Y41.3912
G3 X31.1984 Y41.2932 I0.9985 J0.4615
G1 X31.7104 Y40.4267
G3 X31.7714 Y40.3343 I0.947 J0.5596
G1 X32.368 Y39.5236
G3 X32.438 Y39.4379 I0.886 J0.6519
G1 X33.113 Y38.6912
G3 X33.1912 Y38.613 I0.816 J0.7377
G0 Z3.0
G0 X27.9883 Y33.239
G0 Z1.0
G1 F200.0 Z-0.3
G1 F700.0 X28.7069 Y32.5432
G3 X28.7898 Y32.4706 I0.7651 J0.7903
G1 X30.1646 Y31.3836
G3 X30.2544 Y31.3196 I0.6823 J0.8629
G1 X31.7311 Y30.3755
G3 X31.8267 Y30.3209 I0.5925 J0.9268
G1 X33.3904 Y29.5293
G3 X33.4911 Y29.4845 I0.4969 J0.9814
G1 X35.1261 Y28.8532
G3 X35.2308 Y28.8187 I0.3962 J1.0262
G1 X35.9119 Y28.6315
G1 X35.8476 Y28.3413
G1 X35.0845 Y28.551
G1 X33.3188 Y29.2328
G1 X31.6302 Y30.0877
G1 X30.0355 Y31.1073
G1 X28.5508 Y32.2812
G1 X27.1909 Y33.5978
G1 X25.9696 Y35.0438
G1 X24.8991 Y36.6047
G1 X23.99 Y38.2648
G1 X23.2516 Y40.0076
G1 X22.6912 Y41.8155
G1 X22.3144 Y43.6704
G1 X22.1251 Y45.5536
G1 Y47.4464
G1 X22.3144 Y49.3296
G1 X22.6912 Y51.1845
G1 X23.2516 Y52.9924
G1 X23.99 Y54.7352
G1 X24.8991 Y56.3953
G1 X25.9696 Y57.9562
G1 X27.1909 Y59.4022
G1 X28.5508 Y60.7188
G1 X30.0355 Y61.8927
G1 X31.6302 Y62.9123
G1 X33.3188 Y63.7672
G1 X35.0845 Y64.449
G1 X35.8476 Y64.6587
G1 X35.9119 Y64.3685
G1 X35.2308 Y64.1813
G3 X35.1261 Y64.1468 I0.2916 J-1.0607
G1 X33.4911 Y63.5155
G3 X33.3904 Y63.4707 I0.3962 J-1.0262
G1 X31.8267 Y62.6791
G3 X31.7311 Y62.6245 I0.4969 J-0.9814
G1 X30.2544 Y61.6804
G3 X30.1646 Y61.6164 I0.5925 J-0.9268
G1 X28.7898 Y60.5294
G3 X28.7069 Y60.4568 I0.6823 J-0.8629
G1 X27.4477 Y59.2377
G3 X27.3725 Y59.1572 I0.7651 J-0.7903
G1 X26.2416 Y57.8182
G3 X26.1748 Y57.7306 I0.8404 J-0.7098
G1 X25.1835 Y56.2852
G3 X25.1258 Y56.1913 I0.9071 J-0.6222
G1 X24.284 Y54.654
G3 X24.236 Y54.5549 I0.9648 J-0.5283
G1 X23.5522 Y52.9411
G3 X23.5144 Y52.8376 I1.0128 J-0.4291
G1 X22.9955 Y51.1635
G3 X22.9682 Y51.0568 I1.0507 J-0.3257
G1 X22.6193 Y49.3392
G3 X22.6028 Y49.2303 I1.078 J-0.219
G1 X22.4275 Y47.4864
G3 X22.422 Y47.3763 I1.0945 J-0.11
G1 Y45.6237
G3 X22.4275 Y45.5136 I1.1 J0.0
G1 X22.6028 Y43.7697
G3 X22.6193 Y43.6608 I1.0945 J0.11
G1 X22.9682 Y41.9432
G3 X22.9955 Y41.8365 I1.078 J0.219
G1 X23.5144 Y40.1624
G3 X23.5522 Y40.0589 I1.0507 J0.3257
G1 X24.236 Y38.4451
G3 X24.284 Y38.346 I1.0128 J0.4291
G1 X25.1258 Y36.8087
G3 X25.1835 Y36.7148 I0.9648 J0.5283
G1 X26.1748 Y35.2694
G3 X26.2416 Y35.1818 I0.9071 J0.6222
G1 X27.3725 Y33.8428
G3 X27.4477 Y33.7623 I0.8404 J0.7098
G1 X27.9883 Y33.239
G1 F200.0 Z-0.6
G1 F700.0 X28.7069 Y32.5432
G3 X28.7898 Y32.4706 I0.7651 J0.7903
G1 X30.1646 Y31.3836
G3 X30.2544 Y31.3196 I0.6823 J0.8629
G1 X31.7311 Y30.3755
G3 X31.8267 Y30.3209 I0.5925 J0.9268
G1 X33.3904 Y29.5293
G3 X33.4911 Y29.4845 I0.4969 J0.9814
G1 X35.1261 Y28.8532
G3 X35.2308 Y28.8187 I0.3962 J1.0262
G1 X35.9119 Y28.6315
G1 X35.8476 Y28.3413
G1 X35.0845 Y28.551
G1 X33.3188 Y29.2328
G1 X31.6302 Y30.0877
G1 X30.0355 Y31.1073
G1 X28.5508 Y32.2812
G1 X27.1909 Y33.5978
G1 X25.9696 Y35.0438
G1 X24.8991 Y36.6047
G1 X23.99 Y38.2648
G1 X23.2516 Y40.0076
G1 X22.6912 Y41.8155
G1 X22.3144 Y43.6704
G1 X22.1251 Y45.5536
G1 Y47.4464
G1 X22.3144 Y49.3296
G1 X22.6912 Y51.1845
G1 X23.2516 Y52.9924
G1 X23.99 Y54.7352
G1 X24.8991 Y56.3953
G1 X25.9696 Y57.9562
G1 X27.1909 Y59.4022
G1 X28.5508 Y60.7188
G1 X30.0355 Y61.8927
G1 X31.6302 Y62.9123
G1 X33.3188 Y63.7672
G1 X35.0845 Y64.449
G1 X35.8476 Y64.6587
G1 X35.9119 Y64.3685
G1 X35.2308 Y64.1813
G3 X35.1261 Y64.1468 I0.2916 J-1.0607
G1 X33.4911 Y63.5155
G3 X33.3904 Y63.4707 I0.3962 J-1.0262
G1 X31.8267 Y62.6791
G3 X31.7311 Y62.6245 I0.4969 J-0.9814
G1 X30.2544 Y61.6804
G3 X30.1646 Y61.6164 I0.5925 J-0.9268
G1 X28.7898 Y60.5294
G3 X28.7069 Y60.4568 I0.6823 J-0.8629
G1 X27.4477 Y59.2377
G3 X27.3725 Y59.1572 I0.7651 J-0.7903
G1 X26.2416 Y57.8182
G3 X26.1748 Y57.7306 I0.8404 J-0.7098
G1 X25.1835 Y56.2852
G3 X25.1258 Y56.1913 I0.9071 J-0.6222
G1 X24.284 Y54.654
G3 X24.236 Y54.5549 I0.9648 J-0.5283
G1 X23.5522 Y52.9411
G3 X23.5144 Y52.8376 I1.0128 J-0.4291
G1 X22.9955 Y51.1635
G3 X22.9682 Y51.0568 I1.0507 J-0.3257
G1 X22.6193 Y49.3392
G3 X22.6028 Y49.2303 I1.078 J-0.219
G1 X22.4275 Y47.4864
G3 X22.422 Y47.3763 I1.0945 J-0.11
G1 Y45.6237
G3 X22.4275 Y45.5136 I1.1 J0.0
G1 X22.6028 Y43.7697
G3 X22.6193 Y43.6608 I1.0945 J0.11
G1 X22.9682 Y41.9432
G3 X22.9955 Y41.8365 I1.078 J0.219
G1 X23.5144 Y40.1624
G3 X23.5522 Y40.0589 I1.0507 J0.3257
G1 X24.236 Y38.4451
G3 X24.284 Y38.346 I1.0128 J0.4291
G1 X25.1258 Y36.8087
G3 X25.1835 Y36.7148 I0.9648 J0.5283
G1 X26.1748 Y35.2694
G3 X26.2416 Y35.1818 I0.9071 J0.6222
G1 X27.3725 Y33.8428
G3 X27.4477 Y33.7623 I0.8404 J0.7098
G1 X27.9883 Y33.239
G1 F200.0 Z-0.9
G1 F700.0 X28.7069 Y32.5432
G3 X28.7898 Y32.4706 I0.7651 J0.7903
G1 X30.1646 Y31.3836
G3 X30.2544 Y31.3196 I0.6823 J0.8629
G1 X31.7311 Y30.3755
G3 X31.8267 Y30.3209 I0.5925 J0.9268
G1 X33.3904 Y29.5293
G3 X33.4911 Y29.4845 I0.4969 J0.9814
G1 X35.1261 Y28.8532
G3 X35.2308 Y28.8187 I0.3962 J1.0262
G1 X35.9119 Y28.6315
G1 X35.8476 Y28.3413
G1 X35.0845 Y28.551
G1 X33.3188 Y29.2328
G1 X31.6302 Y30.0877
G1 X30.0355 Y31.1073
G1 X28.5508 Y32.2812
G1 X27.1909 Y33.5978
G1 X25.9696 Y35.0438
G1 X24.8991 Y36.6047
G1 X23.99 Y38.2648
G1 X23.2516 Y40.0076
G1 X22.6912 Y41.8155
G1 X22.3144 Y43.6704
G1 X22.1251 Y45.5536
G1 Y47.4464
G1 X22.3144 Y49.3296
G1 X22.6912 Y51.1845
G1 X23.2516 Y52.9924
G1 X23.99 Y54.7352
G1 X24.8991 Y56.3953
G1 X25.9696 Y57.9562
G1 X27.1909 Y59.4022
G1 X28.5508 Y60.7188
G1 X30.0355 Y61.8927
G1 X31.6302 Y62.9123
G1 X33.3188 Y63.7672
G1 X35.0845 Y64.449
G1 X35.8476 Y64.6587
G1 X35.9119 Y64.3685
G1 X35.2308 Y64.1813
G3 X35.1261 Y64.1468 I0.2916 J-1.0607
G1 X33.4911 Y63.5155
G3 X33.3904 Y63.4707 I0.3962 J-1.0262
G1 X31.8267 Y62.6791
G3 X31.7311 Y62.6245 I0.4969 J-0.9814
G1 X30.2544 Y61.6804
G3 X30.1646 Y61.6164 I0.5925 J-0.9268
G1 X28.7898 Y60.5294
G3 X28.7069 Y60.4568 I0.6823 J-0.8629
G1 X27.4477 Y59.2377
G3 X27.3725 Y59.1572 I0.7651 J-0.7903
G1 X26.2416 Y57.8182
G3 X26.1748 Y57.7306 I0.8404 J-0.7098
G1 X25.1835 Y56.2852
G3 X25.1258 Y56.1913 I0.9071 J-0.6222
G1 X24.284 Y54.654
G3 X24.236 Y54.5549 I0.9648 J-0.5283
G1 X23.5522 Y52.9411
G3 X23.5144 Y52.8376 I1.0128 J-0.4291
G1 X22.9955 Y51.1635
G3 X22.9682 Y51.0568 I1.0507 J-0.3257
G1 X22.6193 Y49.3392
G3 X22.6028 Y49.2303 I1.078 J-0.219
G1 X22.4275 Y47.4864
G3 X22.422 Y47.3763 I1.0945 J-0.11
G1 Y45.6237
G3 X22.4275 Y45.5136 I1.1 J0.0
G1 X22.6028 Y43.7697
G3 X22.6193 Y43.6608 I1.0945 J0.11
G1 X22.9682 Y41.9432
G3 X22.9955 Y41.8365 I1.078 J0.219
G1 X23.5144 Y40.1624
G3 X23.5522 Y40.0589 I1.0507 J0.3257
G1 X24.236 Y38.4451
G3 X24.284 Y38.346 I1.0128 J0.4291
G1 X25.1258 Y36.8087
G3 X25.1835 Y36.7148 I0.9648 J0.5283
G1 X26.1748 Y35.2694
G3 X26.2416 Y35.1818 I0.9071 J0.6222
G1 X27.3725 Y33.8428
G3 X27.4477 Y33.7623 I0.8404 J0.7098
G1 X27.9883 Y33.239
G1 F200.0 Z-1.2
G1 F700.0 X28.7069 Y32.5432
G3 X28.7898 Y32.4706 I0.7651 J0.7903
G1 X30.1646 Y31.3836
G3 X30.2544 Y31.3196 I0.6823 J0.8629
G1 X31.7311 Y30.3755
G3 X31.8267 Y30.3209 I0.5925 J0.9268
G1 X33.3904 Y29.5293
G3 X33.4911 Y29.4845 I0.4969 J0.9814
G1 X35.1261 Y28.8532
G3 X35.2308 Y28.8187 I0.3962 J1.0262
G1 X35.9119 Y28.6315
G1 X35.8476 Y28.3413
G1 X35.0845 Y28.551
G1 X33.3188 Y29.2328
G1 X31.6302 Y30.0877
G1 X30.0355 Y31.1073
G1 X28.5508 Y32.2812
G1 X27.1909 Y33.5978
G1 X25.9696 Y35.0438
G1 X24.8991 Y36.6047
G1 X23.99 Y38.2648
G1 X23.2516 Y40.0076
G1 X22.6912 Y41.8155
G1 X22.3144 Y43.6704
G1 X22.1251 Y45.5536
G1 Y47.4464
G1 X22.3144 Y49.3296
G1 X22.6912 Y51.1845
G1 X23.2516 Y52.9924
G1 X23.99 Y54.7352
G1 X24.8991 Y56.3953
G1 X25.9696 Y57.9562
G1 X27.1909 Y59.4022
G1 X28.5508 Y60.7188
G1 X30.0355 Y61.8927
G1 X31.6302 Y62.9123
G1 X33.3188 Y63.7672
G1 X35.0845 Y64.449
G1 X35.8476 Y64.6587
G1 X35.9119 Y64.3685
G1 X35.2308 Y64.1813
G3 X35.1261 Y64.1468 I0.2916 J-1.0607
G1 X33.4911 Y63.5155
G3 X33.3904 Y63.4707 I0.3962 J-1.0262
G1 X31.8267 Y62.6791
G3 X31.7311 Y62.6245 I0.4969 J-0.9814
G1 X30.2544 Y61.6804
G3 X30.1646 Y61.6164 I0.5925 J-0.9268
G1 X28.7898 Y60.5294
G3 X28.7069 Y60.4568 I0.6823 J-0.8629
G1 X27.4477 Y59.2377
G3 X27.3725 Y59.1572 I0.7651 J-0.7903
G1 X26.2416 Y57.8182
G3 X26.1748 Y57.7306 I0.8404 J-0.7098
G1 X25.1835 Y56.2852
G3 X25.1258 Y56.1913 I0.9071 J-0.6222
G1 X24.284 Y54.654
G3 X24.236 Y54.5549 I0.9648 J-0.5283
G1 X23.5522 Y52.9411
G3 X23.5144 Y52.8376 I1.0128 J-0.4291
G1 X22.9955 Y51.1635
G3 X22.9682 Y51.0568 I1.0507 J-0.3257
G1 X22.6193 Y49.3392
G3 X22.6028 Y49.2303 I1.078 J-0.219
G1 X22.4275 Y47.4864
G3 X22.422 Y47.3763 I1.0945 J-0.11
G1 Y45.6237
G3 X22.4275 Y45.5136 I1.1 J0.0
G1 X22.6028 Y43.7697
G3 X22.6193 Y43.6608 I1.0945 J0.11
G1 X22.9682 Y41.9432
G3 X22.9955 Y41.8365 I1.078 J0.219
G1 X23.5144 Y40.1624
G3 X23.5522 Y40.0589 I1.0507 J0.3257
G1 X24.236 Y38.4451
G3 X24.284 Y38.346 I1.0128 J0.4291
G1 X25.1258 Y36.8087
G3 X25.1835 Y36.7148 I0.9648 J0.5283
G1 X26.1748 Y35.2694
G3 X26.2416 Y35.1818 I0.9071 J0.6222
G1 X27.3725 Y33.8428
G3 X27.4477 Y33.7623 I0.8404 J0.7098
G1 X27.9883 Y33.239
G1 F200.0 Z-1.5
G1 F700.0 X28.7069 Y32.5432
G3 X28.7898 Y32.4706 I0.7651 J0.7903
G1 X30.1646 Y31.3836
G3 X30.2544 Y31.3196 I0.6823 J0.8629
G1 X31.7311 Y30.3755
G3 X31.8267 Y30.3209 I0.5925 J0.9268
G1 X33.3904 Y29.5293
G3 X33.4911 Y29.4845 I0.4969 J0.9814
G1 X35.1261 Y28.8532
G3 X35.2308 Y28.8187 I0.3962 J1.0262
G1 X35.9119 Y28.6315
G1 X35.8476 Y28.3413
G1 X35.0845 Y28.551
G1 X33.3188 Y29.2328
G1 X31.6302 Y30.0877
G1 X30.0355 Y31.1073
G1 X28.5508 Y32.2812
G1 X27.1909 Y33.5978
G1 X25.9696 Y35.0438
G1 X24.8991 Y36.6047
G1 X23.99 Y38.2648
G1 X23.2516 Y40.0076
G1 X22.6912 Y41.8155
G1 X22.3144 Y43.6704
G1 X22.1251 Y45.5536
G1 Y47.4464
G1 X22.3144 Y49.3296
G1 X22.6912 Y51.1845
G1 X23.2516 Y52.9924
G1 X23.99 Y54.7352
G1 X24.8991 Y56.3953
G1 X25.9696 Y57.9562
G1 X27.1909 Y59.4022
G1 X28.5508 Y60.7188
G1 X30.0355 Y61.8927
G1 X31.6302 Y62.9123
G1 X33.3188 Y63.7672
G1 X35.0845 Y64.449
G1 X35.8476 Y64.6587
G1 X35.9119 Y64.3685
G1 X35.2308 Y64.1813
G3 X35.1261 Y64.1468 I0.2916 J-1.0607
G1 X33.4911 Y63.5155
G3 X33.3904 Y63.4707 I0.3962 J-1.0262
G1 X31.8267 Y62.6791
G3 X31.7311 Y62.6245 I0.4969 J-0.9814
G1 X30.2544 Y61.6804
G3 X30.1646 Y61.6164 I0.5925 J-0.9268
G1 X28.7898 Y60.5294
G3 X28.7069 Y60.4568 I0.6823 J-0.8629
G1 X27.4477 Y59.2377
G3 X27.3725 Y59.1572 I0.7651 J-0.7903
G1 X26.2416 Y57.8182
G3 X26.1748 Y57.7306 I0.8404 J-0.7098
G1 X25.1835 Y56.2852
G3 X25.1258 Y56.1913 I0.9071 J-0.6222
G1 X24.284 Y54.654
G3 X24.236 Y54.5549 I0.9648 J-0.5283
G1 X23.5522 Y52.9411
G3 X23.5144 Y52.8376 I1.0128 J-0.4291
G1 X22.9955 Y51.1635
G3 X22.9682 Y51.0568 I1.0507 J-0.3257
G1 X22.6193 Y49.3392
G3 X22.6028 Y49.2303 I1.078 J-0.219
G1 X22.4275 Y47.4864
G3 X22.422 Y47.3763 I1.0945 J-0.11
G1 Y45.6237
G3 X22.4275 Y45.5136 I1.1 J0.0
G1 X22.6028 Y43.7697
G3 X22.6193 Y43.6608 I1.0945 J0.11
G1 X22.9682 Y41.9432
G3 X22.9955 Y41.8365 I1.078 J0.219
G1 X23.5144 Y40.1624
G3 X23.5522 Y40.0589 I1.0507 J0.3257
G1 X24.236 Y38.4451
G3 X24.284 Y38.346 I1.0128 J0.4291
G1 X25.1258 Y36.8087
G3 X25.1835 Y36.7148 I0.9648 J0.5283
G1 X26.1748 Y35.2694
G3 X26.2416 Y35.1818 I0.9071 J0.6222
G1 X27.3725 Y33.8428
G3 X27.4477 Y33.7623 I0.8404 J0.7098
G1 X27.9883 Y33.239
G1 F200.0 Z-1.8
G1 F700.0 X28.7069 Y32.5432
G3 X28.7898 Y32.4706 I0.7651 J0.7903
G1 X30.1646 Y31.3836
G3 X30.2544 Y31.3196 I0.6823 J0.8629
G1 X31.7311 Y30.3755
G3 X31.8267 Y30.3209 I0.5925 J0.9268
G1 X33.3904 Y29.5293
G3 X33.4911 Y29.4845 I0.4969 J0.9814
G1 X35.1261 Y28.8532
G3 X35.2308 Y28.8187 I0.3962 J1.0262
G1 X35.9119 Y28.6315
G1 X35.8476 Y28.3413
G1 X35.0845 Y28.551
G1 X33.3188 Y29.2328
G1 X31.6302 Y30.0877
G1 X30.0355 Y31.1073
G1 X28.5508 Y32.2812
G1 X27.1909 Y33.5978
G1 X25.9696 Y35.0438
G1 X24.8991 Y36.6047
G1 X23.99 Y38.2648
G1 X23.2516 Y40.0076
G1 X22.6912 Y41.8155
G1 X22.3144 Y43.6704
G1 X22.1251 Y45.5536
G1 Y47.4464
G1 X22.3144 Y49.3296
G1 X22.6912 Y51.1845
G1 X23.2516 Y52.9924
G1 X23.99 Y54.7352
G1 X24.8991 Y56.3953
G1 X25.9696 Y57.9562
G1 X27.1909 Y59.4022
G1 X28.5508 Y60.7188
G1 X30.0355 Y61.8927
G1 X31.6302 Y62.9123
G1 X33.3188 Y63.7672
G1 X35.0845 Y64.449
G1 X35.8476 Y64.6587
G1 X35.9119 Y64.3685
G1 X35.2308 Y64.1813
G3 X35.1261 Y64.1468 I0.2916 J-1.0607
G1 X33.4911 Y63.5155
G3 X33.3904 Y63.4707 I0.3962 J-1.0262
G1 X31.8267 Y62.6791
G3 X31.7311 Y62.6245 I0.4969 J-0.9814
G1 X30.2544 Y61.6804
G3 X30.1646 Y61.6164 I0.5925 J-0.9268
G1 X28.7898 Y60.5294
G3 X28.7069 Y60.4568 I0.6823 J-0.8629
G1 X27.4477 Y59.2377
G3 X27.3725 Y59.1572 I0.7651 J-0.7903
G1 X26.2416 Y57.8182
G3 X26.1748 Y57.7306 I0.8404 J-0.7098
G1 X25.1835 Y56.2852
G3 X25.1258 Y56.1913 I0.9071 J-0.6222
G1 X24.284 Y54.654
G3 X24.236 Y54.5549 I0.9648 J-0.5283
G1 X23.5522 Y52.9411
G3 X23.5144 Y52.8376 I1.0128 J-0.4291
G1 X22.9955 Y51.1635
G3 X22.9682 Y51.0568 I1.0507 J-0.3257
G1 X22.6193 Y49.3392
G3 X22.6028 Y49.2303 I1.078 J-0.219
G1 X22.4275 Y47.4864
G3 X22.422 Y47.3763 I1.0945 J-0.11
G1 Y45.6237
G3 X22.4275 Y45.5136 I1.1 J0.0
G1 X22.6028 Y43.7697
G3 X22.6193 Y43.6608 I1.0945 J0.11
G1 X22.9682 Y41.9432
G3 X22.9955 Y41.8365 I1.078 J0.219
G1 X23.5144 Y40.1624
G3 X23.5522 Y40.0589 I1.0507 J0.3257
G1 X24.236 Y38.4451
G3 X24.284 Y38.346 I1.0128 J0.4291
G1 X25.1258 Y36.8087
G3 X25.1835 Y36.7148 I0.9648 J0.5283
G1 X26.1748 Y35.2694
G3 X26.2416 Y35.1818 I0.9071 J0.6222
G1 X27.3725 Y33.8428
G3 X27.4477 Y33.7623 I0.8404 J0.7098
G1 X27.9883 Y33.239
G1 F200.0 Z-2.1
G1 F700.0 X28.7069 Y32.5432
G3 X28.7898 Y32.4706 I0.7651 J0.7903
G1 X30.1646 Y31.3836
G3 X30.2544 Y31.3196 I0.6823 J0.8629
G1 X31.7311 Y30.3755
G3 X31.8267 Y30.3209 I0.5925 J0.9268
G1 X33.3904 Y29.5293
G3 X33.4911 Y29.4845 I0.4969 J0.9814
G1 X35.1261 Y28.8532
G3 X35.2308 Y28.8187 I0.3962 J1.0262
G1 X35.9119 Y28.6315
G1 X35.8476 Y28.3413
G1 X35.0845 Y28.551
G1 X33.3188 Y29.2328
G1 X31.6302 Y30.0877
G1 X30.0355 Y31.1073
G1 X28.5508 Y32.2812
G1 X27.1909 Y33.5978
G1 X25.9696 Y35.0438
G1 X24.8991 Y36.6047
G1 X23.99 Y38.2648
G1 X23.2516 Y40.0076
G1 X22.6912 Y41.8155
G1 X22.3144 Y43.6704
G1 X22.1251 Y45.5536
G1 Y47.4464
G1 X22.3144 Y49.3296
G1 X22.6912 Y51.1845
G1 X23.2516 Y52.9924
G1 X23.99 Y54.7352
G1 X24.8991 Y56.3953
G1 X25.9696 Y57.9562
G1 X27.1909 Y59.4022
G1 X28.5508 Y60.7188
G1 X30.0355 Y61.8927
G1 X31.6302 Y62.9123
G1 X33.3188 Y63.7672
G1 X35.0845 Y64.449
G1 X35.8476 Y64.6587
G1 X35.9119 Y64.3685
G1 X35.2308 Y64.1813
G3 X35.1261 Y64.1468 I0.2916 J-1.0607
G1 X33.4911 Y63.5155
G3 X33.3904 Y63.4707 I0.3962 J-1.0262
G1 X31.8267 Y62.6791
G3 X31.7311 Y62.6245 I0.4969 J-0.9814
G1 X30.2544 Y61.6804
G3 X30.1646 Y61.6164 I0.5925 J-0.9268
G1 X28.7898 Y60.5294
G3 X28.7069 Y60.4568 I0.6823 J-0.8629
G1 X27.4477 Y59.2377
G3 X27.3725 Y59.1572 I0.7651 J-0.7903
G1 X26.2416 Y57.8182
G3 X26.1748 Y57.7306 I0.8404 J-0.7098
G1 X25.1835 Y56.2852
G3 X25.1258 Y56.1913 I0.9071 J-0.6222
G1 X24.284 Y54.654
G3 X24.236 Y54.5549 I0.9648 J-0.5283
G1 X23.5522 Y52.9411
G3 X23.5144 Y52.8376 I1.0128 J-0.4291
G1 X22.9955 Y51.1635
G3 X22.9682 Y51.0568 I1.0507 J-0.3257
G1 X22.6193 Y49.3392
G3 X22.6028 Y49.2303 I1.078 J-0.219
G1 X22.4275 Y47.4864
G3 X22.422 Y47.3763 I1.0945 J-0.11
G1 Y45.6237
G3 X22.4275 Y45.5136 I1.1 J0.0
G1 X22.6028 Y43.7697
G3 X22.6193 Y43.6608 I1.0945 J0.11
G1 X22.9682 Y41.9432
G3 X22.9955 Y41.8365 I1.078 J0.219
G1 X23.5144 Y40.1624
G3 X23.5522 Y40.0589 I1.0507 J0.3257
G1 X24.236 Y38.4451
G3 X24.284 Y38.346 I1.0128 J0.4291
G1 X25.1258 Y36.8087
G3 X25.1835 Y36.7148 I0.9648 J0.5283
G1 X26.1748 Y35.2694
G3 X26.2416 Y35.1818 I0.9071 J0.6222
G1 X27.3725 Y33.8428
G3 X27.4477 Y33.7623 I0.8404 J0.7098
G1 X27.9883 Y33.239
G1 F200.0 Z-2.4
G1 F700.0 X28.7069 Y32.5432
G3 X28.7898 Y32.4706 I0.7651 J0.7903
G1 X30.1646 Y31.3836
G3 X30.2544 Y31.3196 I0.6823 J0.8629
G1 X31.7311 Y30.3755
G3 X31.8267 Y30.3209 I0.5925 J0.9268
G1 X33.3904 Y29.5293
G3 X33.4911 Y29.4845 I0.4969 J0.9814
G1 X35.1261 Y28.8532
G3 X35.2308 Y28.8187 I0.3962 J1.0262
G1 X35.9119 Y28.6315
G1 X35.8476 Y28.3413
G1 X35.0845 Y28.551
G1 X33.3188 Y29.2328
G1 X31.6302 Y30.0877
G1 X30.0355 Y31.1073
G1 X28.5508 Y32.2812
G1 X27.1909 Y33.5978
G1 X25.9696 Y35.0438
G1 X24.8991 Y36.6047
G1 X23.99 Y38.2648
G1 X23.2516 Y40.0076
G1 X22.6912 Y41.8155
G1 X22.3144 Y43.6704
G1 X22.1251 Y45.5536
G1 Y47.4464
G1 X22.3144 Y49.3296
G1 X22.6912 Y51.1845
G1 X23.2516 Y52.9924
G1 X23.99 Y54.7352
G1 X24.8991 Y56.3953
G1 X25.9696 Y57.9562
G1 X27.1909 Y59.4022
G1 X28.5508 Y60.7188
G1 X30.0355 Y61.8927
G1 X31.6302 Y62.9123
G1 X33.3188 Y63.7672
G1 X35.0845 Y64.449
G1 X35.8476 Y64.6587
G1 X35.9119 Y64.3685
G1 X35.2308 Y64.1813
G3 X35.1261 Y64.1468 I0.2916 J-1.0607
G1 X33.4911 Y63.5155
G3 X33.3904 Y63.4707 I0.3962 J-1.0262
G1 X31.8267 Y62.6791
G3 X31.7311 Y62.6245 I0.4969 J-0.9814
G1 X30.2544 Y61.6804
G3 X30.1646 Y61.6164 I0.5925 J-0.9268
G1 X28.7898 Y60.5294
G3 X28.7069 Y60.4568 I0.6823 J-0.8629
G1 X27.4477 Y59.2377
G3 X27.3725 Y59.1572 I0.7651 J-0.7903
G1 X26.2416 Y57.8182
G3 X26.1748 Y57.7306 I0.8404 J-0.7098
G1 X25.1835 Y56.2852
G3 X25.1258 Y56.1913 I0.9071 J-0.6222
G1 X24.284 Y54.654
G3 X24.236 Y54.5549 I0.9648 J-0.5283
G1 X23.5522 Y52.9411
G3 X23.5144 Y52.8376 I1.0128 J-0.4291
G1 X22.9955 Y51.1635
G3 X22.9682 Y51.0568 I1.0507 J-0.3257
G1 X22.6193 Y49.3392
G3 X22.6028 Y49.2303 I1.078 J-0.219
G1 X22.4275 Y47.4864
G3 X22.422 Y47.3763 I1.0945 J-0.11
G1 Y45.6237
G3 X22.4275 Y45.5136 I1.1 J0.0
G1 X22.6028 Y43.7697
G3 X22.6193 Y43.6608 I1.0945 J0.11
G1 X22.9682 Y41.9432
G3 X22.9955 Y41.8365 I1.078 J0.219
G1 X23.5144 Y40.1624
G3 X23.5522 Y40.0589 I1.0507 J0.3257
G1 X24.236 Y38.4451
G3 X24.284 Y38.346 I1.0128 J0.4291
G1 X25.1258 Y36.8087
G3 X25.1835 Y36.7148 I0.9648 J0.5283
G1 X26.1748 Y35.2694
G3 X26.2416 Y35.1818 I0.9071 J0.6222
G1 X27.3725 Y33.8428
G3 X27.4477 Y33.7623 I0.8404 J0.7098
G1 X27.9883 Y33.239
G1 F200.0 Z-2.7
G1 F700.0 X28.7069 Y32.5432
G3 X28.7898 Y32.4706 I0.7651 J0.7903
G1 X30.1646 Y31.3836
G3 X30.2544 Y31.3196 I0.6823 J0.8629
G1 X31.7311 Y30.3755
G3 X31.8267 Y30.3209 I0.5925 J0.9268
G1 X33.3904 Y29.5293
G3 X33.4911 Y29.4845 I0.4969 J0.9814
G1 X35.1261 Y28.8532
G3 X35.2308 Y28.8187 I0.3962 J1.0262
G1 X35.9119 Y28.6315
G1 X35.8476 Y28.3413
G1 X35.0845 Y28.551
G1 X33.3188 Y29.2328
G1 X31.6302 Y30.0877
G1 X30.0355 Y31.1073
G1 X28.5508 Y32.2812
G1 X27.1909 Y33.5978
G1 X25.9696 Y35.0438
G1 X24.8991 Y36.6047
G1 X23.99 Y38.2648
G1 X23.2516 Y40.0076
G1 X22.6912 Y41.8155
G1 X22.3144 Y43.6704
G1 X22.1251 Y45.5536
G1 Y47.4464
G1 X22.3144 Y49.3296
G1 X22.6912 Y51.1845
G1 X23.2516 Y52.9924
G1 X23.99 Y54.7352
G1 X24.8991 Y56.3953
G1 X25.9696 Y57.9562
G1 X27.1909 Y59.4022
G1 X28.5508 Y60.7188
G1 X30.0355 Y61.8927
G1 X31.6302 Y62.9123
G1 X33.3188 Y63.7672
G1 X35.0845 Y64.449
G1 X35.8476 Y64.6587
G1 X35.9119 Y64.3685
G1 X35.2308 Y64.1813
G3 X35.1261 Y64.1468 I0.2916 J-1.0607
G1 X33.4911 Y63.5155
G3 X33.3904 Y63.4707 I0.3962 J-1.0262
G1 X31.8267 Y62.6791
G3 X31.7311 Y62.6245 I0.4969 J-0.9814
G1 X30.2544 Y61.6804
G3 X30.1646 Y61.6164 I0.5925 J-0.9268
G1 X28.7898 Y60.5294
G3 X28.7069 Y60.4568 I0.6823 J-0.8629
G1 X27.4477 Y59.2377
G3 X27.3725 Y59.1572 I0.7651 J-0.7903
G1 X26.2416 Y57.8182
G3 X26.1748 Y57.7306 I0.8404 J-0.7098
G1 X25.1835 Y56.2852
G3 X25.1258 Y56.1913 I0.9071 J-0.6222
G1 X24.284 Y54.654
G3 X24.236 Y54.5549 I0.9648 J-0.5283
G1 X23.5522 Y52.9411
G3 X23.5144 Y52.8376 I1.0128 J-0.4291
G1 X22.9955 Y51.1635
G3 X22.9682 Y51.0568 I1.0507 J-0.3257
G1 X22.6193 Y49.3392
G3 X22.6028 Y49.2303 I1.078 J-0.219
G1 X22.4275 Y47.4864
G3 X22.422 Y47.3763 I1.0945 J-0.11
G1 Y45.6237
G3 X22.4275 Y45.5136 I1.1 J0.0
G1 X22.6028 Y43.7697
G3 X22.6193 Y43.6608 I1.0945 J0.11
G1 X22.9682 Y41.9432
G3 X22.9955 Y41.8365 I1.078 J0.219
G1 X23.5144 Y40.1624
G3 X23.5522 Y40.0589 I1.0507 J0.3257
G1 X24.236 Y38.4451
G3 X24.284 Y38.346 I1.0128 J0.4291
G1 X25.1258 Y36.8087
G3 X25.1835 Y36.7148 I0.9648 J0.5283
G1 X26.1748 Y35.2694
G3 X26.2416 Y35.1818 I0.9071 J0.6222
G1 X27.3725 Y33.8428
G3 X27.4477 Y33.7623 I0.8404 J0.7098
G1 X27.9883 Y33.239
G1 F200.0 Z-3.0
G1 F700.0 X28.7069 Y32.5432
G3 X28.7898 Y32.4706 I0.7651 J0.7903
G1 X30.1646 Y31.3836
G3 X30.2544 Y31.3196 I0.6823 J0.8629
G1 X31.7311 Y30.3755
G3 X31.8267 Y30.3209 I0.5925 J0.9268
G1 X33.3904 Y29.5293
G3 X33.4911 Y29.4845 I0.4969 J0.9814
G1 X35.1261 Y28.8532
G3 X35.2308 Y28.8187 I0.3962 J1.0262
G1 X35.9119 Y28.6315
G1 X35.8476 Y28.3413
G1 X35.0845 Y28.551
G1 X33.3188 Y29.2328
G1 X31.6302 Y30.0877
G1 X30.0355 Y31.1073
G1 X28.5508 Y32.2812
G1 X27.1909 Y33.5978
G1 X25.9696 Y35.0438
G1 X24.8991 Y36.6047
G1 X23.99 Y38.2648
G1 X23.2516 Y40.0076
G1 X22.6912 Y41.8155
G1 X22.3144 Y43.6704
G1 X22.1251 Y45.5536
G1 Y47.4464
G1 X22.3144 Y49.3296
G1 X22.6912 Y51.1845
G1 X23.2516 Y52.9924
G1 X23.99 Y54.7352
G1 X24.8991 Y56.3953
G1 X25.9696 Y57.9562
G1 X27.1909 Y59.4022
G1 X28.5508 Y60.7188
G1 X30.0355 Y61.8927
G1 X31.6302 Y62.9123
G1 X33.3188 Y63.7672
G1 X35.0845 Y64.449
G1 X35.8476 Y64.6587
G1 X35.9119 Y64.3685
G1 X35.2308 Y64.1813
G3 X35.1261 Y64.1468 I0.2916 J-1.0607
G1 X33.4911 Y63.5155
G3 X33.3904 Y63.4707 I0.3962 J-1.0262
G1 X31.8267 Y62.6791
G3 X31.7311 Y62.6245 I0.4969 J-0.9814
G1 X30.2544 Y61.6804
G3 X30.1646 Y61.6164 I0.5925 J-0.9268
G1 X28.7898 Y60.5294
G3 X28.7069 Y60.4568 I0.6823 J-0.8629
G1 X27.4477 Y59.2377
G3 X27.3725 Y59.1572 I0.7651 J-0.7903
G1 X26.2416 Y57.8182
G3 X26.1748 Y57.7306 I0.8404 J-0.7098
G1 X25.1835 Y56.2852
G3 X25.1258 Y56.1913 I0.9071 J-0.6222
G1 X24.284 Y54.654
G3 X24.236 Y54.5549 I0.9648 J-0.5283
G1 X23.5522 Y52.9411
G3 X23.5144 Y52.8376 I1.0128 J-0.4291
G1 X22.9955 Y51.1635
G3 X22.9682 Y51.0568 I1.0507 J-0.3257
G1 X22.6193 Y49.3392
G3 X22.6028 Y49.2303 I1.078 J-0.219
G1 X22.4275 Y47.4864
G3 X22.422 Y47.3763 I1.0945 J-0.11
G1 Y45.6237
G3 X22.4275 Y45.5136 I1.1 J0.0
G1 X22.6028 Y43.7697
G3 X22.6193 Y43.6608 I1.0945 J0.11
G1 X22.9682 Y41.9432
G3 X22.9955 Y41.8365 I1.078 J0.219
G1 X23.5144 Y40.1624
G3 X23.5522 Y40.0589 I1.0507 J0.3257
G1 X24.236 Y38.4451
G3 X24.284 Y38.346 I1.0128 J0.4291
G1 X25.1258 Y36.8087
G3 X25.1835 Y36.7148 I0.9648 J0.5283
G1 X26.1748 Y35.2694
G3 X26.2416 Y35.1818 I0.9071 J0.6222
G1 X27.3725 Y33.8428
G3 X27.4477 Y33.7623 I0.8404 J0.7098
G1 X27.9883 Y33.239
G1 F200.0 Z-3.3
G1 F700.0 X28.7069 Y32.5432
G3 X28.7898 Y32.4706 I0.7651 J0.7903
G1 X30.1646 Y31.3836
G3 X30.2544 Y31.3196 I0.6823 J0.8629
G1 X31.7311 Y30.3755
G3 X31.8267 Y30.3209 I0.5925 J0.9268
G1 X33.3904 Y29.5293
G3 X33.4911 Y29.4845 I0.4969 J0.9814
G1 X35.1261 Y28.8532
G3 X35.2308 Y28.8187 I0.3962 J1.0262
G1 X35.9119 Y28.6315
G1 X35.8476 Y28.3413
G1 X35.0845 Y28.551
G1 X33.3188 Y29.2328
G1 X31.6302 Y30.0877
G1 X30.0355 Y31.1073
G1 X28.5508 Y32.2812
G1 X27.1909 Y33.5978
G1 X25.9696 Y35.0438
G1 X24.8991 Y36.6047
G1 X23.99 Y38.2648
G1 X23.2516 Y40.0076
G1 X22.6912 Y41.8155
G1 X22.3144 Y43.6704
G1 X22.1251 Y45.5536
G1 Y47.4464
G1 X22.3144 Y49.3296
G1 X22.6912 Y51.1845
G1 X23.2516 Y52.9924
G1 X23.99 Y54.7352
G1 X24.8991 Y56.3953
G1 X25.9696 Y57.9562
G1 X27.1909 Y59.4022
G1 X28.5508 Y60.7188
G1 X30.0355 Y61.8927
G1 X31.6302 Y62.9123
G1 X33.3188 Y63.7672
G1 X35.0845 Y64.449
G1 X35.8476 Y64.6587
G1 X35.9119 Y64.3685
G1 X35.2308 Y64.1813
G3 X35.1261 Y64.1468 I0.2916 J-1.0607
G1 X33.4911 Y63.5155
G3 X33.3904 Y63.4707 I0.3962 J-1.0262
G1 X31.8267 Y62.6791
G3 X31.7311 Y62.6245 I0.4969 J-0.9814
G1 X30.2544 Y61.6804
G3 X30.1646 Y61.6164 I0.5925 J-0.9268
G1 X28.7898 Y60.5294
G3 X28.7069 Y60.4568 I0.6823 J-0.8629
G1 X27.4477 Y59.2377
G3 X27.3725 Y59.1572 I0.7651 J-0.7903
G1 X26.2416 Y57.8182
G3 X26.1748 Y57.7306 I0.8404 J-0.7098
G1 X25.1835 Y56.2852
G3 X25.1258 Y56.1913 I0.9071 J-0.6222
G1 X24.284 Y54.654
G3 X24.236 Y54.5549 I0.9648 J-0.5283
G1 X23.5522 Y52.9411
G3 X23.5144 Y52.8376 I1.0128 J-0.4291
G1 X22.9955 Y51.1635
G3 X22.9682 Y51.0568 I1.0507 J-0.3257
G1 X22.6193 Y49.3392
G3 X22.6028 Y49.2303 I1.078 J-0.219
G1 X22.4275 Y47.4864
G3 X22.422 Y47.3763 I1.0945 J-0.11
G1 Y45.6237
G3 X22.4275 Y45.5136 I1.1 J0.0
G1 X22.6028 Y43.7697
G3 X22.6193 Y43.6608 I1.0945 J0.11
G1 X22.9682 Y41.9432
G3 X22.9955 Y41.8365 I1.078 J0.219
G1 X23.5144 Y40.1624
G3 X23.5522 Y40.0589 I1.0507 J0.3257
G1 X24.236 Y38.4451
G3 X24.284 Y38.346 I1.0128 J0.4291
G1 X25.1258 Y36.8087
G3 X25.1835 Y36.7148 I0.9648 J0.5283
G1 X26.1748 Y35.2694
G3 X26.2416 Y35.1818 I0.9071 J0.6222
G1 X27.3725 Y33.8428
G3 X27.4477 Y33.7623 I0.8404 J0.7098
G1 X27.9883 Y33.239
G1 F200.0 Z-3.6
G1 F700.0 X28.7069 Y32.5432
G3 X28.7898 Y32.4706 I0.7651 J0.7903
G1 X30.1646 Y31.3836
G3 X30.2544 Y31.3196 I0.6823 J0.8629
G1 X31.7311 Y30.3755
G3 X31.8267 Y30.3209 I0.5925 J0.9268
G1 X33.3904 Y29.5293
G3 X33.4911 Y29.4845 I0.4969 J0.9814
G1 X35.1261 Y28.8532
G3 X35.2308 Y28.8187 I0.3962 J1.0262
G1 X35.9119 Y28.6315
G1 X35.8476 Y28.3413
G1 X35.0845 Y28.551
G1 X33.3188 Y29.2328
G1 X31.6302 Y30.0877
G1 X30.0355 Y31.1073
G1 X28.5508 Y32.2812
G1 X27.1909 Y33.5978
G1 X25.9696 Y35.0438
G1 X24.8991 Y36.6047
G1 X23.99 Y38.2648
G1 X23.2516 Y40.0076
G1 X22.6912 Y41.8155
G1 X22.3144 Y43.6704
G1 X22.1251 Y45.5536
G1 Y47.4464
G1 X22.3144 Y49.3296
G1 X22.6912 Y51.1845
G1 X23.2516 Y52.9924
G1 X23.99 Y54.7352
G1 X24.8991 Y56.3953
G1 X25.9696 Y57.9562
G1 X27.1909 Y59.4022
G1 X28.5508 Y60.7188
G1 X30.0355 Y61.8927
G1 X31.6302 Y62.9123
G1 X33.3188 Y63.7672
G1 X35.0845 Y64.449
G1 X35.8476 Y64.6587
G1 X35.9119 Y64.3685
G1 X35.2308 Y64.1813
G3 X35.1261 Y64.1468 I0.2916 J-1.0607
G1 X33.4911 Y63.5155
G3 X33.3904 Y63.4707 I0.3962 J-1.0262
G1 X31.8267 Y62.6791
G3 X31.7311 Y62.6245 I0.4969 J-0.9814
G1 X30.2544 Y61.6804
G3 X30.1646 Y61.6164 I0.5925 J-0.9268
G1 X28.7898 Y60.5294
G3 X28.7069 Y60.4568 I0.6823 J-0.8629
G1 X27.4477 Y59.2377
G3 X27.3725 Y59.1572 I0.7651 J-0.7903
G1 X26.2416 Y57.8182
G3 X26.1748 Y57.7306 I0.8404 J-0.7098
G1 X25.1835 Y56.2852
G3 X25.1258 Y56.1913 I0.9071 J-0.6222
G1 X24.284 Y54.654
G3 X24.236 Y54.5549 I0.9648 J-0.5283
G1 X23.5522 Y52.9411
G3 X23.5144 Y52.8376 I1.0128 J-0.4291
G1 X22.9955 Y51.1635
G3 X22.9682 Y51.0568 I1.0507 J-0.3257
G1 X22.6193 Y49.3392
G3 X22.6028 Y49.2303 I1.078 J-0.219
G1 X22.4275 Y47.4864
G3 X22.422 Y47.3763 I1.0945 J-0.11
G1 Y45.6237
G3 X22.4275 Y45.5136 I1.1 J0.0
G1 X22.6028 Y43.7697
G3 X22.6193 Y43.6608 I1.0945 J0.11
G1 X22.9682 Y41.9432
G3 X22.9955 Y41.8365 I1.078 J0.219
G1 X23.5144 Y40.1624
G3 X23.5522 Y40.0589 I1.0507 J0.3257
G1 X24.236 Y38.4451
G3 X24.284 Y38.346 I1.0128 J0.4291
G1 X25.1258 Y36.8087
G3 X25.1835 Y36.7148 I0.9648 J0.5283
G1 X26.1748 Y35.2694
G3 X26.2416 Y35.1818 I0.9071 J0.6222
G1 X27.3725 Y33.8428
G3 X27.4477 Y33.7623 I0.8404 J0.7098
G1 X27.9883 Y33.239
G1 F200.0 Z-3.9
G1 F700.0 X28.7069 Y32.5432
G3 X28.7898 Y32.4706 I0.7651 J0.7903
G1 X30.1646 Y31.3836
G3 X30.2544 Y31.3196 I0.6823 J0.8629
G1 X31.7311 Y30.3755
G3 X31.8267 Y30.3209 I0.5925 J0.9268
G1 X33.3904 Y29.5293
G3 X33.4911 Y29.4845 I0.4969 J0.9814
G1 X35.1261 Y28.8532
G3 X35.2308 Y28.8187 I0.3962 J1.0262
G1 X35.9119 Y28.6315
G1 X35.8476 Y28.3413
G1 X35.0845 Y28.551
G1 X33.3188 Y29.2328
G1 X31.6302 Y30.0877
G1 X30.0355 Y31.1073
G1 X28.5508 Y32.2812
G1 X27.1909 Y33.5978
G1 X25.9696 Y35.0438
G1 X24.8991 Y36.6047
G1 X23.99 Y38.2648
G1 X23.2516 Y40.0076
G1 X22.6912 Y41.8155
G1 X22.3144 Y43.6704
G1 X22.1251 Y45.5536
G1 Y47.4464
G1 X22.3144 Y49.3296
G1 X22.6912 Y51.1845
G1 X23.2516 Y52.9924
G1 X23.99 Y54.7352
G1 X24.8991 Y56.3953
G1 X25.9696 Y57.9562
G1 X27.1909 Y59.4022
G1 X28.5508 Y60.7188
G1 X30.0355 Y61.8927
G1 X31.6302 Y62.9123
G1 X33.3188 Y63.7672
G1 X35.0845 Y64.449
G1 X35.8476 Y64.6587
G1 X35.9119 Y64.3685
G1 X35.2308 Y64.1813
G3 X35.1261 Y64.1468 I0.2916 J-1.0607
G1 X33.4911 Y63.5155
G3 X33.3904 Y63.4707 I0.3962 J-1.0262
G1 X31.8267 Y62.6791
G3 X31.7311 Y62.6245 I0.4969 J-0.9814
G1 X30.2544 Y61.6804
G3 X30.1646 Y61.6164 I0.5925 J-0.9268
G1 X28.7898 Y60.5294
G3 X28.7069 Y60.4568 I0.6823 J-0.8629
G1 X27.4477 Y59.2377
G3 X27.3725 Y59.1572 I0.7651 J-0.7903
G1 X26.2416 Y57.8182
G3 X26.1748 Y57.7306 I0.8404 J-0.7098
G1 X25.1835 Y56.2852
G3 X25.1258 Y56.1913 I0.9071 J-0.6222
G1 X24.284 Y54.654
G3 X24.236 Y54.5549 I0.9648 J-0.5283
G1 X23.5522 Y52.9411
G3 X23.5144 Y52.8376 I1.0128 J-0.4291
G1 X22.9955 Y51.1635
G3 X22.9682 Y51.0568 I1.0507 J-0.3257
G1 X22.6193 Y49.3392
G3 X22.6028 Y49.2303 I1.078 J-0.219
G1 X22.4275 Y47.4864
G3 X22.422 Y47.3763 I1.0945 J-0.11
G1 Y45.6237
G3 X22.4275 Y45.5136 I1.1 J0.0
G1 X22.6028 Y43.7697
G3 X22.6193 Y43.6608 I1.0945 J0.11
G1 X22.9682 Y41.9432
G3 X22.9955 Y41.8365 I1.078 J0.219
G1 X23.5144 Y40.1624
G3 X23.5522 Y40.0589 I1.0507 J0.3257
G1 X24.236 Y38.4451
G3 X24.284 Y38.346 I1.0128 J0.4291
G1 X25.1258 Y36.8087
G3 X25.1835 Y36.7148 I0.9648 J0.5283
G1 X26.1748 Y35.2694
G3 X26.2416 Y35.1818 I0.9071 J0.6222
G1 X27.3725 Y33.8428
G3 X27.4477 Y33.7623 I0.8404 J0.7098
G1 X27.9883 Y33.239
G1 F200.0 Z-4.1
G1 F700.0 X28.7069 Y32.5432
G3 X28.7898 Y32.4706 I0.7651 J0.7903
G1 X30.1646 Y31.3836
G3 X30.2544 Y31.3196 I0.6823 J0.8629
G1 X31.7311 Y30.3755
G3 X31.8267 Y30.3209 I0.5925 J0.9268
G1 X33.3904 Y29.5293
G3 X33.4911 Y29.4845 I0.4969 J0.9814
G1 X35.1261 Y28.8532
G3 X35.2308 Y28.8187 I0.3962 J1.0262
G1 X35.9119 Y28.6315
G1 X35.8476 Y28.3413
G1 X35.0845 Y28.551
G1 X33.3188 Y29.2328
G1 X31.6302 Y30.0877
G1 X30.0355 Y31.1073
G1 X28.5508 Y32.2812
G1 X27.1909 Y33.5978
G1 X25.9696 Y35.0438
G1 X24.8991 Y36.6047
G1 X23.99 Y38.2648
G1 X23.2516 Y40.0076
G1 X22.6912 Y41.8155
G1 X22.3144 Y43.6704
G1 X22.1251 Y45.5536
G1 Y47.4464
G1 X22.3144 Y49.3296
G1 X22.6912 Y51.1845
G1 X23.2516 Y52.9924
G1 X23.99 Y54.7352
G1 X24.8991 Y56.3953
G1 X25.9696 Y57.9562
G1 X27.1909 Y59.4022
G1 X28.5508 Y60.7188
G1 X30.0355 Y61.8927
G1 X31.6302 Y62.9123
G1 X33.3188 Y63.7672
G1 X35.0845 Y64.449
G1 X35.8476 Y64.6587
G1 X35.9119 Y64.3685
G1 X35.2308 Y64.1813
G3 X35.1261 Y64.1468 I0.2916 J-1.0607
G1 X33.4911 Y63.5155
G3 X33.3904 Y63.4707 I0.3962 J-1.0262
G1 X31.8267 Y62.6791
G3 X31.7311 Y62.6245 I0.4969 J-0.9814
G1 X30.2544 Y61.6804
G3 X30.1646 Y61.6164 I0.5925 J-0.9268
G1 X28.7898 Y60.5294
G3 X28.7069 Y60.4568 I0.6823 J-0.8629
G1 X27.4477 Y59.2377
G3 X27.3725 Y59.1572 I0.7651 J-0.7903
G1 X26.2416 Y57.8182
G3 X26.1748 Y57.7306 I0.8404 J-0.7098
G1 X25.1835 Y56.2852
G3 X25.1258 Y56.1913 I0.9071 J-0.6222
G1 X24.284 Y54.654
G3 X24.236 Y54.5549 I0.9648 J-0.5283
G1 X23.5522 Y52.9411
G3 X23.5144 Y52.8376 I1.0128 J-0.4291
G1 X22.9955 Y51.1635
G3 X22.9682 Y51.0568 I1.0507 J-0.3257
G1 X22.6193 Y49.3392
G3 X22.6028 Y49.2303 I1.078 J-0.219
G1 X22.4275 Y47.4864
G3 X22.422 Y47.3763 I1.0945 J-0.11
G1 Y45.6237
G3 X22.4275 Y45.5136 I1.1 J0.0
G1 X22.6028 Y43.7697
G3 X22.6193 Y43.6608 I1.0945 J0.11
G1 X22.9682 Y41.9432
G3 X22.9955 Y41.8365 I1.078 J0.219
G1 X23.5144 Y40.1624
G3 X23.5522 Y40.0589 I1.0507 J0.3257
G1 X24.236 Y38.4451
G3 X24.284 Y38.346 I1.0128 J0.4291
G1 X25.1258 Y36.8087
G3 X25.1835 Y36.7148 I0.9648 J0.5283
G1 X26.1748 Y35.2694
G3 X26.2416 Y35.1818 I0.9071 J0.6222
G1 X27.3725 Y33.8428
G3 X27.4477 Y33.7623 I0.8404 J0.7098
G1 X27.9883 Y33.239
G1 F200.0 Z-4.2
G1 F700.0 X28.7069 Y32.5432
G3 X28.7898 Y32.4706 I0.7651 J0.7903
G1 X30.1646 Y31.3836
G3 X30.2544 Y31.3196 I0.6823 J0.8629
G1 X31.7311 Y30.3755
G3 X31.8267 Y30.3209 I0.5925 J0.9268
G1 X33.3904 Y29.5293
G3 X33.4911 Y29.4845 I0.4969 J0.9814
G1 X35.1261 Y28.8532
G3 X35.2308 Y28.8187 I0.3962 J1.0262
G1 X35.9119 Y28.6315
G1 X35.8476 Y28.3413
G1 X35.0845 Y28.551
G1 X33.3188 Y29.2328
G1 X31.6302 Y30.0877
G1 X30.0355 Y31.1073
G1 X28.5508 Y32.2812
G1 X27.1909 Y33.5978
G1 X25.9696 Y35.0438
G1 X24.8991 Y36.6047
G1 X23.99 Y38.2648
G1 X23.2516 Y40.0076
G1 X22.6912 Y41.8155
G1 X22.3144 Y43.6704
G1 X22.1251 Y45.5536
G1 Y47.4464
G1 X22.3144 Y49.3296
G1 X22.6912 Y51.1845
G1 X23.2516 Y52.9924
G1 X23.99 Y54.7352
G1 X24.8991 Y56.3953
G1 X25.9696 Y57.9562
G1 X27.1909 Y59.4022
G1 X28.5508 Y60.7188
G1 X30.0355 Y61.8927
G1 X31.6302 Y62.9123
G1 X33.3188 Y63.7672
G1 X35.0845 Y64.449
G1 X35.8476 Y64.6587
G1 X35.9119 Y64.3685
G1 X35.2308 Y64.1813
G3 X35.1261 Y64.1468 I0.2916 J-1.0607
G1 X33.4911 Y63.5155
G3 X33.3904 Y63.4707 I0.3962 J-1.0262
G1 X31.8267 Y62.6791
G3 X31.7311 Y62.6245 I0.4969 J-0.9814
G1 X30.2544 Y61.6804
G3 X30.1646 Y61.6164 I0.5925 J-0.9268
G1 X28.7898 Y60.5294
G3 X28.7069 Y60.4568 I0.6823 J-0.8629
G1 X27.4477 Y59.2377
G3 X27.3725 Y59.1572 I0.7651 J-0.7903
G1 X26.2416 Y57.8182
G3 X26.1748 Y57.7306 I0.8404 J-0.7098
G1 X25.1835 Y56.2852
G3 X25.1258 Y56.1913 I0.9071 J-0.6222
G1 X24.284 Y54.654
G3 X24.236 Y54.5549 I0.9648 J-0.5283
G1 X23.5522 Y52.9411
G3 X23.5144 Y52.8376 I1.0128 J-0.4291
G1 X22.9955 Y51.1635
G3 X22.9682 Y51.0568 I1.0507 J-0.3257
G1 X22.6193 Y49.3392
G3 X22.6028 Y49.2303 I1.078 J-0.219
G1 X22.4275 Y47.4864
G3 X22.422 Y47.3763 I1.0945 J-0.11
G1 Y45.6237
G3 X22.4275 Y45.5136 I1.1 J0.0
G1 X22.6028 Y43.7697
G3 X22.6193 Y43.6608 I1.0945 J0.11
G1 X22.9682 Y41.9432
G3 X22.9955 Y41.8365 I1.078 J0.219
G1 X23.5144 Y40.1624
G3 X23.5522 Y40.0589 I1.0507 J0.3257
G1 X24.236 Y38.4451
G3 X24.284 Y38.346 I1.0128 J0.4291
G1 X25.1258 Y36.8087
G3 X25.1835 Y36.7148 I0.9648 J0.5283
G1 X26.1748 Y35.2694
G3 X26.2416 Y35.1818 I0.9071 J0.6222
G1 X27.3725 Y33.8428
G3 X27.4477 Y33.7623 I0.8404 J0.7098
G1 X27.9883 Y33.239
G0 Z3.0
G0 X26.9614 Y24.533
G0 Z1.0
G1 F200.0 Z-0.3
G1 F700.0 X28.1856 Y23.7638
G3 X28.2813 Y23.7102 I0.5852 J0.9314
G1 X30.5131 Y22.6009
G3 X30.6136 Y22.5571 I0.4896 J0.985
G1 X32.9448 Y21.6755
G3 X33.0492 Y21.6419 I0.3891 J1.0289
G1 X35.4566 Y20.9968
G3 X35.5638 Y20.9738 I0.2847 J1.0625
G1 X38.0234 Y20.5716
G3 X38.1324 Y20.5593 I0.1775 J1.0856
G1 X40.6198 Y20.4041
G3 X40.7295 Y20.4027 I0.0685 J1.0979
G1 X43.22 Y20.4959
G3 X43.3293 Y20.5055 I-0.0411 J1.0992
G1 X45.7982 Y20.8462
G3 X45.9059 Y20.8666 I-0.1504 J1.0897
G1 X48.3286 Y21.4514
G3 X48.4338 Y21.4824 I-0.2581 J1.0693
G1 X50.7862 Y22.3056
G3 X50.8878 Y22.3469 I-0.3633 J1.0383
G1 X53.1466 Y23.4002
G3 X53.2435 Y23.4514 I-0.4649 J0.9969
G1 X55.3862 Y24.7244
G3 X55.4776 Y24.785 I-0.5618 J0.9457
G1 X57.4829 Y26.265
G3 X57.5678 Y26.3344 I-0.6532 J0.8851
G1 X59.4157 Y28.0067
G3 X59.4933 Y28.0843 I-0.7381 J0.8156
G1 X61.1656 Y29.9322
G3 X61.235 Y30.0171 I-0.8156 J0.7381
G1 X62.715 Y32.0224
G3 X62.7756 Y32.1138 I-0.8851 J0.6532
G1 X64.0486 Y34.2565
G3 X64.0998 Y34.3534 I-0.9457 J0.5618
G1 X65.1531 Y36.6122
G3 X65.1944 Y36.7138 I-0.9969 J0.4649
G1 X66.0176 Y39.0662
G3 X66.0486 Y39.1714 I-1.0383 J0.3633
G1 X66.6334 Y41.5941
G3 X66.6538 Y41.7018 I-1.0693 J0.2581
G1 X66.9945 Y44.1707
G3 X67.0041 Y44.28 I-1.0897 J0.1504
G1 X67.0973 Y46.7705
G3 X67.0959 Y46.8802 I-1.0992 J0.0411
G1 X66.9407 Y49.3676
G3 X66.9284 Y49.4766 I-1.0979 J-0.0685
G1 X66.5262 Y51.9362
G3 X66.5032 Y52.0434 I-1.0856 J-0.1775
G1 X65.8581 Y54.4508
G3 X65.8245 Y54.5552 I-1.0625 J-0.2847
G1 X64.9429 Y56.8864
G3 X64.8991 Y56.9869 I-1.0289 J-0.3891
G1 X63.7898 Y59.2187
G3 X63.7362 Y59.3144 I-0.985 J-0.4896
G1 X62.967 Y60.5386
G1 X63.2105 Y60.7091
G1 X64.0247 Y59.4133
G1 X65.196 Y57.0566
G1 X66.1269 Y54.595
G1 X66.808 Y52.0529
G1 X67.2326 Y49.4557
G1 X67.3966 Y46.8291
G1 X67.2982 Y44.1992
G1 X66.9384 Y41.5922
G1 X66.3209 Y39.0339
G1 X65.4517 Y36.5499
G1 X64.3394 Y34.1647
G1 X62.9953 Y31.9022
G1 X61.4325 Y29.7847
G1 X59.6667 Y27.8333
G1 X57.7153 Y26.0675
G1 X55.5978 Y24.5047
G1 X53.3353 Y23.1606
G1 X50.9501 Y22.0483
G1 X48.4661 Y21.1791
G1 X45.9078 Y20.5616
G1 X43.3008 Y20.2018
G1 X40.6709 Y20.1034
G1 X38.0443 Y20.2674
G1 X35.4471 Y20.692
G1 X32.905 Y21.3731
G1 X30.4434 Y22.304
G1 X28.0867 Y23.4753
G1 X26.7909 Y24.2895
G1 X26.9614 Y24.533
G1 F200.0 Z-0.6
G1 F700.0 X28.1856 Y23.7638
G3 X28.2813 Y23.7102 I0.5852 J0.9314
G1 X30.5131 Y22.6009
G3 X30.6136 Y22.5571 I0.4896 J0.985
G1 X32.9448 Y21.6755
G3 X33.0492 Y21.6419 I0.3891 J1.0289
G1 X35.4566 Y20.9968
G3 X35.5638 Y20.9738 I0.2847 J1.0625
G1 X38.0234 Y20.5716
G3 X38.1324 Y20.5593 I0.1775 J1.0856
G1 X40.6198 Y20.4041
G3 X40.7295 Y20.4027 I0.0685 J1.0979
G1 X43.22 Y20.4959
G3 X43.3293 Y20.5055 I-0.0411 J1.0992
G1 X45.7982 Y20.8462
G3 X45.9059 Y20.8666 I-0.1504 J1.0897
G1 X48.3286 Y21.4514
G3 X48.4338 Y21.4824 I-0.2581 J1.0693
G1 X50.7862 Y22.3056
G3 X50.8878 Y22.3469 I-0.3633 J1.0383
G1 X53.1466 Y23.4002
G3 X53.2435 Y23.4514 I-0.4649 J0.9969
G1 X55.3862 Y24.7244
G3 X55.4776 Y24.785 I-0.5618 J0.9457
G1 X57.4829 Y26.265
G3 X57.5678 Y26.3344 I-0.6532 J0.8851
G1 X59.4157 Y28.0067
G3 X59.4933 Y28.0843 I-0.7381 J0.8156
G1 X61.1656 Y29.9322
G3 X61.235 Y30.0171 I-0.8156 J0.7381
G1 X62.715 Y32.0224
G3 X62.7756 Y32.1138 I-0.8851 J0.6532
G1 X64.0486 Y34.2565
G3 X64.0998 Y34.3534 I-0.9457 J0.5618
G1 X65.1531 Y36.6122
G3 X65.1944 Y36.7138 I-0.9969 J0.4649
G1 X66.0176 Y39.0662
G3 X66.0486 Y39.1714 I-1.0383 J0.3633
G1 X66.6334 Y41.5941
G3 X66.6538 Y41.7018 I-1.0693 J0.2581
G1 X66.9945 Y44.1707
G3 X67.0041 Y44.28 I-1.0897 J0.1504
G1 X67.0973 Y46.7705
G3 X67.0959 Y46.8802 I-1.0992 J0.0411
G1 X66.9407 Y49.3676
G3 X66.9284 Y49.4766 I-1.0979 J-0.0685
G1 X66.5262 Y51.9362
G3 X66.5032 Y52.0434 I-1.0856 J-0.1775
G1 X65.8581 Y54.4508
G3 X65.8245 Y54.5552 I-1.0625 J-0.2847
G1 X64.9429 Y56.8864
G3 X64.8991 Y56.9869 I-1.0289 J-0.3891
G1 X63.7898 Y59.2187
G3 X63.7362 Y59.3144 I-0.985 J-0.4896
G1 X62.967 Y60.5386
G1 X63.2105 Y60.7091
G1 X64.0247 Y59.4133
G1 X65.196 Y57.0566
G1 X66.1269 Y54.595
G1 X66.808 Y52.0529
G1 X67.2326 Y49.4557
G1 X67.3966 Y46.8291
G1 X67.2982 Y44.1992
G1 X66.9384 Y41.5922
G1 X66.3209 Y39.0339
G1 X65.4517 Y36.5499
G1 X64.3394 Y34.1647
G1 X62.9953 Y31.9022
G1 X61.4325 Y29.7847
G1 X59.6667 Y27.8333
G1 X57.7153 Y26.0675
G1 X55.5978 Y24.5047
G1 X53.3353 Y23.1606
G1 X50.9501 Y22.0483
G1 X48.4661 Y21.1791
G1 X45.9078 Y20.5616
G1 X43.3008 Y20.2018
G1 X40.6709 Y20.1034
G1 X38.0443 Y20.2674
G1 X35.4471 Y20.692
G1 X32.905 Y21.3731
G1 X30.4434 Y22.304
G1 X28.0867 Y23.4753
G1 X26.7909 Y24.2895
G1 X26.9614 Y24.533
G1 F200.0 Z-0.9
G1 F700.0 X28.1856 Y23.7638
G3 X28.2813 Y23.7102 I0.5852 J0.9314
G1 X30.5131 Y22.6009
G3 X30.6136 Y22.5571 I0.4896 J0.985
G1 X32.9448 Y21.6755
G3 X33.0492 Y21.6419 I0.3891 J1.0289
G1 X35.4566 Y20.9968
G3 X35.5638 Y20.9738 I0.2847 J1.0625
G1 X38.0234 Y20.5716
G3 X38.1324 Y20.5593 I0.1775 J1.0856
G1 X40.6198 Y20.4041
G3 X40.7295 Y20.4027 I0.0685 J1.0979
G1 X43.22 Y20.4959
G3 X43.3293 Y20.5055 I-0.0411 J1.0992
G1 X45.7982 Y20.8462
G3 X45.9059 Y20.8666 I-0.1504 J1.0897
G1 X48.3286 Y21.4514
G3 X48.4338 Y21.4824 I-0.2581 J1.0693
G1 X50.7862 Y22.3056
G3 X50.8878 Y22.3469 I-0.3633 J1.0383
G1 X53.1466 Y23.4002
G3 X53.2435 Y23.4514 I-0.4649 J0.9969
G1 X55.3862 Y24.7244
G3 X55.4776 Y24.785 I-0.5618 J0.9457
G1 X57.4829 Y26.265
G3 X57.5678 Y26.3344 I-0.6532 J0.8851
G1 X59.4157 Y28.0067
G3 X59.4933 Y28.0843 I-0.7381 J0.8156
G1 X61.1656 Y29.9322
G3 X61.235 Y30.0171 I-0.8156 J0.7381
G1 X62.715 Y32.0224
G3 X62.7756 Y32.1138 I-0.8851 J0.6532
G1 X64.0486 Y34.2565
G3 X64.0998 Y34.3534 I-0.9457 J0.5618
G1 X65.1531 Y36.6122
G3 X65.1944 Y36.7138 I-0.9969 J0.4649
G1 X66.0176 Y39.0662
G3 X66.0486 Y39.1714 I-1.0383 J0.3633
G1 X66.6334 Y41.5941
G3 X66.6538 Y41.7018 I-1.0693 J0.2581
G1 X66.9945 Y44.1707
G3 X67.0041 Y44.28 I-1.0897 J0.1504
G1 X67.0973 Y46.7705
G3 X67.0959 Y46.8802 I-1.0992 J0.0411
G1 X66.9407 Y49.3676
G3 X66.9284 Y49.4766 I-1.0979 J-0.0685
G1 X66.5262 Y51.9362
G3 X66.5032 Y52.0434 I-1.0856 J-0.1775
G1 X65.8581 Y54.4508
G3 X65.8245 Y54.5552 I-1.0625 J-0.2847
G1 X64.9429 Y56.8864
G3 X64.8991 Y56.9869 I-1.0289 J-0.3891
G1 X63.7898 Y59.2187
G3 X63.7362 Y59.3144 I-0.985 J-0.4896
G1 X62.967 Y60.5386
G1 X63.2105 Y60.7091
G1 X64.0247 Y59.4133
G1 X65.196 Y57.0566
G1 X66.1269 Y54.595
G1 X66.808 Y52.0529
G1 X67.2326 Y49.4557
G1 X67.3966 Y46.8291
G1 X67.2982 Y44.1992
G1 X66.9384 Y41.5922
G1 X66.3209 Y39.0339
G1 X65.4517 Y36.5499
G1 X64.3394 Y34.1647
G1 X62.9953 Y31.9022
G1 X61.4325 Y29.7847
G1 X59.6667 Y27.8333
G1 X57.7153 Y26.0675
G1 X55.5978 Y24.5047
G1 X53.3353 Y23.1606
G1 X50.9501 Y22.0483
G1 X48.4661 Y21.1791
G1 X45.9078 Y20.5616
G1 X43.3008 Y20.2018
G1 X40.6709 Y20.1034
G1 X38.0443 Y20.2674
G1 X35.4471 Y20.692
G1 X32.905 Y21.3731
G1 X30.4434 Y22.304
G1 X28.0867 Y23.4753
G1 X26.7909 Y24.2895
G1 X26.9614 Y24.533
G1 F200.0 Z-1.2
G1 F700.0 X28.1856 Y23.7638
G3 X28.2813 Y23.7102 I0.5852 J0.9314
G1 X30.5131 Y22.6009
G3 X30.6136 Y22.5571 I0.4896 J0.985
G1 X32.9448 Y21.6755
G3 X33.0492 Y21.6419 I0.3891 J1.0289
G1 X35.4566 Y20.9968
G3 X35.5638 Y20.9738 I0.2847 J1.0625
G1 X38.0234 Y20.5716
G3 X38.1324 Y20.5593 I0.1775 J1.0856
G1 X40.6198 Y20.4041
G3 X40.7295 Y20.4027 I0.0685 J1.0979
G1 X43.22 Y20.4959
G3 X43.3293 Y20.5055 I-0.0411 J1.0992
G1 X45.7982 Y20.8462
G3 X45.9059 Y20.8666 I-0.1504 J1.0897
G1 X48.3286 Y21.4514
G3 X48.4338 Y21.4824 I-0.2581 J1.0693
G1 X50.7862 Y22.3056
G3 X50.8878 Y22.3469 I-0.3633 J1.0383
G1 X53.1466 Y23.4002
G3 X53.2435 Y23.4514 I-0.4649 J0.9969
G1 X55.3862 Y24.7244
G3 X55.4776 Y24.785 I-0.5618 J0.9457
G1 X57.4829 Y26.265
G3 X57.5678 Y26.3344 I-0.6532 J0.8851
G1 X59.4157 Y28.0067
G3 X59.4933 Y28.0843 I-0.7381 J0.8156
G1 X61.1656 Y29.9322
G3 X61.235 Y30.0171 I-0.8156 J0.7381
G1 X62.715 Y32.0224
G3 X62.7756 Y32.1138 I-0.8851 J0.6532
G1 X64.0486 Y34.2565
G3 X64.0998 Y34.3534 I-0.9457 J0.5618
G1 X65.1531 Y36.6122
G3 X65.1944 Y36.7138 I-0.9969 J0.4649
G1 X66.0176 Y39.0662
G3 X66.0486 Y39.1714 I-1.0383 J0.3633
G1 X66.6334 Y41.5941
G3 X66.6538 Y41.7018 I-1.0693 J0.2581
G1 X66.9945 Y44.1707
G3 X67.0041 Y44.28 I-1.0897 J0.1504
G1 X67.0973 Y46.7705
G3 X67.0959 Y46.8802 I-1.0992 J0.0411
G1 X66.9407 Y49.3676
G3 X66.9284 Y49.4766 I-1.0979 J-0.0685
G1 X66.5262 Y51.9362
G3 X66.5032 Y52.0434 I-1.0856 J-0.1775
G1 X65.8581 Y54.4508
G3 X65.8245 Y54.5552 I-1.0625 J-0.2847
G1 X64.9429 Y56.8864
G3 X64.8991 Y56.9869 I-1.0289 J-0.3891
G1 X63.7898 Y59.2187
G3 X63.7362 Y59.3144 I-0.985 J-0.4896
G1 X62.967 Y60.5386
G1 X63.2105 Y60.7091
G1 X64.0247 Y59.4133
G1 X65.196 Y57.0566
G1 X66.1269 Y54.595
G1 X66.808 Y52.0529
G1 X67.2326 Y49.4557
G1 X67.3966 Y46.8291
G1 X67.2982 Y44.1992
G1 X66.9384 Y41.5922
G1 X66.3209 Y39.0339
G1 X65.4517 Y36.5499
G1 X64.3394 Y34.1647
G1 X62.9953 Y31.9022
G1 X61.4325 Y29.7847
G1 X59.6667 Y27.8333
G1 X57.7153 Y26.0675
G1 X55.5978 Y24.5047
G1 X53.3353 Y23.1606
G1 X50.9501 Y22.0483
G1 X48.4661 Y21.1791
G1 X45.9078 Y20.5616
G1 X43.3008 Y20.2018
G1 X40.6709 Y20.1034
G1 X38.0443 Y20.2674
G1 X35.4471 Y20.692
G1 X32.905 Y21.3731
G1 X30.4434 Y22.304
G1 X28.0867 Y23.4753
G1 X26.7909 Y24.2895
G1 X26.9614 Y24.533
G1 F200.0 Z-1.5
G1 F700.0 X28.1856 Y23.7638
G3 X28.2813 Y23.7102 I0.5852 J0.9314
G1 X30.5131 Y22.6009
G3 X30.6136 Y22.5571 I0.4896 J0.985
G1 X32.9448 Y21.6755
G3 X33.0492 Y21.6419 I0.3891 J1.0289
G1 X35.4566 Y20.9968
G3 X35.5638 Y20.9738 I0.2847 J1.0625
G1 X38.0234 Y20.5716
G3 X38.1324 Y20.5593 I0.1775 J1.0856
G1 X40.6198 Y20.4041
G3 X40.7295 Y20.4027 I0.0685 J1.0979
G1 X43.22 Y20.4959
G3 X43.3293 Y20.5055 I-0.0411 J1.0992
G1 X45.7982 Y20.8462
G3 X45.9059 Y20.8666 I-0.1504 J1.0897
G1 X48.3286 Y21.4514
G3 X48.4338 Y21.4824 I-0.2581 J1.0693
G1 X50.7862 Y22.3056
G3 X50.8878 Y22.3469 I-0.3633 J1.0383
G1 X53.1466 Y23.4002
G3 X53.2435 Y23.4514 I-0.4649 J0.9969
G1 X55.3862 Y24.7244
G3 X55.4776 Y24.785 I-0.5618 J0.9457
G1 X57.4829 Y26.265
G3 X57.5678 Y26.3344 I-0.6532 J0.8851
G1 X59.4157 Y28.0067
G3 X59.4933 Y28.0843 I-0.7381 J0.8156
G1 X61.1656 Y29.9322
G3 X61.235 Y30.0171 I-0.8156 J0.7381
G1 X62.715 Y32.0224
G3 X62.7756 Y32.1138 I-0.8851 J0.6532
G1 X64.0486 Y34.2565
G3 X64.0998 Y34.3534 I-0.9457 J0.5618
G1 X65.1531 Y36.6122
G3 X65.1944 Y36.7138 I-0.9969 J0.4649
G1 X66.0176 Y39.0662
G3 X66.0486 Y39.1714 I-1.0383 J0.3633
G1 X66.6334 Y41.5941
G3 X66.6538 Y41.7018 I-1.0693 J0.2581
G1 X66.9945 Y44.1707
G3 X67.0041 Y44.28 I-1.0897 J0.1504
G1 X67.0973 Y46.7705
G3 X67.0959 Y46.8802 I-1.0992 J0.0411
G1 X66.9407 Y49.3676
G3 X66.9284 Y49.4766 I-1.0979 J-0.0685
G1 X66.5262 Y51.9362
G3 X66.5032 Y52.0434 I-1.0856 J-0.1775
G1 X65.8581 Y54.4508
G3 X65.8245 Y54.5552 I-1.0625 J-0.2847
G1 X64.9429 Y56.8864
G3 X64.8991 Y56.9869 I-1.0289 J-0.3891
G1 X63.7898 Y59.2187
G3 X63.7362 Y59.3144 I-0.985 J-0.4896
G1 X62.967 Y60.5386
G1 X63.2105 Y60.7091
G1 X64.0247 Y59.4133
G1 X65.196 Y57.0566
G1 X66.1269 Y54.595
G1 X66.808 Y52.0529
G1 X67.2326 Y49.4557
G1 X67.3966 Y46.8291
G1 X67.2982 Y44.1992
G1 X66.9384 Y41.5922
G1 X66.3209 Y39.0339
G1 X65.4517 Y36.5499
G1 X64.3394 Y34.1647
G1 X62.9953 Y31.9022
G1 X61.4325 Y29.7847
G1 X59.6667 Y27.8333
G1 X57.7153 Y26.0675
G1 X55.5978 Y24.5047
G1 X53.3353 Y23.1606
G1 X50.9501 Y22.0483
G1 X48.4661 Y21.1791
G1 X45.9078 Y20.5616
G1 X43.3008 Y20.2018
G1 X40.6709 Y20.1034
G1 X38.0443 Y20.2674
G1 X35.4471 Y20.692
G1 X32.905 Y21.3731
G1 X30.4434 Y22.304
G1 X28.0867 Y23.4753
G1 X26.7909 Y24.2895
G1 X26.9614 Y24.533
G1 F200.0 Z-1.8
G1 F700.0 X28.1856 Y23.7638
G3 X28.2813 Y23.7102 I0.5852 J0.9314
G1 X30.5131 Y22.6009
G3 X30.6136 Y22.5571 I0.4896 J0.985
G1 X32.9448 Y21.6755
G3 X33.0492 Y21.6419 I0.3891 J1.0289
G1 X35.4566 Y20.9968
G3 X35.5638 Y20.9738 I0.2847 J1.0625
G1 X38.0234 Y20.5716
G3 X38.1324 Y20.5593 I0.1775 J1.0856
G1 X40.6198 Y20.4041
G3 X40.7295 Y20.4027 I0.0685 J1.0979
G1 X43.22 Y20.4959
G3 X43.3293 Y20.5055 I-0.0411 J1.0992
G1 X45.7982 Y20.8462
G3 X45.9059 Y20.8666 I-0.1504 J1.0897
G1 X48.3286 Y21.4514
G3 X48.4338 Y21.4824 I-0.2581 J1.0693
G1 X50.7862 Y22.3056
G3 X50.8878 Y22.3469 I-0.3633 J1.0383
G1 X53.1466 Y23.4002
G3 X53.2435 Y23.4514 I-0.4649 J0.9969
G1 X55.3862 Y24.7244
G3 X55.4776 Y24.785 I-0.5618 J0.9457
G1 X57.4829 Y26.265
G3 X57.5678 Y26.3344 I-0.6532 J0.8851
G1 X59.4157 Y28.0067
G3 X59.4933 Y28.0843 I-0.7381 J0.8156
G1 X61.1656 Y29.9322
G3 X61.235 Y30.0171 I-0.8156 J0.7381
G1 X62.715 Y32.0224
G3 X62.7756 Y32.1138 I-0.8851 J0.6532
G1 X64.0486 Y34.2565
G3 X64.0998 Y34.3534 I-0.9457 J0.5618
G1 X65.1531 Y36.6122
G3 X65.1944 Y36.7138 I-0.9969 J0.4649
G1 X66.0176 Y39.0662
G3 X66.0486 Y39.1714 I-1.0383 J0.3633
G1 X66.6334 Y41.5941
G3 X66.6538 Y41.7018 I-1.0693 J0.2581
G1 X66.9945 Y44.1707
G3 X67.0041 Y44.28 I-1.0897 J0.1504
G1 X67.0973 Y46.7705
G3 X67.0959 Y46.8802 I-1.0992 J0.0411
G1 X66.9407 Y49.3676
G3 X66.9284 Y49.4766 I-1.0979 J-0.0685
G1 X66.5262 Y51.9362
G3 X66.5032 Y52.0434 I-1.0856 J-0.1775
G1 X65.8581 Y54.4508
G3 X65.8245 Y54.5552 I-1.0625 J-0.2847
G1 X64.9429 Y56.8864
G3 X64.8991 Y56.9869 I-1.0289 J-0.3891
G1 X63.7898 Y59.2187
G3 X63.7362 Y59.3144 I-0.985 J-0.4896
G1 X62.967 Y60.5386
G1 X63.2105 Y60.7091
G1 X64.0247 Y59.4133
G1 X65.196 Y57.0566
G1 X66.1269 Y54.595
G1 X66.808 Y52.0529
G1 X67.2326 Y49.4557
G1 X67.3966 Y46.8291
G1 X67.2982 Y44.1992
G1 X66.9384 Y41.5922
G1 X66.3209 Y39.0339
G1 X65.4517 Y36.5499
G1 X64.3394 Y34.1647
G1 X62.9953 Y31.9022
G1 X61.4325 Y29.7847
G1 X59.6667 Y27.8333
G1 X57.7153 Y26.0675
G1 X55.5978 Y24.5047
G1 X53.3353 Y23.1606
G1 X50.9501 Y22.0483
G1 X48.4661 Y21.1791
G1 X45.9078 Y20.5616
G1 X43.3008 Y20.2018
G1 X40.6709 Y20.1034
G1 X38.0443 Y20.2674
G1 X35.4471 Y20.692
G1 X32.905 Y21.3731
G1 X30.4434 Y22.304
G1 X28.0867 Y23.4753
G1 X26.7909 Y24.2895
G1 X26.9614 Y24.533
G1 F200.0 Z-2.1
G1 F700.0 X28.1856 Y23.7638
G3 X28.2813 Y23.7102 I0.5852 J0.9314
G1 X30.5131 Y22.6009
G3 X30.6136 Y22.5571 I0.4896 J0.985
G1 X32.9448 Y21.6755
G3 X33.0492 Y21.6419 I0.3891 J1.0289
G1 X35.4566 Y20.9968
G3 X35.5638 Y20.9738 I0.2847 J1.0625
G1 X38.0234 Y20.5716
G3 X38.1324 Y20.5593 I0.1775 J1.0856
G1 X40.6198 Y20.4041
G3 X40.7295 Y20.4027 I0.0685 J1.0979
G1 X43.22 Y20.4959
G3 X43.3293 Y20.5055 I-0.0411 J1.0992
G1 X45.7982 Y20.8462
G3 X45.9059 Y20.8666 I-0.1504 J1.0897
G1 X48.3286 Y21.4514
G3 X48.4338 Y21.4824 I-0.2581 J1.0693
G1 X50.7862 Y22.3056
G3 X50.8878 Y22.3469 I-0.3633 J1.0383
G1 X53.1466 Y23.4002
G3 X53.2435 Y23.4514 I-0.4649 J0.9969
G1 X55.3862 Y24.7244
G3 X55.4776 Y24.785 I-0.5618 J0.9457
G1 X57.4829 Y26.265
G3 X57.5678 Y26.3344 I-0.6532 J0.8851
G1 X59.4157 Y28.0067
G3 X59.4933 Y28.0843 I-0.7381 J0.8156
G1 X61.1656 Y29.9322
G3 X61.235 Y30.0171 I-0.8156 J0.7381
G1 X62.715 Y32.0224
G3 X62.7756 Y32.1138 I-0.8851 J0.6532
G1 X64.0486 Y34.2565
G3 X64.0998 Y34.3534 I-0.9457 J0.5618
G1 X65.1531 Y36.6122
G3 X65.1944 Y36.7138 I-0.9969 J0.4649
G1 X66.0176 Y39.0662
G3 X66.0486 Y39.1714 I-1.0383 J0.3633
G1 X66.6334 Y41.5941
G3 X66.6538 Y41.7018 I-1.0693 J0.2581
G1 X66.9945 Y44.1707
G3 X67.0041 Y44.28 I-1.0897 J0.1504
G1 X67.0973 Y46.7705
G3 X67.0959 Y46.8802 I-1.0992 J0.0411
G1 X66.9407 Y49.3676
G3 X66.9284 Y49.4766 I-1.0979 J-0.0685
G1 X66.5262 Y51.9362
G3 X66.5032 Y52.0434 I-1.0856 J-0.1775
G1 X65.8581 Y54.4508
G3 X65.8245 Y54.5552 I-1.0625 J-0.2847
G1 X64.9429 Y56.8864
G3 X64.8991 Y56.9869 I-1.0289 J-0.3891
G1 X63.7898 Y59.2187
G3 X63.7362 Y59.3144 I-0.985 J-0.4896
G1 X62.967 Y60.5386
G1 X63.2105 Y60.7091
G1 X64.0247 Y59.4133
G1 X65.196 Y57.0566
G1 X66.1269 Y54.595
G1 X66.808 Y52.0529
G1 X67.2326 Y49.4557
G1 X67.3966 Y46.8291
G1 X67.2982 Y44.1992
G1 X66.9384 Y41.5922
G1 X66.3209 Y39.0339
G1 X65.4517 Y36.5499
G1 X64.3394 Y34.1647
G1 X62.9953 Y31.9022
G1 X61.4325 Y29.7847
G1 X59.6667 Y27.8333
G1 X57.7153 Y26.0675
G1 X55.5978 Y24.5047
G1 X53.3353 Y23.1606
G1 X50.9501 Y22.0483
G1 X48.4661 Y21.1791
G1 X45.9078 Y20.5616
G1 X43.3008 Y20.2018
G1 X40.6709 Y20.1034
G1 X38.0443 Y20.2674
G1 X35.4471 Y20.692
G1 X32.905 Y21.3731
G1 X30.4434 Y22.304
G1 X28.0867 Y23.4753
G1 X26.7909 Y24.2895
G1 X26.9614 Y24.533
G1 F200.0 Z-2.4
G1 F700.0 X28.1856 Y23.7638
G3 X28.2813 Y23.7102 I0.5852 J0.9314
G1 X30.5131 Y22.6009
G3 X30.6136 Y22.5571 I0.4896 J0.985
G1 X32.9448 Y21.6755
G3 X33.0492 Y21.6419 I0.3891 J1.0289
G1 X35.4566 Y20.9968
G3 X35.5638 Y20.9738 I0.2847 J1.0625
G1 X38.0234 Y20.5716
G3 X38.1324 Y20.5593 I0.1775 J1.0856
G1 X40.6198 Y20.4041
G3 X40.7295 Y20.4027 I0.0685 J1.0979
G1 X43.22 Y20.4959
G3 X43.3293 Y20.5055 I-0.0411 J1.0992
G1 X45.7982 Y20.8462
G3 X45.9059 Y20.8666 I-0.1504 J1.0897
G1 X48.3286 Y21.4514
G3 X48.4338 Y21.4824 I-0.2581 J1.0693
G1 X50.7862 Y22.3056
G3 X50.8878 Y22.3469 I-0.3633 J1.0383
G1 X53.1466 Y23.4002
G3 X53.2435 Y23.4514 I-0.4649 J0.9969
G1 X55.3862 Y24.7244
G3 X55.4776 Y24.785 I-0.5618 J0.9457
G1 X57.4829 Y26.265
G3 X57.5678 Y26.3344 I-0.6532 J0.8851
G1 X59.4157 Y28.0067
G3 X59.4933 Y28.0843 I-0.7381 J0.8156
G1 X61.1656 Y29.9322
G3 X61.235 Y30.0171 I-0.8156 J0.7381
G1 X62.715 Y32.0224
G3 X62.7756 Y32.1138 I-0.8851 J0.6532
G1 X64.0486 Y34.2565
G3 X64.0998 Y34.3534 I-0.9457 J0.5618
G1 X65.1531 Y36.6122
G3 X65.1944 Y36.7138 I-0.9969 J0.4649
G1 X66.0176 Y39.0662
G3 X66.0486 Y39.1714 I-1.0383 J0.3633
G1 X66.6334 Y41.5941
G3 X66.6538 Y41.7018 I-1.0693 J0.2581
G1 X66.9945 Y44.1707
G3 X67.0041 Y44.28 I-1.0897 J0.1504
G1 X67.0973 Y46.7705
G3 X67.0959 Y46.8802 I-1.0992 J0.0411
G1 X66.9407 Y49.3676
G3 X66.9284 Y49.4766 I-1.0979 J-0.0685
G1 X66.5262 Y51.9362
G3 X66.5032 Y52.0434 I-1.0856 J-0.1775
G1 X65.8581 Y54.4508
G3 X65.8245 Y54.5552 I-1.0625 J-0.2847
G1 X64.9429 Y56.8864
G3 X64.8991 Y56.9869 I-1.0289 J-0.3891
G1 X63.7898 Y59.2187
G3 X63.7362 Y59.3144 I-0.985 J-0.4896
G1 X62.967 Y60.5386
G1 X63.2105 Y60.7091
G1 X64.0247 Y59.4133
G1 X65.196 Y57.0566
G1 X66.1269 Y54.595
G1 X66.808 Y52.0529
G1 X67.2326 Y49.4557
G1 X67.3966 Y46.8291
G1 X67.2982 Y44.1992
G1 X66.9384 Y41.5922
G1 X66.3209 Y39.0339
G1 X65.4517 Y36.5499
G1 X64.3394 Y34.1647
G1 X62.9953 Y31.9022
G1 X61.4325 Y29.7847
G1 X59.6667 Y27.8333
G1 X57.7153 Y26.0675
G1 X55.5978 Y24.5047
G1 X53.3353 Y23.1606
G1 X50.9501 Y22.0483
G1 X48.4661 Y21.1791
G1 X45.9078 Y20.5616
G1 X43.3008 Y20.2018
G1 X40.6709 Y20.1034
G1 X38.0443 Y20.2674
G1 X35.4471 Y20.692
G1 X32.905 Y21.3731
G1 X30.4434 Y22.304
G1 X28.0867 Y23.4753
G1 X26.7909 Y24.2895
G1 X26.9614 Y24.533
G1 F200.0 Z-2.7
G1 F700.0 X28.1856 Y23.7638
G3 X28.2813 Y23.7102 I0.5852 J0.9314
G1 X30.5131 Y22.6009
G3 X30.6136 Y22.5571 I0.4896 J0.985
G1 X32.9448 Y21.6755
G3 X33.0492 Y21.6419 I0.3891 J1.0289
G1 X35.4566 Y20.9968
G3 X35.5638 Y20.9738 I0.2847 J1.0625
G1 X38.0234 Y20.5716
G3 X38.1324 Y20.5593 I0.1775 J1.0856
G1 X40.6198 Y20.4041
G3 X40.7295 Y20.4027 I0.0685 J1.0979
G1 X43.22 Y20.4959
G3 X43.3293 Y20.5055 I-0.0411 J1.0992
G1 X45.7982 Y20.8462
G3 X45.9059 Y20.8666 I-0.1504 J1.0897
G1 X48.3286 Y21.4514
G3 X48.4338 Y21.4824 I-0.2581 J1.0693
G1 X50.7862 Y22.3056
G3 X50.8878 Y22.3469 I-0.3633 J1.0383
G1 X53.1466 Y23.4002
G3 X53.2435 Y23.4514 I-0.4649 J0.9969
G1 X55.3862 Y24.7244
G3 X55.4776 Y24.785 I-0.5618 J0.9457
G1 X57.4829 Y26.265
G3 X57.5678 Y26.3344 I-0.6532 J0.8851
G1 X59.4157 Y28.0067
G3 X59.4933 Y28.0843 I-0.7381 J0.8156
G1 X61.1656 Y29.9322
G3 X61.235 Y30.0171 I-0.8156 J0.7381
G1 X62.715 Y32.0224
G3 X62.7756 Y32.1138 I-0.8851 J0.6532
G1 X64.0486 Y34.2565
G3 X64.0998 Y34.3534 I-0.9457 J0.5618
G1 X65.1531 Y36.6122
G3 X65.1944 Y36.7138 I-0.9969 J0.4649
G1 X66.0176 Y39.0662
G3 X66.0486 Y39.1714 I-1.0383 J0.3633
G1 X66.6334 Y41.5941
G3 X66.6538 Y41.7018 I-1.0693 J0.2581
G1 X66.9945 Y44.1707
G3 X67.0041 Y44.28 I-1.0897 J0.1504
G1 X67.0973 Y46.7705
G3 X67.0959 Y46.8802 I-1.0992 J0.0411
G1 X66.9407 Y49.3676
G3 X66.9284 Y49.4766 I-1.0979 J-0.0685
G1 X66.5262 Y51.9362
G3 X66.5032 Y52.0434 I-1.0856 J-0.1775
G1 X65.8581 Y54.4508
G3 X65.8245 Y54.5552 I-1.0625 J-0.2847
G1 X64.9429 Y56.8864
G3 X64.8991 Y56.9869 I-1.0289 J-0.3891
G1 X63.7898 Y59.2187
G3 X63.7362 Y59.3144 I-0.985 J-0.4896
G1 X62.967 Y60.5386
G1 X63.2105 Y60.7091
G1 X64.0247 Y59.4133
G1 X65.196 Y57.0566
G1 X66.1269 Y54.595
G1 X66.808 Y52.0529
G1 X67.2326 Y49.4557
G1 X67.3966 Y46.8291
G1 X67.2982 Y44.1992
G1 X66.9384 Y41.5922
G1 X66.3209 Y39.0339
G1 X65.4517 Y36.5499
G1 X64.3394 Y34.1647
G1 X62.9953 Y31.9022
G1 X61.4325 Y29.7847
G1 X59.6667 Y27.8333
G1 X57.7153 Y26.0675
G1 X55.5978 Y24.5047
G1 X53.3353 Y23.1606
G1 X50.9501 Y22.0483
G1 X48.4661 Y21.1791
G1 X45.9078 Y20.5616
G1 X43.3008 Y20.2018
G1 X40.6709 Y20.1034
G1 X38.0443 Y20.2674
G1 X35.4471 Y20.692
G1 X32.905 Y21.3731
G1 X30.4434 Y22.304
G1 X28.0867 Y23.4753
G1 X26.7909 Y24.2895
G1 X26.9614 Y24.533
G1 F200.0 Z-3.0
G1 F700.0 X28.1856 Y23.7638
G3 X28.2813 Y23.7102 I0.5852 J0.9314
G1 X30.5131 Y22.6009
G3 X30.6136 Y22.5571 I0.4896 J0.985
G1 X32.9448 Y21.6755
G3 X33.0492 Y21.6419 I0.3891 J1.0289
G1 X35.4566 Y20.9968
G3 X35.5638 Y20.9738 I0.2847 J1.0625
G1 X38.0234 Y20.5716
G3 X38.1324 Y20.5593 I0.1775 J1.0856
G1 X40.6198 Y20.4041
G3 X40.7295 Y20.4027 I0.0685 J1.0979
G1 X43.22 Y20.4959
G3 X43.3293 Y20.5055 I-0.0411 J1.0992
G1 X45.7982 Y20.8462
G3 X45.9059 Y20.8666 I-0.1504 J1.0897
G1 X48.3286 Y21.4514
G3 X48.4338 Y21.4824 I-0.2581 J1.0693
G1 X50.7862 Y22.3056
G3 X50.8878 Y22.3469 I-0.3633 J1.0383
G1 X53.1466 Y23.4002
G3 X53.2435 Y23.4514 I-0.4649 J0.9969
G1 X55.3862 Y24.7244
G3 X55.4776 Y24.785 I-0.5618 J0.9457
G1 X57.4829 Y26.265
G3 X57.5678 Y26.3344 I-0.6532 J0.8851
G1 X59.4157 Y28.0067
G3 X59.4933 Y28.0843 I-0.7381 J0.8156
G1 X61.1656 Y29.9322
G3 X61.235 Y30.0171 I-0.8156 J0.7381
G1 X62.715 Y32.0224
G3 X62.7756 Y32.1138 I-0.8851 J0.6532
G1 X64.0486 Y34.2565
G3 X64.0998 Y34.3534 I-0.9457 J0.5618
G1 X65.1531 Y36.6122
G3 X65.1944 Y36.7138 I-0.9969 J0.4649
G1 X66.0176 Y39.0662
G3 X66.0486 Y39.1714 I-1.0383 J0.3633
G1 X66.6334 Y41.5941
G3 X66.6538 Y41.7018 I-1.0693 J0.2581
G1 X66.9945 Y44.1707
G3 X67.0041 Y44.28 I-1.0897 J0.1504
G1 X67.0973 Y46.7705
G3 X67.0959 Y46.8802 I-1.0992 J0.0411
G1 X66.9407 Y49.3676
G3 X66.9284 Y49.4766 I-1.0979 J-0.0685
G1 X66.5262 Y51.9362
G3 X66.5032 Y52.0434 I-1.0856 J-0.1775
G1 X65.8581 Y54.4508
G3 X65.8245 Y54.5552 I-1.0625 J-0.2847
G1 X64.9429 Y56.8864
G3 X64.8991 Y56.9869 I-1.0289 J-0.3891
G1 X63.7898 Y59.2187
G3 X63.7362 Y59.3144 I-0.985 J-0.4896
G1 X62.967 Y60.5386
G1 X63.2105 Y60.7091
G1 X64.0247 Y59.4133
G1 X65.196 Y57.0566
G1 X66.1269 Y54.595
G1 X66.808 Y52.0529
G1 X67.2326 Y49.4557
G1 X67.3966 Y46.8291
G1 X67.2982 Y44.1992
G1 X66.9384 Y41.5922
G1 X66.3209 Y39.0339
G1 X65.4517 Y36.5499
G1 X64.3394 Y34.1647
G1 X62.9953 Y31.9022
G1 X61.4325 Y29.7847
G1 X59.6667 Y27.8333
G1 X57.7153 Y26.0675
G1 X55.5978 Y24.5047
G1 X53.3353 Y23.1606
G1 X50.9501 Y22.0483
G1 X48.4661 Y21.1791
G1 X45.9078 Y20.5616
G1 X43.3008 Y20.2018
G1 X40.6709 Y20.1034
G1 X38.0443 Y20.2674
G1 X35.4471 Y20.692
G1 X32.905 Y21.3731
G1 X30.4434 Y22.304
G1 X28.0867 Y23.4753
G1 X26.7909 Y24.2895
G1 X26.9614 Y24.533
G1 F200.0 Z-3.3
G1 F700.0 X28.1856 Y23.7638
G3 X28.2813 Y23.7102 I0.5852 J0.9314
G1 X30.5131 Y22.6009
G3 X30.6136 Y22.5571 I0.4896 J0.985
G1 X32.9448 Y21.6755
G3 X33.0492 Y21.6419 I0.3891 J1.0289
G1 X35.4566 Y20.9968
G3 X35.5638 Y20.9738 I0.2847 J1.0625
G1 X38.0234 Y20.5716
G3 X38.1324 Y20.5593 I0.1775 J1.0856
G1 X40.6198 Y20.4041
G3 X40.7295 Y20.4027 I0.0685 J1.0979
G1 X43.22 Y20.4959
G3 X43.3293 Y20.5055 I-0.0411 J1.0992
G1 X45.7982 Y20.8462
G3 X45.9059 Y20.8666 I-0.1504 J1.0897
G1 X48.3286 Y21.4514
G3 X48.4338 Y21.4824 I-0.2581 J1.0693
G1 X50.7862 Y22.3056
G3 X50.8878 Y22.3469 I-0.3633 J1.0383
G1 X53.1466 Y23.4002
G3 X53.2435 Y23.4514 I-0.4649 J0.9969
G1 X55.3862 Y24.7244
G3 X55.4776 Y24.785 I-0.5618 J0.9457
G1 X57.4829 Y26.265
G3 X57.5678 Y26.3344 I-0.6532 J0.8851
G1 X59.4157 Y28.0067
G3 X59.4933 Y28.0843 I-0.7381 J0.8156
G1 X61.1656 Y29.9322
G3 X61.235 Y30.0171 I-0.8156 J0.7381
G1 X62.715 Y32.0224
G3 X62.7756 Y32.1138 I-0.8851 J0.6532
G1 X64.0486 Y34.2565
G3 X64.0998 Y34.3534 I-0.9457 J0.5618
G1 X65.1531 Y36.6122
G3 X65.1944 Y36.7138 I-0.9969 J0.4649
G1 X66.0176 Y39.0662
G3 X66.0486 Y39.1714 I-1.0383 J0.3633
G1 X66.6334 Y41.5941
G3 X66.6538 Y41.7018 I-1.0693 J0.2581
G1 X66.9945 Y44.1707
G3 X67.0041 Y44.28 I-1.0897 J0.1504
G1 X67.0973 Y46.7705
G3 X67.0959 Y46.8802 I-1.0992 J0.0411
G1 X66.9407 Y49.3676
G3 X66.9284 Y49.4766 I-1.0979 J-0.0685
G1 X66.5262 Y51.9362
G3 X66.5032 Y52.0434 I-1.0856 J-0.1775
G1 X65.8581 Y54.4508
G3 X65.8245 Y54.5552 I-1.0625 J-0.2847
G1 X64.9429 Y56.8864
G3 X64.8991 Y56.9869 I-1.0289 J-0.3891
G1 X63.7898 Y59.2187
G3 X63.7362 Y59.3144 I-0.985 J-0.4896
G1 X62.967 Y60.5386
G1 X63.2105 Y60.7091
G1 X64.0247 Y59.4133
G1 X65.196 Y57.0566
G1 X66.1269 Y54.595
G1 X66.808 Y52.0529
G1 X67.2326 Y49.4557
G1 X67.3966 Y46.8291
G1 X67.2982 Y44.1992
G1 X66.9384 Y41.5922
G1 X66.3209 Y39.0339
G1 X65.4517 Y36.5499
G1 X64.3394 Y34.1647
G1 X62.9953 Y31.9022
G1 X61.4325 Y29.7847
G1 X59.6667 Y27.8333
G1 X57.7153 Y26.0675
G1 X55.5978 Y24.5047
G1 X53.3353 Y23.1606
G1 X50.9501 Y22.0483
G1 X48.4661 Y21.1791
G1 X45.9078 Y20.5616
G1 X43.3008 Y20.2018
G1 X40.6709 Y20.1034
G1 X38.0443 Y20.2674
G1 X35.4471 Y20.692
G1 X32.905 Y21.3731
G1 X30.4434 Y22.304
G1 X28.0867 Y23.4753
G1 X26.7909 Y24.2895
G1 X26.9614 Y24.533
G1 F200.0 Z-3.6
G1 F700.0 X28.1856 Y23.7638
G3 X28.2813 Y23.7102 I0.5852 J0.9314
G1 X30.5131 Y22.6009
G3 X30.6136 Y22.5571 I0.4896 J0.985
G1 X32.9448 Y21.6755
G3 X33.0492 Y21.6419 I0.3891 J1.0289
G1 X35.4566 Y20.9968
G3 X35.5638 Y20.9738 I0.2847 J1.0625
G1 X38.0234 Y20.5716
G3 X38.1324 Y20.5593 I0.1775 J1.0856
G1 X40.6198 Y20.4041
G3 X40.7295 Y20.4027 I0.0685 J1.0979
G1 X43.22 Y20.4959
G3 X43.3293 Y20.5055 I-0.0411 J1.0992
G1 X45.7982 Y20.8462
G3 X45.9059 Y20.8666 I-0.1504 J1.0897
G1 X48.3286 Y21.4514
G3 X48.4338 Y21.4824 I-0.2581 J1.0693
G1 X50.7862 Y22.3056
G3 X50.8878 Y22.3469 I-0.3633 J1.0383
G1 X53.1466 Y23.4002
G3 X53.2435 Y23.4514 I-0.4649 J0.9969
G1 X55.3862 Y24.7244
G3 X55.4776 Y24.785 I-0.5618 J0.9457
G1 X57.4829 Y26.265
G3 X57.5678 Y26.3344 I-0.6532 J0.8851
G1 X59.4157 Y28.0067
G3 X59.4933 Y28.0843 I-0.7381 J0.8156
G1 X61.1656 Y29.9322
G3 X61.235 Y30.0171 I-0.8156 J0.7381
G1 X62.715 Y32.0224
G3 X62.7756 Y32.1138 I-0.8851 J0.6532
G1 X64.0486 Y34.2565
G3 X64.0998 Y34.3534 I-0.9457 J0.5618
G1 X65.1531 Y36.6122
G3 X65.1944 Y36.7138 I-0.9969 J0.4649
G1 X66.0176 Y39.0662
G3 X66.0486 Y39.1714 I-1.0383 J0.3633
G1 X66.6334 Y41.5941
G3 X66.6538 Y41.7018 I-1.0693 J0.2581
G1 X66.9945 Y44.1707
G3 X67.0041 Y44.28 I-1.0897 J0.1504
G1 X67.0973 Y46.7705
G3 X67.0959 Y46.8802 I-1.0992 J0.0411
G1 X66.9407 Y49.3676
G3 X66.9284 Y49.4766 I-1.0979 J-0.0685
G1 X66.5262 Y51.9362
G3 X66.5032 Y52.0434 I-1.0856 J-0.1775
G1 X65.8581 Y54.4508
G3 X65.8245 Y54.5552 I-1.0625 J-0.2847
G1 X64.9429 Y56.8864
G3 X64.8991 Y56.9869 I-1.0289 J-0.3891
G1 X63.7898 Y59.2187
G3 X63.7362 Y59.3144 I-0.985 J-0.4896
G1 X62.967 Y60.5386
G1 X63.2105 Y60.7091
G1 X64.0247 Y59.4133
G1 X65.196 Y57.0566
G1 X66.1269 Y54.595
G1 X66.808 Y52.0529
G1 X67.2326 Y49.4557
G1 X67.3966 Y46.8291
G1 X67.2982 Y44.1992
G1 X66.9384 Y41.5922
G1 X66.3209 Y39.0339
G1 X65.4517 Y36.5499
G1 X64.3394 Y34.1647
G1 X62.9953 Y31.9022
G1 X61.4325 Y29.7847
G1 X59.6667 Y27.8333
G1 X57.7153 Y26.0675
G1 X55.5978 Y24.5047
G1 X53.3353 Y23.1606
G1 X50.9501 Y22.0483
G1 X48.4661 Y21.1791
G1 X45.9078 Y20.5616
G1 X43.3008 Y20.2018
G1 X40.6709 Y20.1034
G1 X38.0443 Y20.2674
G1 X35.4471 Y20.692
G1 X32.905 Y21.3731
G1 X30.4434 Y22.304
G1 X28.0867 Y23.4753
G1 X26.7909 Y24.2895
G1 X26.9614 Y24.533
G1 F200.0 Z-3.9
G1 F700.0 X28.1856 Y23.7638
G3 X28.2813 Y23.7102 I0.5852 J0.9314
G1 X30.5131 Y22.6009
G3 X30.6136 Y22.5571 I0.4896 J0.985
G1 X32.9448 Y21.6755
G3 X33.0492 Y21.6419 I0.3891 J1.0289
G1 X35.4566 Y20.9968
G3 X35.5638 Y20.9738 I0.2847 J1.0625
G1 X38.0234 Y20.5716
G3 X38.1324 Y20.5593 I0.1775 J1.0856
G1 X40.6198 Y20.4041
G3 X40.7295 Y20.4027 I0.0685 J1.0979
G1 X43.22 Y20.4959
G3 X43.3293 Y20.5055 I-0.0411 J1.0992
G1 X45.7982 Y20.8462
G3 X45.9059 Y20.8666 I-0.1504 J1.0897
G1 X48.3286 Y21.4514
G3 X48.4338 Y21.4824 I-0.2581 J1.0693
G1 X50.7862 Y22.3056
G3 X50.8878 Y22.3469 I-0.3633 J1.0383
G1 X53.1466 Y23.4002
G3 X53.2435 Y23.4514 I-0.4649 J0.9969
G1 X55.3862 Y24.7244
G3 X55.4776 Y24.785 I-0.5618 J0.9457
G1 X57.4829 Y26.265
G3 X57.5678 Y26.3344 I-0.6532 J0.8851
G1 X59.4157 Y28.0067
G3 X59.4933 Y28.0843 I-0.7381 J0.8156
G1 X61.1656 Y29.9322
G3 X61.235 Y30.0171 I-0.8156 J0.7381
G1 X62.715 Y32.0224
G3 X62.7756 Y32.1138 I-0.8851 J0.6532
G1 X64.0486 Y34.2565
G3 X64.0998 Y34.3534 I-0.9457 J0.5618
G1 X65.1531 Y36.6122
G3 X65.1944 Y36.7138 I-0.9969 J0.4649
G1 X66.0176 Y39.0662
G3 X66.0486 Y39.1714 I-1.0383 J0.3633
G1 X66.6334 Y41.5941
G3 X66.6538 Y41.7018 I-1.0693 J0.2581
G1 X66.9945 Y44.1707
G3 X67.0041 Y44.28 I-1.0897 J0.1504
G1 X67.0973 Y46.7705
G3 X67.0959 Y46.8802 I-1.0992 J0.0411
G1 X66.9407 Y49.3676
G3 X66.9284 Y49.4766 I-1.0979 J-0.0685
G1 X66.5262 Y51.9362
G3 X66.5032 Y52.0434 I-1.0856 J-0.1775
G1 X65.8581 Y54.4508
G3 X65.8245 Y54.5552 I-1.0625 J-0.2847
G1 X64.9429 Y56.8864
G3 X64.8991 Y56.9869 I-1.0289 J-0.3891
G1 X63.7898 Y59.2187
G3 X63.7362 Y59.3144 I-0.985 J-0.4896
G1 X62.967 Y60.5386
G1 X63.2105 Y60.7091
G1 X64.0247 Y59.4133
G1 X65.196 Y57.0566
G1 X66.1269 Y54.595
G1 X66.808 Y52.0529
G1 X67.2326 Y49.4557
G1 X67.3966 Y46.8291
G1 X67.2982 Y44.1992
G1 X66.9384 Y41.5922
G1 X66.3209 Y39.0339
G1 X65.4517 Y36.5499
G1 X64.3394 Y34.1647
G1 X62.9953 Y31.9022
G1 X61.4325 Y29.7847
G1 X59.6667 Y27.8333
G1 X57.7153 Y26.0675
G1 X55.5978 Y24.5047
G1 X53.3353 Y23.1606
G1 X50.9501 Y22.0483
G1 X48.4661 Y21.1791
G1 X45.9078 Y20.5616
G1 X43.3008 Y20.2018
G1 X40.6709 Y20.1034
G1 X38.0443 Y20.2674
G1 X35.4471 Y20.692
G1 X32.905 Y21.3731
G1 X30.4434 Y22.304
G1 X28.0867 Y23.4753
G1 X26.7909 Y24.2895
G1 X26.9614 Y24.533
G1 F200.0 Z-4.1
G1 F700.0 X28.1856 Y23.7638
G3 X28.2813 Y23.7102 I0.5852 J0.9314
G1 X30.5131 Y22.6009
G3 X30.6136 Y22.5571 I0.4896 J0.985
G1 X32.9448 Y21.6755
G3 X33.0492 Y21.6419 I0.3891 J1.0289
G1 X35.4566 Y20.9968
G3 X35.5638 Y20.9738 I0.2847 J1.0625
G1 X38.0234 Y20.5716
G3 X38.1324 Y20.5593 I0.1775 J1.0856
G1 X40.6198 Y20.4041
G3 X40.7295 Y20.4027 I0.0685 J1.0979
G1 X43.22 Y20.4959
G3 X43.3293 Y20.5055 I-0.0411 J1.0992
G1 X45.7982 Y20.8462
G3 X45.9059 Y20.8666 I-0.1504 J1.0897
G1 X48.3286 Y21.4514
G3 X48.4338 Y21.4824 I-0.2581 J1.0693
G1 X50.7862 Y22.3056
G3 X50.8878 Y22.3469 I-0.3633 J1.0383
G1 X53.1466 Y23.4002
G3 X53.2435 Y23.4514 I-0.4649 J0.9969
G1 X55.3862 Y24.7244
G3 X55.4776 Y24.785 I-0.5618 J0.9457
G1 X57.4829 Y26.265
G3 X57.5678 Y26.3344 I-0.6532 J0.8851
G1 X59.4157 Y28.0067
G3 X59.4933 Y28.0843 I-0.7381 J0.8156
G1 X61.1656 Y29.9322
G3 X61.235 Y30.0171 I-0.8156 J0.7381
G1 X62.715 Y32.0224
G3 X62.7756 Y32.1138 I-0.8851 J0.6532
G1 X64.0486 Y34.2565
G3 X64.0998 Y34.3534 I-0.9457 J0.5618
G1 X65.1531 Y36.6122
G3 X65.1944 Y36.7138 I-0.9969 J0.4649
G1 X66.0176 Y39.0662
G3 X66.0486 Y39.1714 I-1.0383 J0.3633
G1 X66.6334 Y41.5941
G3 X66.6538 Y41.7018 I-1.0693 J0.2581
G1 X66.9945 Y44.1707
G3 X67.0041 Y44.28 I-1.0897 J0.1504
G1 X67.0973 Y46.7705
G3 X67.0959 Y46.8802 I-1.0992 J0.0411
G1 X66.9407 Y49.3676
G3 X66.9284 Y49.4766 I-1.0979 J-0.0685
G1 X66.5262 Y51.9362
G3 X66.5032 Y52.0434 I-1.0856 J-0.1775
G1 X65.8581 Y54.4508
G3 X65.8245 Y54.5552 I-1.0625 J-0.2847
G1 X64.9429 Y56.8864
G3 X64.8991 Y56.9869 I-1.0289 J-0.3891
G1 X63.7898 Y59.2187
G3 X63.7362 Y59.3144 I-0.985 J-0.4896
G1 X62.967 Y60.5386
G1 X63.2105 Y60.7091
G1 X64.0247 Y59.4133
G1 X65.196 Y57.0566
G1 X66.1269 Y54.595
G1 X66.808 Y52.0529
G1 X67.2326 Y49.4557
G1 X67.3966 Y46.8291
G1 X67.2982 Y44.1992
G1 X66.9384 Y41.5922
G1 X66.3209 Y39.0339
G1 X65.4517 Y36.5499
G1 X64.3394 Y34.1647
G1 X62.9953 Y31.9022
G1 X61.4325 Y29.7847
G1 X59.6667 Y27.8333
G1 X57.7153 Y26.0675
G1 X55.5978 Y24.5047
G1 X53.3353 Y23.1606
G1 X50.9501 Y22.0483
G1 X48.4661 Y21.1791
G1 X45.9078 Y20.5616
G1 X43.3008 Y20.2018
G1 X40.6709 Y20.1034
G1 X38.0443 Y20.2674
G1 X35.4471 Y20.692
G1 X32.905 Y21.3731
G1 X30.4434 Y22.304
G1 X28.0867 Y23.4753
G1 X26.7909 Y24.2895
G1 X26.9614 Y24.533
G1 F200.0 Z-4.2
G1 F700.0 X28.1856 Y23.7638
G3 X28.2813 Y23.7102 I0.5852 J0.9314
G1 X30.5131 Y22.6009
G3 X30.6136 Y22.5571 I0.4896 J0.985
G1 X32.9448 Y21.6755
G3 X33.0492 Y21.6419 I0.3891 J1.0289
G1 X35.4566 Y20.9968
G3 X35.5638 Y20.9738 I0.2847 J1.0625
G1 X38.0234 Y20.5716
G3 X38.1324 Y20.5593 I0.1775 J1.0856
G1 X40.6198 Y20.4041
G3 X40.7295 Y20.4027 I0.0685 J1.0979
G1 X43.22 Y20.4959
G3 X43.3293 Y20.5055 I-0.0411 J1.0992
G1 X45.7982 Y20.8462
G3 X45.9059 Y20.8666 I-0.1504 J1.0897
G1 X48.3286 Y21.4514
G3 X48.4338 Y21.4824 I-0.2581 J1.0693
G1 X50.7862 Y22.3056
G3 X50.8878 Y22.3469 I-0.3633 J1.0383
G1 X53.1466 Y23.4002
G3 X53.2435 Y23.4514 I-0.4649 J0.9969
G1 X55.3862 Y24.7244
G3 X55.4776 Y24.785 I-0.5618 J0.9457
G1 X57.4829 Y26.265
G3 X57.5678 Y26.3344 I-0.6532 J0.8851
G1 X59.4157 Y28.0067
G3 X59.4933 Y28.0843 I-0.7381 J0.8156
G1 X61.1656 Y29.9322
G3 X61.235 Y30.0171 I-0.8156 J0.7381
G1 X62.715 Y32.0224
G3 X62.7756 Y32.1138 I-0.8851 J0.6532
G1 X64.0486 Y34.2565
G3 X64.0998 Y34.3534 I-0.9457 J0.5618
G1 X65.1531 Y36.6122
G3 X65.1944 Y36.7138 I-0.9969 J0.4649
G1 X66.0176 Y39.0662
G3 X66.0486 Y39.1714 I-1.0383 J0.3633
G1 X66.6334 Y41.5941
G3 X66.6538 Y41.7018 I-1.0693 J0.2581
G1 X66.9945 Y44.1707
G3 X67.0041 Y44.28 I-1.0897 J0.1504
G1 X67.0973 Y46.7705
G3 X67.0959 Y46.8802 I-1.0992 J0.0411
G1 X66.9407 Y49.3676
G3 X66.9284 Y49.4766 I-1.0979 J-0.0685
G1 X66.5262 Y51.9362
G3 X66.5032 Y52.0434 I-1.0856 J-0.1775
G1 X65.8581 Y54.4508
G3 X65.8245 Y54.5552 I-1.0625 J-0.2847
G1 X64.9429 Y56.8864
G3 X64.8991 Y56.9869 I-1.0289 J-0.3891
G1 X63.7898 Y59.2187
G3 X63.7362 Y59.3144 I-0.985 J-0.4896
G1 X62.967 Y60.5386
G1 X63.2105 Y60.7091
G1 X64.0247 Y59.4133
G1 X65.196 Y57.0566
G1 X66.1269 Y54.595
G1 X66.808 Y52.0529
G1 X67.2326 Y49.4557
G1 X67.3966 Y46.8291
G1 X67.2982 Y44.1992
G1 X66.9384 Y41.5922
G1 X66.3209 Y39.0339
G1 X65.4517 Y36.5499
G1 X64.3394 Y34.1647
G1 X62.9953 Y31.9022
G1 X61.4325 Y29.7847
G1 X59.6667 Y27.8333
G1 X57.7153 Y26.0675
G1 X55.5978 Y24.5047
G1 X53.3353 Y23.1606
G1 X50.9501 Y22.0483
G1 X48.4661 Y21.1791
G1 X45.9078 Y20.5616
G1 X43.3008 Y20.2018
G1 X40.6709 Y20.1034
G1 X38.0443 Y20.2674
G1 X35.4471 Y20.692
G1 X32.905 Y21.3731
G1 X30.4434 Y22.304
G1 X28.0867 Y23.4753
G1 X26.7909 Y24.2895
G1 X26.9614 Y24.533
G0 Z3.0
G0 X22.7526 Y18.3255
G0 Z1.0
G1 F200.0 Z-0.3
G1 F700.0 X23.5017 Y17.8176
G3 X23.595 Y17.7609 I0.6173 J0.9105
G1 X26.4314 Y16.2241
G3 X26.5299 Y16.1769 I0.524 J0.9672
G1 X29.5048 Y14.9289
G3 X29.6074 Y14.8918 I0.4255 J1.0144
G1 X32.6914 Y13.9448
G3 X32.7972 Y13.918 I0.3229 J1.0515
G1 X35.9598 Y13.2815
G3 X36.0678 Y13.2653 I0.217 J1.0784
G1 X39.2779 Y12.9455
G3 X39.387 Y12.9401 I0.1091 J1.0946
G1 X42.613
G3 X42.7221 Y12.9455 I0.0 J1.1
G1 X45.9322 Y13.2653
G3 X46.0402 Y13.2815 I-0.1091 J1.0946
G1 X49.2028 Y13.918
G3 X49.3086 Y13.9448 I-0.217 J1.0784
G1 X52.3926 Y14.8918
G3 X52.4952 Y14.9289 I-0.3229 J1.0515
G1 X55.4701 Y16.1769
G3 X55.5686 Y16.2241 I-0.4255 J1.0144
G1 X58.405 Y17.7609
G3 X58.4983 Y17.8176 I-0.524 J0.9672
G1 X61.1685 Y19.628
G3 X61.2557 Y19.6937 I-0.6173 J0.9105
G1 X63.7332 Y21.7599
G3 X63.8135 Y21.8339 I-0.7045 J0.8448
G1 X66.074 Y24.1355
G3 X66.1465 Y24.2172 I-0.7848 J0.7708
G1 X68.1676 Y26.7316
G3 X68.2317 Y26.82 I-0.8574 J0.6892
G1 X69.9936 Y29.5224
G3 X70.0487 Y29.6167 I-0.9215 J0.6008
G1 X71.534 Y32.4804
G3 X71.5794 Y32.5797 I-0.9765 J0.5065
G1 X72.7734 Y35.5766
G3 X72.8088 Y35.6799 I-1.0219 J0.4072
G1 X73.6999 Y38.7805
G3 X73.7248 Y38.8868 I-1.0572 J0.3038
G1 X74.1161 Y41.0307
G1 X74.4109 Y40.9919
G1 X74.0044 Y38.7652
G1 X73.075 Y35.5312
G1 X71.8295 Y32.4053
G1 X70.2803 Y29.4183
G1 X68.4426 Y26.5996
G1 X66.3344 Y23.977
G1 X63.9767 Y21.5763
G1 X61.3926 Y19.4212
G1 X58.6075 Y17.5329
G1 X55.649 Y15.93
G1 X52.5461 Y14.6283
G1 X49.3294 Y13.6406
G1 X46.0307 Y12.9767
G1 X42.6824 Y12.6431
G1 X39.3176
G1 X35.9693 Y12.9767
G1 X32.6706 Y13.6406
G1 X29.4539 Y14.6283
G1 X26.351 Y15.93
G1 X23.3925 Y17.5329
G1 X20.6074 Y19.4212
G1 X18.0233 Y21.5763
G1 X15.6656 Y23.977
G1 X13.5574 Y26.5996
G1 X11.7197 Y29.4183
G1 X10.1705 Y32.4053
G1 X8.925 Y35.5312
G1 X7.9956 Y38.7652
G1 X7.5891 Y40.9919
G1 X7.8839 Y41.0307
G1 X8.2752 Y38.8868
G3 X8.3001 Y38.7805 I1.0821 J0.1975
G1 X9.1912 Y35.6799
G3 X9.2266 Y35.5766 I1.0572 J0.3038
G1 X10.4206 Y32.5797
G3 X10.466 Y32.4804 I1.0219 J0.4072
G1 X11.9513 Y29.6167
G3 X12.0064 Y29.5224 I0.9765 J0.5065
G1 X13.7683 Y26.82
G3 X13.8324 Y26.7316 I0.9215 J0.6008
G1 X15.8535 Y24.2172
G3 X15.926 Y24.1355 I0.8574 J0.6892
G1 X18.1865 Y21.8339
G3 X18.2668 Y21.7599 I0.7848 J0.7708
G1 X20.7443 Y19.6937
G3 X20.8315 Y19.628 I0.7045 J0.8448
G1 X22.7526 Y18.3255
G1 F200.0 Z-0.6
G1 F700.0 X23.5017 Y17.8176
G3 X23.595 Y17.7609 I0.6173 J0.9105
G1 X26.4314 Y16.2241
G3 X26.5299 Y16.1769 I0.524 J0.9672
G1 X29.5048 Y14.9289
G3 X29.6074 Y14.8918 I0.4255 J1.0144
G1 X32.6914 Y13.9448
G3 X32.7972 Y13.918 I0.3229 J1.0515
G1 X35.9598 Y13.2815
G3 X36.0678 Y13.2653 I0.217 J1.0784
G1 X39.2779 Y12.9455
G3 X39.387 Y12.9401 I0.1091 J1.0946
G1 X42.613
G3 X42.7221 Y12.9455 I0.0 J1.1
G1 X45.9322 Y13.2653
G3 X46.0402 Y13.2815 I-0.1091 J1.0946
G1 X49.2028 Y13.918
G3 X49.3086 Y13.9448 I-0.217 J1.0784
G1 X52.3926 Y14.8918
G3 X52.4952 Y14.9289 I-0.3229 J1.0515
G1 X55.4701 Y16.1769
G3 X55.5686 Y16.2241 I-0.4255 J1.0144
G1 X58.405 Y17.7609
G3 X58.4983 Y17.8176 I-0.524 J0.9672
G1 X61.1685 Y19.628
G3 X61.2557 Y19.6937 I-0.6173 J0.9105
G1 X63.7332 Y21.7599
G3 X63.8135 Y21.8339 I-0.7045 J0.8448
G1 X66.074 Y24.1355
G3 X66.1465 Y24.2172 I-0.7848 J0.7708
G1 X68.1676 Y26.7316
G3 X68.2317 Y26.82 I-0.8574 J0.6892
G1 X69.9936 Y29.5224
G3 X70.0487 Y29.6167 I-0.9215 J0.6008
G1 X71.534 Y32.4804
G3 X71.5794 Y32.5797 I-0.9765 J0.5065
G1 X72.7734 Y35.5766
