( Made using CamBam - http://www.cambam.co.uk )
( ssc_plexi_Bottom_Panel 2/23/2021 10:15:58 PM )
( T2 : 2.0 )
( CUTVIEWER )
( FROM/0,0,5 )
( Select dummy tool to avoid warnings )
( TOOL/MILL,1,0,20.0,0 )
( STOCK/BLOCK,180.0,95.0,4.0,0.0,0.0,4.0 )
G21 G90 G91.1 G64 G40
G0 Z3.0
( T2 : 2.0 )
( Tool Taper coming soon )
( TOOL/MILL,2.0,0.0,0.0,0 )
T2 M6
( connectorSlot_cutout )
G17
M3 S1000
G0 X152.8 Y82.8
G0 Z1.0
G1 F200.0 Z-0.3
G1 F700.0 Y83.1
G1 X166.1
G1 Y82.8
G1 X152.8
G1 F200.0 Y82.0
G1 F700.0 X152.0
G1 Y83.9
G1 X166.9
G1 Y82.0
G1 X152.8
G1 F200.0 Y82.8
G1 Z-0.4
G1 F700.0 Y83.1
G1 X166.1
G1 Y82.8
G1 X152.8
G1 F200.0 Y82.0
G1 F700.0 X152.0
G1 Y83.9
G1 X166.9
G1 Y82.0
G1 X152.8
G1 F200.0 Y82.8
G1 Z-0.5
G1 F700.0 Y83.1
G1 X166.1
G1 Y82.8
G1 X152.8
G1 F200.0 Y82.0
G1 F700.0 X152.0
G1 Y83.9
G1 X166.9
G1 Y82.0
G1 X152.8
G0 Z3.0
G0 Y12.2
G0 Z1.0
G1 F200.0 Z-0.3
G1 F700.0 X166.1
G1 Y11.9
G1 X152.8
G1 Y12.2
G1 F200.0 X152.0
G1 F700.0 Y13.0
G1 X166.9
G1 Y11.1
G1 X152.0
G1 Y12.2
G1 F200.0 X152.8
G1 Z-0.4
G1 F700.0 X166.1
G1 Y11.9
G1 X152.8
G1 Y12.2
G1 F200.0 X152.0
G1 F700.0 Y13.0
G1 X166.9
G1 Y11.1
G1 X152.0
G1 Y12.2
G1 F200.0 X152.8
G1 Z-0.5
G1 F700.0 X166.1
G1 Y11.9
G1 X152.8
G1 Y12.2
G1 F200.0 X152.0
G1 F700.0 Y13.0
G1 X166.9
G1 Y11.1
G1 X152.0
G1 Y12.2
G0 Z3.0
G0 X23.2
G0 Z1.0
G1 F200.0 Z-0.3
G1 F700.0 Y11.9
G1 X9.9
G1 Y12.2
G1 X23.2
G1 F200.0 Y13.0
G1 F700.0 X24.0
G1 Y11.1
G1 X9.1
G1 Y13.0
G1 X23.2
G1 F200.0 Y12.2
G1 Z-0.4
G1 F700.0 Y11.9
G1 X9.9
G1 Y12.2
G1 X23.2
G1 F200.0 Y13.0
G1 F700.0 X24.0
G1 Y11.1
G1 X9.1
G1 Y13.0
G1 X23.2
G1 F200.0 Y12.2
G1 Z-0.5
G1 F700.0 Y11.9
G1 X9.9
G1 Y12.2
G1 X23.2
G1 F200.0 Y13.0
G1 F700.0 X24.0
G1 Y11.1
G1 X9.1
G1 Y13.0
G1 X23.2
G0 Z3.0
G0 Y82.8
G0 Z1.0
G1 F200.0 Z-0.3
G1 F700.0 X9.9
G1 Y83.1
G1 X23.2
G1 Y82.8
G1 F200.0 X24.0
G1 F700.0 Y82.0
G1 X9.1
G1 Y83.9
G1 X24.0
G1 Y82.8
G1 F200.0 X23.2
G1 Z-0.4
G1 F700.0 X9.9
G1 Y83.1
G1 X23.2
G1 Y82.8
G1 F200.0 X24.0
G1 F700.0 Y82.0
G1 X9.1
G1 Y83.9
G1 X24.0
G1 Y82.8
G1 F200.0 X23.2
G1 Z-0.5
G1 F700.0 X9.9
G1 Y83.1
G1 X23.2
G1 Y82.8
G1 F200.0 X24.0
G1 F700.0 Y82.0
G1 X9.1
G1 Y83.9
G1 X24.0
G1 Y82.8
( connectorSlot_3D )
S1000
G0 Z-0.3
G1 F200.0 X23.3 Y82.7
G1 F700.0 X9.8
G1 Y83.2
G1 X23.3
G1 Y82.7
G1 F200.0 X24.1
G1 F700.0 Y81.9
G1 X9.0
G1 Y84.0
G1 X24.1
G1 Y82.7
G1 F200.0 X23.3
G1 Z-0.4
G1 F700.0 X9.8
G1 Y83.2
G1 X23.3
G1 Y82.7
G1 F200.0 X24.1
G1 F700.0 Y81.9
G1 X9.0
G1 Y84.0
G1 X24.1
G1 Y82.7
G1 F200.0 X23.3
G1 Z-0.5
G1 F700.0 X9.8
G1 Y83.2
G1 X23.3
G1 Y82.7
G1 F200.0 X24.1
G1 F700.0 Y81.9
G1 X9.0
G1 Y84.0
G1 X24.1
G1 Y82.7
G0 Z3.0
G0 X23.3 Y12.3
G0 Z1.0
G1 F200.0 Z-0.3
G1 F700.0 Y11.8
G1 X9.8
G1 Y12.3
G1 X23.3
G1 F200.0 X24.1
G1 F700.0 Y11.0
G1 X9.0
G1 Y13.1
G1 X24.1
G1 Y12.3
G1 F200.0 X23.3
G1 Z-0.4
G1 F700.0 Y11.8
G1 X9.8
G1 Y12.3
G1 X23.3
G1 F200.0 X24.1
G1 F700.0 Y11.0
G1 X9.0
G1 Y13.1
G1 X24.1
G1 Y12.3
G1 F200.0 X23.3
G1 Z-0.5
G1 F700.0 Y11.8
G1 X9.8
G1 Y12.3
G1 X23.3
G1 F200.0 X24.1
G1 F700.0 Y11.0
G1 X9.0
G1 Y13.1
G1 X24.1
G1 Y12.3
G0 Z3.0
G0 X152.7
G0 Z1.0
G1 F200.0 Z-0.3
G1 F700.0 X166.2
G1 Y11.8
G1 X152.7
G1 Y12.3
G1 F200.0 X151.9
G1 F700.0 Y13.1
G1 X167.0
G1 Y11.0
G1 X151.9
G1 Y12.3
G1 F200.0 X152.7
G1 Z-0.4
G1 F700.0 X166.2
G1 Y11.8
G1 X152.7
G1 Y12.3
G1 F200.0 X151.9
G1 F700.0 Y13.1
G1 X167.0
G1 Y11.0
G1 X151.9
G1 Y12.3
G1 F200.0 X152.7
G1 Z-0.5
G1 F700.0 X166.2
G1 Y11.8
G1 X152.7
G1 Y12.3
G1 F200.0 X151.9
G1 F700.0 Y13.1
G1 X167.0
G1 Y11.0
G1 X151.9
G1 Y12.3
G0 Z3.0
G0 X152.7 Y82.7
G0 Z1.0
G1 F200.0 Z-0.3
G1 F700.0 Y83.2
G1 X166.2
G1 Y82.7
G1 X152.7
G1 F200.0 X151.9
G1 F700.0 Y84.0
G1 X167.0
G1 Y81.9
G1 X151.9
G1 Y82.7
G1 F200.0 X152.7
G1 Z-0.4
G1 F700.0 Y83.2
G1 X166.2
G1 Y82.7
G1 X152.7
G1 F200.0 X151.9
G1 F700.0 Y84.0
G1 X167.0
G1 Y81.9
G1 X151.9
G1 Y82.7
G1 F200.0 X152.7
G1 Z-0.5
G1 F700.0 Y83.2
G1 X166.2
G1 Y82.7
G1 X152.7
G1 F200.0 X151.9
G1 F700.0 Y84.0
G1 X167.0
G1 Y81.9
G1 X151.9
G1 Y82.7
( connectorSlot_Overcut )
S1000
G0 Z3.0
G0 X24.1 Y81.9
G1 F200.0 Z-0.3
G1 F700.0 X9.0
G1 X8.7071 Y81.6071
G1 X9.0 Y81.9
G1 Y84.0
G1 X8.7071 Y84.2929
G1 X9.0 Y84.0
G1 X24.1
G1 X24.3929 Y84.2929
G1 X24.1 Y84.0
G1 Y81.9
G1 X24.3929 Y81.6071
G1 X24.1 Y81.9
G1 F200.0 Z-0.4
G1 F700.0 X9.0
G1 X8.7071 Y81.6071
G1 X9.0 Y81.9
G1 Y84.0
G1 X8.7071 Y84.2929
G1 X9.0 Y84.0
G1 X24.1
G1 X24.3929 Y84.2929
G1 X24.1 Y84.0
G1 Y81.9
G1 X24.3929 Y81.6071
G1 X24.1 Y81.9
G1 F200.0 Z-0.5
G1 F700.0 X9.0
G1 X8.7071 Y81.6071
G1 X9.0 Y81.9
G1 Y84.0
G1 X8.7071 Y84.2929
G1 X9.0 Y84.0
G1 X24.1
G1 X24.3929 Y84.2929
G1 X24.1 Y84.0
G1 Y81.9
G1 X24.3929 Y81.6071
G1 X24.1 Y81.9
G0 Z3.0
G0 X24.3929 Y13.3929
G0 Z1.0
G1 F200.0 Z-0.3
G1 F700.0 X24.1 Y13.1
G1 Y11.0
G1 X24.3929 Y10.7071
G1 X24.1 Y11.0
G1 X9.0
G1 X8.7071 Y10.7071
G1 X9.0 Y11.0
G1 Y13.1
G1 X8.7071 Y13.3929
G1 X9.0 Y13.1
G1 X24.1
G1 X24.3929 Y13.3929
G1 F200.0 Z-0.4
G1 F700.0 X24.1 Y13.1
G1 Y11.0
G1 X24.3929 Y10.7071
G1 X24.1 Y11.0
G1 X9.0
G1 X8.7071 Y10.7071
G1 X9.0 Y11.0
G1 Y13.1
G1 X8.7071 Y13.3929
G1 X9.0 Y13.1
G1 X24.1
G1 X24.3929 Y13.3929
G1 F200.0 Z-0.5
G1 F700.0 X24.1 Y13.1
G1 Y11.0
G1 X24.3929 Y10.7071
G1 X24.1 Y11.0
G1 X9.0
G1 X8.7071 Y10.7071
G1 X9.0 Y11.0
G1 Y13.1
G1 X8.7071 Y13.3929
G1 X9.0 Y13.1
G1 X24.1
G1 X24.3929 Y13.3929
G0 Z3.0
G0 X151.6071
G0 Z1.0
G1 F200.0 Z-0.3
G1 F700.0 X151.9 Y13.1
G1 X167.0
G1 X167.2929 Y13.3929
G1 X167.0 Y13.1
G1 Y11.0
G1 X167.2929 Y10.7071
G1 X167.0 Y11.0
G1 X151.9
G1 X151.6071 Y10.7071
G1 X151.9 Y11.0
G1 Y13.1
G1 X151.6071 Y13.3929
G1 F200.0 Z-0.4
G1 F700.0 X151.9 Y13.1
G1 X167.0
G1 X167.2929 Y13.3929
G1 X167.0 Y13.1
G1 Y11.0
G1 X167.2929 Y10.7071
G1 X167.0 Y11.0
G1 X151.9
G1 X151.6071 Y10.7071
G1 X151.9 Y11.0
G1 Y13.1
G1 X151.6071 Y13.3929
G1 F200.0 Z-0.5
G1 F700.0 X151.9 Y13.1
G1 X167.0
G1 X167.2929 Y13.3929
G1 X167.0 Y13.1
G1 Y11.0
G1 X167.2929 Y10.7071
G1 X167.0 Y11.0
G1 X151.9
G1 X151.6071 Y10.7071
G1 X151.9 Y11.0
G1 Y13.1
G1 X151.6071 Y13.3929
G0 Z3.0
G0 Y81.6071
G0 Z1.0
G1 F200.0 Z-0.3
G1 F700.0 X151.9 Y81.9
G1 Y84.0
G1 X151.6071 Y84.2929
G1 X151.9 Y84.0
G1 X167.0
G1 X167.2929 Y84.2929
G1 X167.0 Y84.0
G1 Y81.9
G1 X167.2929 Y81.6071
G1 X167.0 Y81.9
G1 X151.9
G1 X151.6071 Y81.6071
G1 F200.0 Z-0.4
G1 F700.0 X151.9 Y81.9
G1 Y84.0
G1 X151.6071 Y84.2929
G1 X151.9 Y84.0
G1 X167.0
G1 X167.2929 Y84.2929
G1 X167.0 Y84.0
G1 Y81.9
G1 X167.2929 Y81.6071
G1 X167.0 Y81.9
G1 X151.9
G1 X151.6071 Y81.6071
G1 F200.0 Z-0.5
G1 F700.0 X151.9 Y81.9
G1 Y84.0
G1 X151.6071 Y84.2929
G1 X151.9 Y84.0
G1 X167.0
G1 X167.2929 Y84.2929
G1 X167.0 Y84.0
G1 Y81.9
G1 X167.2929 Y81.6071
G1 X167.0 Y81.9
G1 X151.9
G1 X151.6071 Y81.6071
( connectorSlotTrail_3D )
S1000
G0 Z3.0
G0 X151.9 Y13.1
G1 F200.0 Z-0.3
G1 F700.0 X168.0
G3 X169.0 Y14.1 I0.0 J1.0
G1 Y80.9
G3 X168.0 Y81.9 I-1.0 J0.0
G1 X151.9
G1 Y85.0
G3 X150.9 Y86.0 I-1.0 J0.0
G1 X25.1
G3 X24.1 Y85.0 I0.0 J-1.0
G1 Y81.9
G1 X8.0
G3 X7.0 Y80.9 I0.0 J-1.0
G1 Y14.1
G3 X8.0 Y13.1 I1.0 J0.0
G1 X24.1
G1 Y10.0
G3 X25.1 Y9.0 I1.0 J0.0
G1 X150.9
G3 X151.9 Y10.0 I0.0 J1.0
G1 Y13.1
G1 F200.0 Z-0.4
G1 F700.0 X168.0
G3 X169.0 Y14.1 I0.0 J1.0
G1 Y80.9
G3 X168.0 Y81.9 I-1.0 J0.0
G1 X151.9
G1 Y85.0
G3 X150.9 Y86.0 I-1.0 J0.0
G1 X25.1
G3 X24.1 Y85.0 I0.0 J-1.0
G1 Y81.9
G1 X8.0
G3 X7.0 Y80.9 I0.0 J-1.0
G1 Y14.1
G3 X8.0 Y13.1 I1.0 J0.0
G1 X24.1
G1 Y10.0
G3 X25.1 Y9.0 I1.0 J0.0
G1 X150.9
G3 X151.9 Y10.0 I0.0 J1.0
G1 Y13.1
G1 F200.0 Z-0.5
G1 F700.0 X168.0
G3 X169.0 Y14.1 I0.0 J1.0
G1 Y80.9
G3 X168.0 Y81.9 I-1.0 J0.0
G1 X151.9
G1 Y85.0
G3 X150.9 Y86.0 I-1.0 J0.0
G1 X25.1
G3 X24.1 Y85.0 I0.0 J-1.0
G1 Y81.9
G1 X8.0
G3 X7.0 Y80.9 I0.0 J-1.0
G1 Y14.1
G3 X8.0 Y13.1 I1.0 J0.0
G1 X24.1
G1 Y10.0
G3 X25.1 Y9.0 I1.0 J0.0
G1 X150.9
G3 X151.9 Y10.0 I0.0 J1.0
G1 Y13.1
( ventBars_cutout )
S1000
G0 Z3.0
G0 X40.0826 Y31.3764
G0 Z1.0
G1 F200.0 Z-0.3
G1 F700.0 X40.0701 Y31.3689
G1 X40.0569 Y31.3626
G1 X40.0432 Y31.3577
G1 X40.029 Y31.3542
G1 X40.0146 Y31.352
G1 X40.0 Y31.3513
G1 X39.9854 Y31.352
G1 X39.971 Y31.3542
G1 X39.9568 Y31.3577
G1 X39.9431 Y31.3626
G1 X39.9299 Y31.3689
G1 X39.9174 Y31.3764
G1 X39.9057 Y31.3851
G1 X39.8949 Y31.3949
G1 X39.8851 Y31.4057
G1 X39.8764 Y31.4174
G1 X39.8689 Y31.4299
G1 X39.8626 Y31.4431
G1 X39.8577 Y31.4568
G1 X39.8542 Y31.471
G1 X39.852 Y31.4854
G1 X39.85 Y31.527
G1 Y61.473
G1 X39.852 Y61.5146
G1 X39.8542 Y61.529
G1 X39.8577 Y61.5432
G1 X39.8626 Y61.5569
G1 X39.8689 Y61.5701
G1 X39.8764 Y61.5826
G1 X39.8851 Y61.5943
G1 X39.8949 Y61.6051
G1 X39.9057 Y61.6149
G1 X39.9174 Y61.6236
G1 X39.9299 Y61.6311
G1 X39.9431 Y61.6374
G1 X39.9568 Y61.6423
G1 X39.971 Y61.6458
G1 X39.9854 Y61.648
G1 X40.0 Y61.6487
G1 X40.0146 Y61.648
G1 X40.029 Y61.6458
G1 X40.0432 Y61.6423
G1 X40.0569 Y61.6374
G1 X40.0701 Y61.6311
G1 X40.0826 Y61.6236
G1 X40.0943 Y61.6149
G1 X40.1051 Y61.6051
G1 X40.1149 Y61.5943
G1 X40.1236 Y61.5826
G1 X40.1311 Y61.5701
G1 X40.1374 Y61.5569
G1 X40.1423 Y61.5432
G1 X40.1458 Y61.529
G1 X40.148 Y61.5146
G1 X40.15 Y61.473
G1 Y31.527
G1 X40.148 Y31.4854
G1 X40.1458 Y31.471
G1 X40.1423 Y31.4568
G1 X40.1374 Y31.4431
G1 X40.1311 Y31.4299
G1 X40.1236 Y31.4174
G1 X40.1149 Y31.4057
G1 X40.1051 Y31.3949
G1 X40.0943 Y31.3851
G1 X40.0826 Y31.3764
G1 F200.0 Z-0.6
G1 F700.0 X40.0701 Y31.3689
G1 X40.0569 Y31.3626
G1 X40.0432 Y31.3577
G1 X40.029 Y31.3542
G1 X40.0146 Y31.352
G1 X40.0 Y31.3513
G1 X39.9854 Y31.352
G1 X39.971 Y31.3542
G1 X39.9568 Y31.3577
G1 X39.9431 Y31.3626
G1 X39.9299 Y31.3689
G1 X39.9174 Y31.3764
G1 X39.9057 Y31.3851
G1 X39.8949 Y31.3949
G1 X39.8851 Y31.4057
G1 X39.8764 Y31.4174
G1 X39.8689 Y31.4299
G1 X39.8626 Y31.4431
G1 X39.8577 Y31.4568
G1 X39.8542 Y31.471
G1 X39.852 Y31.4854
G1 X39.85 Y31.527
G1 Y61.473
G1 X39.852 Y61.5146
G1 X39.8542 Y61.529
G1 X39.8577 Y61.5432
G1 X39.8626 Y61.5569
G1 X39.8689 Y61.5701
G1 X39.8764 Y61.5826
G1 X39.8851 Y61.5943
G1 X39.8949 Y61.6051
G1 X39.9057 Y61.6149
G1 X39.9174 Y61.6236
G1 X39.9299 Y61.6311
G1 X39.9431 Y61.6374
G1 X39.9568 Y61.6423
G1 X39.971 Y61.6458
G1 X39.9854 Y61.648
G1 X40.0 Y61.6487
G1 X40.0146 Y61.648
G1 X40.029 Y61.6458
G1 X40.0432 Y61.6423
G1 X40.0569 Y61.6374
G1 X40.0701 Y61.6311
G1 X40.0826 Y61.6236
G1 X40.0943 Y61.6149
G1 X40.1051 Y61.6051
G1 X40.1149 Y61.5943
G1 X40.1236 Y61.5826
G1 X40.1311 Y61.5701
G1 X40.1374 Y61.5569
G1 X40.1423 Y61.5432
G1 X40.1458 Y61.529
G1 X40.148 Y61.5146
G1 X40.15 Y61.473
G1 Y31.527
G1 X40.148 Y31.4854
G1 X40.1458 Y31.471
G1 X40.1423 Y31.4568
G1 X40.1374 Y31.4431
G1 X40.1311 Y31.4299
G1 X40.1236 Y31.4174
G1 X40.1149 Y31.4057
G1 X40.1051 Y31.3949
G1 X40.0943 Y31.3851
G1 X40.0826 Y31.3764
G1 F200.0 Z-0.9
G1 F700.0 X40.0701 Y31.3689
G1 X40.0569 Y31.3626
G1 X40.0432 Y31.3577
G1 X40.029 Y31.3542
G1 X40.0146 Y31.352
G1 X40.0 Y31.3513
G1 X39.9854 Y31.352
G1 X39.971 Y31.3542
G1 X39.9568 Y31.3577
G1 X39.9431 Y31.3626
G1 X39.9299 Y31.3689
G1 X39.9174 Y31.3764
G1 X39.9057 Y31.3851
G1 X39.8949 Y31.3949
G1 X39.8851 Y31.4057
G1 X39.8764 Y31.4174
G1 X39.8689 Y31.4299
G1 X39.8626 Y31.4431
G1 X39.8577 Y31.4568
G1 X39.8542 Y31.471
G1 X39.852 Y31.4854
G1 X39.85 Y31.527
G1 Y61.473
G1 X39.852 Y61.5146
G1 X39.8542 Y61.529
G1 X39.8577 Y61.5432
G1 X39.8626 Y61.5569
G1 X39.8689 Y61.5701
G1 X39.8764 Y61.5826
G1 X39.8851 Y61.5943
G1 X39.8949 Y61.6051
G1 X39.9057 Y61.6149
G1 X39.9174 Y61.6236
G1 X39.9299 Y61.6311
G1 X39.9431 Y61.6374
G1 X39.9568 Y61.6423
G1 X39.971 Y61.6458
G1 X39.9854 Y61.648
G1 X40.0 Y61.6487
G1 X40.0146 Y61.648
G1 X40.029 Y61.6458
G1 X40.0432 Y61.6423
G1 X40.0569 Y61.6374
G1 X40.0701 Y61.6311
G1 X40.0826 Y61.6236
G1 X40.0943 Y61.6149
G1 X40.1051 Y61.6051
G1 X40.1149 Y61.5943
G1 X40.1236 Y61.5826
G1 X40.1311 Y61.5701
G1 X40.1374 Y61.5569
G1 X40.1423 Y61.5432
G1 X40.1458 Y61.529
G1 X40.148 Y61.5146
G1 X40.15 Y61.473
G1 Y31.527
G1 X40.148 Y31.4854
G1 X40.1458 Y31.471
G1 X40.1423 Y31.4568
G1 X40.1374 Y31.4431
G1 X40.1311 Y31.4299
G1 X40.1236 Y31.4174
G1 X40.1149 Y31.4057
G1 X40.1051 Y31.3949
G1 X40.0943 Y31.3851
G1 X40.0826 Y31.3764
G1 F200.0 Z-1.2
G1 F700.0 X40.0701 Y31.3689
G1 X40.0569 Y31.3626
G1 X40.0432 Y31.3577
G1 X40.029 Y31.3542
G1 X40.0146 Y31.352
G1 X40.0 Y31.3513
G1 X39.9854 Y31.352
G1 X39.971 Y31.3542
G1 X39.9568 Y31.3577
G1 X39.9431 Y31.3626
G1 X39.9299 Y31.3689
G1 X39.9174 Y31.3764
G1 X39.9057 Y31.3851
G1 X39.8949 Y31.3949
G1 X39.8851 Y31.4057
G1 X39.8764 Y31.4174
G1 X39.8689 Y31.4299
G1 X39.8626 Y31.4431
G1 X39.8577 Y31.4568
G1 X39.8542 Y31.471
G1 X39.852 Y31.4854
G1 X39.85 Y31.527
G1 Y61.473
G1 X39.852 Y61.5146
G1 X39.8542 Y61.529
G1 X39.8577 Y61.5432
G1 X39.8626 Y61.5569
G1 X39.8689 Y61.5701
G1 X39.8764 Y61.5826
G1 X39.8851 Y61.5943
G1 X39.8949 Y61.6051
G1 X39.9057 Y61.6149
G1 X39.9174 Y61.6236
G1 X39.9299 Y61.6311
G1 X39.9431 Y61.6374
G1 X39.9568 Y61.6423
G1 X39.971 Y61.6458
G1 X39.9854 Y61.648
G1 X40.0 Y61.6487
G1 X40.0146 Y61.648
G1 X40.029 Y61.6458
G1 X40.0432 Y61.6423
G1 X40.0569 Y61.6374
G1 X40.0701 Y61.6311
G1 X40.0826 Y61.6236
G1 X40.0943 Y61.6149
G1 X40.1051 Y61.6051
G1 X40.1149 Y61.5943
G1 X40.1236 Y61.5826
G1 X40.1311 Y61.5701
G1 X40.1374 Y61.5569
G1 X40.1423 Y61.5432
G1 X40.1458 Y61.529
G1 X40.148 Y61.5146
G1 X40.15 Y61.473
G1 Y31.527
G1 X40.148 Y31.4854
G1 X40.1458 Y31.471
G1 X40.1423 Y31.4568
G1 X40.1374 Y31.4431
G1 X40.1311 Y31.4299
G1 X40.1236 Y31.4174
G1 X40.1149 Y31.4057
G1 X40.1051 Y31.3949
G1 X40.0943 Y31.3851
G1 X40.0826 Y31.3764
G1 F200.0 Z-1.5
G1 F700.0 X40.0701 Y31.3689
G1 X40.0569 Y31.3626
G1 X40.0432 Y31.3577
G1 X40.029 Y31.3542
G1 X40.0146 Y31.352
G1 X40.0 Y31.3513
G1 X39.9854 Y31.352
G1 X39.971 Y31.3542
G1 X39.9568 Y31.3577
G1 X39.9431 Y31.3626
G1 X39.9299 Y31.3689
G1 X39.9174 Y31.3764
G1 X39.9057 Y31.3851
G1 X39.8949 Y31.3949
G1 X39.8851 Y31.4057
G1 X39.8764 Y31.4174
G1 X39.8689 Y31.4299
G1 X39.8626 Y31.4431
G1 X39.8577 Y31.4568
G1 X39.8542 Y31.471
G1 X39.852 Y31.4854
G1 X39.85 Y31.527
G1 Y61.473
G1 X39.852 Y61.5146
G1 X39.8542 Y61.529
G1 X39.8577 Y61.5432
G1 X39.8626 Y61.5569
G1 X39.8689 Y61.5701
G1 X39.8764 Y61.5826
G1 X39.8851 Y61.5943
G1 X39.8949 Y61.6051
G1 X39.9057 Y61.6149
G1 X39.9174 Y61.6236
G1 X39.9299 Y61.6311
G1 X39.9431 Y61.6374
G1 X39.9568 Y61.6423
G1 X39.971 Y61.6458
G1 X39.9854 Y61.648
G1 X40.0 Y61.6487
G1 X40.0146 Y61.648
G1 X40.029 Y61.6458
G1 X40.0432 Y61.6423
G1 X40.0569 Y61.6374
G1 X40.0701 Y61.6311
G1 X40.0826 Y61.6236
G1 X40.0943 Y61.6149
G1 X40.1051 Y61.6051
G1 X40.1149 Y61.5943
G1 X40.1236 Y61.5826
G1 X40.1311 Y61.5701
G1 X40.1374 Y61.5569
G1 X40.1423 Y61.5432
G1 X40.1458 Y61.529
G1 X40.148 Y61.5146
G1 X40.15 Y61.473
G1 Y31.527
G1 X40.148 Y31.4854
G1 X40.1458 Y31.471
G1 X40.1423 Y31.4568
G1 X40.1374 Y31.4431
G1 X40.1311 Y31.4299
G1 X40.1236 Y31.4174
G1 X40.1149 Y31.4057
G1 X40.1051 Y31.3949
G1 X40.0943 Y31.3851
G1 X40.0826 Y31.3764
G1 F200.0 Z-1.8
G1 F700.0 X40.0701 Y31.3689
G1 X40.0569 Y31.3626
G1 X40.0432 Y31.3577
G1 X40.029 Y31.3542
G1 X40.0146 Y31.352
G1 X40.0 Y31.3513
G1 X39.9854 Y31.352
G1 X39.971 Y31.3542
G1 X39.9568 Y31.3577
G1 X39.9431 Y31.3626
G1 X39.9299 Y31.3689
G1 X39.9174 Y31.3764
G1 X39.9057 Y31.3851
G1 X39.8949 Y31.3949
G1 X39.8851 Y31.4057
G1 X39.8764 Y31.4174
G1 X39.8689 Y31.4299
G1 X39.8626 Y31.4431
G1 X39.8577 Y31.4568
G1 X39.8542 Y31.471
G1 X39.852 Y31.4854
G1 X39.85 Y31.527
G1 Y61.473
G1 X39.852 Y61.5146
G1 X39.8542 Y61.529
G1 X39.8577 Y61.5432
G1 X39.8626 Y61.5569
G1 X39.8689 Y61.5701
G1 X39.8764 Y61.5826
G1 X39.8851 Y61.5943
G1 X39.8949 Y61.6051
G1 X39.9057 Y61.6149
G1 X39.9174 Y61.6236
G1 X39.9299 Y61.6311
G1 X39.9431 Y61.6374
G1 X39.9568 Y61.6423
G1 X39.971 Y61.6458
G1 X39.9854 Y61.648
G1 X40.0 Y61.6487
G1 X40.0146 Y61.648
G1 X40.029 Y61.6458
G1 X40.0432 Y61.6423
G1 X40.0569 Y61.6374
G1 X40.0701 Y61.6311
G1 X40.0826 Y61.6236
G1 X40.0943 Y61.6149
G1 X40.1051 Y61.6051
G1 X40.1149 Y61.5943
G1 X40.1236 Y61.5826
G1 X40.1311 Y61.5701
G1 X40.1374 Y61.5569
G1 X40.1423 Y61.5432
G1 X40.1458 Y61.529
G1 X40.148 Y61.5146
G1 X40.15 Y61.473
G1 Y31.527
G1 X40.148 Y31.4854
G1 X40.1458 Y31.471
G1 X40.1423 Y31.4568
G1 X40.1374 Y31.4431
G1 X40.1311 Y31.4299
G1 X40.1236 Y31.4174
G1 X40.1149 Y31.4057
G1 X40.1051 Y31.3949
G1 X40.0943 Y31.3851
G1 X40.0826 Y31.3764
G1 F200.0 Z-2.1
G1 F700.0 X40.0701 Y31.3689
G1 X40.0569 Y31.3626
G1 X40.0432 Y31.3577
G1 X40.029 Y31.3542
G1 X40.0146 Y31.352
G1 X40.0 Y31.3513
G1 X39.9854 Y31.352
G1 X39.971 Y31.3542
G1 X39.9568 Y31.3577
G1 X39.9431 Y31.3626
G1 X39.9299 Y31.3689
G1 X39.9174 Y31.3764
G1 X39.9057 Y31.3851
G1 X39.8949 Y31.3949
G1 X39.8851 Y31.4057
G1 X39.8764 Y31.4174
G1 X39.8689 Y31.4299
G1 X39.8626 Y31.4431
G1 X39.8577 Y31.4568
G1 X39.8542 Y31.471
G1 X39.852 Y31.4854
G1 X39.85 Y31.527
G1 Y61.473
G1 X39.852 Y61.5146
G1 X39.8542 Y61.529
G1 X39.8577 Y61.5432
G1 X39.8626 Y61.5569
G1 X39.8689 Y61.5701
G1 X39.8764 Y61.5826
G1 X39.8851 Y61.5943
G1 X39.8949 Y61.6051
G1 X39.9057 Y61.6149
G1 X39.9174 Y61.6236
G1 X39.9299 Y61.6311
G1 X39.9431 Y61.6374
G1 X39.9568 Y61.6423
G1 X39.971 Y61.6458
G1 X39.9854 Y61.648
G1 X40.0 Y61.6487
G1 X40.0146 Y61.648
G1 X40.029 Y61.6458
G1 X40.0432 Y61.6423
G1 X40.0569 Y61.6374
G1 X40.0701 Y61.6311
G1 X40.0826 Y61.6236
G1 X40.0943 Y61.6149
G1 X40.1051 Y61.6051
G1 X40.1149 Y61.5943
G1 X40.1236 Y61.5826
G1 X40.1311 Y61.5701
G1 X40.1374 Y61.5569
G1 X40.1423 Y61.5432
G1 X40.1458 Y61.529
G1 X40.148 Y61.5146
G1 X40.15 Y61.473
G1 Y31.527
G1 X40.148 Y31.4854
G1 X40.1458 Y31.471
G1 X40.1423 Y31.4568
G1 X40.1374 Y31.4431
G1 X40.1311 Y31.4299
G1 X40.1236 Y31.4174
G1 X40.1149 Y31.4057
G1 X40.1051 Y31.3949
G1 X40.0943 Y31.3851
G1 X40.0826 Y31.3764
G1 F200.0 Z-2.4
G1 F700.0 X40.0701 Y31.3689
G1 X40.0569 Y31.3626
G1 X40.0432 Y31.3577
G1 X40.029 Y31.3542
G1 X40.0146 Y31.352
G1 X40.0 Y31.3513
G1 X39.9854 Y31.352
G1 X39.971 Y31.3542
G1 X39.9568 Y31.3577
G1 X39.9431 Y31.3626
G1 X39.9299 Y31.3689
G1 X39.9174 Y31.3764
G1 X39.9057 Y31.3851
G1 X39.8949 Y31.3949
G1 X39.8851 Y31.4057
G1 X39.8764 Y31.4174
G1 X39.8689 Y31.4299
G1 X39.8626 Y31.4431
G1 X39.8577 Y31.4568
G1 X39.8542 Y31.471
G1 X39.852 Y31.4854
G1 X39.85 Y31.527
G1 Y61.473
G1 X39.852 Y61.5146
G1 X39.8542 Y61.529
G1 X39.8577 Y61.5432
G1 X39.8626 Y61.5569
G1 X39.8689 Y61.5701
G1 X39.8764 Y61.5826
G1 X39.8851 Y61.5943
G1 X39.8949 Y61.6051
G1 X39.9057 Y61.6149
G1 X39.9174 Y61.6236
G1 X39.9299 Y61.6311
G1 X39.9431 Y61.6374
G1 X39.9568 Y61.6423
G1 X39.971 Y61.6458
G1 X39.9854 Y61.648
G1 X40.0 Y61.6487
G1 X40.0146 Y61.648
G1 X40.029 Y61.6458
G1 X40.0432 Y61.6423
G1 X40.0569 Y61.6374
G1 X40.0701 Y61.6311
G1 X40.0826 Y61.6236
G1 X40.0943 Y61.6149
G1 X40.1051 Y61.6051
G1 X40.1149 Y61.5943
G1 X40.1236 Y61.5826
G1 X40.1311 Y61.5701
G1 X40.1374 Y61.5569
G1 X40.1423 Y61.5432
G1 X40.1458 Y61.529
G1 X40.148 Y61.5146
G1 X40.15 Y61.473
G1 Y31.527
G1 X40.148 Y31.4854
G1 X40.1458 Y31.471
G1 X40.1423 Y31.4568
G1 X40.1374 Y31.4431
G1 X40.1311 Y31.4299
G1 X40.1236 Y31.4174
G1 X40.1149 Y31.4057
G1 X40.1051 Y31.3949
G1 X40.0943 Y31.3851
G1 X40.0826 Y31.3764
G1 F200.0 Z-2.7
G1 F700.0 X40.0701 Y31.3689
G1 X40.0569 Y31.3626
G1 X40.0432 Y31.3577
G1 X40.029 Y31.3542
G1 X40.0146 Y31.352
G1 X40.0 Y31.3513
G1 X39.9854 Y31.352
G1 X39.971 Y31.3542
G1 X39.9568 Y31.3577
G1 X39.9431 Y31.3626
G1 X39.9299 Y31.3689
G1 X39.9174 Y31.3764
G1 X39.9057 Y31.3851
G1 X39.8949 Y31.3949
G1 X39.8851 Y31.4057
G1 X39.8764 Y31.4174
G1 X39.8689 Y31.4299
G1 X39.8626 Y31.4431
G1 X39.8577 Y31.4568
G1 X39.8542 Y31.471
G1 X39.852 Y31.4854
G1 X39.85 Y31.527
G1 Y61.473
G1 X39.852 Y61.5146
G1 X39.8542 Y61.529
G1 X39.8577 Y61.5432
G1 X39.8626 Y61.5569
G1 X39.8689 Y61.5701
G1 X39.8764 Y61.5826
G1 X39.8851 Y61.5943
G1 X39.8949 Y61.6051
G1 X39.9057 Y61.6149
G1 X39.9174 Y61.6236
G1 X39.9299 Y61.6311
G1 X39.9431 Y61.6374
G1 X39.9568 Y61.6423
G1 X39.971 Y61.6458
G1 X39.9854 Y61.648
G1 X40.0 Y61.6487
G1 X40.0146 Y61.648
G1 X40.029 Y61.6458
G1 X40.0432 Y61.6423
G1 X40.0569 Y61.6374
G1 X40.0701 Y61.6311
G1 X40.0826 Y61.6236
G1 X40.0943 Y61.6149
G1 X40.1051 Y61.6051
G1 X40.1149 Y61.5943
G1 X40.1236 Y61.5826
G1 X40.1311 Y61.5701
G1 X40.1374 Y61.5569
G1 X40.1423 Y61.5432
G1 X40.1458 Y61.529
G1 X40.148 Y61.5146
G1 X40.15 Y61.473
G1 Y31.527
G1 X40.148 Y31.4854
G1 X40.1458 Y31.471
G1 X40.1423 Y31.4568
G1 X40.1374 Y31.4431
G1 X40.1311 Y31.4299
G1 X40.1236 Y31.4174
G1 X40.1149 Y31.4057
G1 X40.1051 Y31.3949
G1 X40.0943 Y31.3851
G1 X40.0826 Y31.3764
G1 F200.0 Z-3.0
G1 F700.0 X40.0701 Y31.3689
G1 X40.0569 Y31.3626
G1 X40.0432 Y31.3577
G1 X40.029 Y31.3542
G1 X40.0146 Y31.352
G1 X40.0 Y31.3513
G1 X39.9854 Y31.352
G1 X39.971 Y31.3542
G1 X39.9568 Y31.3577
G1 X39.9431 Y31.3626
G1 X39.9299 Y31.3689
G1 X39.9174 Y31.3764
G1 X39.9057 Y31.3851
G1 X39.8949 Y31.3949
G1 X39.8851 Y31.4057
G1 X39.8764 Y31.4174
G1 X39.8689 Y31.4299
G1 X39.8626 Y31.4431
G1 X39.8577 Y31.4568
G1 X39.8542 Y31.471
G1 X39.852 Y31.4854
G1 X39.85 Y31.527
G1 Y61.473
G1 X39.852 Y61.5146
G1 X39.8542 Y61.529
G1 X39.8577 Y61.5432
G1 X39.8626 Y61.5569
G1 X39.8689 Y61.5701
G1 X39.8764 Y61.5826
G1 X39.8851 Y61.5943
G1 X39.8949 Y61.6051
G1 X39.9057 Y61.6149
G1 X39.9174 Y61.6236
G1 X39.9299 Y61.6311
G1 X39.9431 Y61.6374
G1 X39.9568 Y61.6423
G1 X39.971 Y61.6458
G1 X39.9854 Y61.648
G1 X40.0 Y61.6487
G1 X40.0146 Y61.648
G1 X40.029 Y61.6458
G1 X40.0432 Y61.6423
G1 X40.0569 Y61.6374
G1 X40.0701 Y61.6311
G1 X40.0826 Y61.6236
G1 X40.0943 Y61.6149
G1 X40.1051 Y61.6051
G1 X40.1149 Y61.5943
G1 X40.1236 Y61.5826
G1 X40.1311 Y61.5701
G1 X40.1374 Y61.5569
G1 X40.1423 Y61.5432
G1 X40.1458 Y61.529
G1 X40.148 Y61.5146
G1 X40.15 Y61.473
G1 Y31.527
G1 X40.148 Y31.4854
G1 X40.1458 Y31.471
G1 X40.1423 Y31.4568
G1 X40.1374 Y31.4431
G1 X40.1311 Y31.4299
G1 X40.1236 Y31.4174
G1 X40.1149 Y31.4057
G1 X40.1051 Y31.3949
G1 X40.0943 Y31.3851
G1 X40.0826 Y31.3764
G1 F200.0 Z-3.3
G1 F700.0 X40.0701 Y31.3689
G1 X40.0569 Y31.3626
G1 X40.0432 Y31.3577
G1 X40.029 Y31.3542
G1 X40.0146 Y31.352
G1 X40.0 Y31.3513
G1 X39.9854 Y31.352
G1 X39.971 Y31.3542
G1 X39.9568 Y31.3577
G1 X39.9431 Y31.3626
G1 X39.9299 Y31.3689
G1 X39.9174 Y31.3764
G1 X39.9057 Y31.3851
G1 X39.8949 Y31.3949
G1 X39.8851 Y31.4057
G1 X39.8764 Y31.4174
G1 X39.8689 Y31.4299
G1 X39.8626 Y31.4431
G1 X39.8577 Y31.4568
G1 X39.8542 Y31.471
G1 X39.852 Y31.4854
G1 X39.85 Y31.527
G1 Y61.473
G1 X39.852 Y61.5146
G1 X39.8542 Y61.529
G1 X39.8577 Y61.5432
G1 X39.8626 Y61.5569
G1 X39.8689 Y61.5701
G1 X39.8764 Y61.5826
G1 X39.8851 Y61.5943
G1 X39.8949 Y61.6051
G1 X39.9057 Y61.6149
G1 X39.9174 Y61.6236
G1 X39.9299 Y61.6311
G1 X39.9431 Y61.6374
G1 X39.9568 Y61.6423
G1 X39.971 Y61.6458
G1 X39.9854 Y61.648
G1 X40.0 Y61.6487
G1 X40.0146 Y61.648
G1 X40.029 Y61.6458
G1 X40.0432 Y61.6423
G1 X40.0569 Y61.6374
G1 X40.0701 Y61.6311
G1 X40.0826 Y61.6236
G1 X40.0943 Y61.6149
G1 X40.1051 Y61.6051
G1 X40.1149 Y61.5943
G1 X40.1236 Y61.5826
G1 X40.1311 Y61.5701
G1 X40.1374 Y61.5569
G1 X40.1423 Y61.5432
G1 X40.1458 Y61.529
G1 X40.148 Y61.5146
G1 X40.15 Y61.473
G1 Y31.527
G1 X40.148 Y31.4854
G1 X40.1458 Y31.471
G1 X40.1423 Y31.4568
G1 X40.1374 Y31.4431
G1 X40.1311 Y31.4299
G1 X40.1236 Y31.4174
G1 X40.1149 Y31.4057
G1 X40.1051 Y31.3949
G1 X40.0943 Y31.3851
G1 X40.0826 Y31.3764
G1 F200.0 Z-3.6
G1 F700.0 X40.0701 Y31.3689
G1 X40.0569 Y31.3626
G1 X40.0432 Y31.3577
G1 X40.029 Y31.3542
G1 X40.0146 Y31.352
G1 X40.0 Y31.3513
G1 X39.9854 Y31.352
G1 X39.971 Y31.3542
G1 X39.9568 Y31.3577
G1 X39.9431 Y31.3626
G1 X39.9299 Y31.3689
G1 X39.9174 Y31.3764
G1 X39.9057 Y31.3851
G1 X39.8949 Y31.3949
G1 X39.8851 Y31.4057
G1 X39.8764 Y31.4174
G1 X39.8689 Y31.4299
G1 X39.8626 Y31.4431
G1 X39.8577 Y31.4568
G1 X39.8542 Y31.471
G1 X39.852 Y31.4854
G1 X39.85 Y31.527
G1 Y61.473
G1 X39.852 Y61.5146
G1 X39.8542 Y61.529
G1 X39.8577 Y61.5432
G1 X39.8626 Y61.5569
G1 X39.8689 Y61.5701
G1 X39.8764 Y61.5826
G1 X39.8851 Y61.5943
G1 X39.8949 Y61.6051
G1 X39.9057 Y61.6149
G1 X39.9174 Y61.6236
G1 X39.9299 Y61.6311
G1 X39.9431 Y61.6374
G1 X39.9568 Y61.6423
G1 X39.971 Y61.6458
G1 X39.9854 Y61.648
G1 X40.0 Y61.6487
G1 X40.0146 Y61.648
G1 X40.029 Y61.6458
G1 X40.0432 Y61.6423
G1 X40.0569 Y61.6374
G1 X40.0701 Y61.6311
G1 X40.0826 Y61.6236
G1 X40.0943 Y61.6149
G1 X40.1051 Y61.6051
G1 X40.1149 Y61.5943
G1 X40.1236 Y61.5826
G1 X40.1311 Y61.5701
G1 X40.1374 Y61.5569
G1 X40.1423 Y61.5432
G1 X40.1458 Y61.529
G1 X40.148 Y61.5146
G1 X40.15 Y61.473
G1 Y31.527
G1 X40.148 Y31.4854
G1 X40.1458 Y31.471
G1 X40.1423 Y31.4568
G1 X40.1374 Y31.4431
G1 X40.1311 Y31.4299
G1 X40.1236 Y31.4174
G1 X40.1149 Y31.4057
G1 X40.1051 Y31.3949
G1 X40.0943 Y31.3851
G1 X40.0826 Y31.3764
G1 F200.0 Z-3.9
G1 F700.0 X40.0701 Y31.3689
G1 X40.0569 Y31.3626
G1 X40.0432 Y31.3577
G1 X40.029 Y31.3542
G1 X40.0146 Y31.352
G1 X40.0 Y31.3513
G1 X39.9854 Y31.352
G1 X39.971 Y31.3542
G1 X39.9568 Y31.3577
G1 X39.9431 Y31.3626
G1 X39.9299 Y31.3689
G1 X39.9174 Y31.3764
G1 X39.9057 Y31.3851
G1 X39.8949 Y31.3949
G1 X39.8851 Y31.4057
G1 X39.8764 Y31.4174
G1 X39.8689 Y31.4299
G1 X39.8626 Y31.4431
G1 X39.8577 Y31.4568
G1 X39.8542 Y31.471
G1 X39.852 Y31.4854
G1 X39.85 Y31.527
G1 Y61.473
G1 X39.852 Y61.5146
G1 X39.8542 Y61.529
G1 X39.8577 Y61.5432
G1 X39.8626 Y61.5569
G1 X39.8689 Y61.5701
G1 X39.8764 Y61.5826
G1 X39.8851 Y61.5943
G1 X39.8949 Y61.6051
G1 X39.9057 Y61.6149
G1 X39.9174 Y61.6236
G1 X39.9299 Y61.6311
G1 X39.9431 Y61.6374
G1 X39.9568 Y61.6423
G1 X39.971 Y61.6458
G1 X39.9854 Y61.648
G1 X40.0 Y61.6487
G1 X40.0146 Y61.648
G1 X40.029 Y61.6458
G1 X40.0432 Y61.6423
G1 X40.0569 Y61.6374
G1 X40.0701 Y61.6311
G1 X40.0826 Y61.6236
G1 X40.0943 Y61.6149
G1 X40.1051 Y61.6051
G1 X40.1149 Y61.5943
G1 X40.1236 Y61.5826
G1 X40.1311 Y61.5701
G1 X40.1374 Y61.5569
G1 X40.1423 Y61.5432
G1 X40.1458 Y61.529
G1 X40.148 Y61.5146
G1 X40.15 Y61.473
G1 Y31.527
G1 X40.148 Y31.4854
G1 X40.1458 Y31.471
G1 X40.1423 Y31.4568
G1 X40.1374 Y31.4431
G1 X40.1311 Y31.4299
G1 X40.1236 Y31.4174
G1 X40.1149 Y31.4057
G1 X40.1051 Y31.3949
G1 X40.0943 Y31.3851
G1 X40.0826 Y31.3764
G1 F200.0 Z-4.1
G1 F700.0 X40.0701 Y31.3689
G1 X40.0569 Y31.3626
G1 X40.0432 Y31.3577
G1 X40.029 Y31.3542
G1 X40.0146 Y31.352
G1 X40.0 Y31.3513
G1 X39.9854 Y31.352
G1 X39.971 Y31.3542
G1 X39.9568 Y31.3577
G1 X39.9431 Y31.3626
G1 X39.9299 Y31.3689
G1 X39.9174 Y31.3764
G1 X39.9057 Y31.3851
G1 X39.8949 Y31.3949
G1 X39.8851 Y31.4057
G1 X39.8764 Y31.4174
G1 X39.8689 Y31.4299
G1 X39.8626 Y31.4431
G1 X39.8577 Y31.4568
G1 X39.8542 Y31.471
G1 X39.852 Y31.4854
G1 X39.85 Y31.527
G1 Y61.473
G1 X39.852 Y61.5146
G1 X39.8542 Y61.529
G1 X39.8577 Y61.5432
G1 X39.8626 Y61.5569
G1 X39.8689 Y61.5701
G1 X39.8764 Y61.5826
G1 X39.8851 Y61.5943
G1 X39.8949 Y61.6051
G1 X39.9057 Y61.6149
G1 X39.9174 Y61.6236
G1 X39.9299 Y61.6311
G1 X39.9431 Y61.6374
G1 X39.9568 Y61.6423
G1 X39.971 Y61.6458
G1 X39.9854 Y61.648
G1 X40.0 Y61.6487
G1 X40.0146 Y61.648
G1 X40.029 Y61.6458
G1 X40.0432 Y61.6423
G1 X40.0569 Y61.6374
G1 X40.0701 Y61.6311
G1 X40.0826 Y61.6236
G1 X40.0943 Y61.6149
G1 X40.1051 Y61.6051
G1 X40.1149 Y61.5943
G1 X40.1236 Y61.5826
G1 X40.1311 Y61.5701
G1 X40.1374 Y61.5569
G1 X40.1423 Y61.5432
G1 X40.1458 Y61.529
G1 X40.148 Y61.5146
G1 X40.15 Y61.473
G1 Y31.527
G1 X40.148 Y31.4854
G1 X40.1458 Y31.471
G1 X40.1423 Y31.4568
G1 X40.1374 Y31.4431
G1 X40.1311 Y31.4299
G1 X40.1236 Y31.4174
G1 X40.1149 Y31.4057
G1 X40.1051 Y31.3949
G1 X40.0943 Y31.3851
G1 X40.0826 Y31.3764
G1 F200.0 Z-4.2
G1 F700.0 X40.0701 Y31.3689
G1 X40.0569 Y31.3626
G1 X40.0432 Y31.3577
G1 X40.029 Y31.3542
G1 X40.0146 Y31.352
G1 X40.0 Y31.3513
G1 X39.9854 Y31.352
G1 X39.971 Y31.3542
G1 X39.9568 Y31.3577
G1 X39.9431 Y31.3626
G1 X39.9299 Y31.3689
G1 X39.9174 Y31.3764
G1 X39.9057 Y31.3851
G1 X39.8949 Y31.3949
G1 X39.8851 Y31.4057
G1 X39.8764 Y31.4174
G1 X39.8689 Y31.4299
G1 X39.8626 Y31.4431
G1 X39.8577 Y31.4568
G1 X39.8542 Y31.471
G1 X39.852 Y31.4854
G1 X39.85 Y31.527
G1 Y61.473
G1 X39.852 Y61.5146
G1 X39.8542 Y61.529
G1 X39.8577 Y61.5432
G1 X39.8626 Y61.5569
G1 X39.8689 Y61.5701
G1 X39.8764 Y61.5826
G1 X39.8851 Y61.5943
G1 X39.8949 Y61.6051
G1 X39.9057 Y61.6149
G1 X39.9174 Y61.6236
G1 X39.9299 Y61.6311
G1 X39.9431 Y61.6374
G1 X39.9568 Y61.6423
G1 X39.971 Y61.6458
G1 X39.9854 Y61.648
G1 X40.0 Y61.6487
G1 X40.0146 Y61.648
G1 X40.029 Y61.6458
G1 X40.0432 Y61.6423
G1 X40.0569 Y61.6374
G1 X40.0701 Y61.6311
G1 X40.0826 Y61.6236
G1 X40.0943 Y61.6149
G1 X40.1051 Y61.6051
G1 X40.1149 Y61.5943
G1 X40.1236 Y61.5826
G1 X40.1311 Y61.5701
G1 X40.1374 Y61.5569
G1 X40.1423 Y61.5432
G1 X40.1458 Y61.529
G1 X40.148 Y61.5146
G1 X40.15 Y61.473
G1 Y31.527
G1 X40.148 Y31.4854
G1 X40.1458 Y31.471
G1 X40.1423 Y31.4568
G1 X40.1374 Y31.4431
G1 X40.1311 Y31.4299
G1 X40.1236 Y31.4174
G1 X40.1149 Y31.4057
G1 X40.1051 Y31.3949
G1 X40.0943 Y31.3851
G1 X40.0826 Y31.3764
G0 Z3.0
G0 X55.85 Y31.527
G0 Z1.0
G1 F200.0 Z-0.3
G1 F700.0 Y61.473
G1 X55.852 Y61.5146
G1 X55.8542 Y61.529
G1 X55.8577 Y61.5432
G1 X55.8626 Y61.5569
G1 X55.8689 Y61.5701
G1 X55.8764 Y61.5826
G1 X55.8851 Y61.5943
G1 X55.8949 Y61.6051
G1 X55.9057 Y61.6149
G1 X55.9174 Y61.6236
G1 X55.9299 Y61.6311
G1 X55.9431 Y61.6374
G1 X55.9568 Y61.6423
G1 X55.971 Y61.6458
G1 X55.9854 Y61.648
G1 X56.0 Y61.6487
G1 X56.0146 Y61.648
G1 X56.029 Y61.6458
G1 X56.0432 Y61.6423
G1 X56.0569 Y61.6374
G1 X56.0701 Y61.6311
G1 X56.0826 Y61.6236
G1 X56.0943 Y61.6149
G1 X56.1051 Y61.6051
G1 X56.1149 Y61.5943
G1 X56.1236 Y61.5826
G1 X56.1311 Y61.5701
G1 X56.1374 Y61.5569
G1 X56.1423 Y61.5432
G1 X56.1458 Y61.529
G1 X56.148 Y61.5146
G1 X56.15 Y61.473
G1 Y31.527
G1 X56.148 Y31.4854
G1 X56.1458 Y31.471
G1 X56.1423 Y31.4568
G1 X56.1374 Y31.4431
G1 X56.1311 Y31.4299
G1 X56.1236 Y31.4174
G1 X56.1149 Y31.4057
G1 X56.1051 Y31.3949
G1 X56.0943 Y31.3851
G1 X56.0826 Y31.3764
G1 X56.0701 Y31.3689
G1 X56.0569 Y31.3626
G1 X56.0432 Y31.3577
G1 X56.029 Y31.3542
G1 X56.0146 Y31.352
G1 X56.0 Y31.3513
G1 X55.9854 Y31.352
G1 X55.971 Y31.3542
G1 X55.9568 Y31.3577
G1 X55.9431 Y31.3626
G1 X55.9299 Y31.3689
G1 X55.9174 Y31.3764
G1 X55.9057 Y31.3851
G1 X55.8949 Y31.3949
G1 X55.8851 Y31.4057
G1 X55.8764 Y31.4174
G1 X55.8689 Y31.4299
G1 X55.8626 Y31.4431
G1 X55.8577 Y31.4568
G1 X55.8542 Y31.471
G1 X55.852 Y31.4854
G1 X55.85 Y31.527
G1 F200.0 Z-0.6
G1 F700.0 Y61.473
G1 X55.852 Y61.5146
G1 X55.8542 Y61.529
G1 X55.8577 Y61.5432
G1 X55.8626 Y61.5569
G1 X55.8689 Y61.5701
G1 X55.8764 Y61.5826
G1 X55.8851 Y61.5943
G1 X55.8949 Y61.6051
G1 X55.9057 Y61.6149
G1 X55.9174 Y61.6236
G1 X55.9299 Y61.6311
G1 X55.9431 Y61.6374
G1 X55.9568 Y61.6423
G1 X55.971 Y61.6458
G1 X55.9854 Y61.648
G1 X56.0 Y61.6487
G1 X56.0146 Y61.648
G1 X56.029 Y61.6458
G1 X56.0432 Y61.6423
G1 X56.0569 Y61.6374
G1 X56.0701 Y61.6311
G1 X56.0826 Y61.6236
G1 X56.0943 Y61.6149
G1 X56.1051 Y61.6051
G1 X56.1149 Y61.5943
G1 X56.1236 Y61.5826
G1 X56.1311 Y61.5701
G1 X56.1374 Y61.5569
G1 X56.1423 Y61.5432
G1 X56.1458 Y61.529
G1 X56.148 Y61.5146
G1 X56.15 Y61.473
G1 Y31.527
G1 X56.148 Y31.4854
G1 X56.1458 Y31.471
G1 X56.1423 Y31.4568
G1 X56.1374 Y31.4431
G1 X56.1311 Y31.4299
G1 X56.1236 Y31.4174
G1 X56.1149 Y31.4057
G1 X56.1051 Y31.3949
G1 X56.0943 Y31.3851
G1 X56.0826 Y31.3764
G1 X56.0701 Y31.3689
G1 X56.0569 Y31.3626
G1 X56.0432 Y31.3577
G1 X56.029 Y31.3542
G1 X56.0146 Y31.352
G1 X56.0 Y31.3513
G1 X55.9854 Y31.352
G1 X55.971 Y31.3542
G1 X55.9568 Y31.3577
G1 X55.9431 Y31.3626
G1 X55.9299 Y31.3689
G1 X55.9174 Y31.3764
G1 X55.9057 Y31.3851
G1 X55.8949 Y31.3949
G1 X55.8851 Y31.4057
G1 X55.8764 Y31.4174
G1 X55.8689 Y31.4299
G1 X55.8626 Y31.4431
G1 X55.8577 Y31.4568
G1 X55.8542 Y31.471
G1 X55.852 Y31.4854
G1 X55.85 Y31.527
G1 F200.0 Z-0.9
G1 F700.0 Y61.473
G1 X55.852 Y61.5146
G1 X55.8542 Y61.529
G1 X55.8577 Y61.5432
G1 X55.8626 Y61.5569
G1 X55.8689 Y61.5701
G1 X55.8764 Y61.5826
G1 X55.8851 Y61.5943
G1 X55.8949 Y61.6051
G1 X55.9057 Y61.6149
G1 X55.9174 Y61.6236
G1 X55.9299 Y61.6311
G1 X55.9431 Y61.6374
G1 X55.9568 Y61.6423
G1 X55.971 Y61.6458
G1 X55.9854 Y61.648
G1 X56.0 Y61.6487
G1 X56.0146 Y61.648
G1 X56.029 Y61.6458
G1 X56.0432 Y61.6423
G1 X56.0569 Y61.6374
G1 X56.0701 Y61.6311
G1 X56.0826 Y61.6236
G1 X56.0943 Y61.6149
G1 X56.1051 Y61.6051
G1 X56.1149 Y61.5943
G1 X56.1236 Y61.5826
G1 X56.1311 Y61.5701
G1 X56.1374 Y61.5569
G1 X56.1423 Y61.5432
G1 X56.1458 Y61.529
G1 X56.148 Y61.5146
G1 X56.15 Y61.473
G1 Y31.527
G1 X56.148 Y31.4854
G1 X56.1458 Y31.471
G1 X56.1423 Y31.4568
G1 X56.1374 Y31.4431
G1 X56.1311 Y31.4299
G1 X56.1236 Y31.4174
G1 X56.1149 Y31.4057
G1 X56.1051 Y31.3949
G1 X56.0943 Y31.3851
G1 X56.0826 Y31.3764
G1 X56.0701 Y31.3689
G1 X56.0569 Y31.3626
G1 X56.0432 Y31.3577
G1 X56.029 Y31.3542
G1 X56.0146 Y31.352
G1 X56.0 Y31.3513
G1 X55.9854 Y31.352
G1 X55.971 Y31.3542
G1 X55.9568 Y31.3577
G1 X55.9431 Y31.3626
G1 X55.9299 Y31.3689
G1 X55.9174 Y31.3764
G1 X55.9057 Y31.3851
G1 X55.8949 Y31.3949
G1 X55.8851 Y31.4057
G1 X55.8764 Y31.4174
G1 X55.8689 Y31.4299
G1 X55.8626 Y31.4431
G1 X55.8577 Y31.4568
G1 X55.8542 Y31.471
G1 X55.852 Y31.4854
G1 X55.85 Y31.527
G1 F200.0 Z-1.2
G1 F700.0 Y61.473
G1 X55.852 Y61.5146
G1 X55.8542 Y61.529
G1 X55.8577 Y61.5432
G1 X55.8626 Y61.5569
G1 X55.8689 Y61.5701
G1 X55.8764 Y61.5826
G1 X55.8851 Y61.5943
G1 X55.8949 Y61.6051
G1 X55.9057 Y61.6149
G1 X55.9174 Y61.6236
G1 X55.9299 Y61.6311
G1 X55.9431 Y61.6374
G1 X55.9568 Y61.6423
G1 X55.971 Y61.6458
G1 X55.9854 Y61.648
G1 X56.0 Y61.6487
G1 X56.0146 Y61.648
G1 X56.029 Y61.6458
G1 X56.0432 Y61.6423
G1 X56.0569 Y61.6374
G1 X56.0701 Y61.6311
G1 X56.0826 Y61.6236
G1 X56.0943 Y61.6149
G1 X56.1051 Y61.6051
G1 X56.1149 Y61.5943
G1 X56.1236 Y61.5826
G1 X56.1311 Y61.5701
G1 X56.1374 Y61.5569
G1 X56.1423 Y61.5432
G1 X56.1458 Y61.529
G1 X56.148 Y61.5146
G1 X56.15 Y61.473
G1 Y31.527
G1 X56.148 Y31.4854
G1 X56.1458 Y31.471
G1 X56.1423 Y31.4568
G1 X56.1374 Y31.4431
G1 X56.1311 Y31.4299
G1 X56.1236 Y31.4174
G1 X56.1149 Y31.4057
G1 X56.1051 Y31.3949
G1 X56.0943 Y31.3851
G1 X56.0826 Y31.3764
G1 X56.0701 Y31.3689
G1 X56.0569 Y31.3626
G1 X56.0432 Y31.3577
G1 X56.029 Y31.3542
G1 X56.0146 Y31.352
G1 X56.0 Y31.3513
G1 X55.9854 Y31.352
G1 X55.971 Y31.3542
G1 X55.9568 Y31.3577
G1 X55.9431 Y31.3626
G1 X55.9299 Y31.3689
G1 X55.9174 Y31.3764
G1 X55.9057 Y31.3851
G1 X55.8949 Y31.3949
G1 X55.8851 Y31.4057
G1 X55.8764 Y31.4174
G1 X55.8689 Y31.4299
G1 X55.8626 Y31.4431
G1 X55.8577 Y31.4568
G1 X55.8542 Y31.471
G1 X55.852 Y31.4854
G1 X55.85 Y31.527
G1 F200.0 Z-1.5
G1 F700.0 Y61.473
G1 X55.852 Y61.5146
G1 X55.8542 Y61.529
G1 X55.8577 Y61.5432
G1 X55.8626 Y61.5569
G1 X55.8689 Y61.5701
G1 X55.8764 Y61.5826
G1 X55.8851 Y61.5943
G1 X55.8949 Y61.6051
G1 X55.9057 Y61.6149
G1 X55.9174 Y61.6236
G1 X55.9299 Y61.6311
G1 X55.9431 Y61.6374
G1 X55.9568 Y61.6423
G1 X55.971 Y61.6458
G1 X55.9854 Y61.648
G1 X56.0 Y61.6487
G1 X56.0146 Y61.648
G1 X56.029 Y61.6458
G1 X56.0432 Y61.6423
G1 X56.0569 Y61.6374
G1 X56.0701 Y61.6311
G1 X56.0826 Y61.6236
G1 X56.0943 Y61.6149
G1 X56.1051 Y61.6051
G1 X56.1149 Y61.5943
G1 X56.1236 Y61.5826
G1 X56.1311 Y61.5701
G1 X56.1374 Y61.5569
G1 X56.1423 Y61.5432
G1 X56.1458 Y61.529
G1 X56.148 Y61.5146
G1 X56.15 Y61.473
G1 Y31.527
G1 X56.148 Y31.4854
G1 X56.1458 Y31.471
G1 X56.1423 Y31.4568
G1 X56.1374 Y31.4431
G1 X56.1311 Y31.4299
G1 X56.1236 Y31.4174
G1 X56.1149 Y31.4057
G1 X56.1051 Y31.3949
G1 X56.0943 Y31.3851
G1 X56.0826 Y31.3764
G1 X56.0701 Y31.3689
G1 X56.0569 Y31.3626
G1 X56.0432 Y31.3577
G1 X56.029 Y31.3542
G1 X56.0146 Y31.352
G1 X56.0 Y31.3513
G1 X55.9854 Y31.352
G1 X55.971 Y31.3542
G1 X55.9568 Y31.3577
G1 X55.9431 Y31.3626
G1 X55.9299 Y31.3689
G1 X55.9174 Y31.3764
G1 X55.9057 Y31.3851
G1 X55.8949 Y31.3949
G1 X55.8851 Y31.4057
G1 X55.8764 Y31.4174
G1 X55.8689 Y31.4299
G1 X55.8626 Y31.4431
G1 X55.8577 Y31.4568
G1 X55.8542 Y31.471
G1 X55.852 Y31.4854
G1 X55.85 Y31.527
G1 F200.0 Z-1.8
G1 F700.0 Y61.473
G1 X55.852 Y61.5146
G1 X55.8542 Y61.529
G1 X55.8577 Y61.5432
G1 X55.8626 Y61.5569
G1 X55.8689 Y61.5701
G1 X55.8764 Y61.5826
G1 X55.8851 Y61.5943
G1 X55.8949 Y61.6051
G1 X55.9057 Y61.6149
G1 X55.9174 Y61.6236
G1 X55.9299 Y61.6311
G1 X55.9431 Y61.6374
G1 X55.9568 Y61.6423
G1 X55.971 Y61.6458
G1 X55.9854 Y61.648
G1 X56.0 Y61.6487
G1 X56.0146 Y61.648
G1 X56.029 Y61.6458
G1 X56.0432 Y61.6423
G1 X56.0569 Y61.6374
G1 X56.0701 Y61.6311
G1 X56.0826 Y61.6236
G1 X56.0943 Y61.6149
G1 X56.1051 Y61.6051
G1 X56.1149 Y61.5943
G1 X56.1236 Y61.5826
G1 X56.1311 Y61.5701
G1 X56.1374 Y61.5569
G1 X56.1423 Y61.5432
G1 X56.1458 Y61.529
G1 X56.148 Y61.5146
G1 X56.15 Y61.473
G1 Y31.527
G1 X56.148 Y31.4854
G1 X56.1458 Y31.471
G1 X56.1423 Y31.4568
G1 X56.1374 Y31.4431
G1 X56.1311 Y31.4299
G1 X56.1236 Y31.4174
G1 X56.1149 Y31.4057
G1 X56.1051 Y31.3949
G1 X56.0943 Y31.3851
G1 X56.0826 Y31.3764
G1 X56.0701 Y31.3689
G1 X56.0569 Y31.3626
G1 X56.0432 Y31.3577
G1 X56.029 Y31.3542
G1 X56.0146 Y31.352
G1 X56.0 Y31.3513
G1 X55.9854 Y31.352
G1 X55.971 Y31.3542
G1 X55.9568 Y31.3577
G1 X55.9431 Y31.3626
G1 X55.9299 Y31.3689
G1 X55.9174 Y31.3764
G1 X55.9057 Y31.3851
G1 X55.8949 Y31.3949
G1 X55.8851 Y31.4057
G1 X55.8764 Y31.4174
G1 X55.8689 Y31.4299
G1 X55.8626 Y31.4431
G1 X55.8577 Y31.4568
G1 X55.8542 Y31.471
G1 X55.852 Y31.4854
G1 X55.85 Y31.527
G1 F200.0 Z-2.1
G1 F700.0 Y61.473
G1 X55.852 Y61.5146
G1 X55.8542 Y61.529
G1 X55.8577 Y61.5432
G1 X55.8626 Y61.5569
G1 X55.8689 Y61.5701
G1 X55.8764 Y61.5826
G1 X55.8851 Y61.5943
G1 X55.8949 Y61.6051
G1 X55.9057 Y61.6149
G1 X55.9174 Y61.6236
G1 X55.9299 Y61.6311
G1 X55.9431 Y61.6374
G1 X55.9568 Y61.6423
G1 X55.971 Y61.6458
G1 X55.9854 Y61.648
G1 X56.0 Y61.6487
G1 X56.0146 Y61.648
G1 X56.029 Y61.6458
G1 X56.0432 Y61.6423
G1 X56.0569 Y61.6374
G1 X56.0701 Y61.6311
G1 X56.0826 Y61.6236
G1 X56.0943 Y61.6149
G1 X56.1051 Y61.6051
G1 X56.1149 Y61.5943
G1 X56.1236 Y61.5826
G1 X56.1311 Y61.5701
G1 X56.1374 Y61.5569
G1 X56.1423 Y61.5432
G1 X56.1458 Y61.529
G1 X56.148 Y61.5146
G1 X56.15 Y61.473
G1 Y31.527
G1 X56.148 Y31.4854
G1 X56.1458 Y31.471
G1 X56.1423 Y31.4568
G1 X56.1374 Y31.4431
G1 X56.1311 Y31.4299
G1 X56.1236 Y31.4174
G1 X56.1149 Y31.4057
G1 X56.1051 Y31.3949
G1 X56.0943 Y31.3851
G1 X56.0826 Y31.3764
G1 X56.0701 Y31.3689
G1 X56.0569 Y31.3626
G1 X56.0432 Y31.3577
G1 X56.029 Y31.3542
G1 X56.0146 Y31.352
G1 X56.0 Y31.3513
G1 X55.9854 Y31.352
G1 X55.971 Y31.3542
G1 X55.9568 Y31.3577
G1 X55.9431 Y31.3626
G1 X55.9299 Y31.3689
G1 X55.9174 Y31.3764
G1 X55.9057 Y31.3851
G1 X55.8949 Y31.3949
G1 X55.8851 Y31.4057
G1 X55.8764 Y31.4174
G1 X55.8689 Y31.4299
G1 X55.8626 Y31.4431
G1 X55.8577 Y31.4568
G1 X55.8542 Y31.471
G1 X55.852 Y31.4854
G1 X55.85 Y31.527
G1 F200.0 Z-2.4
G1 F700.0 Y61.473
G1 X55.852 Y61.5146
G1 X55.8542 Y61.529
G1 X55.8577 Y61.5432
G1 X55.8626 Y61.5569
G1 X55.8689 Y61.5701
G1 X55.8764 Y61.5826
G1 X55.8851 Y61.5943
G1 X55.8949 Y61.6051
G1 X55.9057 Y61.6149
G1 X55.9174 Y61.6236
G1 X55.9299 Y61.6311
G1 X55.9431 Y61.6374
G1 X55.9568 Y61.6423
G1 X55.971 Y61.6458
G1 X55.9854 Y61.648
G1 X56.0 Y61.6487
G1 X56.0146 Y61.648
G1 X56.029 Y61.6458
G1 X56.0432 Y61.6423
G1 X56.0569 Y61.6374
G1 X56.0701 Y61.6311
G1 X56.0826 Y61.6236
G1 X56.0943 Y61.6149
G1 X56.1051 Y61.6051
G1 X56.1149 Y61.5943
G1 X56.1236 Y61.5826
G1 X56.1311 Y61.5701
G1 X56.1374 Y61.5569
G1 X56.1423 Y61.5432
G1 X56.1458 Y61.529
G1 X56.148 Y61.5146
G1 X56.15 Y61.473
G1 Y31.527
G1 X56.148 Y31.4854
G1 X56.1458 Y31.471
G1 X56.1423 Y31.4568
G1 X56.1374 Y31.4431
G1 X56.1311 Y31.4299
G1 X56.1236 Y31.4174
G1 X56.1149 Y31.4057
G1 X56.1051 Y31.3949
G1 X56.0943 Y31.3851
G1 X56.0826 Y31.3764
G1 X56.0701 Y31.3689
G1 X56.0569 Y31.3626
G1 X56.0432 Y31.3577
G1 X56.029 Y31.3542
G1 X56.0146 Y31.352
G1 X56.0 Y31.3513
G1 X55.9854 Y31.352
G1 X55.971 Y31.3542
G1 X55.9568 Y31.3577
G1 X55.9431 Y31.3626
G1 X55.9299 Y31.3689
G1 X55.9174 Y31.3764
G1 X55.9057 Y31.3851
G1 X55.8949 Y31.3949
G1 X55.8851 Y31.4057
G1 X55.8764 Y31.4174
G1 X55.8689 Y31.4299
G1 X55.8626 Y31.4431
G1 X55.8577 Y31.4568
G1 X55.8542 Y31.471
G1 X55.852 Y31.4854
G1 X55.85 Y31.527
G1 F200.0 Z-2.7
G1 F700.0 Y61.473
G1 X55.852 Y61.5146
G1 X55.8542 Y61.529
G1 X55.8577 Y61.5432
G1 X55.8626 Y61.5569
G1 X55.8689 Y61.5701
G1 X55.8764 Y61.5826
G1 X55.8851 Y61.5943
G1 X55.8949 Y61.6051
G1 X55.9057 Y61.6149
G1 X55.9174 Y61.6236
G1 X55.9299 Y61.6311
G1 X55.9431 Y61.6374
G1 X55.9568 Y61.6423
G1 X55.971 Y61.6458
G1 X55.9854 Y61.648
G1 X56.0 Y61.6487
G1 X56.0146 Y61.648
G1 X56.029 Y61.6458
G1 X56.0432 Y61.6423
G1 X56.0569 Y61.6374
G1 X56.0701 Y61.6311
G1 X56.0826 Y61.6236
G1 X56.0943 Y61.6149
G1 X56.1051 Y61.6051
G1 X56.1149 Y61.5943
G1 X56.1236 Y61.5826
G1 X56.1311 Y61.5701
G1 X56.1374 Y61.5569
G1 X56.1423 Y61.5432
G1 X56.1458 Y61.529
G1 X56.148 Y61.5146
G1 X56.15 Y61.473
G1 Y31.527
G1 X56.148 Y31.4854
G1 X56.1458 Y31.471
G1 X56.1423 Y31.4568
G1 X56.1374 Y31.4431
G1 X56.1311 Y31.4299
G1 X56.1236 Y31.4174
G1 X56.1149 Y31.4057
G1 X56.1051 Y31.3949
G1 X56.0943 Y31.3851
G1 X56.0826 Y31.3764
G1 X56.0701 Y31.3689
G1 X56.0569 Y31.3626
G1 X56.0432 Y31.3577
G1 X56.029 Y31.3542
G1 X56.0146 Y31.352
G1 X56.0 Y31.3513
G1 X55.9854 Y31.352
G1 X55.971 Y31.3542
G1 X55.9568 Y31.3577
G1 X55.9431 Y31.3626
G1 X55.9299 Y31.3689
G1 X55.9174 Y31.3764
G1 X55.9057 Y31.3851
G1 X55.8949 Y31.3949
G1 X55.8851 Y31.4057
G1 X55.8764 Y31.4174
G1 X55.8689 Y31.4299
G1 X55.8626 Y31.4431
G1 X55.8577 Y31.4568
G1 X55.8542 Y31.471
G1 X55.852 Y31.4854
G1 X55.85 Y31.527
G1 F200.0 Z-3.0
G1 F700.0 Y61.473
G1 X55.852 Y61.5146
G1 X55.8542 Y61.529
G1 X55.8577 Y61.5432
G1 X55.8626 Y61.5569
G1 X55.8689 Y61.5701
G1 X55.8764 Y61.5826
G1 X55.8851 Y61.5943
G1 X55.8949 Y61.6051
G1 X55.9057 Y61.6149
G1 X55.9174 Y61.6236
G1 X55.9299 Y61.6311
G1 X55.9431 Y61.6374
G1 X55.9568 Y61.6423
G1 X55.971 Y61.6458
G1 X55.9854 Y61.648
G1 X56.0 Y61.6487
G1 X56.0146 Y61.648
G1 X56.029 Y61.6458
G1 X56.0432 Y61.6423
G1 X56.0569 Y61.6374
G1 X56.0701 Y61.6311
G1 X56.0826 Y61.6236
G1 X56.0943 Y61.6149
G1 X56.1051 Y61.6051
G1 X56.1149 Y61.5943
G1 X56.1236 Y61.5826
G1 X56.1311 Y61.5701
G1 X56.1374 Y61.5569
G1 X56.1423 Y61.5432
G1 X56.1458 Y61.529
G1 X56.148 Y61.5146
G1 X56.15 Y61.473
G1 Y31.527
G1 X56.148 Y31.4854
G1 X56.1458 Y31.471
G1 X56.1423 Y31.4568
G1 X56.1374 Y31.4431
G1 X56.1311 Y31.4299
G1 X56.1236 Y31.4174
G1 X56.1149 Y31.4057
G1 X56.1051 Y31.3949
G1 X56.0943 Y31.3851
G1 X56.0826 Y31.3764
G1 X56.0701 Y31.3689
G1 X56.0569 Y31.3626
G1 X56.0432 Y31.3577
G1 X56.029 Y31.3542
G1 X56.0146 Y31.352
G1 X56.0 Y31.3513
G1 X55.9854 Y31.352
G1 X55.971 Y31.3542
G1 X55.9568 Y31.3577
G1 X55.9431 Y31.3626
G1 X55.9299 Y31.3689
G1 X55.9174 Y31.3764
G1 X55.9057 Y31.3851
G1 X55.8949 Y31.3949
G1 X55.8851 Y31.4057
G1 X55.8764 Y31.4174
G1 X55.8689 Y31.4299
G1 X55.8626 Y31.4431
G1 X55.8577 Y31.4568
G1 X55.8542 Y31.471
G1 X55.852 Y31.4854
G1 X55.85 Y31.527
G1 F200.0 Z-3.3
G1 F700.0 Y61.473
G1 X55.852 Y61.5146
G1 X55.8542 Y61.529
G1 X55.8577 Y61.5432
G1 X55.8626 Y61.5569
G1 X55.8689 Y61.5701
G1 X55.8764 Y61.5826
G1 X55.8851 Y61.5943
G1 X55.8949 Y61.6051
G1 X55.9057 Y61.6149
G1 X55.9174 Y61.6236
G1 X55.9299 Y61.6311
G1 X55.9431 Y61.6374
G1 X55.9568 Y61.6423
G1 X55.971 Y61.6458
G1 X55.9854 Y61.648
G1 X56.0 Y61.6487
G1 X56.0146 Y61.648
G1 X56.029 Y61.6458
G1 X56.0432 Y61.6423
G1 X56.0569 Y61.6374
G1 X56.0701 Y61.6311
G1 X56.0826 Y61.6236
G1 X56.0943 Y61.6149
G1 X56.1051 Y61.6051
G1 X56.1149 Y61.5943
G1 X56.1236 Y61.5826
G1 X56.1311 Y61.5701
G1 X56.1374 Y61.5569
G1 X56.1423 Y61.5432
G1 X56.1458 Y61.529
G1 X56.148 Y61.5146
G1 X56.15 Y61.473
G1 Y31.527
G1 X56.148 Y31.4854
G1 X56.1458 Y31.471
G1 X56.1423 Y31.4568
G1 X56.1374 Y31.4431
G1 X56.1311 Y31.4299
G1 X56.1236 Y31.4174
G1 X56.1149 Y31.4057
G1 X56.1051 Y31.3949
G1 X56.0943 Y31.3851
G1 X56.0826 Y31.3764
G1 X56.0701 Y31.3689
G1 X56.0569 Y31.3626
G1 X56.0432 Y31.3577
G1 X56.029 Y31.3542
G1 X56.0146 Y31.352
G1 X56.0 Y31.3513
G1 X55.9854 Y31.352
G1 X55.971 Y31.3542
G1 X55.9568 Y31.3577
G1 X55.9431 Y31.3626
G1 X55.9299 Y31.3689
G1 X55.9174 Y31.3764
G1 X55.9057 Y31.3851
G1 X55.8949 Y31.3949
G1 X55.8851 Y31.4057
G1 X55.8764 Y31.4174
G1 X55.8689 Y31.4299
G1 X55.8626 Y31.4431
G1 X55.8577 Y31.4568
G1 X55.8542 Y31.471
G1 X55.852 Y31.4854
G1 X55.85 Y31.527
G1 F200.0 Z-3.6
G1 F700.0 Y61.473
G1 X55.852 Y61.5146
G1 X55.8542 Y61.529
G1 X55.8577 Y61.5432
G1 X55.8626 Y61.5569
G1 X55.8689 Y61.5701
G1 X55.8764 Y61.5826
G1 X55.8851 Y61.5943
G1 X55.8949 Y61.6051
G1 X55.9057 Y61.6149
G1 X55.9174 Y61.6236
G1 X55.9299 Y61.6311
G1 X55.9431 Y61.6374
G1 X55.9568 Y61.6423
G1 X55.971 Y61.6458
G1 X55.9854 Y61.648
G1 X56.0 Y61.6487
G1 X56.0146 Y61.648
G1 X56.029 Y61.6458
G1 X56.0432 Y61.6423
G1 X56.0569 Y61.6374
G1 X56.0701 Y61.6311
G1 X56.0826 Y61.6236
G1 X56.0943 Y61.6149
G1 X56.1051 Y61.6051
G1 X56.1149 Y61.5943
G1 X56.1236 Y61.5826
G1 X56.1311 Y61.5701
G1 X56.1374 Y61.5569
G1 X56.1423 Y61.5432
G1 X56.1458 Y61.529
G1 X56.148 Y61.5146
G1 X56.15 Y61.473
G1 Y31.527
G1 X56.148 Y31.4854
G1 X56.1458 Y31.471
G1 X56.1423 Y31.4568
G1 X56.1374 Y31.4431
G1 X56.1311 Y31.4299
G1 X56.1236 Y31.4174
G1 X56.1149 Y31.4057
G1 X56.1051 Y31.3949
G1 X56.0943 Y31.3851
G1 X56.0826 Y31.3764
G1 X56.0701 Y31.3689
G1 X56.0569 Y31.3626
G1 X56.0432 Y31.3577
G1 X56.029 Y31.3542
G1 X56.0146 Y31.352
G1 X56.0 Y31.3513
G1 X55.9854 Y31.352
G1 X55.971 Y31.3542
G1 X55.9568 Y31.3577
G1 X55.9431 Y31.3626
G1 X55.9299 Y31.3689
G1 X55.9174 Y31.3764
G1 X55.9057 Y31.3851
G1 X55.8949 Y31.3949
G1 X55.8851 Y31.4057
G1 X55.8764 Y31.4174
G1 X55.8689 Y31.4299
G1 X55.8626 Y31.4431
G1 X55.8577 Y31.4568
G1 X55.8542 Y31.471
G1 X55.852 Y31.4854
G1 X55.85 Y31.527
G1 F200.0 Z-3.9
G1 F700.0 Y61.473
G1 X55.852 Y61.5146
G1 X55.8542 Y61.529
G1 X55.8577 Y61.5432
G1 X55.8626 Y61.5569
G1 X55.8689 Y61.5701
G1 X55.8764 Y61.5826
G1 X55.8851 Y61.5943
G1 X55.8949 Y61.6051
G1 X55.9057 Y61.6149
G1 X55.9174 Y61.6236
G1 X55.9299 Y61.6311
G1 X55.9431 Y61.6374
G1 X55.9568 Y61.6423
G1 X55.971 Y61.6458
G1 X55.9854 Y61.648
G1 X56.0 Y61.6487
G1 X56.0146 Y61.648
G1 X56.029 Y61.6458
G1 X56.0432 Y61.6423
G1 X56.0569 Y61.6374
G1 X56.0701 Y61.6311
G1 X56.0826 Y61.6236
G1 X56.0943 Y61.6149
G1 X56.1051 Y61.6051
G1 X56.1149 Y61.5943
G1 X56.1236 Y61.5826
G1 X56.1311 Y61.5701
G1 X56.1374 Y61.5569
G1 X56.1423 Y61.5432
G1 X56.1458 Y61.529
G1 X56.148 Y61.5146
G1 X56.15 Y61.473
G1 Y31.527
G1 X56.148 Y31.4854
G1 X56.1458 Y31.471
G1 X56.1423 Y31.4568
G1 X56.1374 Y31.4431
G1 X56.1311 Y31.4299
G1 X56.1236 Y31.4174
G1 X56.1149 Y31.4057
G1 X56.1051 Y31.3949
G1 X56.0943 Y31.3851
G1 X56.0826 Y31.3764
G1 X56.0701 Y31.3689
G1 X56.0569 Y31.3626
G1 X56.0432 Y31.3577
G1 X56.029 Y31.3542
G1 X56.0146 Y31.352
G1 X56.0 Y31.3513
G1 X55.9854 Y31.352
G1 X55.971 Y31.3542
G1 X55.9568 Y31.3577
G1 X55.9431 Y31.3626
G1 X55.9299 Y31.3689
G1 X55.9174 Y31.3764
G1 X55.9057 Y31.3851
G1 X55.8949 Y31.3949
G1 X55.8851 Y31.4057
G1 X55.8764 Y31.4174
G1 X55.8689 Y31.4299
G1 X55.8626 Y31.4431
G1 X55.8577 Y31.4568
G1 X55.8542 Y31.471
G1 X55.852 Y31.4854
G1 X55.85 Y31.527
G1 F200.0 Z-4.1
G1 F700.0 Y61.473
G1 X55.852 Y61.5146
G1 X55.8542 Y61.529
G1 X55.8577 Y61.5432
G1 X55.8626 Y61.5569
G1 X55.8689 Y61.5701
G1 X55.8764 Y61.5826
G1 X55.8851 Y61.5943
G1 X55.8949 Y61.6051
G1 X55.9057 Y61.6149
G1 X55.9174 Y61.6236
G1 X55.9299 Y61.6311
G1 X55.9431 Y61.6374
G1 X55.9568 Y61.6423
G1 X55.971 Y61.6458
G1 X55.9854 Y61.648
G1 X56.0 Y61.6487
G1 X56.0146 Y61.648
G1 X56.029 Y61.6458
G1 X56.0432 Y61.6423
G1 X56.0569 Y61.6374
G1 X56.0701 Y61.6311
G1 X56.0826 Y61.6236
G1 X56.0943 Y61.6149
G1 X56.1051 Y61.6051
G1 X56.1149 Y61.5943
G1 X56.1236 Y61.5826
G1 X56.1311 Y61.5701
G1 X56.1374 Y61.5569
G1 X56.1423 Y61.5432
G1 X56.1458 Y61.529
G1 X56.148 Y61.5146
G1 X56.15 Y61.473
G1 Y31.527
G1 X56.148 Y31.4854
G1 X56.1458 Y31.471
G1 X56.1423 Y31.4568
G1 X56.1374 Y31.4431
G1 X56.1311 Y31.4299
G1 X56.1236 Y31.4174
G1 X56.1149 Y31.4057
G1 X56.1051 Y31.3949
G1 X56.0943 Y31.3851
G1 X56.0826 Y31.3764
G1 X56.0701 Y31.3689
G1 X56.0569 Y31.3626
G1 X56.0432 Y31.3577
G1 X56.029 Y31.3542
G1 X56.0146 Y31.352
G1 X56.0 Y31.3513
G1 X55.9854 Y31.352
G1 X55.971 Y31.3542
G1 X55.9568 Y31.3577
G1 X55.9431 Y31.3626
G1 X55.9299 Y31.3689
G1 X55.9174 Y31.3764
G1 X55.9057 Y31.3851
G1 X55.8949 Y31.3949
G1 X55.8851 Y31.4057
G1 X55.8764 Y31.4174
G1 X55.8689 Y31.4299
G1 X55.8626 Y31.4431
G1 X55.8577 Y31.4568
G1 X55.8542 Y31.471
G1 X55.852 Y31.4854
G1 X55.85 Y31.527
G1 F200.0 Z-4.2
G1 F700.0 Y61.473
G1 X55.852 Y61.5146
G1 X55.8542 Y61.529
G1 X55.8577 Y61.5432
G1 X55.8626 Y61.5569
G1 X55.8689 Y61.5701
G1 X55.8764 Y61.5826
G1 X55.8851 Y61.5943
G1 X55.8949 Y61.6051
G1 X55.9057 Y61.6149
G1 X55.9174 Y61.6236
G1 X55.9299 Y61.6311
G1 X55.9431 Y61.6374
G1 X55.9568 Y61.6423
G1 X55.971 Y61.6458
G1 X55.9854 Y61.648
G1 X56.0 Y61.6487
G1 X56.0146 Y61.648
G1 X56.029 Y61.6458
G1 X56.0432 Y61.6423
G1 X56.0569 Y61.6374
G1 X56.0701 Y61.6311
G1 X56.0826 Y61.6236
G1 X56.0943 Y61.6149
G1 X56.1051 Y61.6051
G1 X56.1149 Y61.5943
G1 X56.1236 Y61.5826
G1 X56.1311 Y61.5701
G1 X56.1374 Y61.5569
G1 X56.1423 Y61.5432
G1 X56.1458 Y61.529
G1 X56.148 Y61.5146
G1 X56.15 Y61.473
G1 Y31.527
G1 X56.148 Y31.4854
G1 X56.1458 Y31.471
G1 X56.1423 Y31.4568
G1 X56.1374 Y31.4431
G1 X56.1311 Y31.4299
G1 X56.1236 Y31.4174
G1 X56.1149 Y31.4057
G1 X56.1051 Y31.3949
G1 X56.0943 Y31.3851
G1 X56.0826 Y31.3764
G1 X56.0701 Y31.3689
G1 X56.0569 Y31.3626
G1 X56.0432 Y31.3577
G1 X56.029 Y31.3542
G1 X56.0146 Y31.352
G1 X56.0 Y31.3513
G1 X55.9854 Y31.352
G1 X55.971 Y31.3542
G1 X55.9568 Y31.3577
G1 X55.9431 Y31.3626
G1 X55.9299 Y31.3689
G1 X55.9174 Y31.3764
G1 X55.9057 Y31.3851
G1 X55.8949 Y31.3949
G1 X55.8851 Y31.4057
G1 X55.8764 Y31.4174
G1 X55.8689 Y31.4299
G1 X55.8626 Y31.4431
G1 X55.8577 Y31.4568
G1 X55.8542 Y31.471
G1 X55.852 Y31.4854
G1 X55.85 Y31.527
G0 Z3.0
G0 X71.85
G0 Z1.0
G1 F200.0 Z-0.3
G1 F700.0 Y61.473
G1 X71.852 Y61.5146
G1 X71.8542 Y61.529
G1 X71.8577 Y61.5432
G1 X71.8626 Y61.5569
G1 X71.8689 Y61.5701
G1 X71.8764 Y61.5826
G1 X71.8851 Y61.5943
G1 X71.8949 Y61.6051
G1 X71.9057 Y61.6149
G1 X71.9174 Y61.6236
G1 X71.9299 Y61.6311
G1 X71.9431 Y61.6374
G1 X71.9568 Y61.6423
G1 X71.971 Y61.6458
G1 X71.9854 Y61.648
G1 X72.0 Y61.6487
G1 X72.0146 Y61.648
G1 X72.029 Y61.6458
G1 X72.0432 Y61.6423
G1 X72.0569 Y61.6374
G1 X72.0701 Y61.6311
G1 X72.0826 Y61.6236
G1 X72.0943 Y61.6149
G1 X72.1051 Y61.6051
G1 X72.1149 Y61.5943
G1 X72.1236 Y61.5826
G1 X72.1311 Y61.5701
G1 X72.1374 Y61.5569
G1 X72.1423 Y61.5432
G1 X72.1458 Y61.529
G1 X72.148 Y61.5146
G1 X72.15 Y61.473
G1 Y31.527
G1 X72.148 Y31.4854
G1 X72.1458 Y31.471
G1 X72.1423 Y31.4568
G1 X72.1374 Y31.4431
G1 X72.1311 Y31.4299
G1 X72.1236 Y31.4174
G1 X72.1149 Y31.4057
G1 X72.1051 Y31.3949
G1 X72.0943 Y31.3851
G1 X72.0826 Y31.3764
G1 X72.0701 Y31.3689
G1 X72.0569 Y31.3626
G1 X72.0432 Y31.3577
G1 X72.029 Y31.3542
G1 X72.0146 Y31.352
G1 X72.0 Y31.3513
G1 X71.9854 Y31.352
G1 X71.971 Y31.3542
G1 X71.9568 Y31.3577
G1 X71.9431 Y31.3626
G1 X71.9299 Y31.3689
G1 X71.9174 Y31.3764
G1 X71.9057 Y31.3851
G1 X71.8949 Y31.3949
G1 X71.8851 Y31.4057
G1 X71.8764 Y31.4174
G1 X71.8689 Y31.4299
G1 X71.8626 Y31.4431
G1 X71.8577 Y31.4568
G1 X71.8542 Y31.471
G1 X71.852 Y31.4854
G1 X71.85 Y31.527
G1 F200.0 Z-0.6
G1 F700.0 Y61.473
G1 X71.852 Y61.5146
G1 X71.8542 Y61.529
G1 X71.8577 Y61.5432
G1 X71.8626 Y61.5569
G1 X71.8689 Y61.5701
G1 X71.8764 Y61.5826
G1 X71.8851 Y61.5943
G1 X71.8949 Y61.6051
G1 X71.9057 Y61.6149
G1 X71.9174 Y61.6236
G1 X71.9299 Y61.6311
G1 X71.9431 Y61.6374
G1 X71.9568 Y61.6423
G1 X71.971 Y61.6458
G1 X71.9854 Y61.648
G1 X72.0 Y61.6487
G1 X72.0146 Y61.648
G1 X72.029 Y61.6458
G1 X72.0432 Y61.6423
G1 X72.0569 Y61.6374
G1 X72.0701 Y61.6311
G1 X72.0826 Y61.6236
G1 X72.0943 Y61.6149
G1 X72.1051 Y61.6051
G1 X72.1149 Y61.5943
G1 X72.1236 Y61.5826
G1 X72.1311 Y61.5701
G1 X72.1374 Y61.5569
G1 X72.1423 Y61.5432
G1 X72.1458 Y61.529
G1 X72.148 Y61.5146
G1 X72.15 Y61.473
G1 Y31.527
G1 X72.148 Y31.4854
G1 X72.1458 Y31.471
G1 X72.1423 Y31.4568
G1 X72.1374 Y31.4431
G1 X72.1311 Y31.4299
G1 X72.1236 Y31.4174
G1 X72.1149 Y31.4057
G1 X72.1051 Y31.3949
G1 X72.0943 Y31.3851
G1 X72.0826 Y31.3764
G1 X72.0701 Y31.3689
G1 X72.0569 Y31.3626
G1 X72.0432 Y31.3577
G1 X72.029 Y31.3542
G1 X72.0146 Y31.352
G1 X72.0 Y31.3513
G1 X71.9854 Y31.352
G1 X71.971 Y31.3542
G1 X71.9568 Y31.3577
G1 X71.9431 Y31.3626
G1 X71.9299 Y31.3689
G1 X71.9174 Y31.3764
G1 X71.9057 Y31.3851
G1 X71.8949 Y31.3949
G1 X71.8851 Y31.4057
G1 X71.8764 Y31.4174
G1 X71.8689 Y31.4299
G1 X71.8626 Y31.4431
G1 X71.8577 Y31.4568
G1 X71.8542 Y31.471
G1 X71.852 Y31.4854
G1 X71.85 Y31.527
G1 F200.0 Z-0.9
G1 F700.0 Y61.473
G1 X71.852 Y61.5146
G1 X71.8542 Y61.529
G1 X71.8577 Y61.5432
G1 X71.8626 Y61.5569
G1 X71.8689 Y61.5701
G1 X71.8764 Y61.5826
G1 X71.8851 Y61.5943
G1 X71.8949 Y61.6051
G1 X71.9057 Y61.6149
G1 X71.9174 Y61.6236
G1 X71.9299 Y61.6311
G1 X71.9431 Y61.6374
G1 X71.9568 Y61.6423
G1 X71.971 Y61.6458
G1 X71.9854 Y61.648
G1 X72.0 Y61.6487
G1 X72.0146 Y61.648
G1 X72.029 Y61.6458
G1 X72.0432 Y61.6423
G1 X72.0569 Y61.6374
G1 X72.0701 Y61.6311
G1 X72.0826 Y61.6236
G1 X72.0943 Y61.6149
G1 X72.1051 Y61.6051
G1 X72.1149 Y61.5943
G1 X72.1236 Y61.5826
G1 X72.1311 Y61.5701
G1 X72.1374 Y61.5569
G1 X72.1423 Y61.5432
G1 X72.1458 Y61.529
G1 X72.148 Y61.5146
G1 X72.15 Y61.473
G1 Y31.527
G1 X72.148 Y31.4854
G1 X72.1458 Y31.471
G1 X72.1423 Y31.4568
G1 X72.1374 Y31.4431
G1 X72.1311 Y31.4299
G1 X72.1236 Y31.4174
G1 X72.1149 Y31.4057
G1 X72.1051 Y31.3949
G1 X72.0943 Y31.3851
G1 X72.0826 Y31.3764
G1 X72.0701 Y31.3689
G1 X72.0569 Y31.3626
G1 X72.0432 Y31.3577
G1 X72.029 Y31.3542
G1 X72.0146 Y31.352
G1 X72.0 Y31.3513
G1 X71.9854 Y31.352
G1 X71.971 Y31.3542
G1 X71.9568 Y31.3577
G1 X71.9431 Y31.3626
G1 X71.9299 Y31.3689
G1 X71.9174 Y31.3764
G1 X71.9057 Y31.3851
G1 X71.8949 Y31.3949
G1 X71.8851 Y31.4057
G1 X71.8764 Y31.4174
G1 X71.8689 Y31.4299
G1 X71.8626 Y31.4431
G1 X71.8577 Y31.4568
G1 X71.8542 Y31.471
G1 X71.852 Y31.4854
G1 X71.85 Y31.527
G1 F200.0 Z-1.2
G1 F700.0 Y61.473
G1 X71.852 Y61.5146
G1 X71.8542 Y61.529
G1 X71.8577 Y61.5432
G1 X71.8626 Y61.5569
G1 X71.8689 Y61.5701
G1 X71.8764 Y61.5826
G1 X71.8851 Y61.5943
G1 X71.8949 Y61.6051
G1 X71.9057 Y61.6149
G1 X71.9174 Y61.6236
G1 X71.9299 Y61.6311
G1 X71.9431 Y61.6374
G1 X71.9568 Y61.6423
G1 X71.971 Y61.6458
G1 X71.9854 Y61.648
G1 X72.0 Y61.6487
G1 X72.0146 Y61.648
G1 X72.029 Y61.6458
G1 X72.0432 Y61.6423
G1 X72.0569 Y61.6374
G1 X72.0701 Y61.6311
G1 X72.0826 Y61.6236
G1 X72.0943 Y61.6149
G1 X72.1051 Y61.6051
G1 X72.1149 Y61.5943
G1 X72.1236 Y61.5826
G1 X72.1311 Y61.5701
G1 X72.1374 Y61.5569
G1 X72.1423 Y61.5432
G1 X72.1458 Y61.529
G1 X72.148 Y61.5146
G1 X72.15 Y61.473
G1 Y31.527
G1 X72.148 Y31.4854
G1 X72.1458 Y31.471
G1 X72.1423 Y31.4568
G1 X72.1374 Y31.4431
G1 X72.1311 Y31.4299
G1 X72.1236 Y31.4174
G1 X72.1149 Y31.4057
G1 X72.1051 Y31.3949
G1 X72.0943 Y31.3851
G1 X72.0826 Y31.3764
G1 X72.0701 Y31.3689
G1 X72.0569 Y31.3626
G1 X72.0432 Y31.3577
G1 X72.029 Y31.3542
G1 X72.0146 Y31.352
G1 X72.0 Y31.3513
G1 X71.9854 Y31.352
G1 X71.971 Y31.3542
G1 X71.9568 Y31.3577
G1 X71.9431 Y31.3626
G1 X71.9299 Y31.3689
G1 X71.9174 Y31.3764
G1 X71.9057 Y31.3851
G1 X71.8949 Y31.3949
G1 X71.8851 Y31.4057
G1 X71.8764 Y31.4174
G1 X71.8689 Y31.4299
G1 X71.8626 Y31.4431
G1 X71.8577 Y31.4568
G1 X71.8542 Y31.471
G1 X71.852 Y31.4854
G1 X71.85 Y31.527
G1 F200.0 Z-1.5
G1 F700.0 Y61.473
G1 X71.852 Y61.5146
G1 X71.8542 Y61.529
G1 X71.8577 Y61.5432
G1 X71.8626 Y61.5569
G1 X71.8689 Y61.5701
G1 X71.8764 Y61.5826
G1 X71.8851 Y61.5943
G1 X71.8949 Y61.6051
G1 X71.9057 Y61.6149
G1 X71.9174 Y61.6236
G1 X71.9299 Y61.6311
G1 X71.9431 Y61.6374
G1 X71.9568 Y61.6423
G1 X71.971 Y61.6458
G1 X71.9854 Y61.648
G1 X72.0 Y61.6487
G1 X72.0146 Y61.648
G1 X72.029 Y61.6458
G1 X72.0432 Y61.6423
G1 X72.0569 Y61.6374
G1 X72.0701 Y61.6311
G1 X72.0826 Y61.6236
G1 X72.0943 Y61.6149
G1 X72.1051 Y61.6051
G1 X72.1149 Y61.5943
G1 X72.1236 Y61.5826
G1 X72.1311 Y61.5701
G1 X72.1374 Y61.5569
G1 X72.1423 Y61.5432
G1 X72.1458 Y61.529
G1 X72.148 Y61.5146
G1 X72.15 Y61.473
G1 Y31.527
G1 X72.148 Y31.4854
G1 X72.1458 Y31.471
G1 X72.1423 Y31.4568
G1 X72.1374 Y31.4431
G1 X72.1311 Y31.4299
G1 X72.1236 Y31.4174
G1 X72.1149 Y31.4057
G1 X72.1051 Y31.3949
G1 X72.0943 Y31.3851
G1 X72.0826 Y31.3764
G1 X72.0701 Y31.3689
G1 X72.0569 Y31.3626
G1 X72.0432 Y31.3577
G1 X72.029 Y31.3542
G1 X72.0146 Y31.352
G1 X72.0 Y31.3513
G1 X71.9854 Y31.352
G1 X71.971 Y31.3542
G1 X71.9568 Y31.3577
G1 X71.9431 Y31.3626
G1 X71.9299 Y31.3689
G1 X71.9174 Y31.3764
G1 X71.9057 Y31.3851
G1 X71.8949 Y31.3949
G1 X71.8851 Y31.4057
G1 X71.8764 Y31.4174
G1 X71.8689 Y31.4299
G1 X71.8626 Y31.4431
G1 X71.8577 Y31.4568
G1 X71.8542 Y31.471
G1 X71.852 Y31.4854
G1 X71.85 Y31.527
G1 F200.0 Z-1.8
G1 F700.0 Y61.473
G1 X71.852 Y61.5146
G1 X71.8542 Y61.529
G1 X71.8577 Y61.5432
G1 X71.8626 Y61.5569
G1 X71.8689 Y61.5701
G1 X71.8764 Y61.5826
G1 X71.8851 Y61.5943
G1 X71.8949 Y61.6051
G1 X71.9057 Y61.6149
G1 X71.9174 Y61.6236
G1 X71.9299 Y61.6311
G1 X71.9431 Y61.6374
G1 X71.9568 Y61.6423
G1 X71.971 Y61.6458
G1 X71.9854 Y61.648
G1 X72.0 Y61.6487
G1 X72.0146 Y61.648
G1 X72.029 Y61.6458
G1 X72.0432 Y61.6423
G1 X72.0569 Y61.6374
G1 X72.0701 Y61.6311
G1 X72.0826 Y61.6236
G1 X72.0943 Y61.6149
G1 X72.1051 Y61.6051
G1 X72.1149 Y61.5943
G1 X72.1236 Y61.5826
G1 X72.1311 Y61.5701
G1 X72.1374 Y61.5569
G1 X72.1423 Y61.5432
G1 X72.1458 Y61.529
G1 X72.148 Y61.5146
G1 X72.15 Y61.473
G1 Y31.527
G1 X72.148 Y31.4854
G1 X72.1458 Y31.471
G1 X72.1423 Y31.4568
G1 X72.1374 Y31.4431
G1 X72.1311 Y31.4299
G1 X72.1236 Y31.4174
G1 X72.1149 Y31.4057
G1 X72.1051 Y31.3949
G1 X72.0943 Y31.3851
G1 X72.0826 Y31.3764
G1 X72.0701 Y31.3689
G1 X72.0569 Y31.3626
G1 X72.0432 Y31.3577
G1 X72.029 Y31.3542
G1 X72.0146 Y31.352
G1 X72.0 Y31.3513
G1 X71.9854 Y31.352
G1 X71.971 Y31.3542
G1 X71.9568 Y31.3577
G1 X71.9431 Y31.3626
G1 X71.9299 Y31.3689
G1 X71.9174 Y31.3764
G1 X71.9057 Y31.3851
G1 X71.8949 Y31.3949
G1 X71.8851 Y31.4057
G1 X71.8764 Y31.4174
G1 X71.8689 Y31.4299
G1 X71.8626 Y31.4431
G1 X71.8577 Y31.4568
G1 X71.8542 Y31.471
G1 X71.852 Y31.4854
G1 X71.85 Y31.527
G1 F200.0 Z-2.1
G1 F700.0 Y61.473
G1 X71.852 Y61.5146
G1 X71.8542 Y61.529
G1 X71.8577 Y61.5432
G1 X71.8626 Y61.5569
G1 X71.8689 Y61.5701
G1 X71.8764 Y61.5826
G1 X71.8851 Y61.5943
G1 X71.8949 Y61.6051
G1 X71.9057 Y61.6149
G1 X71.9174 Y61.6236
G1 X71.9299 Y61.6311
G1 X71.9431 Y61.6374
G1 X71.9568 Y61.6423
G1 X71.971 Y61.6458
G1 X71.9854 Y61.648
G1 X72.0 Y61.6487
G1 X72.0146 Y61.648
G1 X72.029 Y61.6458
G1 X72.0432 Y61.6423
G1 X72.0569 Y61.6374
G1 X72.0701 Y61.6311
G1 X72.0826 Y61.6236
G1 X72.0943 Y61.6149
G1 X72.1051 Y61.6051
G1 X72.1149 Y61.5943
G1 X72.1236 Y61.5826
G1 X72.1311 Y61.5701
G1 X72.1374 Y61.5569
G1 X72.1423 Y61.5432
G1 X72.1458 Y61.529
G1 X72.148 Y61.5146
G1 X72.15 Y61.473
G1 Y31.527
G1 X72.148 Y31.4854
G1 X72.1458 Y31.471
G1 X72.1423 Y31.4568
G1 X72.1374 Y31.4431
G1 X72.1311 Y31.4299
G1 X72.1236 Y31.4174
G1 X72.1149 Y31.4057
G1 X72.1051 Y31.3949
G1 X72.0943 Y31.3851
G1 X72.0826 Y31.3764
G1 X72.0701 Y31.3689
G1 X72.0569 Y31.3626
G1 X72.0432 Y31.3577
G1 X72.029 Y31.3542
G1 X72.0146 Y31.352
G1 X72.0 Y31.3513
G1 X71.9854 Y31.352
G1 X71.971 Y31.3542
G1 X71.9568 Y31.3577
G1 X71.9431 Y31.3626
G1 X71.9299 Y31.3689
G1 X71.9174 Y31.3764
G1 X71.9057 Y31.3851
G1 X71.8949 Y31.3949
G1 X71.8851 Y31.4057
G1 X71.8764 Y31.4174
G1 X71.8689 Y31.4299
G1 X71.8626 Y31.4431
G1 X71.8577 Y31.4568
G1 X71.8542 Y31.471
G1 X71.852 Y31.4854
G1 X71.85 Y31.527
G1 F200.0 Z-2.4
G1 F700.0 Y61.473
G1 X71.852 Y61.5146
G1 X71.8542 Y61.529
G1 X71.8577 Y61.5432
G1 X71.8626 Y61.5569
G1 X71.8689 Y61.5701
G1 X71.8764 Y61.5826
G1 X71.8851 Y61.5943
G1 X71.8949 Y61.6051
G1 X71.9057 Y61.6149
G1 X71.9174 Y61.6236
G1 X71.9299 Y61.6311
G1 X71.9431 Y61.6374
G1 X71.9568 Y61.6423
G1 X71.971 Y61.6458
G1 X71.9854 Y61.648
G1 X72.0 Y61.6487
G1 X72.0146 Y61.648
G1 X72.029 Y61.6458
G1 X72.0432 Y61.6423
G1 X72.0569 Y61.6374
G1 X72.0701 Y61.6311
G1 X72.0826 Y61.6236
G1 X72.0943 Y61.6149
G1 X72.1051 Y61.6051
G1 X72.1149 Y61.5943
G1 X72.1236 Y61.5826
G1 X72.1311 Y61.5701
G1 X72.1374 Y61.5569
G1 X72.1423 Y61.5432
G1 X72.1458 Y61.529
G1 X72.148 Y61.5146
G1 X72.15 Y61.473
G1 Y31.527
G1 X72.148 Y31.4854
G1 X72.1458 Y31.471
G1 X72.1423 Y31.4568
G1 X72.1374 Y31.4431
G1 X72.1311 Y31.4299
G1 X72.1236 Y31.4174
G1 X72.1149 Y31.4057
G1 X72.1051 Y31.3949
G1 X72.0943 Y31.3851
G1 X72.0826 Y31.3764
G1 X72.0701 Y31.3689
G1 X72.0569 Y31.3626
G1 X72.0432 Y31.3577
G1 X72.029 Y31.3542
G1 X72.0146 Y31.352
G1 X72.0 Y31.3513
G1 X71.9854 Y31.352
G1 X71.971 Y31.3542
G1 X71.9568 Y31.3577
G1 X71.9431 Y31.3626
G1 X71.9299 Y31.3689
G1 X71.9174 Y31.3764
G1 X71.9057 Y31.3851
G1 X71.8949 Y31.3949
G1 X71.8851 Y31.4057
G1 X71.8764 Y31.4174
G1 X71.8689 Y31.4299
G1 X71.8626 Y31.4431
G1 X71.8577 Y31.4568
G1 X71.8542 Y31.471
G1 X71.852 Y31.4854
G1 X71.85 Y31.527
G1 F200.0 Z-2.7
G1 F700.0 Y61.473
G1 X71.852 Y61.5146
G1 X71.8542 Y61.529
G1 X71.8577 Y61.5432
G1 X71.8626 Y61.5569
G1 X71.8689 Y61.5701
G1 X71.8764 Y61.5826
G1 X71.8851 Y61.5943
G1 X71.8949 Y61.6051
G1 X71.9057 Y61.6149
G1 X71.9174 Y61.6236
G1 X71.9299 Y61.6311
G1 X71.9431 Y61.6374
G1 X71.9568 Y61.6423
G1 X71.971 Y61.6458
G1 X71.9854 Y61.648
G1 X72.0 Y61.6487
G1 X72.0146 Y61.648
G1 X72.029 Y61.6458
G1 X72.0432 Y61.6423
G1 X72.0569 Y61.6374
G1 X72.0701 Y61.6311
G1 X72.0826 Y61.6236
G1 X72.0943 Y61.6149
G1 X72.1051 Y61.6051
G1 X72.1149 Y61.5943
G1 X72.1236 Y61.5826
G1 X72.1311 Y61.5701
G1 X72.1374 Y61.5569
G1 X72.1423 Y61.5432
G1 X72.1458 Y61.529
G1 X72.148 Y61.5146
G1 X72.15 Y61.473
G1 Y31.527
G1 X72.148 Y31.4854
G1 X72.1458 Y31.471
G1 X72.1423 Y31.4568
G1 X72.1374 Y31.4431
G1 X72.1311 Y31.4299
G1 X72.1236 Y31.4174
G1 X72.1149 Y31.4057
G1 X72.1051 Y31.3949
G1 X72.0943 Y31.3851
G1 X72.0826 Y31.3764
G1 X72.0701 Y31.3689
G1 X72.0569 Y31.3626
G1 X72.0432 Y31.3577
G1 X72.029 Y31.3542
G1 X72.0146 Y31.352
G1 X72.0 Y31.3513
G1 X71.9854 Y31.352
G1 X71.971 Y31.3542
G1 X71.9568 Y31.3577
G1 X71.9431 Y31.3626
G1 X71.9299 Y31.3689
G1 X71.9174 Y31.3764
G1 X71.9057 Y31.3851
G1 X71.8949 Y31.3949
G1 X71.8851 Y31.4057
G1 X71.8764 Y31.4174
G1 X71.8689 Y31.4299
G1 X71.8626 Y31.4431
G1 X71.8577 Y31.4568
G1 X71.8542 Y31.471
G1 X71.852 Y31.4854
G1 X71.85 Y31.527
G1 F200.0 Z-3.0
G1 F700.0 Y61.473
G1 X71.852 Y61.5146
G1 X71.8542 Y61.529
G1 X71.8577 Y61.5432
G1 X71.8626 Y61.5569
G1 X71.8689 Y61.5701
G1 X71.8764 Y61.5826
G1 X71.8851 Y61.5943
G1 X71.8949 Y61.6051
G1 X71.9057 Y61.6149
G1 X71.9174 Y61.6236
G1 X71.9299 Y61.6311
G1 X71.9431 Y61.6374
G1 X71.9568 Y61.6423
G1 X71.971 Y61.6458
G1 X71.9854 Y61.648
G1 X72.0 Y61.6487
G1 X72.0146 Y61.648
G1 X72.029 Y61.6458
G1 X72.0432 Y61.6423
G1 X72.0569 Y61.6374
G1 X72.0701 Y61.6311
G1 X72.0826 Y61.6236
G1 X72.0943 Y61.6149
G1 X72.1051 Y61.6051
G1 X72.1149 Y61.5943
G1 X72.1236 Y61.5826
G1 X72.1311 Y61.5701
G1 X72.1374 Y61.5569
G1 X72.1423 Y61.5432
G1 X72.1458 Y61.529
G1 X72.148 Y61.5146
G1 X72.15 Y61.473
G1 Y31.527
G1 X72.148 Y31.4854
G1 X72.1458 Y31.471
G1 X72.1423 Y31.4568
G1 X72.1374 Y31.4431
G1 X72.1311 Y31.4299
G1 X72.1236 Y31.4174
G1 X72.1149 Y31.4057
G1 X72.1051 Y31.3949
G1 X72.0943 Y31.3851
G1 X72.0826 Y31.3764
G1 X72.0701 Y31.3689
G1 X72.0569 Y31.3626
G1 X72.0432 Y31.3577
G1 X72.029 Y31.3542
G1 X72.0146 Y31.352
G1 X72.0 Y31.3513
G1 X71.9854 Y31.352
G1 X71.971 Y31.3542
G1 X71.9568 Y31.3577
G1 X71.9431 Y31.3626
G1 X71.9299 Y31.3689
G1 X71.9174 Y31.3764
G1 X71.9057 Y31.3851
G1 X71.8949 Y31.3949
G1 X71.8851 Y31.4057
G1 X71.8764 Y31.4174
G1 X71.8689 Y31.4299
G1 X71.8626 Y31.4431
G1 X71.8577 Y31.4568
G1 X71.8542 Y31.471
G1 X71.852 Y31.4854
G1 X71.85 Y31.527
G1 F200.0 Z-3.3
G1 F700.0 Y61.473
G1 X71.852 Y61.5146
G1 X71.8542 Y61.529
G1 X71.8577 Y61.5432
G1 X71.8626 Y61.5569
G1 X71.8689 Y61.5701
G1 X71.8764 Y61.5826
G1 X71.8851 Y61.5943
G1 X71.8949 Y61.6051
G1 X71.9057 Y61.6149
G1 X71.9174 Y61.6236
G1 X71.9299 Y61.6311
G1 X71.9431 Y61.6374
G1 X71.9568 Y61.6423
G1 X71.971 Y61.6458
G1 X71.9854 Y61.648
G1 X72.0 Y61.6487
G1 X72.0146 Y61.648
G1 X72.029 Y61.6458
G1 X72.0432 Y61.6423
G1 X72.0569 Y61.6374
G1 X72.0701 Y61.6311
G1 X72.0826 Y61.6236
G1 X72.0943 Y61.6149
G1 X72.1051 Y61.6051
G1 X72.1149 Y61.5943
G1 X72.1236 Y61.5826
G1 X72.1311 Y61.5701
G1 X72.1374 Y61.5569
G1 X72.1423 Y61.5432
G1 X72.1458 Y61.529
G1 X72.148 Y61.5146
G1 X72.15 Y61.473
G1 Y31.527
G1 X72.148 Y31.4854
G1 X72.1458 Y31.471
G1 X72.1423 Y31.4568
G1 X72.1374 Y31.4431
G1 X72.1311 Y31.4299
G1 X72.1236 Y31.4174
G1 X72.1149 Y31.4057
G1 X72.1051 Y31.3949
G1 X72.0943 Y31.3851
G1 X72.0826 Y31.3764
G1 X72.0701 Y31.3689
G1 X72.0569 Y31.3626
G1 X72.0432 Y31.3577
G1 X72.029 Y31.3542
G1 X72.0146 Y31.352
G1 X72.0 Y31.3513
G1 X71.9854 Y31.352
G1 X71.971 Y31.3542
G1 X71.9568 Y31.3577
G1 X71.9431 Y31.3626
G1 X71.9299 Y31.3689
G1 X71.9174 Y31.3764
G1 X71.9057 Y31.3851
G1 X71.8949 Y31.3949
G1 X71.8851 Y31.4057
G1 X71.8764 Y31.4174
G1 X71.8689 Y31.4299
G1 X71.8626 Y31.4431
G1 X71.8577 Y31.4568
G1 X71.8542 Y31.471
G1 X71.852 Y31.4854
G1 X71.85 Y31.527
G1 F200.0 Z-3.6
G1 F700.0 Y61.473
G1 X71.852 Y61.5146
G1 X71.8542 Y61.529
G1 X71.8577 Y61.5432
G1 X71.8626 Y61.5569
G1 X71.8689 Y61.5701
G1 X71.8764 Y61.5826
G1 X71.8851 Y61.5943
G1 X71.8949 Y61.6051
G1 X71.9057 Y61.6149
G1 X71.9174 Y61.6236
G1 X71.9299 Y61.6311
G1 X71.9431 Y61.6374
G1 X71.9568 Y61.6423
G1 X71.971 Y61.6458
G1 X71.9854 Y61.648
G1 X72.0 Y61.6487
G1 X72.0146 Y61.648
G1 X72.029 Y61.6458
G1 X72.0432 Y61.6423
G1 X72.0569 Y61.6374
G1 X72.0701 Y61.6311
G1 X72.0826 Y61.6236
G1 X72.0943 Y61.6149
G1 X72.1051 Y61.6051
G1 X72.1149 Y61.5943
G1 X72.1236 Y61.5826
G1 X72.1311 Y61.5701
G1 X72.1374 Y61.5569
G1 X72.1423 Y61.5432
G1 X72.1458 Y61.529
G1 X72.148 Y61.5146
G1 X72.15 Y61.473
G1 Y31.527
G1 X72.148 Y31.4854
G1 X72.1458 Y31.471
G1 X72.1423 Y31.4568
G1 X72.1374 Y31.4431
G1 X72.1311 Y31.4299
G1 X72.1236 Y31.4174
G1 X72.1149 Y31.4057
G1 X72.1051 Y31.3949
G1 X72.0943 Y31.3851
G1 X72.0826 Y31.3764
G1 X72.0701 Y31.3689
G1 X72.0569 Y31.3626
G1 X72.0432 Y31.3577
G1 X72.029 Y31.3542
G1 X72.0146 Y31.352
G1 X72.0 Y31.3513
G1 X71.9854 Y31.352
G1 X71.971 Y31.3542
G1 X71.9568 Y31.3577
G1 X71.9431 Y31.3626
G1 X71.9299 Y31.3689
G1 X71.9174 Y31.3764
G1 X71.9057 Y31.3851
G1 X71.8949 Y31.3949
G1 X71.8851 Y31.4057
G1 X71.8764 Y31.4174
G1 X71.8689 Y31.4299
G1 X71.8626 Y31.4431
G1 X71.8577 Y31.4568
G1 X71.8542 Y31.471
G1 X71.852 Y31.4854
G1 X71.85 Y31.527
G1 F200.0 Z-3.9
G1 F700.0 Y61.473
G1 X71.852 Y61.5146
G1 X71.8542 Y61.529
G1 X71.8577 Y61.5432
G1 X71.8626 Y61.5569
G1 X71.8689 Y61.5701
G1 X71.8764 Y61.5826
G1 X71.8851 Y61.5943
G1 X71.8949 Y61.6051
G1 X71.9057 Y61.6149
G1 X71.9174 Y61.6236
G1 X71.9299 Y61.6311
G1 X71.9431 Y61.6374
G1 X71.9568 Y61.6423
G1 X71.971 Y61.6458
G1 X71.9854 Y61.648
G1 X72.0 Y61.6487
G1 X72.0146 Y61.648
G1 X72.029 Y61.6458
G1 X72.0432 Y61.6423
G1 X72.0569 Y61.6374
G1 X72.0701 Y61.6311
G1 X72.0826 Y61.6236
G1 X72.0943 Y61.6149
G1 X72.1051 Y61.6051
G1 X72.1149 Y61.5943
G1 X72.1236 Y61.5826
G1 X72.1311 Y61.5701
G1 X72.1374 Y61.5569
G1 X72.1423 Y61.5432
G1 X72.1458 Y61.529
G1 X72.148 Y61.5146
G1 X72.15 Y61.473
G1 Y31.527
G1 X72.148 Y31.4854
G1 X72.1458 Y31.471
G1 X72.1423 Y31.4568
G1 X72.1374 Y31.4431
G1 X72.1311 Y31.4299
G1 X72.1236 Y31.4174
G1 X72.1149 Y31.4057
G1 X72.1051 Y31.3949
G1 X72.0943 Y31.3851
G1 X72.0826 Y31.3764
G1 X72.0701 Y31.3689
G1 X72.0569 Y31.3626
G1 X72.0432 Y31.3577
G1 X72.029 Y31.3542
G1 X72.0146 Y31.352
G1 X72.0 Y31.3513
G1 X71.9854 Y31.352
G1 X71.971 Y31.3542
G1 X71.9568 Y31.3577
G1 X71.9431 Y31.3626
G1 X71.9299 Y31.3689
G1 X71.9174 Y31.3764
G1 X71.9057 Y31.3851
G1 X71.8949 Y31.3949
G1 X71.8851 Y31.4057
G1 X71.8764 Y31.4174
G1 X71.8689 Y31.4299
G1 X71.8626 Y31.4431
G1 X71.8577 Y31.4568
G1 X71.8542 Y31.471
G1 X71.852 Y31.4854
G1 X71.85 Y31.527
G1 F200.0 Z-4.1
G1 F700.0 Y61.473
G1 X71.852 Y61.5146
G1 X71.8542 Y61.529
G1 X71.8577 Y61.5432
G1 X71.8626 Y61.5569
G1 X71.8689 Y61.5701
G1 X71.8764 Y61.5826
G1 X71.8851 Y61.5943
G1 X71.8949 Y61.6051
G1 X71.9057 Y61.6149
G1 X71.9174 Y61.6236
G1 X71.9299 Y61.6311
G1 X71.9431 Y61.6374
G1 X71.9568 Y61.6423
G1 X71.971 Y61.6458
G1 X71.9854 Y61.648
G1 X72.0 Y61.6487
G1 X72.0146 Y61.648
G1 X72.029 Y61.6458
G1 X72.0432 Y61.6423
G1 X72.0569 Y61.6374
G1 X72.0701 Y61.6311
G1 X72.0826 Y61.6236
G1 X72.0943 Y61.6149
G1 X72.1051 Y61.6051
G1 X72.1149 Y61.5943
G1 X72.1236 Y61.5826
G1 X72.1311 Y61.5701
G1 X72.1374 Y61.5569
G1 X72.1423 Y61.5432
G1 X72.1458 Y61.529
G1 X72.148 Y61.5146
G1 X72.15 Y61.473
G1 Y31.527
G1 X72.148 Y31.4854
G1 X72.1458 Y31.471
G1 X72.1423 Y31.4568
G1 X72.1374 Y31.4431
G1 X72.1311 Y31.4299
G1 X72.1236 Y31.4174
G1 X72.1149 Y31.4057
G1 X72.1051 Y31.3949
G1 X72.0943 Y31.3851
G1 X72.0826 Y31.3764
G1 X72.0701 Y31.3689
G1 X72.0569 Y31.3626
G1 X72.0432 Y31.3577
G1 X72.029 Y31.3542
G1 X72.0146 Y31.352
G1 X72.0 Y31.3513
G1 X71.9854 Y31.352
G1 X71.971 Y31.3542
G1 X71.9568 Y31.3577
G1 X71.9431 Y31.3626
G1 X71.9299 Y31.3689
G1 X71.9174 Y31.3764
G1 X71.9057 Y31.3851
G1 X71.8949 Y31.3949
G1 X71.8851 Y31.4057
G1 X71.8764 Y31.4174
G1 X71.8689 Y31.4299
G1 X71.8626 Y31.4431
G1 X71.8577 Y31.4568
G1 X71.8542 Y31.471
G1 X71.852 Y31.4854
G1 X71.85 Y31.527
G1 F200.0 Z-4.2
G1 F700.0 Y61.473
G1 X71.852 Y61.5146
G1 X71.8542 Y61.529
G1 X71.8577 Y61.5432
G1 X71.8626 Y61.5569
G1 X71.8689 Y61.5701
G1 X71.8764 Y61.5826
G1 X71.8851 Y61.5943
G1 X71.8949 Y61.6051
G1 X71.9057 Y61.6149
G1 X71.9174 Y61.6236
G1 X71.9299 Y61.6311
G1 X71.9431 Y61.6374
G1 X71.9568 Y61.6423
G1 X71.971 Y61.6458
G1 X71.9854 Y61.648
G1 X72.0 Y61.6487
G1 X72.0146 Y61.648
G1 X72.029 Y61.6458
G1 X72.0432 Y61.6423
G1 X72.0569 Y61.6374
G1 X72.0701 Y61.6311
G1 X72.0826 Y61.6236
G1 X72.0943 Y61.6149
G1 X72.1051 Y61.6051
G1 X72.1149 Y61.5943
G1 X72.1236 Y61.5826
G1 X72.1311 Y61.5701
G1 X72.1374 Y61.5569
G1 X72.1423 Y61.5432
G1 X72.1458 Y61.529
G1 X72.148 Y61.5146
G1 X72.15 Y61.473
G1 Y31.527
G1 X72.148 Y31.4854
G1 X72.1458 Y31.471
G1 X72.1423 Y31.4568
G1 X72.1374 Y31.4431
G1 X72.1311 Y31.4299
G1 X72.1236 Y31.4174
G1 X72.1149 Y31.4057
G1 X72.1051 Y31.3949
G1 X72.0943 Y31.3851
G1 X72.0826 Y31.3764
G1 X72.0701 Y31.3689
G1 X72.0569 Y31.3626
G1 X72.0432 Y31.3577
G1 X72.029 Y31.3542
G1 X72.0146 Y31.352
G1 X72.0 Y31.3513
G1 X71.9854 Y31.352
G1 X71.971 Y31.3542
G1 X71.9568 Y31.3577
G1 X71.9431 Y31.3626
G1 X71.9299 Y31.3689
G1 X71.9174 Y31.3764
G1 X71.9057 Y31.3851
G1 X71.8949 Y31.3949
G1 X71.8851 Y31.4057
G1 X71.8764 Y31.4174
G1 X71.8689 Y31.4299
G1 X71.8626 Y31.4431
G1 X71.8577 Y31.4568
G1 X71.8542 Y31.471
G1 X71.852 Y31.4854
G1 X71.85 Y31.527
G0 Z3.0
G0 X87.85
G0 Z1.0
G1 F200.0 Z-0.3
G1 F700.0 Y61.473
G1 X87.852 Y61.5146
G1 X87.8542 Y61.529
G1 X87.8577 Y61.5432
G1 X87.8626 Y61.5569
G1 X87.8689 Y61.5701
G1 X87.8764 Y61.5826
G1 X87.8851 Y61.5943
G1 X87.8949 Y61.6051
G1 X87.9057 Y61.6149
G1 X87.9174 Y61.6236
G1 X87.9299 Y61.6311
G1 X87.9431 Y61.6374
G1 X87.9568 Y61.6423
G1 X87.971 Y61.6458
G1 X87.9854 Y61.648
G1 X88.0 Y61.6487
G1 X88.0146 Y61.648
G1 X88.029 Y61.6458
G1 X88.0432 Y61.6423
G1 X88.0569 Y61.6374
G1 X88.0701 Y61.6311
G1 X88.0826 Y61.6236
G1 X88.0943 Y61.6149
G1 X88.1051 Y61.6051
G1 X88.1149 Y61.5943
G1 X88.1236 Y61.5826
G1 X88.1311 Y61.5701
G1 X88.1374 Y61.5569
G1 X88.1423 Y61.5432
G1 X88.1458 Y61.529
G1 X88.148 Y61.5146
G1 X88.15 Y61.473
G1 Y31.527
G1 X88.148 Y31.4854
G1 X88.1458 Y31.471
G1 X88.1423 Y31.4568
G1 X88.1374 Y31.4431
G1 X88.1311 Y31.4299
G1 X88.1236 Y31.4174
G1 X88.1149 Y31.4057
G1 X88.1051 Y31.3949
G1 X88.0943 Y31.3851
G1 X88.0826 Y31.3764
G1 X88.0701 Y31.3689
G1 X88.0569 Y31.3626
G1 X88.0432 Y31.3577
G1 X88.029 Y31.3542
G1 X88.0146 Y31.352
G1 X88.0 Y31.3513
G1 X87.9854 Y31.352
G1 X87.971 Y31.3542
G1 X87.9568 Y31.3577
G1 X87.9431 Y31.3626
G1 X87.9299 Y31.3689
G1 X87.9174 Y31.3764
G1 X87.9057 Y31.3851
G1 X87.8949 Y31.3949
G1 X87.8851 Y31.4057
G1 X87.8764 Y31.4174
G1 X87.8689 Y31.4299
G1 X87.8626 Y31.4431
G1 X87.8577 Y31.4568
G1 X87.8542 Y31.471
G1 X87.852 Y31.4854
G1 X87.85 Y31.527
G1 F200.0 Z-0.6
G1 F700.0 Y61.473
G1 X87.852 Y61.5146
G1 X87.8542 Y61.529
G1 X87.8577 Y61.5432
G1 X87.8626 Y61.5569
G1 X87.8689 Y61.5701
G1 X87.8764 Y61.5826
G1 X87.8851 Y61.5943
G1 X87.8949 Y61.6051
G1 X87.9057 Y61.6149
G1 X87.9174 Y61.6236
G1 X87.9299 Y61.6311
G1 X87.9431 Y61.6374
G1 X87.9568 Y61.6423
G1 X87.971 Y61.6458
G1 X87.9854 Y61.648
G1 X88.0 Y61.6487
G1 X88.0146 Y61.648
G1 X88.029 Y61.6458
G1 X88.0432 Y61.6423
G1 X88.0569 Y61.6374
G1 X88.0701 Y61.6311
G1 X88.0826 Y61.6236
G1 X88.0943 Y61.6149
G1 X88.1051 Y61.6051
G1 X88.1149 Y61.5943
G1 X88.1236 Y61.5826
G1 X88.1311 Y61.5701
G1 X88.1374 Y61.5569
G1 X88.1423 Y61.5432
G1 X88.1458 Y61.529
G1 X88.148 Y61.5146
G1 X88.15 Y61.473
G1 Y31.527
G1 X88.148 Y31.4854
G1 X88.1458 Y31.471
G1 X88.1423 Y31.4568
G1 X88.1374 Y31.4431
G1 X88.1311 Y31.4299
G1 X88.1236 Y31.4174
G1 X88.1149 Y31.4057
G1 X88.1051 Y31.3949
G1 X88.0943 Y31.3851
G1 X88.0826 Y31.3764
G1 X88.0701 Y31.3689
G1 X88.0569 Y31.3626
G1 X88.0432 Y31.3577
G1 X88.029 Y31.3542
G1 X88.0146 Y31.352
G1 X88.0 Y31.3513
G1 X87.9854 Y31.352
G1 X87.971 Y31.3542
G1 X87.9568 Y31.3577
G1 X87.9431 Y31.3626
G1 X87.9299 Y31.3689
G1 X87.9174 Y31.3764
G1 X87.9057 Y31.3851
G1 X87.8949 Y31.3949
G1 X87.8851 Y31.4057
G1 X87.8764 Y31.4174
G1 X87.8689 Y31.4299
G1 X87.8626 Y31.4431
G1 X87.8577 Y31.4568
G1 X87.8542 Y31.471
G1 X87.852 Y31.4854
G1 X87.85 Y31.527
G1 F200.0 Z-0.9
G1 F700.0 Y61.473
G1 X87.852 Y61.5146
G1 X87.8542 Y61.529
G1 X87.8577 Y61.5432
G1 X87.8626 Y61.5569
G1 X87.8689 Y61.5701
G1 X87.8764 Y61.5826
G1 X87.8851 Y61.5943
G1 X87.8949 Y61.6051
G1 X87.9057 Y61.6149
G1 X87.9174 Y61.6236
G1 X87.9299 Y61.6311
G1 X87.9431 Y61.6374
G1 X87.9568 Y61.6423
G1 X87.971 Y61.6458
G1 X87.9854 Y61.648
G1 X88.0 Y61.6487
G1 X88.0146 Y61.648
G1 X88.029 Y61.6458
G1 X88.0432 Y61.6423
G1 X88.0569 Y61.6374
G1 X88.0701 Y61.6311
G1 X88.0826 Y61.6236
G1 X88.0943 Y61.6149
G1 X88.1051 Y61.6051
G1 X88.1149 Y61.5943
G1 X88.1236 Y61.5826
G1 X88.1311 Y61.5701
G1 X88.1374 Y61.5569
G1 X88.1423 Y61.5432
G1 X88.1458 Y61.529
G1 X88.148 Y61.5146
G1 X88.15 Y61.473
G1 Y31.527
G1 X88.148 Y31.4854
G1 X88.1458 Y31.471
G1 X88.1423 Y31.4568
G1 X88.1374 Y31.4431
G1 X88.1311 Y31.4299
G1 X88.1236 Y31.4174
G1 X88.1149 Y31.4057
G1 X88.1051 Y31.3949
G1 X88.0943 Y31.3851
G1 X88.0826 Y31.3764
G1 X88.0701 Y31.3689
G1 X88.0569 Y31.3626
G1 X88.0432 Y31.3577
G1 X88.029 Y31.3542
G1 X88.0146 Y31.352
G1 X88.0 Y31.3513
G1 X87.9854 Y31.352
G1 X87.971 Y31.3542
G1 X87.9568 Y31.3577
G1 X87.9431 Y31.3626
G1 X87.9299 Y31.3689
G1 X87.9174 Y31.3764
G1 X87.9057 Y31.3851
G1 X87.8949 Y31.3949
G1 X87.8851 Y31.4057
G1 X87.8764 Y31.4174
G1 X87.8689 Y31.4299
G1 X87.8626 Y31.4431
G1 X87.8577 Y31.4568
G1 X87.8542 Y31.471
G1 X87.852 Y31.4854
G1 X87.85 Y31.527
G1 F200.0 Z-1.2
G1 F700.0 Y61.473
G1 X87.852 Y61.5146
G1 X87.8542 Y61.529
G1 X87.8577 Y61.5432
G1 X87.8626 Y61.5569
G1 X87.8689 Y61.5701
G1 X87.8764 Y61.5826
G1 X87.8851 Y61.5943
G1 X87.8949 Y61.6051
G1 X87.9057 Y61.6149
G1 X87.9174 Y61.6236
G1 X87.9299 Y61.6311
G1 X87.9431 Y61.6374
G1 X87.9568 Y61.6423
G1 X87.971 Y61.6458
G1 X87.9854 Y61.648
G1 X88.0 Y61.6487
G1 X88.0146 Y61.648
G1 X88.029 Y61.6458
G1 X88.0432 Y61.6423
G1 X88.0569 Y61.6374
G1 X88.0701 Y61.6311
G1 X88.0826 Y61.6236
G1 X88.0943 Y61.6149
G1 X88.1051 Y61.6051
G1 X88.1149 Y61.5943
G1 X88.1236 Y61.5826
G1 X88.1311 Y61.5701
G1 X88.1374 Y61.5569
G1 X88.1423 Y61.5432
G1 X88.1458 Y61.529
G1 X88.148 Y61.5146
G1 X88.15 Y61.473
G1 Y31.527
G1 X88.148 Y31.4854
G1 X88.1458 Y31.471
G1 X88.1423 Y31.4568
G1 X88.1374 Y31.4431
G1 X88.1311 Y31.4299
G1 X88.1236 Y31.4174
G1 X88.1149 Y31.4057
G1 X88.1051 Y31.3949
G1 X88.0943 Y31.3851
G1 X88.0826 Y31.3764
G1 X88.0701 Y31.3689
G1 X88.0569 Y31.3626
G1 X88.0432 Y31.3577
G1 X88.029 Y31.3542
G1 X88.0146 Y31.352
G1 X88.0 Y31.3513
G1 X87.9854 Y31.352
G1 X87.971 Y31.3542
G1 X87.9568 Y31.3577
G1 X87.9431 Y31.3626
G1 X87.9299 Y31.3689
G1 X87.9174 Y31.3764
G1 X87.9057 Y31.3851
G1 X87.8949 Y31.3949
G1 X87.8851 Y31.4057
G1 X87.8764 Y31.4174
G1 X87.8689 Y31.4299
G1 X87.8626 Y31.4431
G1 X87.8577 Y31.4568
G1 X87.8542 Y31.471
G1 X87.852 Y31.4854
G1 X87.85 Y31.527
G1 F200.0 Z-1.5
G1 F700.0 Y61.473
G1 X87.852 Y61.5146
G1 X87.8542 Y61.529
G1 X87.8577 Y61.5432
G1 X87.8626 Y61.5569
G1 X87.8689 Y61.5701
G1 X87.8764 Y61.5826
G1 X87.8851 Y61.5943
G1 X87.8949 Y61.6051
G1 X87.9057 Y61.6149
G1 X87.9174 Y61.6236
G1 X87.9299 Y61.6311
G1 X87.9431 Y61.6374
G1 X87.9568 Y61.6423
G1 X87.971 Y61.6458
G1 X87.9854 Y61.648
G1 X88.0 Y61.6487
G1 X88.0146 Y61.648
G1 X88.029 Y61.6458
G1 X88.0432 Y61.6423
G1 X88.0569 Y61.6374
G1 X88.0701 Y61.6311
G1 X88.0826 Y61.6236
G1 X88.0943 Y61.6149
G1 X88.1051 Y61.6051
G1 X88.1149 Y61.5943
G1 X88.1236 Y61.5826
G1 X88.1311 Y61.5701
G1 X88.1374 Y61.5569
G1 X88.1423 Y61.5432
G1 X88.1458 Y61.529
G1 X88.148 Y61.5146
G1 X88.15 Y61.473
G1 Y31.527
G1 X88.148 Y31.4854
G1 X88.1458 Y31.471
G1 X88.1423 Y31.4568
G1 X88.1374 Y31.4431
G1 X88.1311 Y31.4299
G1 X88.1236 Y31.4174
G1 X88.1149 Y31.4057
G1 X88.1051 Y31.3949
G1 X88.0943 Y31.3851
G1 X88.0826 Y31.3764
G1 X88.0701 Y31.3689
G1 X88.0569 Y31.3626
G1 X88.0432 Y31.3577
G1 X88.029 Y31.3542
G1 X88.0146 Y31.352
G1 X88.0 Y31.3513
G1 X87.9854 Y31.352
G1 X87.971 Y31.3542
G1 X87.9568 Y31.3577
G1 X87.9431 Y31.3626
G1 X87.9299 Y31.3689
G1 X87.9174 Y31.3764
G1 X87.9057 Y31.3851
G1 X87.8949 Y31.3949
G1 X87.8851 Y31.4057
G1 X87.8764 Y31.4174
G1 X87.8689 Y31.4299
G1 X87.8626 Y31.4431
G1 X87.8577 Y31.4568
G1 X87.8542 Y31.471
G1 X87.852 Y31.4854
G1 X87.85 Y31.527
G1 F200.0 Z-1.8
G1 F700.0 Y61.473
G1 X87.852 Y61.5146
G1 X87.8542 Y61.529
G1 X87.8577 Y61.5432
G1 X87.8626 Y61.5569
G1 X87.8689 Y61.5701
G1 X87.8764 Y61.5826
G1 X87.8851 Y61.5943
G1 X87.8949 Y61.6051
G1 X87.9057 Y61.6149
G1 X87.9174 Y61.6236
G1 X87.9299 Y61.6311
G1 X87.9431 Y61.6374
G1 X87.9568 Y61.6423
G1 X87.971 Y61.6458
G1 X87.9854 Y61.648
G1 X88.0 Y61.6487
G1 X88.0146 Y61.648
G1 X88.029 Y61.6458
G1 X88.0432 Y61.6423
G1 X88.0569 Y61.6374
G1 X88.0701 Y61.6311
G1 X88.0826 Y61.6236
G1 X88.0943 Y61.6149
G1 X88.1051 Y61.6051
G1 X88.1149 Y61.5943
G1 X88.1236 Y61.5826
G1 X88.1311 Y61.5701
G1 X88.1374 Y61.5569
G1 X88.1423 Y61.5432
G1 X88.1458 Y61.529
G1 X88.148 Y61.5146
G1 X88.15 Y61.473
G1 Y31.527
G1 X88.148 Y31.4854
G1 X88.1458 Y31.471
G1 X88.1423 Y31.4568
G1 X88.1374 Y31.4431
G1 X88.1311 Y31.4299
G1 X88.1236 Y31.4174
G1 X88.1149 Y31.4057
G1 X88.1051 Y31.3949
G1 X88.0943 Y31.3851
G1 X88.0826 Y31.3764
G1 X88.0701 Y31.3689
G1 X88.0569 Y31.3626
G1 X88.0432 Y31.3577
G1 X88.029 Y31.3542
G1 X88.0146 Y31.352
G1 X88.0 Y31.3513
G1 X87.9854 Y31.352
G1 X87.971 Y31.3542
G1 X87.9568 Y31.3577
G1 X87.9431 Y31.3626
G1 X87.9299 Y31.3689
G1 X87.9174 Y31.3764
G1 X87.9057 Y31.3851
G1 X87.8949 Y31.3949
G1 X87.8851 Y31.4057
G1 X87.8764 Y31.4174
G1 X87.8689 Y31.4299
G1 X87.8626 Y31.4431
G1 X87.8577 Y31.4568
G1 X87.8542 Y31.471
G1 X87.852 Y31.4854
G1 X87.85 Y31.527
G1 F200.0 Z-2.1
G1 F700.0 Y61.473
G1 X87.852 Y61.5146
G1 X87.8542 Y61.529
G1 X87.8577 Y61.5432
G1 X87.8626 Y61.5569
G1 X87.8689 Y61.5701
G1 X87.8764 Y61.5826
G1 X87.8851 Y61.5943
G1 X87.8949 Y61.6051
G1 X87.9057 Y61.6149
G1 X87.9174 Y61.6236
G1 X87.9299 Y61.6311
G1 X87.9431 Y61.6374
G1 X87.9568 Y61.6423
G1 X87.971 Y61.6458
G1 X87.9854 Y61.648
G1 X88.0 Y61.6487
G1 X88.0146 Y61.648
G1 X88.029 Y61.6458
G1 X88.0432 Y61.6423
G1 X88.0569 Y61.6374
G1 X88.0701 Y61.6311
G1 X88.0826 Y61.6236
G1 X88.0943 Y61.6149
G1 X88.1051 Y61.6051
G1 X88.1149 Y61.5943
G1 X88.1236 Y61.5826
G1 X88.1311 Y61.5701
G1 X88.1374 Y61.5569
G1 X88.1423 Y61.5432
G1 X88.1458 Y61.529
G1 X88.148 Y61.5146
G1 X88.15 Y61.473
G1 Y31.527
G1 X88.148 Y31.4854
G1 X88.1458 Y31.471
G1 X88.1423 Y31.4568
G1 X88.1374 Y31.4431
G1 X88.1311 Y31.4299
G1 X88.1236 Y31.4174
G1 X88.1149 Y31.4057
G1 X88.1051 Y31.3949
G1 X88.0943 Y31.3851
G1 X88.0826 Y31.3764
G1 X88.0701 Y31.3689
G1 X88.0569 Y31.3626
G1 X88.0432 Y31.3577
G1 X88.029 Y31.3542
G1 X88.0146 Y31.352
G1 X88.0 Y31.3513
G1 X87.9854 Y31.352
G1 X87.971 Y31.3542
G1 X87.9568 Y31.3577
G1 X87.9431 Y31.3626
G1 X87.9299 Y31.3689
G1 X87.9174 Y31.3764
G1 X87.9057 Y31.3851
G1 X87.8949 Y31.3949
G1 X87.8851 Y31.4057
G1 X87.8764 Y31.4174
G1 X87.8689 Y31.4299
G1 X87.8626 Y31.4431
G1 X87.8577 Y31.4568
G1 X87.8542 Y31.471
G1 X87.852 Y31.4854
G1 X87.85 Y31.527
G1 F200.0 Z-2.4
G1 F700.0 Y61.473
G1 X87.852 Y61.5146
G1 X87.8542 Y61.529
G1 X87.8577 Y61.5432
G1 X87.8626 Y61.5569
G1 X87.8689 Y61.5701
G1 X87.8764 Y61.5826
G1 X87.8851 Y61.5943
G1 X87.8949 Y61.6051
G1 X87.9057 Y61.6149
G1 X87.9174 Y61.6236
G1 X87.9299 Y61.6311
G1 X87.9431 Y61.6374
G1 X87.9568 Y61.6423
G1 X87.971 Y61.6458
G1 X87.9854 Y61.648
G1 X88.0 Y61.6487
G1 X88.0146 Y61.648
G1 X88.029 Y61.6458
G1 X88.0432 Y61.6423
G1 X88.0569 Y61.6374
G1 X88.0701 Y61.6311
G1 X88.0826 Y61.6236
G1 X88.0943 Y61.6149
G1 X88.1051 Y61.6051
G1 X88.1149 Y61.5943
G1 X88.1236 Y61.5826
G1 X88.1311 Y61.5701
G1 X88.1374 Y61.5569
G1 X88.1423 Y61.5432
G1 X88.1458 Y61.529
G1 X88.148 Y61.5146
G1 X88.15 Y61.473
G1 Y31.527
G1 X88.148 Y31.4854
G1 X88.1458 Y31.471
G1 X88.1423 Y31.4568
G1 X88.1374 Y31.4431
G1 X88.1311 Y31.4299
G1 X88.1236 Y31.4174
G1 X88.1149 Y31.4057
G1 X88.1051 Y31.3949
G1 X88.0943 Y31.3851
G1 X88.0826 Y31.3764
G1 X88.0701 Y31.3689
G1 X88.0569 Y31.3626
G1 X88.0432 Y31.3577
G1 X88.029 Y31.3542
G1 X88.0146 Y31.352
G1 X88.0 Y31.3513
G1 X87.9854 Y31.352
G1 X87.971 Y31.3542
G1 X87.9568 Y31.3577
G1 X87.9431 Y31.3626
G1 X87.9299 Y31.3689
G1 X87.9174 Y31.3764
G1 X87.9057 Y31.3851
G1 X87.8949 Y31.3949
G1 X87.8851 Y31.4057
G1 X87.8764 Y31.4174
G1 X87.8689 Y31.4299
G1 X87.8626 Y31.4431
G1 X87.8577 Y31.4568
G1 X87.8542 Y31.471
G1 X87.852 Y31.4854
G1 X87.85 Y31.527
G1 F200.0 Z-2.7
G1 F700.0 Y61.473
G1 X87.852 Y61.5146
G1 X87.8542 Y61.529
G1 X87.8577 Y61.5432
G1 X87.8626 Y61.5569
G1 X87.8689 Y61.5701
G1 X87.8764 Y61.5826
G1 X87.8851 Y61.5943
G1 X87.8949 Y61.6051
G1 X87.9057 Y61.6149
G1 X87.9174 Y61.6236
G1 X87.9299 Y61.6311
G1 X87.9431 Y61.6374
G1 X87.9568 Y61.6423
G1 X87.971 Y61.6458
G1 X87.9854 Y61.648
G1 X88.0 Y61.6487
G1 X88.0146 Y61.648
G1 X88.029 Y61.6458
G1 X88.0432 Y61.6423
G1 X88.0569 Y61.6374
G1 X88.0701 Y61.6311
G1 X88.0826 Y61.6236
G1 X88.0943 Y61.6149
G1 X88.1051 Y61.6051
G1 X88.1149 Y61.5943
G1 X88.1236 Y61.5826
G1 X88.1311 Y61.5701
G1 X88.1374 Y61.5569
G1 X88.1423 Y61.5432
G1 X88.1458 Y61.529
G1 X88.148 Y61.5146
G1 X88.15 Y61.473
G1 Y31.527
G1 X88.148 Y31.4854
G1 X88.1458 Y31.471
G1 X88.1423 Y31.4568
G1 X88.1374 Y31.4431
G1 X88.1311 Y31.4299
G1 X88.1236 Y31.4174
G1 X88.1149 Y31.4057
G1 X88.1051 Y31.3949
G1 X88.0943 Y31.3851
G1 X88.0826 Y31.3764
G1 X88.0701 Y31.3689
G1 X88.0569 Y31.3626
G1 X88.0432 Y31.3577
G1 X88.029 Y31.3542
G1 X88.0146 Y31.352
G1 X88.0 Y31.3513
G1 X87.9854 Y31.352
G1 X87.971 Y31.3542
G1 X87.9568 Y31.3577
G1 X87.9431 Y31.3626
G1 X87.9299 Y31.3689
G1 X87.9174 Y31.3764
G1 X87.9057 Y31.3851
G1 X87.8949 Y31.3949
G1 X87.8851 Y31.4057
G1 X87.8764 Y31.4174
G1 X87.8689 Y31.4299
G1 X87.8626 Y31.4431
G1 X87.8577 Y31.4568
G1 X87.8542 Y31.471
G1 X87.852 Y31.4854
G1 X87.85 Y31.527
G1 F200.0 Z-3.0
G1 F700.0 Y61.473
G1 X87.852 Y61.5146
G1 X87.8542 Y61.529
G1 X87.8577 Y61.5432
G1 X87.8626 Y61.5569
G1 X87.8689 Y61.5701
G1 X87.8764 Y61.5826
G1 X87.8851 Y61.5943
G1 X87.8949 Y61.6051
G1 X87.9057 Y61.6149
G1 X87.9174 Y61.6236
G1 X87.9299 Y61.6311
G1 X87.9431 Y61.6374
G1 X87.9568 Y61.6423
G1 X87.971 Y61.6458
G1 X87.9854 Y61.648
G1 X88.0 Y61.6487
G1 X88.0146 Y61.648
G1 X88.029 Y61.6458
G1 X88.0432 Y61.6423
G1 X88.0569 Y61.6374
G1 X88.0701 Y61.6311
G1 X88.0826 Y61.6236
G1 X88.0943 Y61.6149
G1 X88.1051 Y61.6051
G1 X88.1149 Y61.5943
G1 X88.1236 Y61.5826
G1 X88.1311 Y61.5701
G1 X88.1374 Y61.5569
G1 X88.1423 Y61.5432
G1 X88.1458 Y61.529
G1 X88.148 Y61.5146
G1 X88.15 Y61.473
G1 Y31.527
G1 X88.148 Y31.4854
G1 X88.1458 Y31.471
G1 X88.1423 Y31.4568
G1 X88.1374 Y31.4431
G1 X88.1311 Y31.4299
G1 X88.1236 Y31.4174
G1 X88.1149 Y31.4057
G1 X88.1051 Y31.3949
G1 X88.0943 Y31.3851
G1 X88.0826 Y31.3764
G1 X88.0701 Y31.3689
G1 X88.0569 Y31.3626
G1 X88.0432 Y31.3577
G1 X88.029 Y31.3542
G1 X88.0146 Y31.352
G1 X88.0 Y31.3513
G1 X87.9854 Y31.352
G1 X87.971 Y31.3542
G1 X87.9568 Y31.3577
G1 X87.9431 Y31.3626
G1 X87.9299 Y31.3689
G1 X87.9174 Y31.3764
G1 X87.9057 Y31.3851
G1 X87.8949 Y31.3949
G1 X87.8851 Y31.4057
G1 X87.8764 Y31.4174
G1 X87.8689 Y31.4299
G1 X87.8626 Y31.4431
G1 X87.8577 Y31.4568
G1 X87.8542 Y31.471
G1 X87.852 Y31.4854
G1 X87.85 Y31.527
G1 F200.0 Z-3.3
G1 F700.0 Y61.473
G1 X87.852 Y61.5146
G1 X87.8542 Y61.529
G1 X87.8577 Y61.5432
G1 X87.8626 Y61.5569
G1 X87.8689 Y61.5701
G1 X87.8764 Y61.5826
G1 X87.8851 Y61.5943
G1 X87.8949 Y61.6051
G1 X87.9057 Y61.6149
G1 X87.9174 Y61.6236
G1 X87.9299 Y61.6311
G1 X87.9431 Y61.6374
G1 X87.9568 Y61.6423
G1 X87.971 Y61.6458
G1 X87.9854 Y61.648
G1 X88.0 Y61.6487
G1 X88.0146 Y61.648
G1 X88.029 Y61.6458
G1 X88.0432 Y61.6423
G1 X88.0569 Y61.6374
G1 X88.0701 Y61.6311
G1 X88.0826 Y61.6236
G1 X88.0943 Y61.6149
G1 X88.1051 Y61.6051
G1 X88.1149 Y61.5943
G1 X88.1236 Y61.5826
G1 X88.1311 Y61.5701
G1 X88.1374 Y61.5569
G1 X88.1423 Y61.5432
G1 X88.1458 Y61.529
G1 X88.148 Y61.5146
G1 X88.15 Y61.473
G1 Y31.527
G1 X88.148 Y31.4854
G1 X88.1458 Y31.471
G1 X88.1423 Y31.4568
G1 X88.1374 Y31.4431
G1 X88.1311 Y31.4299
G1 X88.1236 Y31.4174
G1 X88.1149 Y31.4057
G1 X88.1051 Y31.3949
G1 X88.0943 Y31.3851
G1 X88.0826 Y31.3764
G1 X88.0701 Y31.3689
G1 X88.0569 Y31.3626
G1 X88.0432 Y31.3577
G1 X88.029 Y31.3542
G1 X88.0146 Y31.352
G1 X88.0 Y31.3513
G1 X87.9854 Y31.352
G1 X87.971 Y31.3542
G1 X87.9568 Y31.3577
G1 X87.9431 Y31.3626
G1 X87.9299 Y31.3689
G1 X87.9174 Y31.3764
G1 X87.9057 Y31.3851
G1 X87.8949 Y31.3949
G1 X87.8851 Y31.4057
G1 X87.8764 Y31.4174
G1 X87.8689 Y31.4299
G1 X87.8626 Y31.4431
G1 X87.8577 Y31.4568
G1 X87.8542 Y31.471
G1 X87.852 Y31.4854
G1 X87.85 Y31.527
G1 F200.0 Z-3.6
G1 F700.0 Y61.473
G1 X87.852 Y61.5146
G1 X87.8542 Y61.529
G1 X87.8577 Y61.5432
G1 X87.8626 Y61.5569
G1 X87.8689 Y61.5701
G1 X87.8764 Y61.5826
G1 X87.8851 Y61.5943
G1 X87.8949 Y61.6051
G1 X87.9057 Y61.6149
G1 X87.9174 Y61.6236
G1 X87.9299 Y61.6311
G1 X87.9431 Y61.6374
G1 X87.9568 Y61.6423
G1 X87.971 Y61.6458
G1 X87.9854 Y61.648
G1 X88.0 Y61.6487
G1 X88.0146 Y61.648
G1 X88.029 Y61.6458
G1 X88.0432 Y61.6423
G1 X88.0569 Y61.6374
G1 X88.0701 Y61.6311
G1 X88.0826 Y61.6236
G1 X88.0943 Y61.6149
G1 X88.1051 Y61.6051
G1 X88.1149 Y61.5943
G1 X88.1236 Y61.5826
G1 X88.1311 Y61.5701
G1 X88.1374 Y61.5569
G1 X88.1423 Y61.5432
G1 X88.1458 Y61.529
G1 X88.148 Y61.5146
G1 X88.15 Y61.473
G1 Y31.527
G1 X88.148 Y31.4854
G1 X88.1458 Y31.471
G1 X88.1423 Y31.4568
G1 X88.1374 Y31.4431
G1 X88.1311 Y31.4299
G1 X88.1236 Y31.4174
G1 X88.1149 Y31.4057
G1 X88.1051 Y31.3949
G1 X88.0943 Y31.3851
G1 X88.0826 Y31.3764
G1 X88.0701 Y31.3689
G1 X88.0569 Y31.3626
G1 X88.0432 Y31.3577
G1 X88.029 Y31.3542
G1 X88.0146 Y31.352
G1 X88.0 Y31.3513
G1 X87.9854 Y31.352
G1 X87.971 Y31.3542
G1 X87.9568 Y31.3577
G1 X87.9431 Y31.3626
G1 X87.9299 Y31.3689
G1 X87.9174 Y31.3764
G1 X87.9057 Y31.3851
G1 X87.8949 Y31.3949
G1 X87.8851 Y31.4057
G1 X87.8764 Y31.4174
G1 X87.8689 Y31.4299
G1 X87.8626 Y31.4431
G1 X87.8577 Y31.4568
G1 X87.8542 Y31.471
G1 X87.852 Y31.4854
G1 X87.85 Y31.527
G1 F200.0 Z-3.9
G1 F700.0 Y61.473
G1 X87.852 Y61.5146
G1 X87.8542 Y61.529
G1 X87.8577 Y61.5432
G1 X87.8626 Y61.5569
G1 X87.8689 Y61.5701
G1 X87.8764 Y61.5826
G1 X87.8851 Y61.5943
G1 X87.8949 Y61.6051
G1 X87.9057 Y61.6149
G1 X87.9174 Y61.6236
G1 X87.9299 Y61.6311
G1 X87.9431 Y61.6374
G1 X87.9568 Y61.6423
G1 X87.971 Y61.6458
G1 X87.9854 Y61.648
G1 X88.0 Y61.6487
G1 X88.0146 Y61.648
G1 X88.029 Y61.6458
G1 X88.0432 Y61.6423
G1 X88.0569 Y61.6374
G1 X88.0701 Y61.6311
G1 X88.0826 Y61.6236
G1 X88.0943 Y61.6149
G1 X88.1051 Y61.6051
G1 X88.1149 Y61.5943
G1 X88.1236 Y61.5826
G1 X88.1311 Y61.5701
G1 X88.1374 Y61.5569
G1 X88.1423 Y61.5432
G1 X88.1458 Y61.529
G1 X88.148 Y61.5146
G1 X88.15 Y61.473
G1 Y31.527
G1 X88.148 Y31.4854
G1 X88.1458 Y31.471
G1 X88.1423 Y31.4568
G1 X88.1374 Y31.4431
G1 X88.1311 Y31.4299
G1 X88.1236 Y31.4174
G1 X88.1149 Y31.4057
G1 X88.1051 Y31.3949
G1 X88.0943 Y31.3851
G1 X88.0826 Y31.3764
G1 X88.0701 Y31.3689
G1 X88.0569 Y31.3626
G1 X88.0432 Y31.3577
G1 X88.029 Y31.3542
G1 X88.0146 Y31.352
G1 X88.0 Y31.3513
G1 X87.9854 Y31.352
G1 X87.971 Y31.3542
G1 X87.9568 Y31.3577
G1 X87.9431 Y31.3626
G1 X87.9299 Y31.3689
G1 X87.9174 Y31.3764
G1 X87.9057 Y31.3851
G1 X87.8949 Y31.3949
G1 X87.8851 Y31.4057
G1 X87.8764 Y31.4174
G1 X87.8689 Y31.4299
G1 X87.8626 Y31.4431
G1 X87.8577 Y31.4568
G1 X87.8542 Y31.471
G1 X87.852 Y31.4854
G1 X87.85 Y31.527
G1 F200.0 Z-4.1
G1 F700.0 Y61.473
G1 X87.852 Y61.5146
G1 X87.8542 Y61.529
G1 X87.8577 Y61.5432
G1 X87.8626 Y61.5569
G1 X87.8689 Y61.5701
G1 X87.8764 Y61.5826
G1 X87.8851 Y61.5943
G1 X87.8949 Y61.6051
G1 X87.9057 Y61.6149
G1 X87.9174 Y61.6236
G1 X87.9299 Y61.6311
G1 X87.9431 Y61.6374
G1 X87.9568 Y61.6423
G1 X87.971 Y61.6458
G1 X87.9854 Y61.648
G1 X88.0 Y61.6487
G1 X88.0146 Y61.648
G1 X88.029 Y61.6458
G1 X88.0432 Y61.6423
G1 X88.0569 Y61.6374
G1 X88.0701 Y61.6311
G1 X88.0826 Y61.6236
G1 X88.0943 Y61.6149
G1 X88.1051 Y61.6051
G1 X88.1149 Y61.5943
G1 X88.1236 Y61.5826
G1 X88.1311 Y61.5701
G1 X88.1374 Y61.5569
G1 X88.1423 Y61.5432
G1 X88.1458 Y61.529
G1 X88.148 Y61.5146
G1 X88.15 Y61.473
G1 Y31.527
G1 X88.148 Y31.4854
G1 X88.1458 Y31.471
G1 X88.1423 Y31.4568
G1 X88.1374 Y31.4431
G1 X88.1311 Y31.4299
G1 X88.1236 Y31.4174
G1 X88.1149 Y31.4057
G1 X88.1051 Y31.3949
G1 X88.0943 Y31.3851
G1 X88.0826 Y31.3764
G1 X88.0701 Y31.3689
G1 X88.0569 Y31.3626
G1 X88.0432 Y31.3577
G1 X88.029 Y31.3542
G1 X88.0146 Y31.352
G1 X88.0 Y31.3513
G1 X87.9854 Y31.352
G1 X87.971 Y31.3542
G1 X87.9568 Y31.3577
G1 X87.9431 Y31.3626
G1 X87.9299 Y31.3689
G1 X87.9174 Y31.3764
G1 X87.9057 Y31.3851
G1 X87.8949 Y31.3949
G1 X87.8851 Y31.4057
G1 X87.8764 Y31.4174
G1 X87.8689 Y31.4299
G1 X87.8626 Y31.4431
G1 X87.8577 Y31.4568
G1 X87.8542 Y31.471
G1 X87.852 Y31.4854
G1 X87.85 Y31.527
G1 F200.0 Z-4.2
G1 F700.0 Y61.473
G1 X87.852 Y61.5146
G1 X87.8542 Y61.529
G1 X87.8577 Y61.5432
G1 X87.8626 Y61.5569
G1 X87.8689 Y61.5701
G1 X87.8764 Y61.5826
G1 X87.8851 Y61.5943
G1 X87.8949 Y61.6051
G1 X87.9057 Y61.6149
G1 X87.9174 Y61.6236
G1 X87.9299 Y61.6311
G1 X87.9431 Y61.6374
G1 X87.9568 Y61.6423
G1 X87.971 Y61.6458
G1 X87.9854 Y61.648
G1 X88.0 Y61.6487
G1 X88.0146 Y61.648
G1 X88.029 Y61.6458
G1 X88.0432 Y61.6423
G1 X88.0569 Y61.6374
G1 X88.0701 Y61.6311
G1 X88.0826 Y61.6236
G1 X88.0943 Y61.6149
G1 X88.1051 Y61.6051
G1 X88.1149 Y61.5943
G1 X88.1236 Y61.5826
G1 X88.1311 Y61.5701
G1 X88.1374 Y61.5569
G1 X88.1423 Y61.5432
G1 X88.1458 Y61.529
G1 X88.148 Y61.5146
G1 X88.15 Y61.473
G1 Y31.527
G1 X88.148 Y31.4854
G1 X88.1458 Y31.471
G1 X88.1423 Y31.4568
G1 X88.1374 Y31.4431
G1 X88.1311 Y31.4299
G1 X88.1236 Y31.4174
G1 X88.1149 Y31.4057
G1 X88.1051 Y31.3949
G1 X88.0943 Y31.3851
G1 X88.0826 Y31.3764
G1 X88.0701 Y31.3689
G1 X88.0569 Y31.3626
G1 X88.0432 Y31.3577
G1 X88.029 Y31.3542
G1 X88.0146 Y31.352
G1 X88.0 Y31.3513
G1 X87.9854 Y31.352
G1 X87.971 Y31.3542
G1 X87.9568 Y31.3577
G1 X87.9431 Y31.3626
G1 X87.9299 Y31.3689
G1 X87.9174 Y31.3764
G1 X87.9057 Y31.3851
G1 X87.8949 Y31.3949
G1 X87.8851 Y31.4057
G1 X87.8764 Y31.4174
G1 X87.8689 Y31.4299
G1 X87.8626 Y31.4431
G1 X87.8577 Y31.4568
G1 X87.8542 Y31.471
G1 X87.852 Y31.4854
G1 X87.85 Y31.527
G0 Z3.0
G0 X103.85
G0 Z1.0
G1 F200.0 Z-0.3
G1 F700.0 Y61.473
G1 X103.852 Y61.5146
G1 X103.8542 Y61.529
G1 X103.8577 Y61.5432
G1 X103.8626 Y61.5569
G1 X103.8689 Y61.5701
G1 X103.8764 Y61.5826
G1 X103.8851 Y61.5943
G1 X103.8949 Y61.6051
G1 X103.9057 Y61.6149
G1 X103.9174 Y61.6236
G1 X103.9299 Y61.6311
G1 X103.9431 Y61.6374
G1 X103.9568 Y61.6423
G1 X103.971 Y61.6458
G1 X103.9854 Y61.648
G1 X104.0 Y61.6487
G1 X104.0146 Y61.648
G1 X104.029 Y61.6458
G1 X104.0432 Y61.6423
G1 X104.0569 Y61.6374
G1 X104.0701 Y61.6311
G1 X104.0826 Y61.6236
G1 X104.0943 Y61.6149
G1 X104.1051 Y61.6051
G1 X104.1149 Y61.5943
G1 X104.1236 Y61.5826
G1 X104.1311 Y61.5701
G1 X104.1374 Y61.5569
G1 X104.1423 Y61.5432
G1 X104.1458 Y61.529
G1 X104.148 Y61.5146
G1 X104.15 Y61.473
G1 Y31.527
G1 X104.148 Y31.4854
G1 X104.1458 Y31.471
G1 X104.1423 Y31.4568
G1 X104.1374 Y31.4431
G1 X104.1311 Y31.4299
G1 X104.1236 Y31.4174
G1 X104.1149 Y31.4057
G1 X104.1051 Y31.3949
G1 X104.0943 Y31.3851
G1 X104.0826 Y31.3764
G1 X104.0701 Y31.3689
G1 X104.0569 Y31.3626
G1 X104.0432 Y31.3577
G1 X104.029 Y31.3542
G1 X104.0146 Y31.352
G1 X104.0 Y31.3513
G1 X103.9854 Y31.352
G1 X103.971 Y31.3542
G1 X103.9568 Y31.3577
G1 X103.9431 Y31.3626
G1 X103.9299 Y31.3689
G1 X103.9174 Y31.3764
G1 X103.9057 Y31.3851
G1 X103.8949 Y31.3949
G1 X103.8851 Y31.4057
G1 X103.8764 Y31.4174
G1 X103.8689 Y31.4299
G1 X103.8626 Y31.4431
G1 X103.8577 Y31.4568
G1 X103.8542 Y31.471
G1 X103.852 Y31.4854
G1 X103.85 Y31.527
G1 F200.0 Z-0.6
G1 F700.0 Y61.473
G1 X103.852 Y61.5146
G1 X103.8542 Y61.529
G1 X103.8577 Y61.5432
G1 X103.8626 Y61.5569
G1 X103.8689 Y61.5701
G1 X103.8764 Y61.5826
G1 X103.8851 Y61.5943
G1 X103.8949 Y61.6051
G1 X103.9057 Y61.6149
G1 X103.9174 Y61.6236
G1 X103.9299 Y61.6311
G1 X103.9431 Y61.6374
G1 X103.9568 Y61.6423
G1 X103.971 Y61.6458
G1 X103.9854 Y61.648
G1 X104.0 Y61.6487
G1 X104.0146 Y61.648
G1 X104.029 Y61.6458
G1 X104.0432 Y61.6423
G1 X104.0569 Y61.6374
G1 X104.0701 Y61.6311
G1 X104.0826 Y61.6236
G1 X104.0943 Y61.6149
G1 X104.1051 Y61.6051
G1 X104.1149 Y61.5943
G1 X104.1236 Y61.5826
G1 X104.1311 Y61.5701
G1 X104.1374 Y61.5569
G1 X104.1423 Y61.5432
G1 X104.1458 Y61.529
G1 X104.148 Y61.5146
G1 X104.15 Y61.473
G1 Y31.527
G1 X104.148 Y31.4854
G1 X104.1458 Y31.471
G1 X104.1423 Y31.4568
G1 X104.1374 Y31.4431
G1 X104.1311 Y31.4299
G1 X104.1236 Y31.4174
G1 X104.1149 Y31.4057
G1 X104.1051 Y31.3949
G1 X104.0943 Y31.3851
G1 X104.0826 Y31.3764
G1 X104.0701 Y31.3689
G1 X104.0569 Y31.3626
G1 X104.0432 Y31.3577
G1 X104.029 Y31.3542
G1 X104.0146 Y31.352
G1 X104.0 Y31.3513
G1 X103.9854 Y31.352
G1 X103.971 Y31.3542
G1 X103.9568 Y31.3577
G1 X103.9431 Y31.3626
G1 X103.9299 Y31.3689
G1 X103.9174 Y31.3764
G1 X103.9057 Y31.3851
G1 X103.8949 Y31.3949
G1 X103.8851 Y31.4057
G1 X103.8764 Y31.4174
G1 X103.8689 Y31.4299
G1 X103.8626 Y31.4431
G1 X103.8577 Y31.4568
G1 X103.8542 Y31.471
G1 X103.852 Y31.4854
G1 X103.85 Y31.527
G1 F200.0 Z-0.9
G1 F700.0 Y61.473
G1 X103.852 Y61.5146
G1 X103.8542 Y61.529
G1 X103.8577 Y61.5432
G1 X103.8626 Y61.5569
G1 X103.8689 Y61.5701
G1 X103.8764 Y61.5826
G1 X103.8851 Y61.5943
G1 X103.8949 Y61.6051
G1 X103.9057 Y61.6149
G1 X103.9174 Y61.6236
G1 X103.9299 Y61.6311
G1 X103.9431 Y61.6374
G1 X103.9568 Y61.6423
G1 X103.971 Y61.6458
G1 X103.9854 Y61.648
G1 X104.0 Y61.6487
G1 X104.0146 Y61.648
G1 X104.029 Y61.6458
G1 X104.0432 Y61.6423
G1 X104.0569 Y61.6374
G1 X104.0701 Y61.6311
G1 X104.0826 Y61.6236
G1 X104.0943 Y61.6149
G1 X104.1051 Y61.6051
G1 X104.1149 Y61.5943
G1 X104.1236 Y61.5826
G1 X104.1311 Y61.5701
G1 X104.1374 Y61.5569
G1 X104.1423 Y61.5432
G1 X104.1458 Y61.529
G1 X104.148 Y61.5146
G1 X104.15 Y61.473
G1 Y31.527
G1 X104.148 Y31.4854
G1 X104.1458 Y31.471
G1 X104.1423 Y31.4568
G1 X104.1374 Y31.4431
G1 X104.1311 Y31.4299
G1 X104.1236 Y31.4174
G1 X104.1149 Y31.4057
G1 X104.1051 Y31.3949
G1 X104.0943 Y31.3851
G1 X104.0826 Y31.3764
G1 X104.0701 Y31.3689
G1 X104.0569 Y31.3626
G1 X104.0432 Y31.3577
G1 X104.029 Y31.3542
G1 X104.0146 Y31.352
G1 X104.0 Y31.3513
G1 X103.9854 Y31.352
G1 X103.971 Y31.3542
G1 X103.9568 Y31.3577
G1 X103.9431 Y31.3626
G1 X103.9299 Y31.3689
G1 X103.9174 Y31.3764
G1 X103.9057 Y31.3851
G1 X103.8949 Y31.3949
G1 X103.8851 Y31.4057
G1 X103.8764 Y31.4174
G1 X103.8689 Y31.4299
G1 X103.8626 Y31.4431
G1 X103.8577 Y31.4568
G1 X103.8542 Y31.471
G1 X103.852 Y31.4854
G1 X103.85 Y31.527
G1 F200.0 Z-1.2
G1 F700.0 Y61.473
G1 X103.852 Y61.5146
G1 X103.8542 Y61.529
G1 X103.8577 Y61.5432
G1 X103.8626 Y61.5569
G1 X103.8689 Y61.5701
G1 X103.8764 Y61.5826
G1 X103.8851 Y61.5943
G1 X103.8949 Y61.6051
G1 X103.9057 Y61.6149
G1 X103.9174 Y61.6236
G1 X103.9299 Y61.6311
G1 X103.9431 Y61.6374
G1 X103.9568 Y61.6423
G1 X103.971 Y61.6458
G1 X103.9854 Y61.648
G1 X104.0 Y61.6487
G1 X104.0146 Y61.648
G1 X104.029 Y61.6458
G1 X104.0432 Y61.6423
G1 X104.0569 Y61.6374
G1 X104.0701 Y61.6311
G1 X104.0826 Y61.6236
G1 X104.0943 Y61.6149
G1 X104.1051 Y61.6051
G1 X104.1149 Y61.5943
G1 X104.1236 Y61.5826
G1 X104.1311 Y61.5701
G1 X104.1374 Y61.5569
G1 X104.1423 Y61.5432
G1 X104.1458 Y61.529
G1 X104.148 Y61.5146
G1 X104.15 Y61.473
G1 Y31.527
G1 X104.148 Y31.4854
G1 X104.1458 Y31.471
G1 X104.1423 Y31.4568
G1 X104.1374 Y31.4431
G1 X104.1311 Y31.4299
G1 X104.1236 Y31.4174
G1 X104.1149 Y31.4057
G1 X104.1051 Y31.3949
G1 X104.0943 Y31.3851
G1 X104.0826 Y31.3764
G1 X104.0701 Y31.3689
G1 X104.0569 Y31.3626
G1 X104.0432 Y31.3577
G1 X104.029 Y31.3542
G1 X104.0146 Y31.352
G1 X104.0 Y31.3513
G1 X103.9854 Y31.352
G1 X103.971 Y31.3542
G1 X103.9568 Y31.3577
G1 X103.9431 Y31.3626
G1 X103.9299 Y31.3689
G1 X103.9174 Y31.3764
G1 X103.9057 Y31.3851
G1 X103.8949 Y31.3949
G1 X103.8851 Y31.4057
G1 X103.8764 Y31.4174
G1 X103.8689 Y31.4299
G1 X103.8626 Y31.4431
G1 X103.8577 Y31.4568
G1 X103.8542 Y31.471
G1 X103.852 Y31.4854
G1 X103.85 Y31.527
G1 F200.0 Z-1.5
G1 F700.0 Y61.473
G1 X103.852 Y61.5146
G1 X103.8542 Y61.529
G1 X103.8577 Y61.5432
G1 X103.8626 Y61.5569
G1 X103.8689 Y61.5701
G1 X103.8764 Y61.5826
G1 X103.8851 Y61.5943
G1 X103.8949 Y61.6051
G1 X103.9057 Y61.6149
G1 X103.9174 Y61.6236
G1 X103.9299 Y61.6311
G1 X103.9431 Y61.6374
G1 X103.9568 Y61.6423
G1 X103.971 Y61.6458
G1 X103.9854 Y61.648
G1 X104.0 Y61.6487
G1 X104.0146 Y61.648
G1 X104.029 Y61.6458
G1 X104.0432 Y61.6423
G1 X104.0569 Y61.6374
G1 X104.0701 Y61.6311
G1 X104.0826 Y61.6236
G1 X104.0943 Y61.6149
G1 X104.1051 Y61.6051
G1 X104.1149 Y61.5943
G1 X104.1236 Y61.5826
G1 X104.1311 Y61.5701
G1 X104.1374 Y61.5569
G1 X104.1423 Y61.5432
G1 X104.1458 Y61.529
G1 X104.148 Y61.5146
G1 X104.15 Y61.473
G1 Y31.527
G1 X104.148 Y31.4854
G1 X104.1458 Y31.471
G1 X104.1423 Y31.4568
G1 X104.1374 Y31.4431
G1 X104.1311 Y31.4299
G1 X104.1236 Y31.4174
G1 X104.1149 Y31.4057
G1 X104.1051 Y31.3949
G1 X104.0943 Y31.3851
G1 X104.0826 Y31.3764
G1 X104.0701 Y31.3689
G1 X104.0569 Y31.3626
G1 X104.0432 Y31.3577
G1 X104.029 Y31.3542
G1 X104.0146 Y31.352
G1 X104.0 Y31.3513
G1 X103.9854 Y31.352
G1 X103.971 Y31.3542
G1 X103.9568 Y31.3577
G1 X103.9431 Y31.3626
G1 X103.9299 Y31.3689
G1 X103.9174 Y31.3764
G1 X103.9057 Y31.3851
G1 X103.8949 Y31.3949
G1 X103.8851 Y31.4057
G1 X103.8764 Y31.4174
G1 X103.8689 Y31.4299
G1 X103.8626 Y31.4431
G1 X103.8577 Y31.4568
G1 X103.8542 Y31.471
G1 X103.852 Y31.4854
G1 X103.85 Y31.527
G1 F200.0 Z-1.8
G1 F700.0 Y61.473
G1 X103.852 Y61.5146
G1 X103.8542 Y61.529
G1 X103.8577 Y61.5432
G1 X103.8626 Y61.5569
G1 X103.8689 Y61.5701
G1 X103.8764 Y61.5826
G1 X103.8851 Y61.5943
G1 X103.8949 Y61.6051
G1 X103.9057 Y61.6149
G1 X103.9174 Y61.6236
G1 X103.9299 Y61.6311
G1 X103.9431 Y61.6374
G1 X103.9568 Y61.6423
G1 X103.971 Y61.6458
G1 X103.9854 Y61.648
G1 X104.0 Y61.6487
G1 X104.0146 Y61.648
G1 X104.029 Y61.6458
G1 X104.0432 Y61.6423
G1 X104.0569 Y61.6374
G1 X104.0701 Y61.6311
G1 X104.0826 Y61.6236
G1 X104.0943 Y61.6149
G1 X104.1051 Y61.6051
G1 X104.1149 Y61.5943
G1 X104.1236 Y61.5826
G1 X104.1311 Y61.5701
G1 X104.1374 Y61.5569
G1 X104.1423 Y61.5432
G1 X104.1458 Y61.529
G1 X104.148 Y61.5146
G1 X104.15 Y61.473
G1 Y31.527
G1 X104.148 Y31.4854
G1 X104.1458 Y31.471
G1 X104.1423 Y31.4568
G1 X104.1374 Y31.4431
G1 X104.1311 Y31.4299
G1 X104.1236 Y31.4174
G1 X104.1149 Y31.4057
G1 X104.1051 Y31.3949
G1 X104.0943 Y31.3851
G1 X104.0826 Y31.3764
G1 X104.0701 Y31.3689
G1 X104.0569 Y31.3626
G1 X104.0432 Y31.3577
G1 X104.029 Y31.3542
G1 X104.0146 Y31.352
G1 X104.0 Y31.3513
G1 X103.9854 Y31.352
G1 X103.971 Y31.3542
G1 X103.9568 Y31.3577
G1 X103.9431 Y31.3626
G1 X103.9299 Y31.3689
G1 X103.9174 Y31.3764
G1 X103.9057 Y31.3851
G1 X103.8949 Y31.3949
G1 X103.8851 Y31.4057
G1 X103.8764 Y31.4174
G1 X103.8689 Y31.4299
G1 X103.8626 Y31.4431
G1 X103.8577 Y31.4568
G1 X103.8542 Y31.471
G1 X103.852 Y31.4854
G1 X103.85 Y31.527
G1 F200.0 Z-2.1
G1 F700.0 Y61.473
G1 X103.852 Y61.5146
G1 X103.8542 Y61.529
G1 X103.8577 Y61.5432
G1 X103.8626 Y61.5569
G1 X103.8689 Y61.5701
G1 X103.8764 Y61.5826
G1 X103.8851 Y61.5943
G1 X103.8949 Y61.6051
G1 X103.9057 Y61.6149
G1 X103.9174 Y61.6236
G1 X103.9299 Y61.6311
G1 X103.9431 Y61.6374
G1 X103.9568 Y61.6423
G1 X103.971 Y61.6458
G1 X103.9854 Y61.648
G1 X104.0 Y61.6487
G1 X104.0146 Y61.648
G1 X104.029 Y61.6458
G1 X104.0432 Y61.6423
G1 X104.0569 Y61.6374
G1 X104.0701 Y61.6311
G1 X104.0826 Y61.6236
G1 X104.0943 Y61.6149
G1 X104.1051 Y61.6051
G1 X104.1149 Y61.5943
G1 X104.1236 Y61.5826
G1 X104.1311 Y61.5701
G1 X104.1374 Y61.5569
G1 X104.1423 Y61.5432
G1 X104.1458 Y61.529
G1 X104.148 Y61.5146
G1 X104.15 Y61.473
G1 Y31.527
G1 X104.148 Y31.4854
G1 X104.1458 Y31.471
G1 X104.1423 Y31.4568
G1 X104.1374 Y31.4431
G1 X104.1311 Y31.4299
G1 X104.1236 Y31.4174
G1 X104.1149 Y31.4057
G1 X104.1051 Y31.3949
G1 X104.0943 Y31.3851
G1 X104.0826 Y31.3764
G1 X104.0701 Y31.3689
G1 X104.0569 Y31.3626
G1 X104.0432 Y31.3577
G1 X104.029 Y31.3542
G1 X104.0146 Y31.352
G1 X104.0 Y31.3513
G1 X103.9854 Y31.352
G1 X103.971 Y31.3542
G1 X103.9568 Y31.3577
G1 X103.9431 Y31.3626
G1 X103.9299 Y31.3689
G1 X103.9174 Y31.3764
G1 X103.9057 Y31.3851
G1 X103.8949 Y31.3949
G1 X103.8851 Y31.4057
G1 X103.8764 Y31.4174
G1 X103.8689 Y31.4299
G1 X103.8626 Y31.4431
G1 X103.8577 Y31.4568
G1 X103.8542 Y31.471
G1 X103.852 Y31.4854
G1 X103.85 Y31.527
G1 F200.0 Z-2.4
G1 F700.0 Y61.473
G1 X103.852 Y61.5146
G1 X103.8542 Y61.529
G1 X103.8577 Y61.5432
G1 X103.8626 Y61.5569
G1 X103.8689 Y61.5701
G1 X103.8764 Y61.5826
G1 X103.8851 Y61.5943
G1 X103.8949 Y61.6051
G1 X103.9057 Y61.6149
G1 X103.9174 Y61.6236
G1 X103.9299 Y61.6311
G1 X103.9431 Y61.6374
G1 X103.9568 Y61.6423
G1 X103.971 Y61.6458
G1 X103.9854 Y61.648
G1 X104.0 Y61.6487
G1 X104.0146 Y61.648
G1 X104.029 Y61.6458
G1 X104.0432 Y61.6423
G1 X104.0569 Y61.6374
G1 X104.0701 Y61.6311
G1 X104.0826 Y61.6236
G1 X104.0943 Y61.6149
G1 X104.1051 Y61.6051
G1 X104.1149 Y61.5943
G1 X104.1236 Y61.5826
G1 X104.1311 Y61.5701
G1 X104.1374 Y61.5569
