; G-Code generated by Simplify3D(R) Version 4.1.2
; Feb 11, 2021 at 3:26:48 PM
; Settings Summary
;   processName,Process1
;   applyToModels,210211_LDR_panel_adaptor,210211_LDR_panel_adaptor(2)
;   profileName,ZYYX Pro - SwiftTool Multi0.4 V18 RC2 (modified)
;   profileVersion,2020-12-30 15:19:17
;   baseProfile,ZYYX Pro
;   printMaterial,ZYYX ABS
;   printQuality,Medium
;   printExtruders,
;   extruderName,Primary Extruder
;   extruderToolheadNumber,0
;   extruderDiameter,0.4
;   extruderAutoWidth,0
;   extruderWidth,0.4
;   extrusionMultiplier,1
;   extruderUseRetract,1
;   extruderRetractionDistance,0.75
;   extruderExtraRestartDistance,0
;   extruderRetractionZLift,0
;   extruderRetractionSpeed,702
;   extruderUseCoasting,0
;   extruderCoastingDistance,0.2
;   extruderUseWipe,0
;   extruderWipeDistance,2
;   primaryExtruder,0
;   layerHeight,0.2
;   topSolidLayers,5
;   bottomSolidLayers,5
;   perimeterOutlines,3
;   printPerimetersInsideOut,1
;   startPointOption,2
;   startPointOriginX,300
;   startPointOriginY,300
;   sequentialIslands,0
;   spiralVaseMode,0
;   firstLayerHeightPercentage,150
;   firstLayerWidthPercentage,100
;   firstLayerUnderspeed,0.7
;   useRaft,1
;   raftExtruder,0
;   raftTopLayers,3
;   raftBaseLayers,3
;   raftOffset,4
;   raftSeparationDistance,0.03
;   raftTopInfill,60
;   aboveRaftSpeedMultiplier,0.3
;   useSkirt,1
;   skirtExtruder,0
;   skirtLayers,1
;   skirtOutlines,2
;   skirtOffset,1
;   usePrimePillar,0
;   primePillarExtruder,999
;   primePillarWidth,12
;   primePillarLocation,7
;   primePillarSpeedMultiplier,1
;   useOozeShield,0
;   oozeShieldExtruder,999
;   oozeShieldOffset,2
;   oozeShieldOutlines,1
;   oozeShieldSidewallShape,1
;   oozeShieldSidewallAngle,30
;   oozeShieldSpeedMultiplier,1
;   infillExtruder,0
;   internalInfillPattern,Rectilinear
;   externalInfillPattern,Rectilinear
;   infillPercentage,25
;   outlineOverlapPercentage,25
;   infillExtrusionWidthPercentage,100
;   minInfillLength,3
;   infillLayerInterval,1
;   internalInfillAngles,45,-45
;   overlapInternalInfillAngles,0
;   externalInfillAngles,-45,45
;   generateSupport,0
;   supportExtruder,0
;   supportInfillPercentage,25
;   supportExtraInflation,0
;   supportBaseLayers,1
;   denseSupportExtruder,0
;   denseSupportLayers,4
;   denseSupportInfillPercentage,65
;   supportLayerInterval,1
;   supportHorizontalPartOffset,0.5
;   supportUpperSeparationLayers,1
;   supportLowerSeparationLayers,1
;   supportType,0
;   supportGridSpacing,2.5
;   maxOverhangAngle,45
;   supportAngles,0
;   temperatureName,Primary Extruder,Chamber
;   temperatureNumber,0,0
;   temperatureSetpointCount,6,1
;   temperatureSetpointLayers,1,2,6,7,8,9,1
;   temperatureSetpointTemperatures,225,235,232,228,245,265,65
;   temperatureStabilizeAtStartup,0,0
;   temperatureHeatedBed,0,1
;   fanLayers,1,5,7,8,9
;   fanSpeeds,0,0,100,50,1
;   blipFanToFullPower,0
;   adjustSpeedForCooling,0
;   minSpeedLayerTime,4.5
;   minCoolingSpeedSlowdown,30
;   increaseFanForCooling,1
;   minFanLayerTime,45
;   maxCoolingFanSpeed,50
;   increaseFanForBridging,1
;   bridgingFanSpeed,100
;   use5D,1
;   relativeEdistances,1
;   allowEaxisZeroing,0
;   independentExtruderAxes,1
;   includeM10123,0
;   stickySupport,1
;   applyToolheadOffsets,0
;   gcodeXoffset,0
;   gcodeYoffset,0
;   gcodeZoffset,0.05
;   overrideMachineDefinition,1
;   machineTypeOverride,0
;   strokeXoverride,260
;   strokeYoverride,225
;   strokeZoverride,200
;   originOffsetXoverride,132.5
;   originOffsetYoverride,112.5
;   originOffsetZoverride,0
;   homeXdirOverride,1
;   homeYdirOverride,1
;   homeZdirOverride,-1
;   flipXoverride,1
;   flipYoverride,-1
;   flipZoverride,1
;   toolheadOffsets,0,0|0,0|0,0|0,0|0,0|0,0
;   overrideFirmwareConfiguration,1
;   firmwareTypeOverride,MakerBot/Sailfish Firmware
;   GPXconfigOverride,r2h
;   baudRateOverride,115200
;   overridePrinterModels,1
;   printerModelsOverride,zyyx3dprinter.stl
;   startingGcode,;start of ZYYX Pro startcode,M73 P0; enable build progress,G21; set units to mm,G90; set positioning to absolute,G130 X127 Y127 Z127 A127 B127  ; Set Stepper Vref to default value,,G162 X Y F3000; home XY axes maximum,G161 Z F900,G161 Z F200; home Z axis minimum,,;SET_PROFILE_NAME,M70 P2 (SwiftTool Multi0.4),,G92 X0 Y0 Z0 E0,G1 X0 Y0 Z20 F3000,G1 X-120 Y-110 Z10 F3000,G130 X0 Y0 Z3 A0 B0 ; Set Stepper Vref to low value,,M420 P10; set back fan speed 10 off 11-20 10-100% ,M140 S10 T0; set 100% heater power,M140 S81 T0; set chamber heater negative hysteresis 19 degrees,M140 S120 T0; set chamber heater positive hysteresis 20 degrees,M140 S[bed0_temperature] T0; set chamber temperature,M104 S100 T0; set extruder temp 100 while heating,M134 T0; wait for heated chamber temperature,M420 P13; set fan speed 10 off 11-20 10-100%,,G130 X80 Y80 Z64 A127 B127 ; Set Stepper Vref to default value,,; Perform probing of build-plate,,G162 X Y F3000; home XY axes maximum,G161 Z F450,G161 Z F600; home Z axis minimum,G92 X0 Y0 Z0 E0,G1 X0 Y0 Z5 F200,G161 Z F200; home Z axis minimum again,G92 X0 Y0 Z0 E0,M131 A; store surface calibration point 1,G1 X0 Y0 Z5 F200,G1 X-182 Y0 Z5 F3000; move to 2nd probing point,G161 Z F200,M131 B; store surface calibration point 2,G92 X-182 Y0 Z0 E0,G1 X-182 Y0 Z5 F200,G1 X0 Y0 Z5 F3000; move to home point,G161 Z F200; home Z axis minimum again,G92 X0 Y0 Z0 E0; set reference again,G1 X0 Y0 Z5 F200; clear Z,G1 X0 Y-225 Z5 F3000; move to 3rd calibration point,G161 Z F200,M131 AB; store surface calibration point 3,M132 AB; activate auto leveling,G92 X0 Y-225 Z0 E0,G1 X0 Y-225 Z5 F200,G162 X Y F3000,G161 Z F200,G92 X135 Y115 Z0 E0,M132 Z; Recall stored home offset for Z axis,G1 X135 Y115 Z5 F450; clear nozzle from hole,G1 X0 Y115 Z5 F3000; clear nozzle from hole,; end of ZYYX Pro build-plate calibration,M127; turn off fan,M104 S[extruder0_temperature] T0,M133 T0 ; stabilize extruder temperature,,;SET_ZXPARAM,;SET_SUPPORT_BUMPMAP,,G92 E0 ; Set E to 0,; end of ZYYX Pro start code
;   layerChangeGcode,
;   retractionGcode,
;   toolChangeGcode,{IF NEWTOOL>1} G91,{IF NEWTOOL>1} G1 Z1 E-2 F600,{IF NEWTOOL>1} G90,{IF NEWTOOL>1} M71 P255 (Please change to NEW filament),{IF NEWTOOL>1} G1 E1.5 F600,
;   endingGcode,; ZYYX Pro end gcode,M73 P100 ; end build progress,G0 Z210 F1000 ; send Z axis to bottom of machine,M104 S0 T0 ; cool down extruder,M127 ; stop blower fan,G162 X Y F3000 ; home XY maximum,;M18 ; disable stepper,M70 P5 (ZYYX Print Finished!),M72 P1 ; play Ta-Da song,; end of end gcode
;   exportFileFormat,x3g
;   celebration,0
;   celebrationSong,Random Song
;   postProcessing,{REPLACE "\n;SET_PROFILE_NAME" "\nM70 P1 (<Pro> ZYYX ABS)"},{REPLACE "\n;SET_SUPPORT_BUMPMAP" "\nM420 R255 E20 B12 P2\nM420 R253 P0"},{REPLACE "\n;SET_ZXPARAM" "\nM420 R1 E8 B130 P0"},,{REPLACE "\n; outer perimeter" "\n; outer perimeter\nM420 B1 P75"},{REPLACE "\n; solid layer" "\n; solid layer\nM420 B1 P75"},{REPLACE "\n; bridge" "\n; bridge\nM420 B1 P200"},,{REPLACE "\n; inner perimeter" "\n; inner perimeter\nM420 B1 P25"},{REPLACE "\n; infill" "\n; infill\nM420 B1 P25"},{REPLACE "\n; gap fill" "\n; gap fill\nM420 B1 P25"},{REPLACE "\n; support" "\n; support\nM420 B1 P25"},{REPLACE "\n; dense support" "\n; dense support\nM420 B1 P25"},{REPLACE "\nM126 S" "\nM420 B0 P"},,{REPLACE "\n; outer perimeter" "\n; outer perimeter\nM420 R253 P0"},{REPLACE "\n; gap fill" "\n; gap fill\nM420 R253 P0"},{REPLACE "\n; bridge" "\n; bridge\nM420 R253 P0"},{REPLACE "\n; inner perimeter" "\n; inner perimeter\nM420 R253 P0"},{REPLACE "\n; infill" "\n; infill\nM420 R253 P0"},{REPLACE "\n; solid layer" "\n; solid layer\nM420 R253 P0"},{REPLACE "\n; support" "\n; support\nM420 R253 P0"},{REPLACE "\n; dense support" "\n; dense support\nM420 R253 P1"},{REPLACE "\n; raft" "\n; raft\nM420 R253 P1"},,,CMD /C "REN" [output_filepath] A4-[output_filename].x3g
;   defaultSpeed,2202
;   outlineUnderspeed,1
;   solidInfillUnderspeed,0.75
;   supportUnderspeed,1
;   rapidXYspeed,4998
;   rapidZspeed,600
;   minBridgingArea,10
;   bridgingExtraInflation,0
;   bridgingExtrusionMultiplier,1
;   bridgingSpeedMultiplier,0.75
;   useFixedBridgingAngle,0
;   fixedBridgingAngle,0
;   applyBridgingToPerimeters,1
;   filamentDiameters,1.75|1.75|1.75|1.75|1.75|1.75
;   filamentPricesPerKg,56|56|56|56|56|56
;   filamentDensities,1.06|1.06|1.06|1.06|1.06|1.06
;   useMinPrintHeight,0
;   minPrintHeight,0
;   useMaxPrintHeight,0
;   maxPrintHeight,3
;   useDiaphragm,0
;   diaphragmLayerInterval,20
;   robustSlicing,1
;   mergeAllIntoSolid,0
;   onlyRetractWhenCrossingOutline,0
;   retractBetweenLayers,1
;   useRetractionMinTravel,1
;   retractionMinTravel,1
;   retractWhileWiping,1
;   onlyWipeOutlines,1
;   avoidCrossingOutline,1
;   maxMovementDetourFactor,2
;   toolChangeRetractionDistance,0
;   toolChangeExtraRestartDistance,0
;   toolChangeRetractionSpeed,1998
;   externalThinWallType,0
;   internalThinWallType,2
;   thinWallAllowedOverlapPercentage,16
;   singleExtrusionMinLength,0.4
;   singleExtrusionMinPrintingWidthPercentage,50
;   singleExtrusionMaxPrintingWidthPercentage,150
;   singleExtrusionEndpointExtension,0.2
;   horizontalSizeCompensation,0
G90
M83
M127
;start of ZYYX Pro startcode
M73 P0; enable build progress
G21; set units to mm
G90; set positioning to absolute
G130 X127 Y127 Z127 A127 B127  ; Set Stepper Vref to default value
G162 X Y F3000; home XY axes maximum
G161 Z F900
G161 Z F200; home Z axis minimum
M70 P1 (<Pro> ZYYX ABS)
M70 P2 (SwiftTool Multi0.4)
G92 X0 Y0 Z0 E0
G1 X0 Y0 Z20 F3000
G1 X-120 Y-110 Z10 F3000
G130 X0 Y0 Z3 A0 B0 ; Set Stepper Vref to low value
M420 P10; set back fan speed 10 off 11-20 10-100% 
M140 S10 T0; set 100% heater power
M140 S81 T0; set chamber heater negative hysteresis 19 degrees
M140 S120 T0; set chamber heater positive hysteresis 20 degrees
M140 S65 T0; set chamber temperature
M104 S100 T0; set extruder temp 100 while heating
M134 T0; wait for heated chamber temperature
M420 P13; set fan speed 10 off 11-20 10-100%
G130 X80 Y80 Z64 A127 B127 ; Set Stepper Vref to default value
; Perform probing of build-plate
G162 X Y F3000; home XY axes maximum
G161 Z F450
G161 Z F600; home Z axis minimum
G92 X0 Y0 Z0 E0
G1 X0 Y0 Z5 F200
G161 Z F200; home Z axis minimum again
G92 X0 Y0 Z0 E0
M131 A; store surface calibration point 1
G1 X0 Y0 Z5 F200
G1 X-182 Y0 Z5 F3000; move to 2nd probing point
G161 Z F200
M131 B; store surface calibration point 2
G92 X-182 Y0 Z0 E0
G1 X-182 Y0 Z5 F200
G1 X0 Y0 Z5 F3000; move to home point
G161 Z F200; home Z axis minimum again
G92 X0 Y0 Z0 E0; set reference again
G1 X0 Y0 Z5 F200; clear Z
G1 X0 Y-225 Z5 F3000; move to 3rd calibration point
G161 Z F200
M131 AB; store surface calibration point 3
M132 AB; activate auto leveling
G92 X0 Y-225 Z0 E0
G1 X0 Y-225 Z5 F200
G162 X Y F3000
G161 Z F200
G92 X135 Y115 Z0 E0
M132 Z; Recall stored home offset for Z axis
G1 X135 Y115 Z5 F450; clear nozzle from hole
G1 X0 Y115 Z5 F3000; clear nozzle from hole
; end of ZYYX Pro build-plate calibration
M127; turn off fan
M104 S225 T0
M133 T0 ; stabilize extruder temperature
M420 R1 E8 B130 P0
M420 R255 E20 B12 P2
M420 R253 P0
G92 E0 ; Set E to 0
; end of ZYYX Pro start code
; process Process1
; layer 1, Z = 0.800
M135 T0
G1 E-0.7500 F702
; feature skirt
; tool H0.750 W0.400
G1 Z0.800 F600
G1 X-2.513 Y-7.472 F4998
G1 E0.7500 F702
G1 X-1.911 Y-8.038 E0.1031 F1541
G1 X-1.873 Y-8.071 E0.0063
G1 X-1.640 Y-8.264 E0.0376
G1 X-1.601 Y-8.294 E0.0063
G1 X-0.818 Y-8.863 E0.1207
G1 X-0.766 Y-8.898 E0.0078
G1 X-0.444 Y-9.095 E0.0470
G1 X-0.389 Y-9.126 E0.0078
G1 X0.819 Y-9.741 E0.1691
G1 X0.887 Y-9.772 E0.0094
G1 X1.308 Y-9.939 E0.0565
G1 X1.380 Y-9.963 E0.0094
G1 X2.718 Y-10.352 E0.1738
G1 X2.791 Y-10.370 E0.0094
G1 X3.236 Y-10.455 E0.0565
G1 X3.311 Y-10.465 E0.0094
G1 X4.661 Y-10.593 E0.1691
G1 X4.724 Y-10.596 E0.0078
G1 X5.101 Y-10.602 E0.0471
G1 X5.164 Y-10.601 E0.0078
G1 X6.167 Y-10.538 E0.1253
G1 X6.229 Y-10.531 E0.0078
G1 X6.602 Y-10.478 E0.0470
G1 X6.664 Y-10.467 E0.0078
G1 X7.988 Y-10.171 E0.1691
G1 X8.060 Y-10.151 E0.0094
G1 X8.491 Y-10.011 E0.0565
G1 X8.561 Y-9.985 E0.0094
G1 X9.841 Y-9.431 E0.1738
G1 X9.908 Y-9.398 E0.0094
G1 X10.305 Y-9.180 E0.0565
G1 X10.369 Y-9.140 E0.0094
G1 X11.522 Y-8.357 E0.1738
G1 X11.582 Y-8.312 E0.0094
G1 X11.931 Y-8.023 E0.0565
G1 X11.987 Y-7.972 E0.0094
G1 X12.972 Y-6.987 E0.1738
G1 X13.023 Y-6.931 E0.0094
G1 X13.312 Y-6.582 E0.0565
G1 X13.357 Y-6.522 E0.0094
G1 X14.119 Y-5.401 E0.1691
G1 X14.152 Y-5.347 E0.0078
G1 X14.339 Y-5.020 E0.0470
G1 X14.368 Y-4.964 E0.0078
G1 X14.780 Y-4.088 E0.1207
G1 X14.800 Y-4.042 E0.0063
G1 X14.911 Y-3.762 E0.0376
G1 X14.928 Y-3.715 E0.0063
G1 X15.215 Y-2.830 E0.1159
G1 X15.229 Y-2.782 E0.0063
G1 X15.305 Y-2.490 E0.0376
G1 X15.316 Y-2.441 E0.0063
G1 X15.490 Y-1.528 E0.1159
G1 X15.498 Y-1.478 E0.0063
G1 X15.535 Y-1.179 E0.0376
G1 X15.540 Y-1.129 E0.0063
G1 X15.598 Y-0.201 E0.1159
G1 X15.600 Y-0.151 E0.0063
G1 X15.600 Y0.151 E0.0377
G1 X15.598 Y0.201 E0.0063
G1 X15.538 Y1.167 E0.1206
G1 X15.531 Y1.229 E0.0078
G1 X15.478 Y1.602 E0.0470
G1 X15.467 Y1.664 E0.0078
G1 X15.171 Y2.987 E0.1691
G1 X15.151 Y3.060 E0.0094
G1 X15.011 Y3.491 E0.0565
G1 X14.985 Y3.561 E0.0094
G1 X14.431 Y4.840 E0.1738
G1 X14.398 Y4.908 E0.0094
G1 X14.180 Y5.305 E0.0565
G1 X14.140 Y5.369 E0.0094
G1 X13.357 Y6.522 E0.1738
G1 X13.312 Y6.582 E0.0094
G1 X13.023 Y6.931 E0.0565
G1 X12.972 Y6.987 E0.0094
G1 X11.987 Y7.972 E0.1738
G1 X11.931 Y8.023 E0.0094
G1 X11.582 Y8.312 E0.0565
G1 X11.522 Y8.357 E0.0094
G1 X10.369 Y9.140 E0.1738
G1 X10.305 Y9.180 E0.0094
G1 X9.908 Y9.398 E0.0565
G1 X9.841 Y9.431 E0.0094
G1 X8.561 Y9.985 E0.1738
G1 X8.491 Y10.011 E0.0094
G1 X8.060 Y10.151 E0.0565
G1 X7.988 Y10.171 E0.0094
G1 X6.664 Y10.467 E0.1691
G1 X6.602 Y10.478 E0.0078
G1 X6.229 Y10.531 E0.0470
G1 X6.167 Y10.538 E0.0078
G1 X5.201 Y10.598 E0.1207
G1 X5.151 Y10.600 E0.0063
G1 X4.849 Y10.600 E0.0376
G1 X4.799 Y10.598 E0.0063
G1 X3.833 Y10.538 E0.1207
G1 X3.771 Y10.531 E0.0078
G1 X3.398 Y10.478 E0.0470
G1 X3.336 Y10.467 E0.0078
G1 X2.012 Y10.171 E0.1691
G1 X1.940 Y10.151 E0.0094
G1 X1.509 Y10.011 E0.0565
G1 X1.439 Y9.985 E0.0094
G1 X0.159 Y9.431 E0.1738
G1 X0.092 Y9.398 E0.0094
G1 X-0.305 Y9.180 E0.0565
G1 X-0.369 Y9.140 E0.0094
G1 X-1.491 Y8.378 E0.1691
G1 X-1.541 Y8.341 E0.0078
G1 X-1.836 Y8.105 E0.0470
G1 X-1.883 Y8.064 E0.0078
G1 X-2.513 Y7.472 E0.1078
G1 X-3.013 Y7.972 E0.0882
G1 X-3.069 Y8.023 E0.0094
G1 X-3.418 Y8.312 E0.0565
G1 X-3.478 Y8.357 E0.0094
G1 X-4.600 Y9.119 E0.1691
G1 X-4.653 Y9.152 E0.0078
G1 X-4.981 Y9.339 E0.0470
G1 X-5.036 Y9.368 E0.0078
G1 X-5.911 Y9.780 E0.1206
G1 X-5.958 Y9.800 E0.0063
G1 X-6.238 Y9.911 E0.0376
G1 X-6.285 Y9.928 E0.0063
G1 X-7.169 Y10.215 E0.1159
G1 X-7.218 Y10.229 E0.0063
G1 X-7.510 Y10.304 E0.0376
G1 X-7.559 Y10.315 E0.0063
G1 X-8.472 Y10.490 E0.1159
G1 X-8.522 Y10.498 E0.0063
G1 X-8.821 Y10.535 E0.0376
G1 X-8.871 Y10.540 E0.0063
G1 X-9.799 Y10.598 E0.1159
G1 X-9.849 Y10.600 E0.0063
G1 X-10.151 Y10.600 E0.0376
G1 X-10.201 Y10.598 E0.0063
G1 X-11.166 Y10.538 E0.1207
G1 X-11.229 Y10.531 E0.0078
G1 X-11.602 Y10.478 E0.0470
G1 X-11.664 Y10.467 E0.0078
G1 X-12.988 Y10.171 E0.1691
G1 X-13.060 Y10.151 E0.0094
G1 X-13.491 Y10.011 E0.0565
G1 X-13.561 Y9.985 E0.0094
G1 X-14.841 Y9.431 E0.1738
G1 X-14.908 Y9.398 E0.0094
G1 X-15.305 Y9.180 E0.0565
G1 X-15.369 Y9.140 E0.0094
G1 X-16.491 Y8.378 E0.1691
G1 X-16.541 Y8.341 E0.0078
G1 X-16.836 Y8.105 E0.0470
G1 X-16.883 Y8.064 E0.0078
G1 X-17.616 Y7.376 E0.1254
G1 X-17.660 Y7.331 E0.0078
G1 X-17.914 Y7.052 E0.0470
G1 X-17.954 Y7.004 E0.0078
G1 X-18.785 Y5.933 E0.1691
G1 X-18.829 Y5.871 E0.0094
G1 X-19.071 Y5.489 E0.0565
G1 X-19.108 Y5.423 E0.0094
G1 X-19.724 Y4.215 E0.1691
G1 X-19.750 Y4.158 E0.0078
G1 X-19.895 Y3.809 E0.0470
G1 X-19.917 Y3.750 E0.0078
G1 X-20.215 Y2.830 E0.1207
G1 X-20.229 Y2.782 E0.0063
G1 X-20.305 Y2.490 E0.0376
G1 X-20.315 Y2.441 E0.0063
G1 X-20.490 Y1.528 E0.1159
G1 X-20.497 Y1.478 E0.0063
G1 X-20.535 Y1.179 E0.0376
G1 X-20.540 Y1.129 E0.0063
G1 X-20.598 Y0.201 E0.1159
G1 X-20.600 Y0.151 E0.0063
