; G-Code generated by Simplify3D(R) Version 4.1.2
; Feb 13, 2021 at 6:41:13 PM
; Settings Summary
;   processName,Process1
;   applyToModels,210213_LDR_panel_adaptor
;   profileName,ZYYX Pro - SwiftTool Multi0.4 V18 RC2 (modified)
;   profileVersion,2020-12-30 15:19:17
;   baseProfile,ZYYX Pro
;   printMaterial,ZYYX ABS
;   printQuality,Medium
;   printExtruders,
;   extruderName,Primary Extruder
;   extruderToolheadNumber,0
;   extruderDiameter,0.4
;   extruderAutoWidth,0
;   extruderWidth,0.4
;   extrusionMultiplier,1
;   extruderUseRetract,1
;   extruderRetractionDistance,0.75
;   extruderExtraRestartDistance,0
;   extruderRetractionZLift,0
;   extruderRetractionSpeed,702
;   extruderUseCoasting,0
;   extruderCoastingDistance,0.2
;   extruderUseWipe,0
;   extruderWipeDistance,2
;   primaryExtruder,0
;   layerHeight,0.2
;   topSolidLayers,5
;   bottomSolidLayers,5
;   perimeterOutlines,3
;   printPerimetersInsideOut,1
;   startPointOption,2
;   startPointOriginX,300
;   startPointOriginY,300
;   sequentialIslands,0
;   spiralVaseMode,0
;   firstLayerHeightPercentage,150
;   firstLayerWidthPercentage,100
;   firstLayerUnderspeed,0.7
;   useRaft,1
;   raftExtruder,0
;   raftTopLayers,3
;   raftBaseLayers,3
;   raftOffset,4
;   raftSeparationDistance,0.03
;   raftTopInfill,60
;   aboveRaftSpeedMultiplier,0.3
;   useSkirt,1
;   skirtExtruder,0
;   skirtLayers,1
;   skirtOutlines,2
;   skirtOffset,1
;   usePrimePillar,0
;   primePillarExtruder,999
;   primePillarWidth,12
;   primePillarLocation,7
;   primePillarSpeedMultiplier,1
;   useOozeShield,0
;   oozeShieldExtruder,999
;   oozeShieldOffset,2
;   oozeShieldOutlines,1
;   oozeShieldSidewallShape,1
;   oozeShieldSidewallAngle,30
;   oozeShieldSpeedMultiplier,1
;   infillExtruder,0
;   internalInfillPattern,Rectilinear
;   externalInfillPattern,Rectilinear
;   infillPercentage,25
;   outlineOverlapPercentage,25
;   infillExtrusionWidthPercentage,100
;   minInfillLength,3
;   infillLayerInterval,1
;   internalInfillAngles,45,-45
;   overlapInternalInfillAngles,0
;   externalInfillAngles,-45,45
;   generateSupport,1
;   supportExtruder,0
;   supportInfillPercentage,25
;   supportExtraInflation,0
;   supportBaseLayers,1
;   denseSupportExtruder,0
;   denseSupportLayers,4
;   denseSupportInfillPercentage,65
;   supportLayerInterval,1
;   supportHorizontalPartOffset,0.5
;   supportUpperSeparationLayers,1
;   supportLowerSeparationLayers,1
;   supportType,0
;   supportGridSpacing,2.5
;   maxOverhangAngle,45
;   supportAngles,0
;   temperatureName,Primary Extruder,Chamber
;   temperatureNumber,0,0
;   temperatureSetpointCount,6,1
;   temperatureSetpointLayers,1,2,6,7,8,9,1
;   temperatureSetpointTemperatures,225,235,232,228,245,265,65
;   temperatureStabilizeAtStartup,0,0
;   temperatureHeatedBed,0,1
;   fanLayers,1,5,7,8,9
;   fanSpeeds,0,0,100,50,1
;   blipFanToFullPower,0
;   adjustSpeedForCooling,0
;   minSpeedLayerTime,4.5
;   minCoolingSpeedSlowdown,30
;   increaseFanForCooling,1
;   minFanLayerTime,45
;   maxCoolingFanSpeed,50
;   increaseFanForBridging,1
;   bridgingFanSpeed,100
;   use5D,1
;   relativeEdistances,1
;   allowEaxisZeroing,0
;   independentExtruderAxes,1
;   includeM10123,0
;   stickySupport,1
;   applyToolheadOffsets,0
;   gcodeXoffset,0
;   gcodeYoffset,0
;   gcodeZoffset,0.05
;   overrideMachineDefinition,1
;   machineTypeOverride,0
;   strokeXoverride,260
;   strokeYoverride,225
;   strokeZoverride,200
;   originOffsetXoverride,132.5
;   originOffsetYoverride,112.5
;   originOffsetZoverride,0
;   homeXdirOverride,1
;   homeYdirOverride,1
;   homeZdirOverride,-1
;   flipXoverride,1
;   flipYoverride,-1
;   flipZoverride,1
;   toolheadOffsets,0,0|0,0|0,0|0,0|0,0|0,0
;   overrideFirmwareConfiguration,1
;   firmwareTypeOverride,MakerBot/Sailfish Firmware
;   GPXconfigOverride,r2h
;   baudRateOverride,115200
;   overridePrinterModels,1
;   printerModelsOverride,zyyx3dprinter.stl
;   startingGcode,;start of ZYYX Pro startcode,M73 P0; enable build progress,G21; set units to mm,G90; set positioning to absolute,G130 X127 Y127 Z127 A127 B127  ; Set Stepper Vref to default value,,G162 X Y F3000; home XY axes maximum,G161 Z F900,G161 Z F200; home Z axis minimum,,;SET_PROFILE_NAME,M70 P2 (SwiftTool Multi0.4),,G92 X0 Y0 Z0 E0,G1 X0 Y0 Z20 F3000,G1 X-120 Y-110 Z10 F3000,G130 X0 Y0 Z3 A0 B0 ; Set Stepper Vref to low value,,M420 P10; set back fan speed 10 off 11-20 10-100% ,M140 S10 T0; set 100% heater power,M140 S81 T0; set chamber heater negative hysteresis 19 degrees,M140 S120 T0; set chamber heater positive hysteresis 20 degrees,M140 S[bed0_temperature] T0; set chamber temperature,M104 S100 T0; set extruder temp 100 while heating,M134 T0; wait for heated chamber temperature,M420 P13; set fan speed 10 off 11-20 10-100%,,G130 X80 Y80 Z64 A127 B127 ; Set Stepper Vref to default value,,; Perform probing of build-plate,,G162 X Y F3000; home XY axes maximum,G161 Z F450,G161 Z F600; home Z axis minimum,G92 X0 Y0 Z0 E0,G1 X0 Y0 Z5 F200,G161 Z F200; home Z axis minimum again,G92 X0 Y0 Z0 E0,M131 A; store surface calibration point 1,G1 X0 Y0 Z5 F200,G1 X-182 Y0 Z5 F3000; move to 2nd probing point,G161 Z F200,M131 B; store surface calibration point 2,G92 X-182 Y0 Z0 E0,G1 X-182 Y0 Z5 F200,G1 X0 Y0 Z5 F3000; move to home point,G161 Z F200; home Z axis minimum again,G92 X0 Y0 Z0 E0; set reference again,G1 X0 Y0 Z5 F200; clear Z,G1 X0 Y-225 Z5 F3000; move to 3rd calibration point,G161 Z F200,M131 AB; store surface calibration point 3,M132 AB; activate auto leveling,G92 X0 Y-225 Z0 E0,G1 X0 Y-225 Z5 F200,G162 X Y F3000,G161 Z F200,G92 X135 Y115 Z0 E0,M132 Z; Recall stored home offset for Z axis,G1 X135 Y115 Z5 F450; clear nozzle from hole,G1 X0 Y115 Z5 F3000; clear nozzle from hole,; end of ZYYX Pro build-plate calibration,M127; turn off fan,M104 S[extruder0_temperature] T0,M133 T0 ; stabilize extruder temperature,,;SET_ZXPARAM,;SET_SUPPORT_BUMPMAP,,G92 E0 ; Set E to 0,; end of ZYYX Pro start code
;   layerChangeGcode,
;   retractionGcode,
;   toolChangeGcode,{IF NEWTOOL>1} G91,{IF NEWTOOL>1} G1 Z1 E-2 F600,{IF NEWTOOL>1} G90,{IF NEWTOOL>1} M71 P255 (Please change to NEW filament),{IF NEWTOOL>1} G1 E1.5 F600,
;   endingGcode,; ZYYX Pro end gcode,M73 P100 ; end build progress,G0 Z210 F1000 ; send Z axis to bottom of machine,M104 S0 T0 ; cool down extruder,M127 ; stop blower fan,G162 X Y F3000 ; home XY maximum,;M18 ; disable stepper,M70 P5 (ZYYX Print Finished!),M72 P1 ; play Ta-Da song,; end of end gcode
;   exportFileFormat,x3g
;   celebration,0
;   celebrationSong,Random Song
;   postProcessing,{REPLACE "\n;SET_PROFILE_NAME" "\nM70 P1 (<Pro> ZYYX ABS)"},{REPLACE "\n;SET_SUPPORT_BUMPMAP" "\nM420 R255 E20 B12 P2\nM420 R253 P0"},{REPLACE "\n;SET_ZXPARAM" "\nM420 R1 E8 B130 P0"},,{REPLACE "\n; outer perimeter" "\n; outer perimeter\nM420 B1 P75"},{REPLACE "\n; solid layer" "\n; solid layer\nM420 B1 P75"},{REPLACE "\n; bridge" "\n; bridge\nM420 B1 P200"},,{REPLACE "\n; inner perimeter" "\n; inner perimeter\nM420 B1 P25"},{REPLACE "\n; infill" "\n; infill\nM420 B1 P25"},{REPLACE "\n; gap fill" "\n; gap fill\nM420 B1 P25"},{REPLACE "\n; support" "\n; support\nM420 B1 P25"},{REPLACE "\n; dense support" "\n; dense support\nM420 B1 P25"},{REPLACE "\nM126 S" "\nM420 B0 P"},,{REPLACE "\n; outer perimeter" "\n; outer perimeter\nM420 R253 P0"},{REPLACE "\n; gap fill" "\n; gap fill\nM420 R253 P0"},{REPLACE "\n; bridge" "\n; bridge\nM420 R253 P0"},{REPLACE "\n; inner perimeter" "\n; inner perimeter\nM420 R253 P0"},{REPLACE "\n; infill" "\n; infill\nM420 R253 P0"},{REPLACE "\n; solid layer" "\n; solid layer\nM420 R253 P0"},{REPLACE "\n; support" "\n; support\nM420 R253 P0"},{REPLACE "\n; dense support" "\n; dense support\nM420 R253 P1"},{REPLACE "\n; raft" "\n; raft\nM420 R253 P1"},,,CMD /C "REN" [output_filepath] A4-[output_filename].x3g
;   defaultSpeed,2202
;   outlineUnderspeed,1
;   solidInfillUnderspeed,0.75
;   supportUnderspeed,1
;   rapidXYspeed,4998
;   rapidZspeed,600
;   minBridgingArea,10
;   bridgingExtraInflation,0
;   bridgingExtrusionMultiplier,1
;   bridgingSpeedMultiplier,0.75
;   useFixedBridgingAngle,0
;   fixedBridgingAngle,0
;   applyBridgingToPerimeters,1
;   filamentDiameters,1.75|1.75|1.75|1.75|1.75|1.75
;   filamentPricesPerKg,56|56|56|56|56|56
;   filamentDensities,1.06|1.06|1.06|1.06|1.06|1.06
;   useMinPrintHeight,0
;   minPrintHeight,0
;   useMaxPrintHeight,0
;   maxPrintHeight,3
;   useDiaphragm,0
;   diaphragmLayerInterval,20
;   robustSlicing,1
;   mergeAllIntoSolid,0
;   onlyRetractWhenCrossingOutline,0
;   retractBetweenLayers,1
;   useRetractionMinTravel,1
;   retractionMinTravel,1
;   retractWhileWiping,1
;   onlyWipeOutlines,1
;   avoidCrossingOutline,1
;   maxMovementDetourFactor,2
;   toolChangeRetractionDistance,0
;   toolChangeExtraRestartDistance,0
;   toolChangeRetractionSpeed,1998
;   externalThinWallType,0
;   internalThinWallType,2
;   thinWallAllowedOverlapPercentage,16
;   singleExtrusionMinLength,0.4
;   singleExtrusionMinPrintingWidthPercentage,50
;   singleExtrusionMaxPrintingWidthPercentage,150
;   singleExtrusionEndpointExtension,0.2
;   horizontalSizeCompensation,0
G90
M83
M420 B0 P85
;start of ZYYX Pro startcode
M73 P0; enable build progress
G21; set units to mm
G90; set positioning to absolute
G130 X127 Y127 Z127 A127 B127  ; Set Stepper Vref to default value
G162 X Y F3000; home XY axes maximum
G161 Z F900
G161 Z F200; home Z axis minimum
M70 P1 (<Pro> ZYYX ABS)
M70 P2 (SwiftTool Multi0.4)
G92 X0 Y0 Z0 E0
G1 X0 Y0 Z20 F3000
G1 X-120 Y-110 Z10 F3000
G130 X0 Y0 Z3 A0 B0 ; Set Stepper Vref to low value
M420 P10; set back fan speed 10 off 11-20 10-100% 
M140 S10 T0; set 100% heater power
M140 S81 T0; set chamber heater negative hysteresis 19 degrees
M140 S120 T0; set chamber heater positive hysteresis 20 degrees
M140 S65 T0; set chamber temperature
M104 S100 T0; set extruder temp 100 while heating
M134 T0; wait for heated chamber temperature
M420 P13; set fan speed 10 off 11-20 10-100%
G130 X80 Y80 Z64 A127 B127 ; Set Stepper Vref to default value
; Perform probing of build-plate
G162 X Y F3000; home XY axes maximum
G161 Z F450
G161 Z F600; home Z axis minimum
G92 X0 Y0 Z0 E0
G1 X0 Y0 Z5 F200
G161 Z F200; home Z axis minimum again
G92 X0 Y0 Z0 E0
M131 A; store surface calibration point 1
G1 X0 Y0 Z5 F200
G1 X-182 Y0 Z5 F3000; move to 2nd probing point
G161 Z F200
M131 B; store surface calibration point 2
G92 X-182 Y0 Z0 E0
G1 X-182 Y0 Z5 F200
G1 X0 Y0 Z5 F3000; move to home point
G161 Z F200; home Z axis minimum again
G92 X0 Y0 Z0 E0; set reference again
G1 X0 Y0 Z5 F200; clear Z
G1 X0 Y-225 Z5 F3000; move to 3rd calibration point
G161 Z F200
M131 AB; store surface calibration point 3
M132 AB; activate auto leveling
G92 X0 Y-225 Z0 E0
G1 X0 Y-225 Z5 F200
G162 X Y F3000
G161 Z F200
G92 X135 Y115 Z0 E0
M132 Z; Recall stored home offset for Z axis
G1 X135 Y115 Z5 F450; clear nozzle from hole
G1 X0 Y115 Z5 F3000; clear nozzle from hole
; end of ZYYX Pro build-plate calibration
M127; turn off fan
M104 S225 T0
M133 T0 ; stabilize extruder temperature
M420 R1 E8 B130 P0
M420 R255 E20 B12 P2
M420 R253 P0
G92 E0 ; Set E to 0
; end of ZYYX Pro start code
; process Process1
; layer 1, Z = 0.800
M135 T0
G1 E-0.7500 F702
; feature skirt
; tool H0.750 W0.400
G1 Z0.800 F600
G1 X9.068 Y-2.897 F4998
G1 E0.7500 F702
G1 X9.346 Y-1.815 E0.1394 F1541
G1 X9.357 Y-1.765 E0.0063
G1 X9.414 Y-1.469 E0.0376
G1 X9.422 Y-1.420 E0.0063
G1 X9.562 Y-0.310 E0.1394
G1 X9.567 Y-0.260 E0.0063
G1 X9.586 Y0.041 E0.0376
G1 X9.587 Y0.091 E0.0063
G1 X9.587 Y1.209 E0.1394
G1 X9.586 Y1.259 E0.0063
G1 X9.567 Y1.560 E0.0376
G1 X9.562 Y1.610 E0.0063
G1 X9.427 Y2.682 E0.1347
G1 X9.421 Y2.719 E0.0047
G1 X9.382 Y2.942 E0.0282
G1 X9.375 Y2.979 E0.0047
G1 X9.236 Y3.598 E0.0791
G1 X9.227 Y3.635 E0.0047
G1 X9.167 Y3.853 E0.0282
G1 X9.157 Y3.889 E0.0047
G1 X8.823 Y4.917 E0.1347
G1 X8.806 Y4.964 E0.0063
G1 X8.695 Y5.245 E0.0376
G1 X8.675 Y5.291 E0.0063
G1 X8.199 Y6.302 E0.1394
G1 X8.176 Y6.347 E0.0063
G1 X8.031 Y6.611 E0.0376
G1 X8.005 Y6.655 E0.0063
G1 X7.406 Y7.599 E0.1394
G1 X7.378 Y7.640 E0.0063
G1 X7.200 Y7.884 E0.0376
G1 X7.170 Y7.924 E0.0063
G1 X6.481 Y8.756 E0.1347
G1 X6.456 Y8.785 E0.0047
G1 X6.304 Y8.952 E0.0282
G1 X6.278 Y8.979 E0.0047
G1 X5.833 Y9.425 E0.0785
G1 X5.807 Y9.449 E0.0045
G1 X5.647 Y9.595 E0.0270
G1 X5.620 Y9.619 E0.0045
G1 X4.337 Y10.689 E0.2084
G1 X4.095 Y10.828 E0.0348
G1 X2.513 Y11.402 E0.2100
G1 X2.238 Y11.450 E0.0348
G1 X-7.238 Y11.450 E1.1819
G1 X-7.513 Y11.402 E0.0348
G1 X-9.095 Y10.828 E0.2100
G1 X-9.337 Y10.689 E0.0348
G1 X-10.620 Y9.619 E0.2084
G1 X-10.647 Y9.595 E0.0045
G1 X-10.807 Y9.449 E0.0270
G1 X-10.833 Y9.425 E0.0045
G1 X-11.278 Y8.979 E0.0785
G1 X-11.304 Y8.952 E0.0047
G1 X-11.456 Y8.785 E0.0282
G1 X-11.481 Y8.756 E0.0047
G1 X-12.146 Y7.953 E0.1300
G1 X-12.169 Y7.923 E0.0047
G1 X-12.305 Y7.742 E0.0282
G1 X-12.327 Y7.712 E0.0047
G1 X-12.683 Y7.187 E0.0791
G1 X-12.704 Y7.155 E0.0047
G1 X-12.822 Y6.962 E0.0282
G1 X-12.841 Y6.930 E0.0047
G1 X-13.361 Y5.983 E0.1347
G1 X-13.384 Y5.938 E0.0063
G1 X-13.513 Y5.665 E0.0376
G1 X-13.533 Y5.619 E0.0063
G1 X-13.944 Y4.580 E0.1394
G1 X-13.961 Y4.533 E0.0063
G1 X-14.054 Y4.246 E0.0376
G1 X-14.068 Y4.197 E0.0063
G1 X-14.337 Y3.151 E0.1347
G1 X-14.346 Y3.114 E0.0047
G1 X-14.391 Y2.893 E0.0282
G1 X-14.398 Y2.856 E0.0047
G1 X-14.497 Y2.229 E0.0791
G1 X-14.503 Y2.192 E0.0047
G1 X-14.527 Y1.967 E0.0282
G1 X-14.531 Y1.929 E0.0047
G1 X-14.598 Y0.851 E0.1347
G1 X-14.600 Y0.801 E0.0063
G1 X-14.600 Y0.499 E0.0376
G1 X-14.598 Y0.449 E0.0063
G1 X-14.531 Y-0.629 E0.1347
G1 X-14.527 Y-0.667 E0.0047
G1 X-14.502 Y-0.892 E0.0282
G1 X-14.497 Y-0.929 E0.0047
G1 X-14.398 Y-1.556 E0.0791
G1 X-14.391 Y-1.593 E0.0047
G1 X-14.346 Y-1.814 E0.0282
G1 X-14.337 Y-1.851 E0.0047
G1 X-14.068 Y-2.897 E0.1347
G1 X-14.054 Y-2.946 E0.0063
G1 X-13.961 Y-3.233 E0.0376
G1 X-13.944 Y-3.280 E0.0063
G1 X-13.533 Y-4.319 E0.1394
G1 X-13.513 Y-4.365 E0.0063
G1 X-13.384 Y-4.638 E0.0376
G1 X-13.361 Y-4.683 E0.0063
G1 X-12.841 Y-5.630 E0.1347
G1 X-12.822 Y-5.662 E0.0047
G1 X-12.704 Y-5.855 E0.0282
G1 X-12.683 Y-5.887 E0.0047
G1 X-12.327 Y-6.412 E0.0791
G1 X-12.305 Y-6.443 E0.0047
G1 X-12.169 Y-6.623 E0.0282
G1 X-12.146 Y-6.653 E0.0047
G1 X-11.481 Y-7.456 E0.1300
G1 X-11.456 Y-7.485 E0.0047
G1 X-11.304 Y-7.652 E0.0282
G1 X-11.278 Y-7.679 E0.0047
G1 X-10.829 Y-8.128 E0.0791
G1 X-10.802 Y-8.154 E0.0047
G1 X-10.635 Y-8.306 E0.0282
G1 X-10.606 Y-8.331 E0.0047
G1 X-9.803 Y-8.996 E0.1300
G1 X-9.773 Y-9.019 E0.0047
G1 X-9.592 Y-9.155 E0.0282
G1 X-9.562 Y-9.177 E0.0047
G1 X-9.037 Y-9.533 E0.0791
G1 X-9.005 Y-9.554 E0.0047
G1 X-8.812 Y-9.672 E0.0282
G1 X-8.780 Y-9.691 E0.0047
G1 X-7.833 Y-10.211 E0.1347
G1 X-7.788 Y-10.234 E0.0063
G1 X-7.515 Y-10.363 E0.0376
G1 X-7.469 Y-10.383 E0.0063
G1 X-6.430 Y-10.794 E0.1394
G1 X-6.383 Y-10.811 E0.0063
G1 X-6.096 Y-10.904 E0.0376
G1 X-6.047 Y-10.918 E0.0063
G1 X-4.965 Y-11.196 E0.1394
G1 X-4.915 Y-11.207 E0.0063
G1 X-4.619 Y-11.264 E0.0376
G1 X-4.569 Y-11.272 E0.0063
G1 X-3.460 Y-11.412 E0.1394
G1 X-3.410 Y-11.417 E0.0063
G1 X-3.109 Y-11.436 E0.0376
G1 X-3.059 Y-11.437 E0.0063
G1 X-1.941 Y-11.437 E0.1394
G1 X-1.891 Y-11.436 E0.0063
G1 X-1.590 Y-11.417 E0.0376
G1 X-1.540 Y-11.412 E0.0063
G1 X-0.431 Y-11.272 E0.1394
G1 X-0.381 Y-11.264 E0.0063
G1 X-0.085 Y-11.207 E0.0376
G1 X-0.035 Y-11.196 E0.0063
G1 X1.047 Y-10.918 E0.1394
G1 X1.096 Y-10.904 E0.0063
G1 X1.383 Y-10.811 E0.0376
G1 X1.430 Y-10.794 E0.0063
G1 X2.469 Y-10.383 E0.1394
G1 X2.515 Y-10.363 E0.0063
G1 X2.788 Y-10.234 E0.0376
G1 X2.833 Y-10.211 E0.0063
G1 X3.780 Y-9.691 E0.1347
G1 X3.812 Y-9.672 E0.0047
G1 X4.005 Y-9.554 E0.0282
G1 X4.037 Y-9.533 E0.0047
G1 X4.562 Y-9.177 E0.0791
G1 X4.592 Y-9.155 E0.0047
G1 X4.773 Y-9.019 E0.0282
G1 X4.803 Y-8.996 E0.0047
G1 X5.635 Y-8.307 E0.1347
G1 X5.673 Y-8.274 E0.0063
G1 X5.893 Y-8.067 E0.0376
G1 X5.929 Y-8.032 E0.0063
G1 X6.694 Y-7.217 E0.1394
G1 X6.727 Y-7.179 E0.0063
G1 X6.919 Y-6.947 E0.0376
G1 X6.950 Y-6.907 E0.0063
G1 X7.607 Y-6.002 E0.1394
G1 X7.636 Y-5.961 E0.0063
G1 X7.797 Y-5.706 E0.0376
