; G-Code generated by Simplify3D(R) Version 4.1.2
; Feb 11, 2021 at 11:41:13 AM
; Settings Summary
;   processName,Process1
;   applyToModels,210211_0_Frontpanel_3D
;   profileName,ZYYX Pro - SwiftTool Multi0.4 V18 RC2 (modified)
;   profileVersion,2020-12-30 15:19:17
;   baseProfile,ZYYX Pro
;   printMaterial,ZYYX ABS
;   printQuality,Medium
;   printExtruders,
;   extruderName,Primary Extruder
;   extruderToolheadNumber,0
;   extruderDiameter,0.4
;   extruderAutoWidth,0
;   extruderWidth,0.4
;   extrusionMultiplier,1
;   extruderUseRetract,1
;   extruderRetractionDistance,0.75
;   extruderExtraRestartDistance,0
;   extruderRetractionZLift,0
;   extruderRetractionSpeed,702
;   extruderUseCoasting,0
;   extruderCoastingDistance,0.2
;   extruderUseWipe,0
;   extruderWipeDistance,2
;   primaryExtruder,0
;   layerHeight,0.2
;   topSolidLayers,5
;   bottomSolidLayers,5
;   perimeterOutlines,3
;   printPerimetersInsideOut,1
;   startPointOption,2
;   startPointOriginX,300
;   startPointOriginY,300
;   sequentialIslands,0
;   spiralVaseMode,0
;   firstLayerHeightPercentage,150
;   firstLayerWidthPercentage,100
;   firstLayerUnderspeed,0.7
;   useRaft,1
;   raftExtruder,0
;   raftTopLayers,3
;   raftBaseLayers,3
;   raftOffset,4
;   raftSeparationDistance,0.03
;   raftTopInfill,60
;   aboveRaftSpeedMultiplier,0.3
;   useSkirt,1
;   skirtExtruder,0
;   skirtLayers,1
;   skirtOutlines,2
;   skirtOffset,1
;   usePrimePillar,0
;   primePillarExtruder,999
;   primePillarWidth,12
;   primePillarLocation,7
;   primePillarSpeedMultiplier,1
;   useOozeShield,0
;   oozeShieldExtruder,999
;   oozeShieldOffset,2
;   oozeShieldOutlines,1
;   oozeShieldSidewallShape,1
;   oozeShieldSidewallAngle,30
;   oozeShieldSpeedMultiplier,1
;   infillExtruder,0
;   internalInfillPattern,Rectilinear
;   externalInfillPattern,Rectilinear
;   infillPercentage,25
;   outlineOverlapPercentage,25
;   infillExtrusionWidthPercentage,100
;   minInfillLength,3
;   infillLayerInterval,1
;   internalInfillAngles,45,-45
;   overlapInternalInfillAngles,0
;   externalInfillAngles,-45,45
;   generateSupport,0
;   supportExtruder,0
;   supportInfillPercentage,25
;   supportExtraInflation,0
;   supportBaseLayers,1
;   denseSupportExtruder,0
;   denseSupportLayers,4
;   denseSupportInfillPercentage,65
;   supportLayerInterval,1
;   supportHorizontalPartOffset,0.5
;   supportUpperSeparationLayers,1
;   supportLowerSeparationLayers,1
;   supportType,0
;   supportGridSpacing,2.5
;   maxOverhangAngle,45
;   supportAngles,0
;   temperatureName,Primary Extruder,Chamber
;   temperatureNumber,0,0
;   temperatureSetpointCount,6,1
;   temperatureSetpointLayers,1,2,6,7,8,9,1
;   temperatureSetpointTemperatures,225,235,232,228,245,265,65
;   temperatureStabilizeAtStartup,0,0
;   temperatureHeatedBed,0,1
;   fanLayers,1,5,7,8,9
;   fanSpeeds,0,0,100,50,1
;   blipFanToFullPower,0
;   adjustSpeedForCooling,0
;   minSpeedLayerTime,4.5
;   minCoolingSpeedSlowdown,30
;   increaseFanForCooling,1
;   minFanLayerTime,45
;   maxCoolingFanSpeed,50
;   increaseFanForBridging,1
;   bridgingFanSpeed,100
;   use5D,1
;   relativeEdistances,1
;   allowEaxisZeroing,0
;   independentExtruderAxes,1
;   includeM10123,0
;   stickySupport,1
;   applyToolheadOffsets,0
;   gcodeXoffset,0
;   gcodeYoffset,0
;   gcodeZoffset,0.05
;   overrideMachineDefinition,1
;   machineTypeOverride,0
;   strokeXoverride,260
;   strokeYoverride,225
;   strokeZoverride,200
;   originOffsetXoverride,132.5
;   originOffsetYoverride,112.5
;   originOffsetZoverride,0
;   homeXdirOverride,1
;   homeYdirOverride,1
;   homeZdirOverride,-1
;   flipXoverride,1
;   flipYoverride,-1
;   flipZoverride,1
;   toolheadOffsets,0,0|0,0|0,0|0,0|0,0|0,0
;   overrideFirmwareConfiguration,1
;   firmwareTypeOverride,MakerBot/Sailfish Firmware
;   GPXconfigOverride,r2h
;   baudRateOverride,115200
;   overridePrinterModels,1
;   printerModelsOverride,zyyx3dprinter.stl
;   startingGcode,;start of ZYYX Pro startcode,M73 P0; enable build progress,G21; set units to mm,G90; set positioning to absolute,G130 X127 Y127 Z127 A127 B127  ; Set Stepper Vref to default value,,G162 X Y F3000; home XY axes maximum,G161 Z F900,G161 Z F200; home Z axis minimum,,;SET_PROFILE_NAME,M70 P2 (SwiftTool Multi0.4),,G92 X0 Y0 Z0 E0,G1 X0 Y0 Z20 F3000,G1 X-120 Y-110 Z10 F3000,G130 X0 Y0 Z3 A0 B0 ; Set Stepper Vref to low value,,M420 P10; set back fan speed 10 off 11-20 10-100% ,M140 S10 T0; set 100% heater power,M140 S81 T0; set chamber heater negative hysteresis 19 degrees,M140 S120 T0; set chamber heater positive hysteresis 20 degrees,M140 S[bed0_temperature] T0; set chamber temperature,M104 S100 T0; set extruder temp 100 while heating,M134 T0; wait for heated chamber temperature,M420 P13; set fan speed 10 off 11-20 10-100%,,G130 X80 Y80 Z64 A127 B127 ; Set Stepper Vref to default value,,; Perform probing of build-plate,,G162 X Y F3000; home XY axes maximum,G161 Z F450,G161 Z F600; home Z axis minimum,G92 X0 Y0 Z0 E0,G1 X0 Y0 Z5 F200,G161 Z F200; home Z axis minimum again,G92 X0 Y0 Z0 E0,M131 A; store surface calibration point 1,G1 X0 Y0 Z5 F200,G1 X-182 Y0 Z5 F3000; move to 2nd probing point,G161 Z F200,M131 B; store surface calibration point 2,G92 X-182 Y0 Z0 E0,G1 X-182 Y0 Z5 F200,G1 X0 Y0 Z5 F3000; move to home point,G161 Z F200; home Z axis minimum again,G92 X0 Y0 Z0 E0; set reference again,G1 X0 Y0 Z5 F200; clear Z,G1 X0 Y-225 Z5 F3000; move to 3rd calibration point,G161 Z F200,M131 AB; store surface calibration point 3,M132 AB; activate auto leveling,G92 X0 Y-225 Z0 E0,G1 X0 Y-225 Z5 F200,G162 X Y F3000,G161 Z F200,G92 X135 Y115 Z0 E0,M132 Z; Recall stored home offset for Z axis,G1 X135 Y115 Z5 F450; clear nozzle from hole,G1 X0 Y115 Z5 F3000; clear nozzle from hole,; end of ZYYX Pro build-plate calibration,M127; turn off fan,M104 S[extruder0_temperature] T0,M133 T0 ; stabilize extruder temperature,,;SET_ZXPARAM,;SET_SUPPORT_BUMPMAP,,G92 E0 ; Set E to 0,; end of ZYYX Pro start code
;   layerChangeGcode,
;   retractionGcode,
;   toolChangeGcode,{IF NEWTOOL>1} G91,{IF NEWTOOL>1} G1 Z1 E-2 F600,{IF NEWTOOL>1} G90,{IF NEWTOOL>1} M71 P255 (Please change to NEW filament),{IF NEWTOOL>1} G1 E1.5 F600,
;   endingGcode,; ZYYX Pro end gcode,M73 P100 ; end build progress,G0 Z210 F1000 ; send Z axis to bottom of machine,M104 S0 T0 ; cool down extruder,M127 ; stop blower fan,G162 X Y F3000 ; home XY maximum,;M18 ; disable stepper,M70 P5 (ZYYX Print Finished!),M72 P1 ; play Ta-Da song,; end of end gcode
;   exportFileFormat,x3g
;   celebration,0
;   celebrationSong,Random Song
;   postProcessing,{REPLACE "\n;SET_PROFILE_NAME" "\nM70 P1 (<Pro> ZYYX ABS)"},{REPLACE "\n;SET_SUPPORT_BUMPMAP" "\nM420 R255 E20 B12 P2\nM420 R253 P0"},{REPLACE "\n;SET_ZXPARAM" "\nM420 R1 E8 B130 P0"},,{REPLACE "\n; outer perimeter" "\n; outer perimeter\nM420 B1 P75"},{REPLACE "\n; solid layer" "\n; solid layer\nM420 B1 P75"},{REPLACE "\n; bridge" "\n; bridge\nM420 B1 P200"},,{REPLACE "\n; inner perimeter" "\n; inner perimeter\nM420 B1 P25"},{REPLACE "\n; infill" "\n; infill\nM420 B1 P25"},{REPLACE "\n; gap fill" "\n; gap fill\nM420 B1 P25"},{REPLACE "\n; support" "\n; support\nM420 B1 P25"},{REPLACE "\n; dense support" "\n; dense support\nM420 B1 P25"},{REPLACE "\nM126 S" "\nM420 B0 P"},,{REPLACE "\n; outer perimeter" "\n; outer perimeter\nM420 R253 P0"},{REPLACE "\n; gap fill" "\n; gap fill\nM420 R253 P0"},{REPLACE "\n; bridge" "\n; bridge\nM420 R253 P0"},{REPLACE "\n; inner perimeter" "\n; inner perimeter\nM420 R253 P0"},{REPLACE "\n; infill" "\n; infill\nM420 R253 P0"},{REPLACE "\n; solid layer" "\n; solid layer\nM420 R253 P0"},{REPLACE "\n; support" "\n; support\nM420 R253 P0"},{REPLACE "\n; dense support" "\n; dense support\nM420 R253 P1"},{REPLACE "\n; raft" "\n; raft\nM420 R253 P1"},,,CMD /C "REN" [output_filepath] A4-[output_filename].x3g
;   defaultSpeed,2202
;   outlineUnderspeed,1
;   solidInfillUnderspeed,0.75
;   supportUnderspeed,1
;   rapidXYspeed,4998
;   rapidZspeed,600
;   minBridgingArea,10
;   bridgingExtraInflation,0
;   bridgingExtrusionMultiplier,1
;   bridgingSpeedMultiplier,0.75
;   useFixedBridgingAngle,0
;   fixedBridgingAngle,0
;   applyBridgingToPerimeters,1
;   filamentDiameters,1.75|1.75|1.75|1.75|1.75|1.75
;   filamentPricesPerKg,56|56|56|56|56|56
;   filamentDensities,1.06|1.06|1.06|1.06|1.06|1.06
;   useMinPrintHeight,0
;   minPrintHeight,0
;   useMaxPrintHeight,0
;   maxPrintHeight,3
;   useDiaphragm,0
;   diaphragmLayerInterval,20
;   robustSlicing,1
;   mergeAllIntoSolid,0
;   onlyRetractWhenCrossingOutline,0
;   retractBetweenLayers,1
;   useRetractionMinTravel,1
;   retractionMinTravel,1
;   retractWhileWiping,1
;   onlyWipeOutlines,1
;   avoidCrossingOutline,1
;   maxMovementDetourFactor,2
;   toolChangeRetractionDistance,0
;   toolChangeExtraRestartDistance,0
;   toolChangeRetractionSpeed,1998
;   externalThinWallType,0
;   internalThinWallType,2
;   thinWallAllowedOverlapPercentage,16
;   singleExtrusionMinLength,0.4
;   singleExtrusionMinPrintingWidthPercentage,50
;   singleExtrusionMaxPrintingWidthPercentage,150
;   singleExtrusionEndpointExtension,0.2
;   horizontalSizeCompensation,0
G90
M83
M127
;start of ZYYX Pro startcode
M73 P0; enable build progress
G21; set units to mm
G90; set positioning to absolute
G130 X127 Y127 Z127 A127 B127  ; Set Stepper Vref to default value
G162 X Y F3000; home XY axes maximum
G161 Z F900
G161 Z F200; home Z axis minimum
M70 P1 (<Pro> ZYYX ABS)
M70 P2 (SwiftTool Multi0.4)
G92 X0 Y0 Z0 E0
G1 X0 Y0 Z20 F3000
G1 X-120 Y-110 Z10 F3000
G130 X0 Y0 Z3 A0 B0 ; Set Stepper Vref to low value
M420 P10; set back fan speed 10 off 11-20 10-100% 
M140 S10 T0; set 100% heater power
M140 S81 T0; set chamber heater negative hysteresis 19 degrees
M140 S120 T0; set chamber heater positive hysteresis 20 degrees
M140 S65 T0; set chamber temperature
M104 S100 T0; set extruder temp 100 while heating
M134 T0; wait for heated chamber temperature
M420 P13; set fan speed 10 off 11-20 10-100%
G130 X80 Y80 Z64 A127 B127 ; Set Stepper Vref to default value
; Perform probing of build-plate
G162 X Y F3000; home XY axes maximum
G161 Z F450
G161 Z F600; home Z axis minimum
G92 X0 Y0 Z0 E0
G1 X0 Y0 Z5 F200
G161 Z F200; home Z axis minimum again
G92 X0 Y0 Z0 E0
M131 A; store surface calibration point 1
G1 X0 Y0 Z5 F200
G1 X-182 Y0 Z5 F3000; move to 2nd probing point
G161 Z F200
M131 B; store surface calibration point 2
G92 X-182 Y0 Z0 E0
G1 X-182 Y0 Z5 F200
G1 X0 Y0 Z5 F3000; move to home point
G161 Z F200; home Z axis minimum again
G92 X0 Y0 Z0 E0; set reference again
G1 X0 Y0 Z5 F200; clear Z
G1 X0 Y-225 Z5 F3000; move to 3rd calibration point
G161 Z F200
M131 AB; store surface calibration point 3
M132 AB; activate auto leveling
G92 X0 Y-225 Z0 E0
G1 X0 Y-225 Z5 F200
G162 X Y F3000
G161 Z F200
G92 X135 Y115 Z0 E0
M132 Z; Recall stored home offset for Z axis
G1 X135 Y115 Z5 F450; clear nozzle from hole
G1 X0 Y115 Z5 F3000; clear nozzle from hole
; end of ZYYX Pro build-plate calibration
M127; turn off fan
M104 S225 T0
M133 T0 ; stabilize extruder temperature
M420 R1 E8 B130 P0
M420 R255 E20 B12 P2
M420 R253 P0
G92 E0 ; Set E to 0
; end of ZYYX Pro start code
; process Process1
; layer 1, Z = 0.800
M135 T0
G1 E-0.7500 F702
; feature skirt
; tool H0.750 W0.400
G1 Z0.800 F600
G1 X-58.375 Y-0.000 F4998
G1 E0.7500 F702
G1 X109.375 Y-0.000 E20.9227 F1541
G1 X109.963 Y0.244 E0.0794
G1 X112.756 Y3.037 E0.4927
G1 X113.000 Y3.625 E0.0794
G1 X113.000 Y82.375 E9.8222
G1 X112.756 Y82.963 E0.0794
G1 X109.963 Y85.756 E0.4927
G1 X109.375 Y86.000 E0.0794
G1 X-58.375 Y86.000 E20.9227
G1 X-58.963 Y85.756 E0.0794
G1 X-61.756 Y82.963 E0.4927
G1 X-62.000 Y82.375 E0.0794
G1 X-62.000 Y3.625 E9.8222
G1 X-61.756 Y3.037 E0.0794
G1 X-58.963 Y0.244 E0.4927
G1 X-58.375 Y-0.000 E0.0794
G1 X-58.296 Y0.400 F4998
G1 X109.296 Y0.400 E20.9029 F1541
G1 X109.737 Y0.583 E0.0595
G1 X112.417 Y3.263 E0.4728
G1 X112.600 Y3.704 E0.0595
G1 X112.600 Y82.296 E9.8023
G1 X112.417 Y82.737 E0.0595
G1 X109.737 Y85.417 E0.4728
G1 X109.296 Y85.600 E0.0595
G1 X-58.296 Y85.600 E20.9029
G1 X-58.737 Y85.417 E0.0595
G1 X-61.417 Y82.737 E0.4728
G1 X-61.600 Y82.296 E0.0595
G1 X-61.600 Y3.704 E9.8023
G1 X-61.417 Y3.263 E0.0595
G1 X-58.737 Y0.583 E0.4728
G1 X-58.296 Y0.400 E0.0595
G1 E-0.7500 F702
; feature raft
; tool H0.750 W0.800
G1 X-57.891 Y2.000 F4998
G1 E0.7500 F702
G1 X108.891 Y2.000 E41.6040 F385
G1 X111.000 Y4.109 E0.7439
G1 X111.000 Y81.891 E19.4029
G1 X108.891 Y84.000 E0.7439
G1 X-57.891 Y84.000 E41.6040
G1 X-60.000 Y81.891 E0.7439
G1 X-60.000 Y4.109 E19.4029
G1 X-57.891 Y2.000 E0.7439
G1 E-0.7500 F702
G1 X-30.400 Y34.100 F4998
G1 E0.7500 F702
G1 X-30.400 Y65.900 E7.9325 F385
G1 X81.400 Y65.900 E27.8886
G1 X81.400 Y34.100 E7.9325
G1 X-30.400 Y34.100 E27.8886
G1 E-0.7500 F702
G1 X-59.186 Y4.143 F4998
G1 E0.7500 F702
G1 X110.186 Y4.143 E42.2498 F385
G1 X110.400 Y4.357 E0.0757
G1 X110.400 Y6.429 E0.5167
G1 X-59.400 Y6.429 E42.3568
G1 X-59.400 Y8.714 E0.5702
G1 X110.400 Y8.714 E42.3568
G1 X110.400 Y11.000 E0.5702
G1 X-59.400 Y11.000 E42.3568
G1 X-59.400 Y13.286 E0.5702
G1 X110.400 Y13.286 E42.3568
G1 X110.400 Y15.571 E0.5702
G1 X-59.400 Y15.571 E42.3568
G1 X-59.400 Y17.857 E0.5702
G1 X110.400 Y17.857 E42.3568
G1 X110.400 Y20.143 E0.5702
G1 X-59.400 Y20.143 E42.3568
G1 X-59.400 Y22.429 E0.5702
G1 X110.400 Y22.429 E42.3568
G1 X110.400 Y24.714 E0.5702
G1 X-59.400 Y24.714 E42.3568
G1 X-59.400 Y27.000 E0.5702
G1 X110.400 Y27.000 E42.3568
G1 X110.400 Y29.286 E0.5702
G1 X-59.400 Y29.286 E42.3568
G1 X-59.400 Y31.571 E0.5702
G1 X110.400 Y31.571 E42.3568
G1 X110.400 Y33.857 E0.5702
G1 X82.000 Y33.857 E7.0844
G1 X82.000 Y33.500 E0.0891
G1 X-31.000 Y33.500 E28.1880
G1 X-31.000 Y33.857 E0.0891
G1 X-59.400 Y33.857 E7.0844
G1 X-59.400 Y36.143 E0.5702
G1 X-31.000 Y36.143 E7.0844
G1 X-31.000 Y38.429 E0.5702
G1 X-59.400 Y38.429 E7.0844
G1 X-59.400 Y40.714 E0.5702
G1 X-31.000 Y40.714 E7.0844
G1 X-31.000 Y43.000 E0.5702
G1 X-59.400 Y43.000 E7.0844
G1 X-59.400 Y45.286 E0.5702
G1 X-31.000 Y45.286 E7.0844
G1 X-31.000 Y47.571 E0.5702
G1 X-59.400 Y47.571 E7.0844
G1 X-59.400 Y49.857 E0.5702
G1 X-31.000 Y49.857 E7.0844
G1 X-31.000 Y52.143 E0.5702
G1 X-59.400 Y52.143 E7.0844
G1 X-59.400 Y54.429 E0.5702
G1 X-31.000 Y54.429 E7.0844
G1 X-31.000 Y56.714 E0.5702
G1 X-59.400 Y56.714 E7.0844
G1 X-59.400 Y59.000 E0.5702
G1 X-31.000 Y59.000 E7.0844
G1 X-31.000 Y61.286 E0.5702
G1 X-59.400 Y61.286 E7.0844
G1 X-59.400 Y63.571 E0.5702
G1 X-31.000 Y63.571 E7.0844
G1 X-31.000 Y65.857 E0.5702
G1 X-59.400 Y65.857 E7.0844
G1 X-59.400 Y68.143 E0.5702
G1 X110.400 Y68.143 E42.3568
G1 X110.400 Y70.429 E0.5702
G1 X-59.400 Y70.429 E42.3568
G1 X-59.400 Y72.714 E0.5702
G1 X110.400 Y72.714 E42.3568
G1 X110.400 Y75.000 E0.5702
G1 X-59.400 Y75.000 E42.3568
G1 X-59.400 Y77.286 E0.5702
G1 X110.400 Y77.286 E42.3568
G1 X110.400 Y79.571 E0.5702
G1 X-59.400 Y79.571 E42.3568
G1 X-59.400 Y81.643 E0.5167
G1 X-59.185 Y81.857 E0.0757
G1 X110.185 Y81.857 E42.2498
G1 E-0.7500 F702
G1 X82.000 Y65.857 F4998
G1 E0.7500 F702
G1 X110.400 Y65.857 E7.0844 F385
G1 X110.400 Y63.571 E0.5702
G1 X82.000 Y63.571 E7.0844
G1 X82.000 Y61.286 E0.5702
G1 X110.400 Y61.286 E7.0844
G1 X110.400 Y59.000 E0.5702
G1 X82.000 Y59.000 E7.0844
G1 X82.000 Y56.714 E0.5702
G1 X110.400 Y56.714 E7.0844
G1 X110.400 Y54.429 E0.5702
G1 X82.000 Y54.429 E7.0844
G1 X82.000 Y52.143 E0.5702
G1 X110.400 Y52.143 E7.0844
G1 X110.400 Y49.857 E0.5702
G1 X82.000 Y49.857 E7.0844
G1 X82.000 Y47.571 E0.5702
G1 X110.400 Y47.571 E7.0844
G1 X110.400 Y45.286 E0.5702
G1 X82.000 Y45.286 E7.0844
G1 X82.000 Y43.000 E0.5702
G1 X110.400 Y43.000 E7.0844
G1 X110.400 Y40.714 E0.5702
G1 X82.000 Y40.714 E7.0844
G1 X82.000 Y38.429 E0.5702
G1 X110.400 Y38.429 E7.0844
G1 X110.400 Y36.143 E0.5702
G1 X82.000 Y36.143 E7.0844
G1 E-0.7500 F702
; layer 2, Z = 1.300
M104 S235 T0
; tool H0.500 W0.800
G1 Z1.300 F600
G1 X111.000 Y4.109 F4998
G1 E0.7500 F702
G1 X111.000 Y81.891 E12.9353 F551
G1 X108.891 Y84.000 E0.4960
G1 X-57.891 Y84.000 E27.7360
G1 X-60.000 Y81.891 E0.4960
G1 X-60.000 Y4.109 E12.9353
G1 X-57.891 Y2.000 E0.4960
