; G-Code generated by Simplify3D(R) Version 4.1.2
; Feb 13, 2021 at 6:43:55 PM
; Settings Summary
;   processName,Process1
;   applyToModels,210213_LDR_panel_adaptor,210213_LDR_panel_adaptor(2),210213_LDR_panel_adaptor(3),210213_LDR_panel_adaptor(4),210213_LDR_panel_adaptor(5),210213_LDR_panel_adaptor(6)
;   profileName,ZYYX Pro - SwiftTool Multi0.4 V18 RC2 (modified)
;   profileVersion,2020-12-30 15:19:17
;   baseProfile,ZYYX Pro
;   printMaterial,ZYYX ABS
;   printQuality,Medium
;   printExtruders,
;   extruderName,Primary Extruder
;   extruderToolheadNumber,0
;   extruderDiameter,0.4
;   extruderAutoWidth,0
;   extruderWidth,0.4
;   extrusionMultiplier,1
;   extruderUseRetract,1
;   extruderRetractionDistance,0.75
;   extruderExtraRestartDistance,0
;   extruderRetractionZLift,0
;   extruderRetractionSpeed,702
;   extruderUseCoasting,0
;   extruderCoastingDistance,0.2
;   extruderUseWipe,0
;   extruderWipeDistance,2
;   primaryExtruder,0
;   layerHeight,0.2
;   topSolidLayers,5
;   bottomSolidLayers,5
;   perimeterOutlines,3
;   printPerimetersInsideOut,1
;   startPointOption,2
;   startPointOriginX,300
;   startPointOriginY,300
;   sequentialIslands,0
;   spiralVaseMode,0
;   firstLayerHeightPercentage,150
;   firstLayerWidthPercentage,100
;   firstLayerUnderspeed,0.7
;   useRaft,1
;   raftExtruder,0
;   raftTopLayers,3
;   raftBaseLayers,3
;   raftOffset,4
;   raftSeparationDistance,0.03
;   raftTopInfill,60
;   aboveRaftSpeedMultiplier,0.3
;   useSkirt,1
;   skirtExtruder,0
;   skirtLayers,1
;   skirtOutlines,2
;   skirtOffset,1
;   usePrimePillar,0
;   primePillarExtruder,999
;   primePillarWidth,12
;   primePillarLocation,7
;   primePillarSpeedMultiplier,1
;   useOozeShield,0
;   oozeShieldExtruder,999
;   oozeShieldOffset,2
;   oozeShieldOutlines,1
;   oozeShieldSidewallShape,1
;   oozeShieldSidewallAngle,30
;   oozeShieldSpeedMultiplier,1
;   infillExtruder,0
;   internalInfillPattern,Rectilinear
;   externalInfillPattern,Rectilinear
;   infillPercentage,25
;   outlineOverlapPercentage,25
;   infillExtrusionWidthPercentage,100
;   minInfillLength,3
;   infillLayerInterval,1
;   internalInfillAngles,45,-45
;   overlapInternalInfillAngles,0
;   externalInfillAngles,-45,45
;   generateSupport,1
;   supportExtruder,0
;   supportInfillPercentage,25
;   supportExtraInflation,0
;   supportBaseLayers,1
;   denseSupportExtruder,0
;   denseSupportLayers,4
;   denseSupportInfillPercentage,65
;   supportLayerInterval,1
;   supportHorizontalPartOffset,0.5
;   supportUpperSeparationLayers,1
;   supportLowerSeparationLayers,1
;   supportType,0
;   supportGridSpacing,2.5
;   maxOverhangAngle,45
;   supportAngles,0
;   temperatureName,Primary Extruder,Chamber
;   temperatureNumber,0,0
;   temperatureSetpointCount,6,1
;   temperatureSetpointLayers,1,2,6,7,8,9,1
;   temperatureSetpointTemperatures,225,235,232,228,245,265,65
;   temperatureStabilizeAtStartup,0,0
;   temperatureHeatedBed,0,1
;   fanLayers,1,5,7,8,9
;   fanSpeeds,0,0,100,50,1
;   blipFanToFullPower,0
;   adjustSpeedForCooling,0
;   minSpeedLayerTime,4.5
;   minCoolingSpeedSlowdown,30
;   increaseFanForCooling,1
;   minFanLayerTime,45
;   maxCoolingFanSpeed,50
;   increaseFanForBridging,1
;   bridgingFanSpeed,100
;   use5D,1
;   relativeEdistances,1
;   allowEaxisZeroing,0
;   independentExtruderAxes,1
;   includeM10123,0
;   stickySupport,1
;   applyToolheadOffsets,0
;   gcodeXoffset,0
;   gcodeYoffset,0
;   gcodeZoffset,0.05
;   overrideMachineDefinition,1
;   machineTypeOverride,0
;   strokeXoverride,260
;   strokeYoverride,225
;   strokeZoverride,200
;   originOffsetXoverride,132.5
;   originOffsetYoverride,112.5
;   originOffsetZoverride,0
;   homeXdirOverride,1
;   homeYdirOverride,1
;   homeZdirOverride,-1
;   flipXoverride,1
;   flipYoverride,-1
;   flipZoverride,1
;   toolheadOffsets,0,0|0,0|0,0|0,0|0,0|0,0
;   overrideFirmwareConfiguration,1
;   firmwareTypeOverride,MakerBot/Sailfish Firmware
;   GPXconfigOverride,r2h
;   baudRateOverride,115200
;   overridePrinterModels,1
;   printerModelsOverride,zyyx3dprinter.stl
;   startingGcode,;start of ZYYX Pro startcode,M73 P0; enable build progress,G21; set units to mm,G90; set positioning to absolute,G130 X127 Y127 Z127 A127 B127  ; Set Stepper Vref to default value,,G162 X Y F3000; home XY axes maximum,G161 Z F900,G161 Z F200; home Z axis minimum,,;SET_PROFILE_NAME,M70 P2 (SwiftTool Multi0.4),,G92 X0 Y0 Z0 E0,G1 X0 Y0 Z20 F3000,G1 X-120 Y-110 Z10 F3000,G130 X0 Y0 Z3 A0 B0 ; Set Stepper Vref to low value,,M420 P10; set back fan speed 10 off 11-20 10-100% ,M140 S10 T0; set 100% heater power,M140 S81 T0; set chamber heater negative hysteresis 19 degrees,M140 S120 T0; set chamber heater positive hysteresis 20 degrees,M140 S[bed0_temperature] T0; set chamber temperature,M104 S100 T0; set extruder temp 100 while heating,M134 T0; wait for heated chamber temperature,M420 P13; set fan speed 10 off 11-20 10-100%,,G130 X80 Y80 Z64 A127 B127 ; Set Stepper Vref to default value,,; Perform probing of build-plate,,G162 X Y F3000; home XY axes maximum,G161 Z F450,G161 Z F600; home Z axis minimum,G92 X0 Y0 Z0 E0,G1 X0 Y0 Z5 F200,G161 Z F200; home Z axis minimum again,G92 X0 Y0 Z0 E0,M131 A; store surface calibration point 1,G1 X0 Y0 Z5 F200,G1 X-182 Y0 Z5 F3000; move to 2nd probing point,G161 Z F200,M131 B; store surface calibration point 2,G92 X-182 Y0 Z0 E0,G1 X-182 Y0 Z5 F200,G1 X0 Y0 Z5 F3000; move to home point,G161 Z F200; home Z axis minimum again,G92 X0 Y0 Z0 E0; set reference again,G1 X0 Y0 Z5 F200; clear Z,G1 X0 Y-225 Z5 F3000; move to 3rd calibration point,G161 Z F200,M131 AB; store surface calibration point 3,M132 AB; activate auto leveling,G92 X0 Y-225 Z0 E0,G1 X0 Y-225 Z5 F200,G162 X Y F3000,G161 Z F200,G92 X135 Y115 Z0 E0,M132 Z; Recall stored home offset for Z axis,G1 X135 Y115 Z5 F450; clear nozzle from hole,G1 X0 Y115 Z5 F3000; clear nozzle from hole,; end of ZYYX Pro build-plate calibration,M127; turn off fan,M104 S[extruder0_temperature] T0,M133 T0 ; stabilize extruder temperature,,;SET_ZXPARAM,;SET_SUPPORT_BUMPMAP,,G92 E0 ; Set E to 0,; end of ZYYX Pro start code
;   layerChangeGcode,
;   retractionGcode,
;   toolChangeGcode,{IF NEWTOOL>1} G91,{IF NEWTOOL>1} G1 Z1 E-2 F600,{IF NEWTOOL>1} G90,{IF NEWTOOL>1} M71 P255 (Please change to NEW filament),{IF NEWTOOL>1} G1 E1.5 F600,
;   endingGcode,; ZYYX Pro end gcode,M73 P100 ; end build progress,G0 Z210 F1000 ; send Z axis to bottom of machine,M104 S0 T0 ; cool down extruder,M127 ; stop blower fan,G162 X Y F3000 ; home XY maximum,;M18 ; disable stepper,M70 P5 (ZYYX Print Finished!),M72 P1 ; play Ta-Da song,; end of end gcode
;   exportFileFormat,x3g
;   celebration,0
;   celebrationSong,Random Song
;   postProcessing,{REPLACE "\n;SET_PROFILE_NAME" "\nM70 P1 (<Pro> ZYYX ABS)"},{REPLACE "\n;SET_SUPPORT_BUMPMAP" "\nM420 R255 E20 B12 P2\nM420 R253 P0"},{REPLACE "\n;SET_ZXPARAM" "\nM420 R1 E8 B130 P0"},,{REPLACE "\n; outer perimeter" "\n; outer perimeter\nM420 B1 P75"},{REPLACE "\n; solid layer" "\n; solid layer\nM420 B1 P75"},{REPLACE "\n; bridge" "\n; bridge\nM420 B1 P200"},,{REPLACE "\n; inner perimeter" "\n; inner perimeter\nM420 B1 P25"},{REPLACE "\n; infill" "\n; infill\nM420 B1 P25"},{REPLACE "\n; gap fill" "\n; gap fill\nM420 B1 P25"},{REPLACE "\n; support" "\n; support\nM420 B1 P25"},{REPLACE "\n; dense support" "\n; dense support\nM420 B1 P25"},{REPLACE "\nM126 S" "\nM420 B0 P"},,{REPLACE "\n; outer perimeter" "\n; outer perimeter\nM420 R253 P0"},{REPLACE "\n; gap fill" "\n; gap fill\nM420 R253 P0"},{REPLACE "\n; bridge" "\n; bridge\nM420 R253 P0"},{REPLACE "\n; inner perimeter" "\n; inner perimeter\nM420 R253 P0"},{REPLACE "\n; infill" "\n; infill\nM420 R253 P0"},{REPLACE "\n; solid layer" "\n; solid layer\nM420 R253 P0"},{REPLACE "\n; support" "\n; support\nM420 R253 P0"},{REPLACE "\n; dense support" "\n; dense support\nM420 R253 P1"},{REPLACE "\n; raft" "\n; raft\nM420 R253 P1"},,,CMD /C "REN" [output_filepath] A4-[output_filename].x3g
;   defaultSpeed,2202
;   outlineUnderspeed,1
;   solidInfillUnderspeed,0.75
;   supportUnderspeed,1
;   rapidXYspeed,4998
;   rapidZspeed,600
;   minBridgingArea,10
;   bridgingExtraInflation,0
;   bridgingExtrusionMultiplier,1
;   bridgingSpeedMultiplier,0.75
;   useFixedBridgingAngle,0
;   fixedBridgingAngle,0
;   applyBridgingToPerimeters,1
;   filamentDiameters,1.75|1.75|1.75|1.75|1.75|1.75
;   filamentPricesPerKg,56|56|56|56|56|56
;   filamentDensities,1.06|1.06|1.06|1.06|1.06|1.06
;   useMinPrintHeight,0
;   minPrintHeight,0
;   useMaxPrintHeight,0
;   maxPrintHeight,3
;   useDiaphragm,0
;   diaphragmLayerInterval,20
;   robustSlicing,1
;   mergeAllIntoSolid,0
;   onlyRetractWhenCrossingOutline,0
;   retractBetweenLayers,1
;   useRetractionMinTravel,1
;   retractionMinTravel,1
;   retractWhileWiping,1
;   onlyWipeOutlines,1
;   avoidCrossingOutline,1
;   maxMovementDetourFactor,2
;   toolChangeRetractionDistance,0
;   toolChangeExtraRestartDistance,0
;   toolChangeRetractionSpeed,1998
;   externalThinWallType,0
;   internalThinWallType,2
;   thinWallAllowedOverlapPercentage,16
;   singleExtrusionMinLength,0.4
;   singleExtrusionMinPrintingWidthPercentage,50
;   singleExtrusionMaxPrintingWidthPercentage,150
;   singleExtrusionEndpointExtension,0.2
;   horizontalSizeCompensation,0
G90
M83
M127
;start of ZYYX Pro startcode
M73 P0; enable build progress
G21; set units to mm
G90; set positioning to absolute
G130 X127 Y127 Z127 A127 B127  ; Set Stepper Vref to default value
G162 X Y F3000; home XY axes maximum
G161 Z F900
G161 Z F200; home Z axis minimum
M70 P1 (<Pro> ZYYX ABS)
M70 P2 (SwiftTool Multi0.4)
G92 X0 Y0 Z0 E0
G1 X0 Y0 Z20 F3000
G1 X-120 Y-110 Z10 F3000
G130 X0 Y0 Z3 A0 B0 ; Set Stepper Vref to low value
M420 P10; set back fan speed 10 off 11-20 10-100% 
M140 S10 T0; set 100% heater power
M140 S81 T0; set chamber heater negative hysteresis 19 degrees
M140 S120 T0; set chamber heater positive hysteresis 20 degrees
M140 S65 T0; set chamber temperature
M104 S100 T0; set extruder temp 100 while heating
M134 T0; wait for heated chamber temperature
M420 P13; set fan speed 10 off 11-20 10-100%
G130 X80 Y80 Z64 A127 B127 ; Set Stepper Vref to default value
; Perform probing of build-plate
G162 X Y F3000; home XY axes maximum
G161 Z F450
G161 Z F600; home Z axis minimum
G92 X0 Y0 Z0 E0
G1 X0 Y0 Z5 F200
G161 Z F200; home Z axis minimum again
G92 X0 Y0 Z0 E0
M131 A; store surface calibration point 1
G1 X0 Y0 Z5 F200
G1 X-182 Y0 Z5 F3000; move to 2nd probing point
G161 Z F200
M131 B; store surface calibration point 2
G92 X-182 Y0 Z0 E0
G1 X-182 Y0 Z5 F200
G1 X0 Y0 Z5 F3000; move to home point
G161 Z F200; home Z axis minimum again
G92 X0 Y0 Z0 E0; set reference again
G1 X0 Y0 Z5 F200; clear Z
G1 X0 Y-225 Z5 F3000; move to 3rd calibration point
G161 Z F200
M131 AB; store surface calibration point 3
M132 AB; activate auto leveling
G92 X0 Y-225 Z0 E0
G1 X0 Y-225 Z5 F200
G162 X Y F3000
G161 Z F200
G92 X135 Y115 Z0 E0
M132 Z; Recall stored home offset for Z axis
G1 X135 Y115 Z5 F450; clear nozzle from hole
G1 X0 Y115 Z5 F3000; clear nozzle from hole
; end of ZYYX Pro build-plate calibration
M127; turn off fan
M104 S225 T0
M133 T0 ; stabilize extruder temperature
M420 R1 E8 B130 P0
M420 R255 E20 B12 P2
M420 R253 P0
G92 E0 ; Set E to 0
; end of ZYYX Pro start code
; process Process1
; layer 1, Z = 0.800
M135 T0
G1 E-0.7500 F702
; feature skirt
; tool H0.750 W0.400
G1 Z0.800 F600
G1 X6.495 Y-15.778 F4998
G1 E0.7500 F702
G1 X6.519 Y-15.806 E0.0046 F1541
G1 X6.544 Y-15.835 E0.0047
G1 X6.696 Y-16.002 E0.0282
G1 X6.722 Y-16.029 E0.0047
G1 X7.171 Y-16.478 E0.0792
G1 X7.198 Y-16.504 E0.0047
G1 X7.365 Y-16.656 E0.0282
G1 X7.394 Y-16.681 E0.0047
G1 X8.226 Y-17.370 E0.1347
G1 X8.266 Y-17.401 E0.0063
G1 X8.510 Y-17.578 E0.0376
G1 X8.551 Y-17.606 E0.0063
G1 X9.495 Y-18.205 E0.1394
G1 X9.539 Y-18.231 E0.0063
G1 X9.803 Y-18.376 E0.0376
G1 X9.848 Y-18.399 E0.0063
G1 X10.825 Y-18.859 E0.1347
G1 X10.860 Y-18.874 E0.0047
G1 X11.069 Y-18.961 E0.0282
G1 X11.104 Y-18.974 E0.0047
G1 X11.701 Y-19.189 E0.0791
G1 X11.737 Y-19.201 E0.0047
G1 X11.953 Y-19.268 E0.0282
G1 X11.989 Y-19.278 E0.0047
G1 X13.036 Y-19.546 E0.1347
G1 X13.085 Y-19.557 E0.0063
G1 X13.381 Y-19.614 E0.0376
G1 X13.431 Y-19.622 E0.0063
G1 X14.540 Y-19.762 E0.1394
G1 X14.590 Y-19.767 E0.0063
G1 X14.891 Y-19.786 E0.0376
G1 X14.941 Y-19.787 E0.0063
G1 X16.059 Y-19.787 E0.1394
G1 X16.109 Y-19.786 E0.0063
G1 X16.410 Y-19.767 E0.0376
G1 X16.460 Y-19.762 E0.0063
G1 X17.569 Y-19.622 E0.1394
G1 X17.619 Y-19.614 E0.0063
G1 X17.915 Y-19.557 E0.0376
G1 X17.964 Y-19.546 E0.0063
G1 X19.011 Y-19.278 E0.1347
G1 X19.047 Y-19.268 E0.0047
G1 X19.263 Y-19.201 E0.0282
G1 X19.299 Y-19.189 E0.0047
G1 X19.896 Y-18.974 E0.0791
G1 X19.931 Y-18.961 E0.0047
G1 X20.140 Y-18.874 E0.0282
G1 X20.175 Y-18.859 E0.0047
G1 X21.152 Y-18.399 E0.1347
G1 X21.197 Y-18.376 E0.0063
G1 X21.461 Y-18.231 E0.0376
G1 X21.505 Y-18.205 E0.0063
G1 X22.449 Y-17.606 E0.1394
G1 X22.490 Y-17.578 E0.0063
G1 X22.734 Y-17.400 E0.0376
G1 X22.774 Y-17.370 E0.0063
G1 X23.635 Y-16.657 E0.1394
G1 X23.673 Y-16.624 E0.0063
G1 X23.893 Y-16.417 E0.0376
G1 X23.929 Y-16.382 E0.0063
G1 X24.694 Y-15.567 E0.1394
G1 X24.727 Y-15.529 E0.0063
G1 X24.919 Y-15.297 E0.0376
G1 X24.950 Y-15.257 E0.0063
G1 X25.607 Y-14.352 E0.1394
G1 X25.636 Y-14.311 E0.0063
G1 X25.797 Y-14.056 E0.0376
G1 X25.823 Y-14.013 E0.0063
G1 X26.361 Y-13.033 E0.1394
G1 X26.384 Y-12.988 E0.0063
G1 X26.513 Y-12.715 E0.0376
G1 X26.533 Y-12.669 E0.0063
G1 X26.944 Y-11.630 E0.1394
G1 X26.961 Y-11.583 E0.0063
G1 X27.054 Y-11.296 E0.0376
G1 X27.068 Y-11.247 E0.0063
G1 X27.346 Y-10.165 E0.1394
G1 X27.357 Y-10.115 E0.0063
G1 X27.414 Y-9.819 E0.0376
G1 X27.422 Y-9.769 E0.0063
G1 X27.562 Y-8.660 E0.1394
G1 X27.567 Y-8.610 E0.0063
G1 X27.586 Y-8.309 E0.0376
G1 X27.587 Y-8.259 E0.0063
G1 X27.587 Y-7.141 E0.1394
G1 X27.586 Y-7.091 E0.0063
G1 X27.567 Y-6.790 E0.0376
G1 X27.562 Y-6.740 E0.0063
G1 X27.427 Y-5.668 E0.1347
G1 X27.421 Y-5.631 E0.0047
G1 X27.382 Y-5.408 E0.0282
G1 X27.375 Y-5.371 E0.0047
G1 X27.236 Y-4.752 E0.0792
G1 X27.227 Y-4.715 E0.0047
G1 X27.167 Y-4.497 E0.0282
G1 X27.157 Y-4.461 E0.0047
G1 X26.823 Y-3.433 E0.1347
G1 X26.806 Y-3.386 E0.0063
G1 X26.695 Y-3.105 E0.0376
G1 X26.675 Y-3.059 E0.0063
G1 X26.199 Y-2.048 E0.1394
G1 X26.176 Y-2.003 E0.0063
G1 X26.031 Y-1.739 E0.0376
G1 X26.005 Y-1.695 E0.0063
G1 X25.406 Y-0.751 E0.1394
G1 X25.378 Y-0.710 E0.0063
G1 X25.200 Y-0.466 E0.0376
G1 X25.170 Y-0.426 E0.0063
G1 X24.481 Y0.406 E0.1347
G1 X24.456 Y0.435 E0.0047
G1 X24.304 Y0.602 E0.0282
G1 X24.278 Y0.629 E0.0047
G1 X24.248 Y0.659 E0.0052
G1 X24.694 Y1.133 E0.0812
G1 X24.727 Y1.171 E0.0063
G1 X24.919 Y1.403 E0.0376
G1 X24.950 Y1.443 E0.0063
G1 X25.607 Y2.348 E0.1394
G1 X25.636 Y2.389 E0.0063
G1 X25.797 Y2.644 E0.0376
G1 X25.823 Y2.687 E0.0063
G1 X26.361 Y3.667 E0.1394
G1 X26.384 Y3.712 E0.0063
G1 X26.513 Y3.985 E0.0376
G1 X26.533 Y4.031 E0.0063
G1 X26.944 Y5.070 E0.1394
G1 X26.961 Y5.117 E0.0063
G1 X27.054 Y5.404 E0.0376
G1 X27.068 Y5.453 E0.0063
G1 X27.346 Y6.535 E0.1394
G1 X27.357 Y6.585 E0.0063
G1 X27.414 Y6.881 E0.0376
G1 X27.422 Y6.931 E0.0063
G1 X27.562 Y8.040 E0.1394
G1 X27.567 Y8.090 E0.0063
G1 X27.586 Y8.391 E0.0376
G1 X27.587 Y8.441 E0.0063
G1 X27.587 Y9.559 E0.1394
G1 X27.586 Y9.609 E0.0063
G1 X27.567 Y9.910 E0.0376
G1 X27.562 Y9.960 E0.0063
G1 X27.427 Y11.032 E0.1347
G1 X27.421 Y11.069 E0.0047
G1 X27.382 Y11.292 E0.0282
G1 X27.375 Y11.329 E0.0047
G1 X27.236 Y11.948 E0.0791
G1 X27.227 Y11.985 E0.0047
G1 X27.167 Y12.203 E0.0282
G1 X27.157 Y12.239 E0.0047
G1 X26.823 Y13.267 E0.1347
G1 X26.806 Y13.314 E0.0063
G1 X26.695 Y13.595 E0.0376
G1 X26.675 Y13.641 E0.0063
G1 X26.199 Y14.652 E0.1394
G1 X26.176 Y14.697 E0.0063
G1 X26.031 Y14.961 E0.0376
G1 X26.005 Y15.005 E0.0063
G1 X25.406 Y15.949 E0.1394
G1 X25.378 Y15.990 E0.0063
G1 X25.200 Y16.234 E0.0376
G1 X25.170 Y16.274 E0.0063
G1 X24.481 Y17.106 E0.1347
G1 X24.456 Y17.135 E0.0047
G1 X24.304 Y17.302 E0.0282
G1 X24.278 Y17.329 E0.0047
G1 X23.833 Y17.775 E0.0785
G1 X23.807 Y17.799 E0.0045
G1 X23.647 Y17.945 E0.0270
