; G-Code generated by Simplify3D(R) Version 4.1.2
; Feb 13, 2021 at 8:22:58 PM
; Settings Summary
;   processName,Process1
;   applyToModels,210213_LDR_panel_adaptor,210213_LDR_panel_adaptor(2),210213_LDR_panel_adaptor(3),210213_LDR_panel_adaptor(4),210213_LDR_panel_adaptor(5),210213_LDR_panel_adaptor(6)
;   profileName,ZYYX Pro - SwiftTool Multi0.4 V18 RC2 (modified)
;   profileVersion,2020-04-03 19:07:46
;   baseProfile,ZYYX Pro
;   printMaterial,ZYYX ABS
;   printQuality,Quick
;   printExtruders,
;   extruderName,Primary Extruder
;   extruderToolheadNumber,0
;   extruderDiameter,0.4
;   extruderAutoWidth,0
;   extruderWidth,0.4
;   extrusionMultiplier,1
;   extruderUseRetract,1
;   extruderRetractionDistance,0.75
;   extruderExtraRestartDistance,0
;   extruderRetractionZLift,0
;   extruderRetractionSpeed,702
;   extruderUseCoasting,0
;   extruderCoastingDistance,0.2
;   extruderUseWipe,0
;   extruderWipeDistance,2
;   primaryExtruder,0
;   layerHeight,0.3
;   topSolidLayers,3
;   bottomSolidLayers,3
;   perimeterOutlines,3
;   printPerimetersInsideOut,1
;   startPointOption,2
;   startPointOriginX,300
;   startPointOriginY,300
;   sequentialIslands,0
;   spiralVaseMode,0
;   firstLayerHeightPercentage,100
;   firstLayerWidthPercentage,100
;   firstLayerUnderspeed,0.7
;   useRaft,1
;   raftExtruder,0
;   raftTopLayers,2
;   raftBaseLayers,2
;   raftOffset,3
;   raftSeparationDistance,0.05
;   raftTopInfill,50
;   aboveRaftSpeedMultiplier,0.5
;   useSkirt,1
;   skirtExtruder,0
;   skirtLayers,1
;   skirtOutlines,2
;   skirtOffset,4
;   usePrimePillar,0
;   primePillarExtruder,999
;   primePillarWidth,12
;   primePillarLocation,7
;   primePillarSpeedMultiplier,1
;   useOozeShield,0
;   oozeShieldExtruder,999
;   oozeShieldOffset,2
;   oozeShieldOutlines,1
;   oozeShieldSidewallShape,1
;   oozeShieldSidewallAngle,30
;   oozeShieldSpeedMultiplier,1
;   infillExtruder,0
;   internalInfillPattern,Rectilinear
;   externalInfillPattern,Rectilinear
;   infillPercentage,25
;   outlineOverlapPercentage,25
;   infillExtrusionWidthPercentage,100
;   minInfillLength,3
;   infillLayerInterval,1
;   internalInfillAngles,45,-45
;   overlapInternalInfillAngles,0
;   externalInfillAngles,45,-45
;   generateSupport,1
;   supportExtruder,0
;   supportInfillPercentage,25
;   supportExtraInflation,0
;   supportBaseLayers,1
;   denseSupportExtruder,0
;   denseSupportLayers,4
;   denseSupportInfillPercentage,80
;   supportLayerInterval,1
;   supportHorizontalPartOffset,0.5
;   supportUpperSeparationLayers,1
;   supportLowerSeparationLayers,1
;   supportType,0
;   supportGridSpacing,2.5
;   maxOverhangAngle,45
;   supportAngles,0
;   temperatureName,Primary Extruder,Chamber
;   temperatureNumber,0,0
;   temperatureSetpointCount,6,1
;   temperatureSetpointLayers,1,2,4,5,6,7,1
;   temperatureSetpointTemperatures,225,235,232,228,240,265,65
;   temperatureStabilizeAtStartup,0,0
;   temperatureHeatedBed,0,1
;   fanLayers,1,4,5,6,8
;   fanSpeeds,0,0,100,50,1
;   blipFanToFullPower,0
;   adjustSpeedForCooling,0
;   minSpeedLayerTime,4.5
;   minCoolingSpeedSlowdown,30
;   increaseFanForCooling,1
;   minFanLayerTime,45
;   maxCoolingFanSpeed,100
;   increaseFanForBridging,1
;   bridgingFanSpeed,100
;   use5D,1
;   relativeEdistances,1
;   allowEaxisZeroing,0
;   independentExtruderAxes,1
;   includeM10123,0
;   stickySupport,1
;   applyToolheadOffsets,0
;   gcodeXoffset,0
;   gcodeYoffset,0
;   gcodeZoffset,0.05
;   overrideMachineDefinition,1
;   machineTypeOverride,0
;   strokeXoverride,260
;   strokeYoverride,225
;   strokeZoverride,200
;   originOffsetXoverride,132.5
;   originOffsetYoverride,112.5
;   originOffsetZoverride,0
;   homeXdirOverride,1
;   homeYdirOverride,1
;   homeZdirOverride,-1
;   flipXoverride,1
;   flipYoverride,-1
;   flipZoverride,1
;   toolheadOffsets,0,0|0,0|0,0|0,0|0,0|0,0
;   overrideFirmwareConfiguration,1
;   firmwareTypeOverride,MakerBot/Sailfish Firmware
;   GPXconfigOverride,r2h
;   baudRateOverride,115200
;   overridePrinterModels,1
;   printerModelsOverride,zyyx3dprinter.stl
;   startingGcode,;start of ZYYX Pro startcode,M73 P0; enable build progress,G21; set units to mm,G90; set positioning to absolute,G130 X127 Y127 Z127 A127 B127  ; Set Stepper Vref to default value,,G162 X Y F3000; home XY axes maximum,G161 Z F900,G161 Z F200; home Z axis minimum,,;SET_PROFILE_NAME,M70 P2 (SwiftTool Multi0.4),,G92 X0 Y0 Z0 E0,G1 X0 Y0 Z20 F3000,G1 X-120 Y-110 Z10 F3000,G130 X0 Y0 Z3 A0 B0 ; Set Stepper Vref to low value,,M420 P10; set back fan speed 10 off 11-20 10-100% ,M140 S10 T0; set 100% heater power,M140 S81 T0; set chamber heater negative hysteresis 19 degrees,M140 S120 T0; set chamber heater positive hysteresis 20 degrees,M140 S[bed0_temperature] T0; set chamber temperature,M104 S100 T0; set extruder temp 100 while heating,M134 T0; wait for heated chamber temperature,M420 P13; set fan speed 10 off 11-20 10-100%,,G130 X80 Y80 Z64 A127 B127 ; Set Stepper Vref to default value,,; Perform probing of build-plate,,G162 X Y F3000; home XY axes maximum,G161 Z F450,G161 Z F600; home Z axis minimum,G92 X0 Y0 Z0 E0,G1 X0 Y0 Z5 F200,G161 Z F200; home Z axis minimum again,G92 X0 Y0 Z0 E0,M131 A; store surface calibration point 1,G1 X0 Y0 Z5 F200,G1 X-182 Y0 Z5 F3000; move to 2nd probing point,G161 Z F200,M131 B; store surface calibration point 2,G92 X-182 Y0 Z0 E0,G1 X-182 Y0 Z5 F200,G1 X0 Y0 Z5 F3000; move to home point,G161 Z F200; home Z axis minimum again,G92 X0 Y0 Z0 E0; set reference again,G1 X0 Y0 Z5 F200; clear Z,G1 X0 Y-225 Z5 F3000; move to 3rd calibration point,G161 Z F200,M131 AB; store surface calibration point 3,M132 AB; activate auto leveling,G92 X0 Y-225 Z0 E0,G1 X0 Y-225 Z5 F200,G162 X Y F3000,G161 Z F200,G92 X135 Y115 Z0 E0,M132 Z; Recall stored home offset for Z axis,G1 X135 Y115 Z5 F450; clear nozzle from hole,G1 X0 Y115 Z5 F3000; clear nozzle from hole,; end of ZYYX Pro build-plate calibration,M127; turn off fan,M104 S[extruder0_temperature] T0,M133 T0 ; stabilize extruder temperature,,;SET_ZXPARAM,;SET_SUPPORT_BUMPMAP,,G92 E0 ; Set E to 0,; end of ZYYX Pro start code
;   layerChangeGcode,
;   retractionGcode,
;   toolChangeGcode,{IF NEWTOOL>1} G91,{IF NEWTOOL>1} G1 Z1 E-2 F600,{IF NEWTOOL>1} G90,{IF NEWTOOL>1} M71 P255 (Please change to NEW filament),{IF NEWTOOL>1} G1 E1.5 F600,
;   endingGcode,; ZYYX Pro end gcode,M73 P100 ; end build progress,G0 Z210 F1000 ; send Z axis to bottom of machine,M104 S0 T0 ; cool down extruder,M127 ; stop blower fan,G162 X Y F3000 ; home XY maximum,;M18 ; disable stepper,M70 P5 (ZYYX Print Finished!),M72 P1 ; play Ta-Da song,; end of end gcode
;   exportFileFormat,x3g
;   celebration,0
;   celebrationSong,Random Song
;   postProcessing,{REPLACE "\n;SET_PROFILE_NAME" "\nM70 P1 (<Pro> ZYYX ABS)"},{REPLACE "\n;SET_SUPPORT_BUMPMAP" "\nM420 R255 E20 B12 P2\nM420 R253 P0"},{REPLACE "\n;SET_ZXPARAM" "\nM420 R1 E8 B130 P0"},,{REPLACE "\n; outer perimeter" "\n; outer perimeter\nM420 B1 P75"},{REPLACE "\n; solid layer" "\n; solid layer\nM420 B1 P75"},{REPLACE "\n; bridge" "\n; bridge\nM420 B1 P200"},,{REPLACE "\n; inner perimeter" "\n; inner perimeter\nM420 B1 P25"},{REPLACE "\n; infill" "\n; infill\nM420 B1 P25"},{REPLACE "\n; gap fill" "\n; gap fill\nM420 B1 P25"},{REPLACE "\n; support" "\n; support\nM420 B1 P25"},{REPLACE "\n; dense support" "\n; dense support\nM420 B1 P25"},{REPLACE "\nM126 S" "\nM420 B0 P"},,{REPLACE "\n; outer perimeter" "\n; outer perimeter\nM420 R253 P0"},{REPLACE "\n; gap fill" "\n; gap fill\nM420 R253 P0"},{REPLACE "\n; bridge" "\n; bridge\nM420 R253 P0"},{REPLACE "\n; inner perimeter" "\n; inner perimeter\nM420 R253 P0"},{REPLACE "\n; infill" "\n; infill\nM420 R253 P0"},{REPLACE "\n; solid layer" "\n; solid layer\nM420 R253 P0"},{REPLACE "\n; support" "\n; support\nM420 R253 P0"},{REPLACE "\n; dense support" "\n; dense support\nM420 R253 P1"},{REPLACE "\n; raft" "\n; raft\nM420 R253 P1"},,,CMD /C "REN" [output_filepath] A4-[output_filename].x3g
;   defaultSpeed,3200
;   outlineUnderspeed,1
;   solidInfillUnderspeed,0.75
;   supportUnderspeed,1
;   rapidXYspeed,5000
;   rapidZspeed,600
;   minBridgingArea,10
;   bridgingExtraInflation,0
;   bridgingExtrusionMultiplier,1
;   bridgingSpeedMultiplier,0.75
;   useFixedBridgingAngle,0
;   fixedBridgingAngle,0
;   applyBridgingToPerimeters,1
;   filamentDiameters,1.75|1.75|1.75|1.75|1.75|1.75
;   filamentPricesPerKg,56|56|56|56|56|56
;   filamentDensities,1.06|1.06|1.06|1.06|1.06|1.06
;   useMinPrintHeight,0
;   minPrintHeight,0
;   useMaxPrintHeight,0
;   maxPrintHeight,3
;   useDiaphragm,0
;   diaphragmLayerInterval,20
;   robustSlicing,1
;   mergeAllIntoSolid,0
;   onlyRetractWhenCrossingOutline,0
;   retractBetweenLayers,1
;   useRetractionMinTravel,1
;   retractionMinTravel,1
;   retractWhileWiping,1
;   onlyWipeOutlines,1
;   avoidCrossingOutline,1
;   maxMovementDetourFactor,2
;   toolChangeRetractionDistance,0
;   toolChangeExtraRestartDistance,0
;   toolChangeRetractionSpeed,2000
;   externalThinWallType,0
;   internalThinWallType,1
;   thinWallAllowedOverlapPercentage,12
;   singleExtrusionMinLength,0.4
;   singleExtrusionMinPrintingWidthPercentage,50
;   singleExtrusionMaxPrintingWidthPercentage,150
;   singleExtrusionEndpointExtension,0.2
;   horizontalSizeCompensation,0
G90
M83
M127
;start of ZYYX Pro startcode
M73 P0; enable build progress
G21; set units to mm
G90; set positioning to absolute
G130 X127 Y127 Z127 A127 B127  ; Set Stepper Vref to default value
G162 X Y F3000; home XY axes maximum
G161 Z F900
G161 Z F200; home Z axis minimum
M70 P1 (<Pro> ZYYX ABS)
M70 P2 (SwiftTool Multi0.4)
G92 X0 Y0 Z0 E0
G1 X0 Y0 Z20 F3000
G1 X-120 Y-110 Z10 F3000
G130 X0 Y0 Z3 A0 B0 ; Set Stepper Vref to low value
M420 P10; set back fan speed 10 off 11-20 10-100% 
M140 S10 T0; set 100% heater power
M140 S81 T0; set chamber heater negative hysteresis 19 degrees
M140 S120 T0; set chamber heater positive hysteresis 20 degrees
M140 S65 T0; set chamber temperature
M104 S100 T0; set extruder temp 100 while heating
M134 T0; wait for heated chamber temperature
M420 P13; set fan speed 10 off 11-20 10-100%
G130 X80 Y80 Z64 A127 B127 ; Set Stepper Vref to default value
; Perform probing of build-plate
G162 X Y F3000; home XY axes maximum
G161 Z F450
G161 Z F600; home Z axis minimum
G92 X0 Y0 Z0 E0
G1 X0 Y0 Z5 F200
G161 Z F200; home Z axis minimum again
G92 X0 Y0 Z0 E0
M131 A; store surface calibration point 1
G1 X0 Y0 Z5 F200
G1 X-182 Y0 Z5 F3000; move to 2nd probing point
G161 Z F200
M131 B; store surface calibration point 2
G92 X-182 Y0 Z0 E0
G1 X-182 Y0 Z5 F200
G1 X0 Y0 Z5 F3000; move to home point
G161 Z F200; home Z axis minimum again
G92 X0 Y0 Z0 E0; set reference again
G1 X0 Y0 Z5 F200; clear Z
G1 X0 Y-225 Z5 F3000; move to 3rd calibration point
G161 Z F200
M131 AB; store surface calibration point 3
M132 AB; activate auto leveling
G92 X0 Y-225 Z0 E0
G1 X0 Y-225 Z5 F200
G162 X Y F3000
G161 Z F200
G92 X135 Y115 Z0 E0
M132 Z; Recall stored home offset for Z axis
G1 X135 Y115 Z5 F450; clear nozzle from hole
G1 X0 Y115 Z5 F3000; clear nozzle from hole
; end of ZYYX Pro build-plate calibration
M127; turn off fan
M104 S225 T0
M133 T0 ; stabilize extruder temperature
M420 R1 E8 B130 P0
M420 R255 E20 B12 P2
M420 R253 P0
G92 E0 ; Set E to 0
; end of ZYYX Pro start code
; process Process1
; layer 1, Z = 0.550
M135 T0
G1 E-0.7500 F702
; feature skirt
; tool H0.500 W0.400
G1 Z0.550 F600
G1 X6.500 Y-18.537 F5000
G1 E0.7500 F702
G1 X6.963 Y-18.921 E0.0500 F2240
G1 X7.078 Y-19.009 E0.0120
G1 X7.347 Y-19.205 E0.0277
G1 X7.466 Y-19.286 E0.0120
G1 X8.437 Y-19.902 E0.0956
G1 X8.561 Y-19.976 E0.0120
G1 X8.853 Y-20.136 E0.0277
G1 X8.982 Y-20.202 E0.0120
G1 X9.984 Y-20.673 E0.0921
G1 X10.083 Y-20.717 E0.0090
G1 X10.314 Y-20.813 E0.0208
G1 X10.415 Y-20.852 E0.0090
G1 X11.035 Y-21.075 E0.0547
G1 X11.137 Y-21.109 E0.0090
G1 X11.376 Y-21.183 E0.0208
G1 X11.480 Y-21.212 E0.0090
G1 X12.553 Y-21.488 E0.0921
G1 X12.694 Y-21.519 E0.0120
G1 X13.022 Y-21.581 E0.0277
G1 X13.164 Y-21.604 E0.0120
G1 X14.305 Y-21.748 E0.0956
G1 X14.448 Y-21.762 E0.0120
G1 X14.781 Y-21.783 E0.0277
G1 X14.925 Y-21.787 E0.0120
G1 X16.075 Y-21.787 E0.0956
G1 X16.219 Y-21.783 E0.0120
G1 X16.552 Y-21.762 E0.0277
G1 X16.695 Y-21.748 E0.0120
G1 X17.836 Y-21.604 E0.0956
G1 X17.978 Y-21.581 E0.0120
G1 X18.306 Y-21.519 E0.0277
G1 X18.447 Y-21.488 E0.0120
G1 X19.520 Y-21.212 E0.0921
G1 X19.624 Y-21.183 E0.0090
G1 X19.863 Y-21.109 E0.0208
G1 X19.965 Y-21.075 E0.0090
G1 X20.585 Y-20.852 E0.0547
G1 X20.686 Y-20.813 E0.0090
G1 X20.917 Y-20.717 E0.0208
G1 X21.016 Y-20.673 E0.0090
G1 X22.018 Y-20.202 E0.0921
G1 X22.147 Y-20.136 E0.0120
G1 X22.439 Y-19.976 E0.0277
G1 X22.563 Y-19.902 E0.0120
G1 X23.533 Y-19.286 E0.0956
G1 X23.653 Y-19.205 E0.0120
G1 X23.922 Y-19.009 E0.0277
G1 X24.037 Y-18.921 E0.0120
G1 X24.922 Y-18.188 E0.0956
G1 X25.031 Y-18.093 E0.0120
G1 X25.273 Y-17.865 E0.0277
G1 X25.376 Y-17.762 E0.0120
G1 X26.163 Y-16.924 E0.0956
G1 X26.258 Y-16.816 E0.0120
G1 X26.470 Y-16.559 E0.0277
G1 X26.559 Y-16.445 E0.0120
G1 X27.235 Y-15.515 E0.0956
G1 X27.316 Y-15.396 E0.0120
G1 X27.494 Y-15.115 E0.0277
G1 X27.568 Y-14.990 E0.0120
G1 X28.122 Y-13.983 E0.0956
G1 X28.187 Y-13.854 E0.0120
G1 X28.329 Y-13.553 E0.0277
G1 X28.386 Y-13.420 E0.0120
G1 X28.809 Y-12.352 E0.0956
G1 X28.858 Y-12.216 E0.0120
G1 X28.961 Y-11.899 E0.0277
G1 X29.002 Y-11.760 E0.0120
G1 X29.288 Y-10.647 E0.0956
G1 X29.319 Y-10.506 E0.0120
G1 X29.381 Y-10.178 E0.0277
G1 X29.404 Y-10.036 E0.0120
G1 X29.548 Y-8.895 E0.0956
G1 X29.562 Y-8.752 E0.0120
G1 X29.583 Y-8.419 E0.0277
G1 X29.587 Y-8.275 E0.0120
G1 X29.587 Y-7.125 E0.0956
G1 X29.583 Y-6.981 E0.0120
G1 X29.562 Y-6.648 E0.0277
G1 X29.548 Y-6.505 E0.0120
G1 X29.409 Y-5.406 E0.0921
G1 X29.393 Y-5.299 E0.0090
G1 X29.350 Y-5.052 E0.0208
G1 X29.329 Y-4.946 E0.0090
G1 X29.186 Y-4.304 E0.0547
G1 X29.159 Y-4.199 E0.0090
G1 X29.094 Y-3.958 E0.0208
G1 X29.062 Y-3.854 E0.0090
G1 X28.720 Y-2.800 E0.0921
G1 X28.671 Y-2.664 E0.0120
G1 X28.549 Y-2.355 E0.0277
G1 X28.491 Y-2.222 E0.0120
G1 X28.002 Y-1.182 E0.0956
G1 X27.936 Y-1.053 E0.0120
G1 X27.776 Y-0.761 E0.0277
G1 X27.702 Y-0.637 E0.0120
G1 X27.086 Y0.334 E0.0956
G1 X27.005 Y0.453 E0.0120
G1 X26.854 Y0.661 E0.0214
G1 X27.235 Y1.185 E0.0538
G1 X27.316 Y1.304 E0.0120
G1 X27.494 Y1.585 E0.0277
G1 X27.568 Y1.710 E0.0120
G1 X28.122 Y2.717 E0.0956
G1 X28.187 Y2.846 E0.0120
G1 X28.329 Y3.147 E0.0277
G1 X28.386 Y3.280 E0.0120
G1 X28.809 Y4.348 E0.0956
G1 X28.858 Y4.485 E0.0120
G1 X28.961 Y4.801 E0.0277
G1 X29.002 Y4.940 E0.0120
G1 X29.288 Y6.053 E0.0956
G1 X29.319 Y6.194 E0.0120
G1 X29.381 Y6.521 E0.0277
G1 X29.404 Y6.664 E0.0120
G1 X29.548 Y7.805 E0.0956
G1 X29.562 Y7.948 E0.0120
G1 X29.583 Y8.281 E0.0277
G1 X29.587 Y8.425 E0.0120
G1 X29.587 Y9.575 E0.0956
G1 X29.583 Y9.719 E0.0120
G1 X29.562 Y10.052 E0.0277
G1 X29.548 Y10.195 E0.0120
G1 X29.409 Y11.294 E0.0921
G1 X29.393 Y11.401 E0.0090
G1 X29.350 Y11.647 E0.0208
G1 X29.329 Y11.754 E0.0090
G1 X29.186 Y12.396 E0.0547
G1 X29.159 Y12.501 E0.0090
G1 X29.093 Y12.742 E0.0208
G1 X29.062 Y12.846 E0.0090
G1 X28.720 Y13.900 E0.0921
G1 X28.671 Y14.036 E0.0120
G1 X28.549 Y14.345 E0.0277
G1 X28.491 Y14.478 E0.0120
G1 X28.002 Y15.518 E0.0956
G1 X27.936 Y15.647 E0.0120
G1 X27.776 Y15.939 E0.0277
G1 X27.702 Y16.063 E0.0120
G1 X27.086 Y17.034 E0.0956
G1 X27.005 Y17.153 E0.0120
G1 X26.809 Y17.422 E0.0277
G1 X26.721 Y17.537 E0.0120
G1 X26.015 Y18.390 E0.0921
G1 X25.944 Y18.472 E0.0090
G1 X25.776 Y18.657 E0.0208
G1 X25.701 Y18.735 E0.0090
G1 X25.239 Y19.197 E0.0543
G1 X25.164 Y19.268 E0.0086
G1 X24.988 Y19.429 E0.0199
G1 X24.910 Y19.498 E0.0086
G1 X23.552 Y20.630 E0.1470
G1 X22.857 Y21.029 E0.0667
G1 X21.113 Y21.661 E0.1543
G1 X20.324 Y21.800 E0.0667
G1 X10.676 Y21.800 E0.8022
G1 X9.887 Y21.661 E0.0667
G1 X8.142 Y21.029 E0.1543
G1 X7.447 Y20.630 E0.0667
G1 X6.500 Y19.840 E0.1026
G1 X5.553 Y20.630 E0.1026
G1 X4.857 Y21.029 E0.0667
G1 X3.113 Y21.661 E0.1543
G1 X2.324 Y21.800 E0.0667
G1 X-7.324 Y21.800 E0.8022
G1 X-8.113 Y21.661 E0.0667
G1 X-9.858 Y21.029 E0.1543
