; G-Code generated by Simplify3D(R) Version 4.1.2
; Feb 13, 2021 at 2:54:27 PM
; Settings Summary
;   processName,Process1
;   applyToModels,210213_LDR_panel_adaptor
;   profileName,ZYYX Pro - SwiftTool Multi0.4 V18 RC2 (modified)
;   profileVersion,2020-12-30 15:19:17
;   baseProfile,ZYYX Pro
;   printMaterial,ZYYX ABS
;   printQuality,Fine
;   printExtruders,
;   extruderName,Primary Extruder
;   extruderToolheadNumber,0
;   extruderDiameter,0.4
;   extruderAutoWidth,0
;   extruderWidth,0.4
;   extrusionMultiplier,1
;   extruderUseRetract,1
;   extruderRetractionDistance,0.75
;   extruderExtraRestartDistance,0
;   extruderRetractionZLift,0
;   extruderRetractionSpeed,702
;   extruderUseCoasting,0
;   extruderCoastingDistance,0.2
;   extruderUseWipe,0
;   extruderWipeDistance,2
;   primaryExtruder,0
;   layerHeight,0.12
;   topSolidLayers,6
;   bottomSolidLayers,6
;   perimeterOutlines,3
;   printPerimetersInsideOut,1
;   startPointOption,2
;   startPointOriginX,300
;   startPointOriginY,300
;   sequentialIslands,0
;   spiralVaseMode,0
;   firstLayerHeightPercentage,250
;   firstLayerWidthPercentage,100
;   firstLayerUnderspeed,0.7
;   useRaft,1
;   raftExtruder,0
;   raftTopLayers,3
;   raftBaseLayers,5
;   raftOffset,3
;   raftSeparationDistance,0.04
;   raftTopInfill,85
;   aboveRaftSpeedMultiplier,0.3
;   useSkirt,1
;   skirtExtruder,0
;   skirtLayers,1
;   skirtOutlines,2
;   skirtOffset,4
;   usePrimePillar,0
;   primePillarExtruder,999
;   primePillarWidth,12
;   primePillarLocation,7
;   primePillarSpeedMultiplier,1
;   useOozeShield,0
;   oozeShieldExtruder,999
;   oozeShieldOffset,2
;   oozeShieldOutlines,1
;   oozeShieldSidewallShape,1
;   oozeShieldSidewallAngle,30
;   oozeShieldSpeedMultiplier,1
;   infillExtruder,0
;   internalInfillPattern,Rectilinear
;   externalInfillPattern,Rectilinear
;   infillPercentage,25
;   outlineOverlapPercentage,25
;   infillExtrusionWidthPercentage,100
;   minInfillLength,3
;   infillLayerInterval,1
;   internalInfillAngles,45,-45
;   overlapInternalInfillAngles,0
;   externalInfillAngles,45,-45
;   generateSupport,0
;   supportExtruder,0
;   supportInfillPercentage,25
;   supportExtraInflation,0
;   supportBaseLayers,1
;   denseSupportExtruder,0
;   denseSupportLayers,4
;   denseSupportInfillPercentage,80
;   supportLayerInterval,1
;   supportHorizontalPartOffset,0.5
;   supportUpperSeparationLayers,1
;   supportLowerSeparationLayers,1
;   supportType,0
;   supportGridSpacing,2.5
;   maxOverhangAngle,45
;   supportAngles,0
;   temperatureName,Primary Extruder,Chamber
;   temperatureNumber,0,0
;   temperatureSetpointCount,6,1
;   temperatureSetpointLayers,1,2,6,9,10,11,1
;   temperatureSetpointTemperatures,225,235,232,228,240,265,65
;   temperatureStabilizeAtStartup,0,0
;   temperatureHeatedBed,0,1
;   fanLayers,1,7,9,10,11
;   fanSpeeds,0,0,100,50,1
;   blipFanToFullPower,0
;   adjustSpeedForCooling,1
;   minSpeedLayerTime,4.5
;   minCoolingSpeedSlowdown,30
;   increaseFanForCooling,1
;   minFanLayerTime,45
;   maxCoolingFanSpeed,100
;   increaseFanForBridging,1
;   bridgingFanSpeed,100
;   use5D,1
;   relativeEdistances,1
;   allowEaxisZeroing,0
;   independentExtruderAxes,1
;   includeM10123,0
;   stickySupport,1
;   applyToolheadOffsets,0
;   gcodeXoffset,0
;   gcodeYoffset,0
;   gcodeZoffset,0.12
;   overrideMachineDefinition,1
;   machineTypeOverride,0
;   strokeXoverride,260
;   strokeYoverride,225
;   strokeZoverride,200
;   originOffsetXoverride,132.5
;   originOffsetYoverride,112.5
;   originOffsetZoverride,0
;   homeXdirOverride,1
;   homeYdirOverride,1
;   homeZdirOverride,-1
;   flipXoverride,1
;   flipYoverride,-1
;   flipZoverride,1
;   toolheadOffsets,0,0|0,0|0,0|0,0|0,0|0,0
;   overrideFirmwareConfiguration,1
;   firmwareTypeOverride,MakerBot/Sailfish Firmware
;   GPXconfigOverride,r2h
;   baudRateOverride,115200
;   overridePrinterModels,1
;   printerModelsOverride,zyyx3dprinter.stl
;   startingGcode,;start of ZYYX Pro startcode,M73 P0; enable build progress,G21; set units to mm,G90; set positioning to absolute,G130 X127 Y127 Z127 A127 B127  ; Set Stepper Vref to default value,,G162 X Y F3000; home XY axes maximum,G161 Z F900,G161 Z F200; home Z axis minimum,,;SET_PROFILE_NAME,M70 P2 (SwiftTool Multi0.4),,G92 X0 Y0 Z0 E0,G1 X0 Y0 Z20 F3000,G1 X-120 Y-110 Z10 F3000,G130 X0 Y0 Z3 A0 B0 ; Set Stepper Vref to low value,,M420 P10; set back fan speed 10 off 11-20 10-100% ,M140 S10 T0; set 100% heater power,M140 S81 T0; set chamber heater negative hysteresis 19 degrees,M140 S120 T0; set chamber heater positive hysteresis 20 degrees,M140 S[bed0_temperature] T0; set chamber temperature,M104 S100 T0; set extruder temp 100 while heating,M134 T0; wait for heated chamber temperature,M420 P13; set fan speed 10 off 11-20 10-100%,,G130 X80 Y80 Z64 A127 B127 ; Set Stepper Vref to default value,,; Perform probing of build-plate,,G162 X Y F3000; home XY axes maximum,G161 Z F450,G161 Z F600; home Z axis minimum,G92 X0 Y0 Z0 E0,G1 X0 Y0 Z5 F200,G161 Z F200; home Z axis minimum again,G92 X0 Y0 Z0 E0,M131 A; store surface calibration point 1,G1 X0 Y0 Z5 F200,G1 X-182 Y0 Z5 F3000; move to 2nd probing point,G161 Z F200,M131 B; store surface calibration point 2,G92 X-182 Y0 Z0 E0,G1 X-182 Y0 Z5 F200,G1 X0 Y0 Z5 F3000; move to home point,G161 Z F200; home Z axis minimum again,G92 X0 Y0 Z0 E0; set reference again,G1 X0 Y0 Z5 F200; clear Z,G1 X0 Y-225 Z5 F3000; move to 3rd calibration point,G161 Z F200,M131 AB; store surface calibration point 3,M132 AB; activate auto leveling,G92 X0 Y-225 Z0 E0,G1 X0 Y-225 Z5 F200,G162 X Y F3000,G161 Z F200,G92 X135 Y115 Z0 E0,M132 Z; Recall stored home offset for Z axis,G1 X135 Y115 Z5 F450; clear nozzle from hole,G1 X0 Y115 Z5 F3000; clear nozzle from hole,; end of ZYYX Pro build-plate calibration,M127; turn off fan,M104 S[extruder0_temperature] T0,M133 T0 ; stabilize extruder temperature,,;SET_ZXPARAM,;SET_SUPPORT_BUMPMAP,,G92 E0 ; Set E to 0,; end of ZYYX Pro start code
;   layerChangeGcode,
;   retractionGcode,
;   toolChangeGcode,{IF NEWTOOL>1} G91,{IF NEWTOOL>1} G1 Z1 E-2 F600,{IF NEWTOOL>1} G90,{IF NEWTOOL>1} M71 P255 (Please change to NEW filament),{IF NEWTOOL>1} G1 E1.5 F600,
;   endingGcode,; ZYYX Pro end gcode,M73 P100 ; end build progress,G0 Z210 F1000 ; send Z axis to bottom of machine,M104 S0 T0 ; cool down extruder,M127 ; stop blower fan,G162 X Y F3000 ; home XY maximum,;M18 ; disable stepper,M70 P5 (ZYYX Print Finished!),M72 P1 ; play Ta-Da song,; end of end gcode
;   exportFileFormat,x3g
;   celebration,0
;   celebrationSong,Random Song
;   postProcessing,{REPLACE "\n;SET_PROFILE_NAME" "\nM70 P1 (<Pro> ZYYX ABS)"},{REPLACE "\n;SET_SUPPORT_BUMPMAP" "\nM420 R255 E20 B12 P2\nM420 R253 P0"},{REPLACE "\n;SET_ZXPARAM" "\nM420 R1 E8 B130 P0"},,{REPLACE "\n; outer perimeter" "\n; outer perimeter\nM420 B1 P75"},{REPLACE "\n; solid layer" "\n; solid layer\nM420 B1 P75"},{REPLACE "\n; bridge" "\n; bridge\nM420 B1 P200"},,{REPLACE "\n; inner perimeter" "\n; inner perimeter\nM420 B1 P25"},{REPLACE "\n; infill" "\n; infill\nM420 B1 P25"},{REPLACE "\n; gap fill" "\n; gap fill\nM420 B1 P25"},{REPLACE "\n; support" "\n; support\nM420 B1 P25"},{REPLACE "\n; dense support" "\n; dense support\nM420 B1 P25"},{REPLACE "\nM126 S" "\nM420 B0 P"},,{REPLACE "\n; outer perimeter" "\n; outer perimeter\nM420 R253 P0"},{REPLACE "\n; gap fill" "\n; gap fill\nM420 R253 P0"},{REPLACE "\n; bridge" "\n; bridge\nM420 R253 P0"},{REPLACE "\n; inner perimeter" "\n; inner perimeter\nM420 R253 P0"},{REPLACE "\n; infill" "\n; infill\nM420 R253 P0"},{REPLACE "\n; solid layer" "\n; solid layer\nM420 R253 P0"},{REPLACE "\n; support" "\n; support\nM420 R253 P0"},{REPLACE "\n; dense support" "\n; dense support\nM420 R253 P1"},{REPLACE "\n; raft" "\n; raft\nM420 R253 P1"},,,CMD /C "REN" [output_filepath] A4-[output_filename].x3g
;   defaultSpeed,1200
;   outlineUnderspeed,1
;   solidInfillUnderspeed,0.75
;   supportUnderspeed,1
;   rapidXYspeed,5000
;   rapidZspeed,600
;   minBridgingArea,10
;   bridgingExtraInflation,0
;   bridgingExtrusionMultiplier,1
;   bridgingSpeedMultiplier,0.75
;   useFixedBridgingAngle,0
;   fixedBridgingAngle,0
;   applyBridgingToPerimeters,1
;   filamentDiameters,1.75|1.75|1.75|1.75|1.75|1.75
;   filamentPricesPerKg,56|56|56|56|56|56
;   filamentDensities,1.06|1.06|1.06|1.06|1.06|1.06
;   useMinPrintHeight,0
;   minPrintHeight,0
;   useMaxPrintHeight,0
;   maxPrintHeight,3
;   useDiaphragm,0
;   diaphragmLayerInterval,20
;   robustSlicing,1
;   mergeAllIntoSolid,0
;   onlyRetractWhenCrossingOutline,0
;   retractBetweenLayers,1
;   useRetractionMinTravel,1
;   retractionMinTravel,1
;   retractWhileWiping,1
;   onlyWipeOutlines,1
;   avoidCrossingOutline,1
;   maxMovementDetourFactor,2
;   toolChangeRetractionDistance,0
;   toolChangeExtraRestartDistance,0
;   toolChangeRetractionSpeed,2000
;   externalThinWallType,0
;   internalThinWallType,1
;   thinWallAllowedOverlapPercentage,12
;   singleExtrusionMinLength,0.4
;   singleExtrusionMinPrintingWidthPercentage,50
;   singleExtrusionMaxPrintingWidthPercentage,150
;   singleExtrusionEndpointExtension,0.2
;   horizontalSizeCompensation,0
G90
M83
M127
;start of ZYYX Pro startcode
M73 P0; enable build progress
G21; set units to mm
G90; set positioning to absolute
G130 X127 Y127 Z127 A127 B127  ; Set Stepper Vref to default value
G162 X Y F3000; home XY axes maximum
G161 Z F900
G161 Z F200; home Z axis minimum
M70 P1 (<Pro> ZYYX ABS)
M70 P2 (SwiftTool Multi0.4)
G92 X0 Y0 Z0 E0
G1 X0 Y0 Z20 F3000
G1 X-120 Y-110 Z10 F3000
G130 X0 Y0 Z3 A0 B0 ; Set Stepper Vref to low value
M420 P10; set back fan speed 10 off 11-20 10-100% 
M140 S10 T0; set 100% heater power
M140 S81 T0; set chamber heater negative hysteresis 19 degrees
M140 S120 T0; set chamber heater positive hysteresis 20 degrees
M140 S65 T0; set chamber temperature
M104 S100 T0; set extruder temp 100 while heating
M134 T0; wait for heated chamber temperature
M420 P13; set fan speed 10 off 11-20 10-100%
G130 X80 Y80 Z64 A127 B127 ; Set Stepper Vref to default value
; Perform probing of build-plate
G162 X Y F3000; home XY axes maximum
G161 Z F450
G161 Z F600; home Z axis minimum
G92 X0 Y0 Z0 E0
G1 X0 Y0 Z5 F200
G161 Z F200; home Z axis minimum again
G92 X0 Y0 Z0 E0
M131 A; store surface calibration point 1
G1 X0 Y0 Z5 F200
G1 X-182 Y0 Z5 F3000; move to 2nd probing point
G161 Z F200
M131 B; store surface calibration point 2
G92 X-182 Y0 Z0 E0
G1 X-182 Y0 Z5 F200
G1 X0 Y0 Z5 F3000; move to home point
G161 Z F200; home Z axis minimum again
G92 X0 Y0 Z0 E0; set reference again
G1 X0 Y0 Z5 F200; clear Z
G1 X0 Y-225 Z5 F3000; move to 3rd calibration point
G161 Z F200
M131 AB; store surface calibration point 3
M132 AB; activate auto leveling
G92 X0 Y-225 Z0 E0
G1 X0 Y-225 Z5 F200
G162 X Y F3000
G161 Z F200
G92 X135 Y115 Z0 E0
M132 Z; Recall stored home offset for Z axis
G1 X135 Y115 Z5 F450; clear nozzle from hole
G1 X0 Y115 Z5 F3000; clear nozzle from hole
; end of ZYYX Pro build-plate calibration
M127; turn off fan
M104 S225 T0
M133 T0 ; stabilize extruder temperature
M420 R1 E8 B130 P0
M420 R255 E20 B12 P2
M420 R253 P0
G92 E0 ; Set E to 0
; end of ZYYX Pro start code
; process Process1
; layer 1, Z = 1.370
M135 T0
G1 E-0.7500 F702
; feature skirt
; tool H1.250 W0.400
G1 Z1.370 F600
G1 X11.599 Y0.156 F5000
G1 E0.7500 F702
G1 X11.579 Y0.772 E0.1281 F840
G1 X11.574 Y0.880 E0.0225
G1 X11.554 Y1.129 E0.0519
G1 X11.543 Y1.237 E0.0225
G1 X11.409 Y2.294 E0.2216
G1 X11.393 Y2.401 E0.0225
G1 X11.350 Y2.648 E0.0519
G1 X11.329 Y2.754 E0.0226
G1 X11.185 Y3.396 E0.1368
G1 X11.159 Y3.502 E0.0225
G1 X11.093 Y3.742 E0.0519
G1 X11.062 Y3.846 E0.0225
G1 X10.733 Y4.860 E0.2216
G1 X10.697 Y4.962 E0.0225
G1 X10.609 Y5.196 E0.0519
G1 X10.568 Y5.297 E0.0225
G1 X10.307 Y5.901 E0.1368
G1 X10.261 Y5.999 E0.0225
G1 X10.151 Y6.223 E0.0519
G1 X10.101 Y6.319 E0.0225
G1 X9.568 Y7.290 E0.2303
G1 X9.494 Y7.415 E0.0301
G1 X9.316 Y7.696 E0.0692
G1 X9.235 Y7.815 E0.0300
G1 X8.583 Y8.711 E0.2303
G1 X8.518 Y8.798 E0.0225
G1 X8.361 Y8.993 E0.0519
G1 X8.292 Y9.076 E0.0225
G1 X7.857 Y9.569 E0.1368
G1 X7.783 Y9.649 E0.0225
G1 X7.609 Y9.828 E0.0519
G1 X7.532 Y9.904 E0.0225
G1 X6.724 Y10.662 E0.2303
G1 X6.616 Y10.758 E0.0300
G1 X6.359 Y10.970 E0.0692
G1 X6.245 Y11.059 E0.0301
G1 X5.315 Y11.735 E0.2389
G1 X5.196 Y11.816 E0.0300
G1 X4.915 Y11.994 E0.0692
G1 X4.790 Y12.068 E0.0301
G1 X3.819 Y12.601 E0.2303
G1 X3.723 Y12.651 E0.0225
G1 X3.499 Y12.761 E0.0519
G1 X3.401 Y12.807 E0.0225
G1 X2.797 Y13.068 E0.1368
G1 X2.696 Y13.109 E0.0225
G1 X2.463 Y13.197 E0.0519
G1 X2.360 Y13.233 E0.0226
G1 X1.346 Y13.562 E0.2216
G1 X1.242 Y13.593 E0.0225
G1 X1.002 Y13.659 E0.0519
G1 X0.896 Y13.685 E0.0225
G1 X0.254 Y13.829 E0.1368
G1 X0.148 Y13.850 E0.0226
G1 X-0.099 Y13.893 E0.0519
G1 X-0.206 Y13.909 E0.0225
G1 X-1.263 Y14.043 E0.2216
G1 X-1.371 Y14.054 E0.0225
G1 X-1.620 Y14.074 E0.0519
G1 X-1.728 Y14.079 E0.0225
G1 X-2.344 Y14.099 E0.1281
G1 X-2.417 Y14.100 E0.0150
G1 X-2.583 Y14.100 E0.0346
G1 X-2.656 Y14.099 E0.0150
G1 X-3.272 Y14.079 E0.1281
G1 X-3.380 Y14.074 E0.0225
G1 X-3.629 Y14.054 E0.0519
G1 X-3.737 Y14.043 E0.0225
G1 X-4.794 Y13.909 E0.2216
G1 X-4.901 Y13.893 E0.0225
G1 X-5.148 Y13.850 E0.0519
G1 X-5.254 Y13.829 E0.0226
G1 X-5.896 Y13.685 E0.1368
G1 X-6.002 Y13.659 E0.0225
G1 X-6.242 Y13.593 E0.0519
G1 X-6.346 Y13.562 E0.0225
G1 X-7.360 Y13.233 E0.2216
G1 X-7.462 Y13.197 E0.0225
G1 X-7.696 Y13.109 E0.0519
G1 X-7.796 Y13.068 E0.0225
G1 X-8.400 Y12.807 E0.1368
G1 X-8.499 Y12.761 E0.0225
G1 X-8.723 Y12.651 E0.0519
G1 X-8.819 Y12.601 E0.0225
G1 X-9.790 Y12.068 E0.2303
G1 X-9.915 Y11.994 E0.0301
G1 X-10.196 Y11.816 E0.0692
G1 X-10.315 Y11.735 E0.0300
G1 X-11.211 Y11.083 E0.2303
G1 X-11.298 Y11.018 E0.0225
G1 X-11.493 Y10.861 E0.0519
G1 X-11.576 Y10.792 E0.0225
G1 X-12.069 Y10.357 E0.1368
G1 X-12.149 Y10.283 E0.0225
G1 X-12.328 Y10.109 E0.0519
G1 X-12.404 Y10.032 E0.0225
G1 X-13.162 Y9.224 E0.2303
G1 X-13.258 Y9.116 E0.0300
G1 X-13.470 Y8.859 E0.0692
G1 X-13.559 Y8.745 E0.0301
G1 X-14.235 Y7.815 E0.2389
G1 X-14.316 Y7.696 E0.0300
G1 X-14.494 Y7.415 E0.0692
G1 X-14.568 Y7.290 E0.0301
G1 X-15.101 Y6.319 E0.2303
G1 X-15.151 Y6.223 E0.0225
G1 X-15.261 Y5.999 E0.0519
G1 X-15.307 Y5.901 E0.0225
G1 X-15.552 Y5.335 E0.1282
G1 X-15.579 Y5.268 E0.0150
G1 X-15.641 Y5.113 E0.0346
G1 X-15.666 Y5.045 E0.0150
G1 X-15.875 Y4.465 E0.1282
G1 X-15.909 Y4.362 E0.0225
G1 X-15.983 Y4.124 E0.0519
G1 X-16.012 Y4.020 E0.0225
G1 X-16.277 Y2.987 E0.2216
G1 X-16.302 Y2.881 E0.0225
G1 X-16.352 Y2.637 E0.0519
G1 X-16.372 Y2.530 E0.0225
G1 X-16.475 Y1.880 E0.1368
G1 X-16.489 Y1.773 E0.0225
G1 X-16.517 Y1.525 E0.0519
G1 X-16.526 Y1.417 E0.0225
G1 X-16.595 Y0.311 E0.2303
G1 X-16.600 Y0.167 E0.0300
G1 X-16.600 Y-0.167 E0.0693
G1 X-16.595 Y-0.311 E0.0300
G1 X-16.526 Y-1.417 E0.2303
G1 X-16.517 Y-1.525 E0.0225
G1 X-16.489 Y-1.773 E0.0519
G1 X-16.475 Y-1.880 E0.0225
G1 X-16.372 Y-2.530 E0.1368
G1 X-16.352 Y-2.637 E0.0225
G1 X-16.302 Y-2.881 E0.0519
G1 X-16.277 Y-2.987 E0.0225
G1 X-16.012 Y-4.020 E0.2216
G1 X-15.983 Y-4.124 E0.0225
G1 X-15.909 Y-4.362 E0.0519
G1 X-15.875 Y-4.465 E0.0225
G1 X-15.666 Y-5.045 E0.1282
G1 X-15.641 Y-5.113 E0.0150
G1 X-15.579 Y-5.268 E0.0346
G1 X-15.552 Y-5.335 E0.0150
G1 X-15.307 Y-5.901 E0.1282
G1 X-15.261 Y-5.999 E0.0225
G1 X-15.151 Y-6.223 E0.0519
G1 X-15.101 Y-6.319 E0.0225
G1 X-14.568 Y-7.290 E0.2303
G1 X-14.494 Y-7.415 E0.0301
G1 X-14.316 Y-7.696 E0.0692
G1 X-14.235 Y-7.815 E0.0300
G1 X-13.583 Y-8.711 E0.2303
G1 X-13.518 Y-8.798 E0.0225
G1 X-13.361 Y-8.993 E0.0519
G1 X-13.292 Y-9.076 E0.0225
G1 X-12.857 Y-9.569 E0.1368
G1 X-12.783 Y-9.649 E0.0225
G1 X-12.609 Y-9.828 E0.0519
G1 X-12.532 Y-9.904 E0.0225
G1 X-11.755 Y-10.634 E0.2216
G1 X-11.674 Y-10.706 E0.0225
G1 X-11.484 Y-10.869 E0.0519
G1 X-11.400 Y-10.937 E0.0225
G1 X-10.913 Y-11.315 E0.1282
G1 X-10.855 Y-11.358 E0.0150
G1 X-10.720 Y-11.456 E0.0346
G1 X-10.661 Y-11.498 E0.0150
G1 X-10.152 Y-11.844 E0.1281
G1 X-10.060 Y-11.903 E0.0225
G1 X-9.847 Y-12.033 E0.0519
G1 X-9.754 Y-12.088 E0.0225
G1 X-8.783 Y-12.622 E0.2303
G1 X-8.654 Y-12.687 E0.0300
