; G-Code generated by Simplify3D(R) Version 4.1.2
; Jan 22, 2021 at 6:54:47 PM
; Settings Summary
;   processName,Process1
;   applyToModels,fillOut,fillOut(2)
;   profileName,ZYYX Pro Multi0.4 PETG v19 + MMBP RC3
;   profileVersion,S3D-Software 4.1.2
;   baseProfile,ZYYX Pro
;   printMaterial,
;   printQuality,
;   printExtruders,
;   extruderName,Primary Extruder
;   extruderToolheadNumber,0
;   extruderDiameter,0.4
;   extruderAutoWidth,0
;   extruderWidth,0.4
;   extrusionMultiplier,1
;   extruderUseRetract,1
;   extruderRetractionDistance,1.4
;   extruderExtraRestartDistance,0
;   extruderRetractionZLift,0.2
;   extruderRetractionSpeed,1500
;   extruderUseCoasting,0
;   extruderCoastingDistance,0.1
;   extruderUseWipe,1
;   extruderWipeDistance,1.5
;   primaryExtruder,0
;   layerHeight,0.2
;   topSolidLayers,5
;   bottomSolidLayers,4
;   perimeterOutlines,3
;   printPerimetersInsideOut,1
;   startPointOption,2
;   startPointOriginX,300
;   startPointOriginY,300
;   sequentialIslands,0
;   spiralVaseMode,0
;   firstLayerHeightPercentage,150
;   firstLayerWidthPercentage,125
;   firstLayerUnderspeed,0.3
;   useRaft,0
;   raftExtruder,0
;   raftTopLayers,2
;   raftBaseLayers,2
;   raftOffset,2
;   raftSeparationDistance,0.09
;   raftTopInfill,100
;   aboveRaftSpeedMultiplier,1.75
;   useSkirt,1
;   skirtExtruder,0
;   skirtLayers,1
;   skirtOutlines,1
;   skirtOffset,3
;   usePrimePillar,0
;   primePillarExtruder,999
;   primePillarWidth,12
;   primePillarLocation,7
;   primePillarSpeedMultiplier,1
;   useOozeShield,0
;   oozeShieldExtruder,999
;   oozeShieldOffset,2
;   oozeShieldOutlines,1
;   oozeShieldSidewallShape,1
;   oozeShieldSidewallAngle,30
;   oozeShieldSpeedMultiplier,1
;   infillExtruder,0
;   internalInfillPattern,Rectilinear
;   externalInfillPattern,Rectilinear
;   infillPercentage,25
;   outlineOverlapPercentage,35
;   infillExtrusionWidthPercentage,100
;   minInfillLength,3
;   infillLayerInterval,1
;   internalInfillAngles,45,-45
;   overlapInternalInfillAngles,0
;   externalInfillAngles,45,-45
;   generateSupport,0
;   supportExtruder,0
;   supportInfillPercentage,15
;   supportExtraInflation,0
;   supportBaseLayers,1
;   denseSupportExtruder,0
;   denseSupportLayers,4
;   denseSupportInfillPercentage,65
;   supportLayerInterval,1
;   supportHorizontalPartOffset,0.1
;   supportUpperSeparationLayers,1
;   supportLowerSeparationLayers,1
;   supportType,0
;   supportGridSpacing,2.5
;   maxOverhangAngle,35
;   supportAngles,0
;   temperatureName,Primary extruder,Chamber
;   temperatureNumber,0,0
;   temperatureSetpointCount,2,1
;   temperatureSetpointLayers,1,2,1
;   temperatureSetpointTemperatures,240,240,45
;   temperatureStabilizeAtStartup,0,0
;   temperatureHeatedBed,0,1
;   fanLayers,2
;   fanSpeeds,50
;   blipFanToFullPower,1
;   adjustSpeedForCooling,0
;   minSpeedLayerTime,4.5
;   minCoolingSpeedSlowdown,30
;   increaseFanForCooling,0
;   minFanLayerTime,45
;   maxCoolingFanSpeed,100
;   increaseFanForBridging,1
;   bridgingFanSpeed,100
;   use5D,1
;   relativeEdistances,1
;   allowEaxisZeroing,0
;   independentExtruderAxes,1
;   includeM10123,0
;   stickySupport,1
;   applyToolheadOffsets,0
;   gcodeXoffset,0
;   gcodeYoffset,0
;   gcodeZoffset,0.05
;   overrideMachineDefinition,0
;   machineTypeOverride,0
;   strokeXoverride,260
;   strokeYoverride,225
;   strokeZoverride,200
;   originOffsetXoverride,132.5
;   originOffsetYoverride,112.5
;   originOffsetZoverride,0
;   homeXdirOverride,1
;   homeYdirOverride,1
;   homeZdirOverride,-1
;   flipXoverride,1
;   flipYoverride,1
;   flipZoverride,-1
;   toolheadOffsets,0,0|0,0|0,0|0,0|0,0|0,0
;   overrideFirmwareConfiguration,1
;   firmwareTypeOverride,MakerBot/Sailfish Firmware
;   GPXconfigOverride,r2h
;   baudRateOverride,115200
;   overridePrinterModels,1
;   printerModelsOverride,zyyx3dprinter.stl
;   startingGcode,  ;start of ZYYX Pro startcode,M73 P0  ; enable build progress,G21  ; set units to mm,M127  ; fan off,G90  ; set positioning to absolute,G130 X127 Y127 Z127 A127 B127    ; Set Stepper Vref to default value,  ;,G162 X Y F3000  ; home XY axes maximum,G161 Z F900  ;,G161 Z F200  ; home Z axis minimum,  ;,  ;SET_PROFILE_NAME,M70 P2 (SwiftTool Multi0.4)  ;,  ;,G92 X0 Y0 Z0 E0  ;,G1 X0 Y0 Z20 F3000  ;,G1 X00 Y-110 Z20 F4000  ;,G130 X0 Y0 Z3 A0 B0   ; Set Stepper Vref to low value,  ;,M420 P10  ; set back fan speed 10 off 11-20 10-100% ,M140 S5 T0  ; set 100% heater power,M140 S99 T0  ; set chamber heater negative hysteresis 19 degrees,M140 S130 T0  ; set chamber heater positive hysteresis 30 degrees,M140 S55 T0  ; set chamber temperature,  ;,M134 T0  ; wait for heated chamber temperature,M420 P13  ; set fan speed 10 off 11-20 10-100%,  ;,  ;,  ;,G130 X80 Y80 Z64 A127 B127   ; Set Stepper Vref to default value,  ;,  ; Perform probing of build plate,  ;,G162 X Y F3000  ; home XY axes maximum,G161 Z F450  ;,G161 Z F600  ; home Z axis minimum,G92 X0 Y0 Z0 E0  ;,G1 X0 Y0 Z5 F200  ;,G161 Z F200  ; home Z axis minimum again,G92 X0 Y0 Z0 E0  ;,M131 A  ; store surface calibration point 1,G1 X0 Y0 Z5 F200  ;,  ;,G1 X-182 Y0 Z5 F3000  ; move to 2nd probing point,  ;G1 X-175 Y0 Z5 F3000 Plus Probe point  move to 2nd probing point,  ;,  ;,G161 Z F200  ;,M131 B  ; store surface calibration point 2,G92 X-182 Y0 Z0 E0  ;,G1 X-182 Y0 Z5 F200  ;,G1 X0 Y0 Z5 F3000  ; move to home point,G161 Z F200  ; home Z axis minimum again,G92 X0 Y0 Z0 E0  ; set reference again,G1 X0 Y0 Z5 F200  ; clear Z,G1 X0 Y-225 Z5 F3000  ; move to 3rd calibration point,G161 Z F200  ;,M131 AB  ; store surface calibration point 3,M132 AB  ; activate auto leveling,G92 X0 Y-225 Z0 E0  ;,G1 X0 Y-225 Z5 F200  ;,G162 X Y F3000  ;,G161 Z F200  ;,G92 X135 Y115 Z0 E0  ;,M132 Z  ; Recall stored home offset for Z axis,G1 X135 Y115 Z5 F450   ; clear nozzle from hole,G1 X0 Y115 Z5 F3000  ; clear nozzle from hole,  ;,  ; end of ZYYX Pro build plate calibration,M127  ; turn off fan,  ;,M104 S[extruder0_temperature] T0  ;,M133 T0   ; stabilize extruder temperature,  ;,  ;SET_ZXPARAM,  ;SET_SUPPORT_BUMPMAP,  ;,G92 E0   ; Set E to 0,  ; end of ZYYX Pro start code,  ;,M140 S[bed0_temperature] T0  ;,  ;,G130 X127 Y127 Z127 A127 B127   ; Set Stepper Vref to default value,M126 S[fan_speed_pwm]  ;enable fans,  ;,  ;,  ;,  ;,  ;,  ;,  ;,
;   layerChangeGcode,
;   retractionGcode,
;   toolChangeGcode,{IF NEWTOOL>1} G91  ;,{IF NEWTOOL>1} G1 Z1 E-2 F600  ;,{IF NEWTOOL>1} G90  ;,{IF NEWTOOL>1} M71 P255 (Please change to NEW filament)  ;,{IF NEWTOOL>1} G1 E1.5 F600  ;,  ;,  ;,  ;,  ;,  ;,  ;,  ;,  ;,  ;,  ;,  ;,  ;,  ;,  ;,  ;
;   endingGcode,  ; ZYYX Pro end gcode,G1 E-1 F1200  ;,M73 P100   ; end build progress,G162 X Y F3000   ; home XY maximum,G0 Z210 F1000   ; send Z axis to bottom of machine,M104 S0 T0   ; cool down extruder,M127   ; stop blower fan,G162 X Y F3000   ; home XY maximum,M17   ; enable stepper,M70 P5 (ZYYX Print Finished!)  ;,M72 P1   ; play Ta-Da song,  ; end of end gcode,  ;,  ;,  ;,  ;,  ;,  ;,  ;,  ;,  ;,  ;,  ;,  ;,  ;,  ;,  ;,  ;,  ;,  ;,  ;,  ;,  ;,  ;,  ;
;   exportFileFormat,x3g
;   celebration,0
;   celebrationSong,Random Song
;   postProcessing,{REPLACE "\n;SET_PROFILE_NAME" "\nM70 P1 (ZYYX Pro PETG)"}  ;,  ;{REPLACE "\n;SET_SUPPORT_BUMPMAP" "\nM420 R255 E20 B12 P2\nM420 R253 P0"},  ;{REPLACE "\n;SET_ZXPARAM" "\nM420 R1 E8 B130 P0"},  ;,  ;{REPLACE "\n; outer perimeter" "\n; outer perimeter\nM420 B1 P75"},  ;{REPLACE "\n; solid layer" "\n; solid layer\nM420 B1 P75"},  ;{REPLACE "\n; bridge" "\n; bridge\nM420 B1 P200"},  ;,  ;{REPLACE "\n; inner perimeter" "\n; inner perimeter\nM420 B1 P25"},  ;{REPLACE "\n; infill" "\n; infill\nM420 B1 P25"},  ;{REPLACE "\n; gap fill" "\n; gap fill\nM420 B1 P25"},  ;{REPLACE "\n; support" "\n; support\nM420 B1 P25"},  ;{REPLACE "\n; dense support" "\n; dense support\nM420 B1 P25"},{REPLACE "\nM126 S" "\nM420 B0 P"}  ;,  ;,  ;{REPLACE "\n; outer perimeter" "\n; outer perimeter\nM420 R253 P0"},  ;{REPLACE "\n; gap fill" "\n; gap fill\nM420 R253 P0"},  ;{REPLACE "\n; bridge" "\n; bridge\nM420 R253 P0"},  ;{REPLACE "\n; inner perimeter" "\n; inner perimeter\nM420 R253 P0"},  ;{REPLACE "\n; infill" "\n; infill\nM420 R253 P0"},  ;{REPLACE "\n; solid layer" "\n; solid layer\nM420 R253 P0"},  ;{REPLACE "\n; support" "\n; support\nM420 R253 P0"},  ;{REPLACE "\n; dense support" "\n; dense support\nM420 R253 P1"},  ;{REPLACE "\n; raft" "\n; raft\nM420 R253 P1"},  ;,  ;,  ;,  ;,  ;,  ;,  ;,  ;,  ;,  ;,CMD /C "REN" [output_filepath] E4-[output_filename].x3g  ;
;   defaultSpeed,2400
;   outlineUnderspeed,0.35
;   solidInfillUnderspeed,0.25
;   supportUnderspeed,1
;   rapidXYspeed,6000
;   rapidZspeed,600
;   minBridgingArea,10
;   bridgingExtraInflation,4
;   bridgingExtrusionMultiplier,1.56
;   bridgingSpeedMultiplier,0.56
;   useFixedBridgingAngle,0
;   fixedBridgingAngle,0
;   applyBridgingToPerimeters,0
;   filamentDiameters,1.75|0|0|0|0|0
;   filamentPricesPerKg,56|0|0|0|0|0
;   filamentDensities,1.06|0|0|0|0|0
;   useMinPrintHeight,0
;   minPrintHeight,0
;   useMaxPrintHeight,0
;   maxPrintHeight,0
;   useDiaphragm,0
;   diaphragmLayerInterval,20
;   robustSlicing,1
;   mergeAllIntoSolid,0
;   onlyRetractWhenCrossingOutline,1
;   retractBetweenLayers,0
;   useRetractionMinTravel,1
;   retractionMinTravel,3
;   retractWhileWiping,1
;   onlyWipeOutlines,1
;   avoidCrossingOutline,1
;   maxMovementDetourFactor,3
;   toolChangeRetractionDistance,0
;   toolChangeExtraRestartDistance,0
;   toolChangeRetractionSpeed,1998
;   externalThinWallType,0
;   internalThinWallType,2
;   thinWallAllowedOverlapPercentage,12
;   singleExtrusionMinLength,0.4
;   singleExtrusionMinPrintingWidthPercentage,50
;   singleExtrusionMaxPrintingWidthPercentage,150
;   singleExtrusionEndpointExtension,0.2
;   horizontalSizeCompensation,0
G90
M83
  ;start of ZYYX Pro startcode
M73 P0  ; enable build progress
G21  ; set units to mm
M127  ; fan off
G90  ; set positioning to absolute
G130 X127 Y127 Z127 A127 B127    ; Set Stepper Vref to default value
  ;
G162 X Y F3000  ; home XY axes maximum
G161 Z F900  ;
G161 Z F200  ; home Z axis minimum
  ;
  ;SET_PROFILE_NAME
M70 P2 (SwiftTool Multi0.4)  ;
  ;
G92 X0 Y0 Z0 E0  ;
G1 X0 Y0 Z20 F3000  ;
G1 X00 Y-110 Z20 F4000  ;
G130 X0 Y0 Z3 A0 B0   ; Set Stepper Vref to low value
  ;
M420 P10  ; set back fan speed 10 off 11-20 10-100% 
M140 S5 T0  ; set 100% heater power
M140 S99 T0  ; set chamber heater negative hysteresis 19 degrees
M140 S130 T0  ; set chamber heater positive hysteresis 30 degrees
M140 S55 T0  ; set chamber temperature
  ;
M134 T0  ; wait for heated chamber temperature
M420 P13  ; set fan speed 10 off 11-20 10-100%
  ;
  ;
  ;
G130 X80 Y80 Z64 A127 B127   ; Set Stepper Vref to default value
  ;
  ; Perform probing of build plate
  ;
G162 X Y F3000  ; home XY axes maximum
G161 Z F450  ;
G161 Z F600  ; home Z axis minimum
G92 X0 Y0 Z0 E0  ;
G1 X0 Y0 Z5 F200  ;
G161 Z F200  ; home Z axis minimum again
G92 X0 Y0 Z0 E0  ;
M131 A  ; store surface calibration point 1
G1 X0 Y0 Z5 F200  ;
  ;
G1 X-182 Y0 Z5 F3000  ; move to 2nd probing point
  ;G1 X-175 Y0 Z5 F3000 Plus Probe point  move to 2nd probing point
  ;
  ;
G161 Z F200  ;
M131 B  ; store surface calibration point 2
G92 X-182 Y0 Z0 E0  ;
G1 X-182 Y0 Z5 F200  ;
G1 X0 Y0 Z5 F3000  ; move to home point
G161 Z F200  ; home Z axis minimum again
G92 X0 Y0 Z0 E0  ; set reference again
G1 X0 Y0 Z5 F200  ; clear Z
G1 X0 Y-225 Z5 F3000  ; move to 3rd calibration point
G161 Z F200  ;
M131 AB  ; store surface calibration point 3
M132 AB  ; activate auto leveling
G92 X0 Y-225 Z0 E0  ;
G1 X0 Y-225 Z5 F200  ;
G162 X Y F3000  ;
G161 Z F200  ;
G92 X135 Y115 Z0 E0  ;
M132 Z  ; Recall stored home offset for Z axis
G1 X135 Y115 Z5 F450   ; clear nozzle from hole
G1 X0 Y115 Z5 F3000  ; clear nozzle from hole
  ;
  ; end of ZYYX Pro build plate calibration
M127  ; turn off fan
  ;
M104 S240 T0  ;
M133 T0   ; stabilize extruder temperature
  ;
  ;SET_ZXPARAM
  ;SET_SUPPORT_BUMPMAP
  ;
G92 E0   ; Set E to 0
  ; end of ZYYX Pro start code
  ;
M140 S45 T0  ;
  ;
G130 X127 Y127 Z127 A127 B127   ; Set Stepper Vref to default value
M127  ;enable fans
  ;
  ;
  ;
  ;
  ;
  ;
  ;
; process Process1
; layer 1, Z = 0.350
  ;
  ;
  ;
  ;
  ;
  ;
  ;
  ;
  ;
  ;
  ;
  ;
  ;
  ;
  ;
M135 T0
G1 E-1.4000 F1500
; feature skirt
; tool H0.300 W0.500
G1 Z0.350 F600
G1 X19.596 Y0.000 F6000
G1 E1.4000 F1500
G1 X20.750 Y1.154 E0.1018 F720
G1 X20.750 Y9.846 E0.5421
G1 X18.846 Y11.750 E0.1679
G1 X-23.846 Y11.750 E2.6624
G1 X-25.750 Y9.846 E0.1679
G1 X-25.750 Y1.154 E0.5421
G1 X-24.596 Y0.000 E0.1018
G1 X-25.750 Y-1.154 E0.1018
G1 X-25.750 Y-9.846 E0.5421
G1 X-23.846 Y-11.750 E0.1679
G1 X18.846 Y-11.750 E2.6624
G1 X20.750 Y-9.846 E0.1679
G1 X20.750 Y-1.154 E0.5421
G1 X19.596 Y0.000 E0.1018
G1 E-1.4000 F1500
; feature inner perimeter
G1 Z0.550 F600
G1 X17.250 Y2.750 F6000
G1 X17.142 Y2.750
G1 X16.250 Y3.750
G1 Z0.350 F600
G1 E1.4000 F1500
G1 X16.250 Y7.250 E0.2183 F486
G1 X-21.250 Y7.250 E2.3386
G1 X-21.250 Y3.750 E0.2183
G1 X16.250 Y3.750 E2.3386
G1 X16.750 Y3.250 F6000
G1 X16.750 Y7.750 E0.2806 F486
G1 X-21.750 Y7.750 E2.4010
G1 X-21.750 Y3.250 E0.2806
G1 X16.750 Y3.250 E2.4010
; feature outer perimeter
G1 X17.250 Y2.750 F6000
G1 X17.250 Y8.250 E0.3430 F252
G1 X-22.250 Y8.250 E2.4633
G1 X-22.250 Y2.750 E0.3430
G1 X17.250 Y2.750 E2.4633
G1 X17.250 Y4.250 F252
; feature solid layer
G1 X15.717 Y4.075 F6000
G1 X15.925 Y4.283 E0.0183 F180
G1 X15.925 Y4.990 E0.0441
G1 X15.010 Y4.075 E0.0807
G1 X14.303 Y4.075 E0.0441
G1 X15.925 Y5.697 E0.1431
G1 X15.925 Y6.404 E0.0441
G1 X13.596 Y4.075 E0.2054
G1 X12.889 Y4.075 E0.0441
G1 X15.739 Y6.925 E0.2514
G1 X15.032 Y6.925 E0.0441
G1 X12.182 Y4.075 E0.2514
G1 X11.475 Y4.075 E0.0441
G1 X14.325 Y6.925 E0.2514
G1 X13.617 Y6.925 E0.0441
G1 X10.767 Y4.075 E0.2514
G1 X10.060 Y4.075 E0.0441
G1 X12.910 Y6.925 E0.2514
G1 X12.203 Y6.925 E0.0441
G1 X9.353 Y4.075 E0.2514
G1 X8.646 Y4.075 E0.0441
G1 X11.496 Y6.925 E0.2514
G1 X10.789 Y6.925 E0.0441
G1 X7.939 Y4.075 E0.2514
G1 X7.232 Y4.075 E0.0441
G1 X10.082 Y6.925 E0.2514
G1 X9.375 Y6.925 E0.0441
G1 X6.525 Y4.075 E0.2514
G1 X5.818 Y4.075 E0.0441
G1 X8.668 Y6.925 E0.2514
G1 X7.961 Y6.925 E0.0441
G1 X5.111 Y4.075 E0.2514
G1 X4.403 Y4.075 E0.0441
G1 X7.253 Y6.925 E0.2514
G1 X6.546 Y6.925 E0.0441
G1 X3.696 Y4.075 E0.2514
G1 X2.989 Y4.075 E0.0441
G1 X5.839 Y6.925 E0.2514
G1 X5.132 Y6.925 E0.0441
G1 X2.282 Y4.075 E0.2514
G1 X1.575 Y4.075 E0.0441
G1 X4.425 Y6.925 E0.2514
G1 X3.718 Y6.925 E0.0441
G1 X0.868 Y4.075 E0.2514
G1 X0.161 Y4.075 E0.0441
G1 X3.011 Y6.925 E0.2514
G1 X2.304 Y6.925 E0.0441
G1 X-0.546 Y4.075 E0.2514
G1 X-1.253 Y4.075 E0.0441
G1 X1.597 Y6.925 E0.2514
G1 X0.889 Y6.925 E0.0441
G1 X-1.961 Y4.075 E0.2514
G1 X-2.668 Y4.075 E0.0441
G1 X0.182 Y6.925 E0.2514
G1 X-0.525 Y6.925 E0.0441
G1 X-3.375 Y4.075 E0.2514
G1 X-4.082 Y4.075 E0.0441
G1 X-1.232 Y6.925 E0.2514
G1 X-1.939 Y6.925 E0.0441
G1 X-4.789 Y4.075 E0.2514
G1 X-5.496 Y4.075 E0.0441
G1 X-2.646 Y6.925 E0.2514
G1 X-3.353 Y6.925 E0.0441
G1 X-6.203 Y4.075 E0.2514
G1 X-6.910 Y4.075 E0.0441
G1 X-4.060 Y6.925 E0.2514
G1 X-4.767 Y6.925 E0.0441
G1 X-7.617 Y4.075 E0.2514
G1 X-8.324 Y4.075 E0.0441
G1 X-5.474 Y6.925 E0.2514
G1 X-6.182 Y6.925 E0.0441
G1 X-9.032 Y4.075 E0.2514
G1 X-9.739 Y4.075 E0.0441
G1 X-6.889 Y6.925 E0.2514
G1 X-7.596 Y6.925 E0.0441
G1 X-10.446 Y4.075 E0.2514
G1 X-11.153 Y4.075 E0.0441
G1 X-8.303 Y6.925 E0.2514
G1 X-9.010 Y6.925 E0.0441
G1 X-11.860 Y4.075 E0.2514
G1 X-12.567 Y4.075 E0.0441
G1 X-9.717 Y6.925 E0.2514
G1 X-10.424 Y6.925 E0.0441
G1 X-13.274 Y4.075 E0.2514
G1 X-13.981 Y4.075 E0.0441
G1 X-11.131 Y6.925 E0.2514
G1 X-11.838 Y6.925 E0.0441
G1 X-14.688 Y4.075 E0.2514
G1 X-15.396 Y4.075 E0.0441
G1 X-12.546 Y6.925 E0.2514
G1 X-13.253 Y6.925 E0.0441
G1 X-16.103 Y4.075 E0.2514
G1 X-16.810 Y4.075 E0.0441
G1 X-13.960 Y6.925 E0.2514
G1 X-14.667 Y6.925 E0.0441
G1 X-17.517 Y4.075 E0.2514
G1 X-18.224 Y4.075 E0.0441
G1 X-15.374 Y6.925 E0.2514
G1 X-16.081 Y6.925 E0.0441
G1 X-18.931 Y4.075 E0.2514
G1 X-19.638 Y4.075 E0.0441
G1 X-16.788 Y6.925 E0.2514
