; G-Code generated by Simplify3D(R) Version 4.1.2
; Feb 2, 2021 at 2:02:51 PM
; Settings Summary
;   processName,Process1
;   applyToModels,frontpanelExt_1_3D
;   profileName,ZYYX Pro Multi0.4 PETG v19 + MMBP RC3
;   profileVersion,S3D-Software 4.1.2
;   baseProfile,ZYYX Pro
;   printMaterial,
;   printQuality,
;   printExtruders,
;   extruderName,Primary Extruder
;   extruderToolheadNumber,0
;   extruderDiameter,0.4
;   extruderAutoWidth,0
;   extruderWidth,0.4
;   extrusionMultiplier,1
;   extruderUseRetract,1
;   extruderRetractionDistance,1.4
;   extruderExtraRestartDistance,0
;   extruderRetractionZLift,0.2
;   extruderRetractionSpeed,1500
;   extruderUseCoasting,0
;   extruderCoastingDistance,0.1
;   extruderUseWipe,1
;   extruderWipeDistance,1.5
;   primaryExtruder,0
;   layerHeight,0.2
;   topSolidLayers,5
;   bottomSolidLayers,4
;   perimeterOutlines,3
;   printPerimetersInsideOut,1
;   startPointOption,2
;   startPointOriginX,300
;   startPointOriginY,300
;   sequentialIslands,0
;   spiralVaseMode,0
;   firstLayerHeightPercentage,150
;   firstLayerWidthPercentage,125
;   firstLayerUnderspeed,0.3
;   useRaft,0
;   raftExtruder,0
;   raftTopLayers,2
;   raftBaseLayers,2
;   raftOffset,2
;   raftSeparationDistance,0.09
;   raftTopInfill,100
;   aboveRaftSpeedMultiplier,1.75
;   useSkirt,1
;   skirtExtruder,0
;   skirtLayers,1
;   skirtOutlines,1
;   skirtOffset,3
;   usePrimePillar,0
;   primePillarExtruder,999
;   primePillarWidth,12
;   primePillarLocation,7
;   primePillarSpeedMultiplier,1
;   useOozeShield,0
;   oozeShieldExtruder,999
;   oozeShieldOffset,2
;   oozeShieldOutlines,1
;   oozeShieldSidewallShape,1
;   oozeShieldSidewallAngle,30
;   oozeShieldSpeedMultiplier,1
;   infillExtruder,0
;   internalInfillPattern,Rectilinear
;   externalInfillPattern,Rectilinear
;   infillPercentage,25
;   outlineOverlapPercentage,35
;   infillExtrusionWidthPercentage,100
;   minInfillLength,3
;   infillLayerInterval,1
;   internalInfillAngles,45,-45
;   overlapInternalInfillAngles,0
;   externalInfillAngles,45,-45
;   generateSupport,0
;   supportExtruder,0
;   supportInfillPercentage,15
;   supportExtraInflation,0
;   supportBaseLayers,1
;   denseSupportExtruder,0
;   denseSupportLayers,4
;   denseSupportInfillPercentage,65
;   supportLayerInterval,1
;   supportHorizontalPartOffset,0.1
;   supportUpperSeparationLayers,1
;   supportLowerSeparationLayers,1
;   supportType,0
;   supportGridSpacing,2.5
;   maxOverhangAngle,35
;   supportAngles,0
;   temperatureName,Primary extruder,Chamber
;   temperatureNumber,0,0
;   temperatureSetpointCount,2,1
;   temperatureSetpointLayers,1,2,1
;   temperatureSetpointTemperatures,240,240,45
;   temperatureStabilizeAtStartup,0,0
;   temperatureHeatedBed,0,1
;   fanLayers,2
;   fanSpeeds,50
;   blipFanToFullPower,1
;   adjustSpeedForCooling,0
;   minSpeedLayerTime,4.5
;   minCoolingSpeedSlowdown,30
;   increaseFanForCooling,0
;   minFanLayerTime,45
;   maxCoolingFanSpeed,100
;   increaseFanForBridging,1
;   bridgingFanSpeed,100
;   use5D,1
;   relativeEdistances,1
;   allowEaxisZeroing,0
;   independentExtruderAxes,1
;   includeM10123,0
;   stickySupport,1
;   applyToolheadOffsets,0
;   gcodeXoffset,0
;   gcodeYoffset,0
;   gcodeZoffset,0.05
;   overrideMachineDefinition,0
;   machineTypeOverride,0
;   strokeXoverride,260
;   strokeYoverride,225
;   strokeZoverride,200
;   originOffsetXoverride,132.5
;   originOffsetYoverride,112.5
;   originOffsetZoverride,0
;   homeXdirOverride,1
;   homeYdirOverride,1
;   homeZdirOverride,-1
;   flipXoverride,1
;   flipYoverride,1
;   flipZoverride,-1
;   toolheadOffsets,0,0|0,0|0,0|0,0|0,0|0,0
;   overrideFirmwareConfiguration,1
;   firmwareTypeOverride,MakerBot/Sailfish Firmware
;   GPXconfigOverride,r2h
;   baudRateOverride,115200
;   overridePrinterModels,1
;   printerModelsOverride,zyyx3dprinter.stl
;   startingGcode,  ;start of ZYYX Pro startcode,M73 P0  ; enable build progress,G21  ; set units to mm,M127  ; fan off,G90  ; set positioning to absolute,G130 X127 Y127 Z127 A127 B127    ; Set Stepper Vref to default value,  ;,G162 X Y F3000  ; home XY axes maximum,G161 Z F900  ;,G161 Z F200  ; home Z axis minimum,  ;,  ;SET_PROFILE_NAME,M70 P2 (SwiftTool Multi0.4)  ;,  ;,G92 X0 Y0 Z0 E0  ;,G1 X0 Y0 Z20 F3000  ;,G1 X00 Y-110 Z20 F4000  ;,G130 X0 Y0 Z3 A0 B0   ; Set Stepper Vref to low value,  ;,M420 P10  ; set back fan speed 10 off 11-20 10-100% ,M140 S5 T0  ; set 100% heater power,M140 S99 T0  ; set chamber heater negative hysteresis 19 degrees,M140 S130 T0  ; set chamber heater positive hysteresis 30 degrees,M140 S55 T0  ; set chamber temperature,  ;,M134 T0  ; wait for heated chamber temperature,M420 P13  ; set fan speed 10 off 11-20 10-100%,  ;,  ;,  ;,G130 X80 Y80 Z64 A127 B127   ; Set Stepper Vref to default value,  ;,  ; Perform probing of build plate,  ;,G162 X Y F3000  ; home XY axes maximum,G161 Z F450  ;,G161 Z F600  ; home Z axis minimum,G92 X0 Y0 Z0 E0  ;,G1 X0 Y0 Z5 F200  ;,G161 Z F200  ; home Z axis minimum again,G92 X0 Y0 Z0 E0  ;,M131 A  ; store surface calibration point 1,G1 X0 Y0 Z5 F200  ;,  ;,G1 X-182 Y0 Z5 F3000  ; move to 2nd probing point,  ;G1 X-175 Y0 Z5 F3000 Plus Probe point  move to 2nd probing point,  ;,  ;,G161 Z F200  ;,M131 B  ; store surface calibration point 2,G92 X-182 Y0 Z0 E0  ;,G1 X-182 Y0 Z5 F200  ;,G1 X0 Y0 Z5 F3000  ; move to home point,G161 Z F200  ; home Z axis minimum again,G92 X0 Y0 Z0 E0  ; set reference again,G1 X0 Y0 Z5 F200  ; clear Z,G1 X0 Y-225 Z5 F3000  ; move to 3rd calibration point,G161 Z F200  ;,M131 AB  ; store surface calibration point 3,M132 AB  ; activate auto leveling,G92 X0 Y-225 Z0 E0  ;,G1 X0 Y-225 Z5 F200  ;,G162 X Y F3000  ;,G161 Z F200  ;,G92 X135 Y115 Z0 E0  ;,M132 Z  ; Recall stored home offset for Z axis,G1 X135 Y115 Z5 F450   ; clear nozzle from hole,G1 X0 Y115 Z5 F3000  ; clear nozzle from hole,  ;,  ; end of ZYYX Pro build plate calibration,M127  ; turn off fan,  ;,M104 S[extruder0_temperature] T0  ;,M133 T0   ; stabilize extruder temperature,  ;,  ;SET_ZXPARAM,  ;SET_SUPPORT_BUMPMAP,  ;,G92 E0   ; Set E to 0,  ; end of ZYYX Pro start code,  ;,M140 S[bed0_temperature] T0  ;,  ;,G130 X127 Y127 Z127 A127 B127   ; Set Stepper Vref to default value,M126 S[fan_speed_pwm]  ;enable fans,  ;,  ;,  ;,  ;,  ;,  ;,  ;,
;   layerChangeGcode,
;   retractionGcode,
;   toolChangeGcode,{IF NEWTOOL>1} G91  ;,{IF NEWTOOL>1} G1 Z1 E-2 F600  ;,{IF NEWTOOL>1} G90  ;,{IF NEWTOOL>1} M71 P255 (Please change to NEW filament)  ;,{IF NEWTOOL>1} G1 E1.5 F600  ;,  ;,  ;,  ;,  ;,  ;,  ;,  ;,  ;,  ;,  ;,  ;,  ;,  ;,  ;,  ;
;   endingGcode,  ; ZYYX Pro end gcode,G1 E-1 F1200  ;,M73 P100   ; end build progress,G162 X Y F3000   ; home XY maximum,G0 Z210 F1000   ; send Z axis to bottom of machine,M104 S0 T0   ; cool down extruder,M127   ; stop blower fan,G162 X Y F3000   ; home XY maximum,M17   ; enable stepper,M70 P5 (ZYYX Print Finished!)  ;,M72 P1   ; play Ta-Da song,  ; end of end gcode,  ;,  ;,  ;,  ;,  ;,  ;,  ;,  ;,  ;,  ;,  ;,  ;,  ;,  ;,  ;,  ;,  ;,  ;,  ;,  ;,  ;,  ;,  ;
;   exportFileFormat,x3g
;   celebration,0
;   celebrationSong,Random Song
;   postProcessing,{REPLACE "\n;SET_PROFILE_NAME" "\nM70 P1 (ZYYX Pro PETG)"}  ;,  ;{REPLACE "\n;SET_SUPPORT_BUMPMAP" "\nM420 R255 E20 B12 P2\nM420 R253 P0"},  ;{REPLACE "\n;SET_ZXPARAM" "\nM420 R1 E8 B130 P0"},  ;,  ;{REPLACE "\n; outer perimeter" "\n; outer perimeter\nM420 B1 P75"},  ;{REPLACE "\n; solid layer" "\n; solid layer\nM420 B1 P75"},  ;{REPLACE "\n; bridge" "\n; bridge\nM420 B1 P200"},  ;,  ;{REPLACE "\n; inner perimeter" "\n; inner perimeter\nM420 B1 P25"},  ;{REPLACE "\n; infill" "\n; infill\nM420 B1 P25"},  ;{REPLACE "\n; gap fill" "\n; gap fill\nM420 B1 P25"},  ;{REPLACE "\n; support" "\n; support\nM420 B1 P25"},  ;{REPLACE "\n; dense support" "\n; dense support\nM420 B1 P25"},{REPLACE "\nM126 S" "\nM420 B0 P"}  ;,  ;,  ;{REPLACE "\n; outer perimeter" "\n; outer perimeter\nM420 R253 P0"},  ;{REPLACE "\n; gap fill" "\n; gap fill\nM420 R253 P0"},  ;{REPLACE "\n; bridge" "\n; bridge\nM420 R253 P0"},  ;{REPLACE "\n; inner perimeter" "\n; inner perimeter\nM420 R253 P0"},  ;{REPLACE "\n; infill" "\n; infill\nM420 R253 P0"},  ;{REPLACE "\n; solid layer" "\n; solid layer\nM420 R253 P0"},  ;{REPLACE "\n; support" "\n; support\nM420 R253 P0"},  ;{REPLACE "\n; dense support" "\n; dense support\nM420 R253 P1"},  ;{REPLACE "\n; raft" "\n; raft\nM420 R253 P1"},  ;,  ;,  ;,  ;,  ;,  ;,  ;,  ;,  ;,  ;,CMD /C "REN" [output_filepath] E4-[output_filename].x3g  ;
;   defaultSpeed,2400
;   outlineUnderspeed,0.35
;   solidInfillUnderspeed,0.25
;   supportUnderspeed,1
;   rapidXYspeed,6000
;   rapidZspeed,600
;   minBridgingArea,10
;   bridgingExtraInflation,4
;   bridgingExtrusionMultiplier,1.56
;   bridgingSpeedMultiplier,0.56
;   useFixedBridgingAngle,0
;   fixedBridgingAngle,0
;   applyBridgingToPerimeters,0
;   filamentDiameters,1.75|0|0|0|0|0
;   filamentPricesPerKg,56|0|0|0|0|0
;   filamentDensities,1.06|0|0|0|0|0
;   useMinPrintHeight,0
;   minPrintHeight,0
;   useMaxPrintHeight,0
;   maxPrintHeight,0
;   useDiaphragm,0
;   diaphragmLayerInterval,20
;   robustSlicing,1
;   mergeAllIntoSolid,0
;   onlyRetractWhenCrossingOutline,1
;   retractBetweenLayers,0
;   useRetractionMinTravel,1
;   retractionMinTravel,3
;   retractWhileWiping,1
;   onlyWipeOutlines,1
;   avoidCrossingOutline,1
;   maxMovementDetourFactor,3
;   toolChangeRetractionDistance,0
;   toolChangeExtraRestartDistance,0
;   toolChangeRetractionSpeed,1998
;   externalThinWallType,0
;   internalThinWallType,2
;   thinWallAllowedOverlapPercentage,12
;   singleExtrusionMinLength,0.4
;   singleExtrusionMinPrintingWidthPercentage,50
;   singleExtrusionMaxPrintingWidthPercentage,150
;   singleExtrusionEndpointExtension,0.2
;   horizontalSizeCompensation,0
G90
M83
  ;start of ZYYX Pro startcode
M73 P0  ; enable build progress
G21  ; set units to mm
M127  ; fan off
G90  ; set positioning to absolute
G130 X127 Y127 Z127 A127 B127    ; Set Stepper Vref to default value
  ;
G162 X Y F3000  ; home XY axes maximum
G161 Z F900  ;
G161 Z F200  ; home Z axis minimum
  ;
  ;SET_PROFILE_NAME
M70 P2 (SwiftTool Multi0.4)  ;
  ;
G92 X0 Y0 Z0 E0  ;
G1 X0 Y0 Z20 F3000  ;
G1 X00 Y-110 Z20 F4000  ;
G130 X0 Y0 Z3 A0 B0   ; Set Stepper Vref to low value
  ;
M420 P10  ; set back fan speed 10 off 11-20 10-100% 
M140 S5 T0  ; set 100% heater power
M140 S99 T0  ; set chamber heater negative hysteresis 19 degrees
M140 S130 T0  ; set chamber heater positive hysteresis 30 degrees
M140 S55 T0  ; set chamber temperature
  ;
M134 T0  ; wait for heated chamber temperature
M420 P13  ; set fan speed 10 off 11-20 10-100%
  ;
  ;
  ;
G130 X80 Y80 Z64 A127 B127   ; Set Stepper Vref to default value
  ;
  ; Perform probing of build plate
  ;
G162 X Y F3000  ; home XY axes maximum
G161 Z F450  ;
G161 Z F600  ; home Z axis minimum
G92 X0 Y0 Z0 E0  ;
G1 X0 Y0 Z5 F200  ;
G161 Z F200  ; home Z axis minimum again
G92 X0 Y0 Z0 E0  ;
M131 A  ; store surface calibration point 1
G1 X0 Y0 Z5 F200  ;
  ;
G1 X-182 Y0 Z5 F3000  ; move to 2nd probing point
  ;G1 X-175 Y0 Z5 F3000 Plus Probe point  move to 2nd probing point
  ;
  ;
G161 Z F200  ;
M131 B  ; store surface calibration point 2
G92 X-182 Y0 Z0 E0  ;
G1 X-182 Y0 Z5 F200  ;
G1 X0 Y0 Z5 F3000  ; move to home point
G161 Z F200  ; home Z axis minimum again
G92 X0 Y0 Z0 E0  ; set reference again
G1 X0 Y0 Z5 F200  ; clear Z
G1 X0 Y-225 Z5 F3000  ; move to 3rd calibration point
G161 Z F200  ;
M131 AB  ; store surface calibration point 3
M132 AB  ; activate auto leveling
G92 X0 Y-225 Z0 E0  ;
G1 X0 Y-225 Z5 F200  ;
G162 X Y F3000  ;
G161 Z F200  ;
G92 X135 Y115 Z0 E0  ;
M132 Z  ; Recall stored home offset for Z axis
G1 X135 Y115 Z5 F450   ; clear nozzle from hole
G1 X0 Y115 Z5 F3000  ; clear nozzle from hole
  ;
  ; end of ZYYX Pro build plate calibration
M127  ; turn off fan
  ;
M104 S240 T0  ;
M133 T0   ; stabilize extruder temperature
  ;
  ;SET_ZXPARAM
  ;SET_SUPPORT_BUMPMAP
  ;
G92 E0   ; Set E to 0
  ; end of ZYYX Pro start code
  ;
M140 S45 T0  ;
  ;
G130 X127 Y127 Z127 A127 B127   ; Set Stepper Vref to default value
M127  ;enable fans
  ;
  ;
  ;
  ;
  ;
  ;
  ;
; process Process1
; layer 1, Z = 0.350
  ;
  ;
  ;
  ;
  ;
  ;
  ;
  ;
  ;
  ;
  ;
  ;
  ;
  ;
  ;
M135 T0
G1 E-1.4000 F1500
; feature skirt
; tool H0.300 W0.500
G1 Z0.350 F600
G1 X80.746 Y40.650 F6000
G1 E1.4000 F1500
G1 X-85.746 Y40.650 E10.3829 F720
G1 X-87.650 Y38.746 E0.1679
G1 X-87.650 Y-38.746 E4.8326
G1 X-85.746 Y-40.650 E0.1679
G1 X80.746 Y-40.650 E10.3829
G1 X82.650 Y-38.746 E0.1679
G1 X82.650 Y38.746 E4.8326
G1 X80.746 Y40.650 E0.1679
G1 E-1.4000 F1500
; feature inner perimeter
G1 Z0.550 F600
G1 X79.150 Y37.150 F6000
G1 X78.727 Y37.150
G1 X78.150 Y36.150
G1 Z0.350 F600
G1 E1.4000 F1500
G1 X-83.150 Y36.150 E10.0591 F486
G1 X-83.150 Y-36.150 E4.5088
G1 X78.150 Y-36.150 E10.0591
G1 X78.150 Y36.150 E4.5088
G1 X78.650 Y36.650 F6000
G1 X-83.650 Y36.650 E10.1215 F486
G1 X-83.650 Y-36.650 E4.5712
G1 X78.650 Y-36.650 E10.1215
G1 X78.650 Y36.650 E4.5712
; feature outer perimeter
G1 X79.150 Y37.150 F6000
G1 X-84.150 Y37.150 E10.1838 F252
G1 X-84.150 Y-37.150 E4.6336
G1 X79.150 Y-37.150 E10.1838
G1 X79.150 Y37.150 E4.6336
G1 X77.650 Y37.150 F252
; feature inner perimeter
G1 X58.250 Y27.750 F6000
G1 X58.250 Y-13.750 E2.5881 F486
G1 X-63.250 Y-13.750 E7.5771
G1 X-63.250 Y27.750 E2.5881
G1 X58.250 Y27.750 E7.5771
G1 X57.750 Y27.250 F6000
G1 X57.750 Y-13.250 E2.5257 F486
G1 X-62.750 Y-13.250 E7.5147
G1 X-62.750 Y27.250 E2.5257
G1 X57.750 Y27.250 E7.5147
; feature outer perimeter
G1 X57.250 Y26.750 F6000
G1 X57.250 Y-12.750 E2.4633 F252
G1 X-62.250 Y-12.750 E7.4523
G1 X-62.250 Y26.750 E2.4633
G1 X57.250 Y26.750 E7.4523
G1 X57.250 Y25.250 F252
; feature inner perimeter
G1 X66.688 Y10.171 F6000
G1 X67.318 Y10.492 E0.0441 F486
G1 X67.996 Y10.689 E0.0441
G1 X68.700 Y10.756 E0.0441
G1 X69.384 Y10.691 E0.0429
G1 X69.860 Y10.569 E0.0306
G1 X70.316 Y10.388 E0.0306
G1 X70.908 Y10.038 E0.0429
G1 X71.438 Y9.571 E0.0441
G1 X71.871 Y9.012 E0.0441
G1 X72.192 Y8.383 E0.0441
G1 X72.389 Y7.704 E0.0441
G1 X72.456 Y7.000 E0.0441
G1 X72.389 Y6.296 E0.0441
G1 X72.192 Y5.617 E0.0441
G1 X71.871 Y4.988 E0.0441
G1 X71.438 Y4.429 E0.0441
G1 X70.908 Y3.962 E0.0441
G1 X70.316 Y3.612 E0.0429
G1 X69.859 Y3.431 E0.0306
G1 X69.384 Y3.309 E0.0306
G1 X68.700 Y3.244 E0.0429
G1 X67.996 Y3.311 E0.0441
G1 X67.337 Y3.503 E0.0428
G1 X66.892 Y3.712 E0.0306
G1 X66.478 Y3.975 E0.0306
G1 X65.962 Y4.429 E0.0428
G1 X65.529 Y4.988 E0.0441
G1 X65.208 Y5.617 E0.0441
G1 X65.011 Y6.296 E0.0441
G1 X64.944 Y7.000 E0.0441
G1 X65.009 Y7.684 E0.0429
G1 X65.131 Y8.159 E0.0306
G1 X65.312 Y8.616 E0.0306
G1 X65.662 Y9.207 E0.0429
G1 X66.129 Y9.738 E0.0441
G1 X66.688 Y10.171 E0.0441
G1 X66.957 Y9.747 F6000
G1 X67.502 Y10.025 E0.0382 F486
G1 X68.090 Y10.196 E0.0382
G1 X68.700 Y10.253 E0.0382
G1 X69.298 Y10.197 E0.0375
G1 X69.705 Y10.092 E0.0262
G1 X70.095 Y9.938 E0.0262
G1 X70.612 Y9.632 E0.0375
G1 X71.072 Y9.227 E0.0382
G1 X71.447 Y8.743 E0.0382
G1 X71.725 Y8.198 E0.0382
G1 X71.896 Y7.610 E0.0382
G1 X71.953 Y7.000 E0.0382
G1 X71.896 Y6.390 E0.0382
G1 X71.725 Y5.802 E0.0382
G1 X71.447 Y5.257 E0.0382
G1 X71.072 Y4.773 E0.0382
G1 X70.612 Y4.368 E0.0382
G1 X70.095 Y4.062 E0.0374
G1 X69.705 Y3.908 E0.0262
G1 X69.298 Y3.803 E0.0262
G1 X68.700 Y3.747 E0.0375
G1 X68.090 Y3.804 E0.0382
G1 X67.514 Y3.972 E0.0374
G1 X67.134 Y4.151 E0.0262
G1 X66.779 Y4.376 E0.0262
G1 X66.328 Y4.773 E0.0374
G1 X65.953 Y5.257 E0.0382
G1 X65.675 Y5.802 E0.0382
G1 X65.504 Y6.390 E0.0382
G1 X65.447 Y7.000 E0.0382
G1 X65.503 Y7.598 E0.0374
G1 X65.608 Y8.005 E0.0262
G1 X65.762 Y8.395 E0.0262
G1 X66.068 Y8.912 E0.0375
G1 X66.473 Y9.372 E0.0382
G1 X66.957 Y9.747 E0.0382
; feature outer perimeter
G1 X67.226 Y9.323 F6000
G1 X67.687 Y9.558 E0.0323 F252
G1 X68.184 Y9.702 E0.0323
G1 X68.700 Y9.751 E0.0323
G1 X69.212 Y9.703 E0.0320
G1 X69.550 Y9.616 E0.0218
G1 X69.875 Y9.487 E0.0218
G1 X70.317 Y9.226 E0.0320
G1 X70.705 Y8.883 E0.0323
G1 X71.023 Y8.474 E0.0323
G1 X71.258 Y8.013 E0.0323
G1 X71.402 Y7.516 E0.0323
