; G-Code generated by Simplify3D(R) Version 4.1.2
; Feb 7, 2021 at 12:58:02 PM
; Settings Summary
;   processName,Process1
;   applyToModels,ldrAdaptor
;   profileName,ZYYX Pro Multi0.4 PETG v19 + MMBP RC3 (modified)
;   profileVersion,S3D-Software 4.1.2
;   baseProfile,ZYYX Pro
;   printMaterial,
;   printQuality,
;   printExtruders,
;   extruderName,Primary Extruder
;   extruderToolheadNumber,0
;   extruderDiameter,0.4
;   extruderAutoWidth,0
;   extruderWidth,0.4
;   extrusionMultiplier,1
;   extruderUseRetract,1
;   extruderRetractionDistance,1.4
;   extruderExtraRestartDistance,0
;   extruderRetractionZLift,0.2
;   extruderRetractionSpeed,1500
;   extruderUseCoasting,0
;   extruderCoastingDistance,0.1
;   extruderUseWipe,1
;   extruderWipeDistance,1.5
;   primaryExtruder,0
;   layerHeight,0.2
;   topSolidLayers,5
;   bottomSolidLayers,4
;   perimeterOutlines,3
;   printPerimetersInsideOut,1
;   startPointOption,2
;   startPointOriginX,300
;   startPointOriginY,300
;   sequentialIslands,0
;   spiralVaseMode,0
;   firstLayerHeightPercentage,150
;   firstLayerWidthPercentage,125
;   firstLayerUnderspeed,0.3
;   useRaft,0
;   raftExtruder,0
;   raftTopLayers,2
;   raftBaseLayers,2
;   raftOffset,2
;   raftSeparationDistance,0.09
;   raftTopInfill,100
;   aboveRaftSpeedMultiplier,1.75
;   useSkirt,1
;   skirtExtruder,0
;   skirtLayers,1
;   skirtOutlines,1
;   skirtOffset,3
;   usePrimePillar,0
;   primePillarExtruder,999
;   primePillarWidth,12
;   primePillarLocation,7
;   primePillarSpeedMultiplier,1
;   useOozeShield,0
;   oozeShieldExtruder,999
;   oozeShieldOffset,2
;   oozeShieldOutlines,1
;   oozeShieldSidewallShape,1
;   oozeShieldSidewallAngle,30
;   oozeShieldSpeedMultiplier,1
;   infillExtruder,0
;   internalInfillPattern,Rectilinear
;   externalInfillPattern,Rectilinear
;   infillPercentage,25
;   outlineOverlapPercentage,35
;   infillExtrusionWidthPercentage,100
;   minInfillLength,3
;   infillLayerInterval,1
;   internalInfillAngles,45,-45
;   overlapInternalInfillAngles,0
;   externalInfillAngles,45,-45
;   generateSupport,0
;   supportExtruder,0
;   supportInfillPercentage,15
;   supportExtraInflation,0
;   supportBaseLayers,1
;   denseSupportExtruder,0
;   denseSupportLayers,4
;   denseSupportInfillPercentage,65
;   supportLayerInterval,1
;   supportHorizontalPartOffset,0.1
;   supportUpperSeparationLayers,1
;   supportLowerSeparationLayers,1
;   supportType,0
;   supportGridSpacing,2.5
;   maxOverhangAngle,35
;   supportAngles,0
;   temperatureName,Primary extruder,Chamber
;   temperatureNumber,0,0
;   temperatureSetpointCount,2,1
;   temperatureSetpointLayers,1,2,1
;   temperatureSetpointTemperatures,240,240,45
;   temperatureStabilizeAtStartup,0,0
;   temperatureHeatedBed,0,1
;   fanLayers,2
;   fanSpeeds,50
;   blipFanToFullPower,1
;   adjustSpeedForCooling,0
;   minSpeedLayerTime,4.5
;   minCoolingSpeedSlowdown,30
;   increaseFanForCooling,0
;   minFanLayerTime,45
;   maxCoolingFanSpeed,100
;   increaseFanForBridging,1
;   bridgingFanSpeed,100
;   use5D,1
;   relativeEdistances,1
;   allowEaxisZeroing,0
;   independentExtruderAxes,1
;   includeM10123,0
;   stickySupport,1
;   applyToolheadOffsets,0
;   gcodeXoffset,0
;   gcodeYoffset,0
;   gcodeZoffset,0.05
;   overrideMachineDefinition,0
;   machineTypeOverride,0
;   strokeXoverride,260
;   strokeYoverride,225
;   strokeZoverride,200
;   originOffsetXoverride,132.5
;   originOffsetYoverride,112.5
;   originOffsetZoverride,0
;   homeXdirOverride,1
;   homeYdirOverride,1
;   homeZdirOverride,-1
;   flipXoverride,1
;   flipYoverride,1
;   flipZoverride,-1
;   toolheadOffsets,0,0|0,0|0,0|0,0|0,0|0,0
;   overrideFirmwareConfiguration,1
;   firmwareTypeOverride,MakerBot/Sailfish Firmware
;   GPXconfigOverride,r2h
;   baudRateOverride,115200
;   overridePrinterModels,1
;   printerModelsOverride,zyyx3dprinter.stl
;   startingGcode,  ;start of ZYYX Pro startcode,M73 P0  ; enable build progress,G21  ; set units to mm,M127  ; fan off,G90  ; set positioning to absolute,G130 X127 Y127 Z127 A127 B127    ; Set Stepper Vref to default value,  ;,G162 X Y F3000  ; home XY axes maximum,G161 Z F900  ;,G161 Z F200  ; home Z axis minimum,  ;,  ;SET_PROFILE_NAME,M70 P2 (SwiftTool Multi0.4)  ;,  ;,G92 X0 Y0 Z0 E0  ;,G1 X0 Y0 Z20 F3000  ;,G1 X00 Y-110 Z20 F4000  ;,G130 X0 Y0 Z3 A0 B0   ; Set Stepper Vref to low value,  ;,M420 P10  ; set back fan speed 10 off 11-20 10-100% ,M140 S5 T0  ; set 100% heater power,M140 S99 T0  ; set chamber heater negative hysteresis 19 degrees,M140 S130 T0  ; set chamber heater positive hysteresis 30 degrees,M140 S55 T0  ; set chamber temperature,  ;,M134 T0  ; wait for heated chamber temperature,M420 P13  ; set fan speed 10 off 11-20 10-100%,  ;,  ;,  ;,G130 X80 Y80 Z64 A127 B127   ; Set Stepper Vref to default value,  ;,  ; Perform probing of build plate,  ;,G162 X Y F3000  ; home XY axes maximum,G161 Z F450  ;,G161 Z F600  ; home Z axis minimum,G92 X0 Y0 Z0 E0  ;,G1 X0 Y0 Z5 F200  ;,G161 Z F200  ; home Z axis minimum again,G92 X0 Y0 Z0 E0  ;,M131 A  ; store surface calibration point 1,G1 X0 Y0 Z5 F200  ;,  ;,G1 X-182 Y0 Z5 F3000  ; move to 2nd probing point,  ;G1 X-175 Y0 Z5 F3000 Plus Probe point  move to 2nd probing point,  ;,  ;,G161 Z F200  ;,M131 B  ; store surface calibration point 2,G92 X-182 Y0 Z0 E0  ;,G1 X-182 Y0 Z5 F200  ;,G1 X0 Y0 Z5 F3000  ; move to home point,G161 Z F200  ; home Z axis minimum again,G92 X0 Y0 Z0 E0  ; set reference again,G1 X0 Y0 Z5 F200  ; clear Z,G1 X0 Y-225 Z5 F3000  ; move to 3rd calibration point,G161 Z F200  ;,M131 AB  ; store surface calibration point 3,M132 AB  ; activate auto leveling,G92 X0 Y-225 Z0 E0  ;,G1 X0 Y-225 Z5 F200  ;,G162 X Y F3000  ;,G161 Z F200  ;,G92 X135 Y115 Z0 E0  ;,M132 Z  ; Recall stored home offset for Z axis,G1 X135 Y115 Z5 F450   ; clear nozzle from hole,G1 X0 Y115 Z5 F3000  ; clear nozzle from hole,  ;,  ; end of ZYYX Pro build plate calibration,M127  ; turn off fan,  ;,M104 S[extruder0_temperature] T0  ;,M133 T0   ; stabilize extruder temperature,  ;,  ;SET_ZXPARAM,  ;SET_SUPPORT_BUMPMAP,  ;,G92 E0   ; Set E to 0,  ; end of ZYYX Pro start code,  ;,M140 S[bed0_temperature] T0  ;,  ;,G130 X127 Y127 Z127 A127 B127   ; Set Stepper Vref to default value,M126 S[fan_speed_pwm]  ;enable fans,  ;,  ;,  ;,  ;,  ;,  ;,  ;,
;   layerChangeGcode,
;   retractionGcode,
;   toolChangeGcode,{IF NEWTOOL>1} G91  ;,{IF NEWTOOL>1} G1 Z1 E-2 F600  ;,{IF NEWTOOL>1} G90  ;,{IF NEWTOOL>1} M71 P255 (Please change to NEW filament)  ;,{IF NEWTOOL>1} G1 E1.5 F600  ;,  ;,  ;,  ;,  ;,  ;,  ;,  ;,  ;,  ;,  ;,  ;,  ;,  ;,  ;,  ;
;   endingGcode,  ; ZYYX Pro end gcode,G1 E-1 F1200  ;,M73 P100   ; end build progress,G162 X Y F3000   ; home XY maximum,G0 Z210 F1000   ; send Z axis to bottom of machine,M104 S0 T0   ; cool down extruder,M127   ; stop blower fan,G162 X Y F3000   ; home XY maximum,M17   ; enable stepper,M70 P5 (ZYYX Print Finished!)  ;,M72 P1   ; play Ta-Da song,  ; end of end gcode,  ;,  ;,  ;,  ;,  ;,  ;,  ;,  ;,  ;,  ;,  ;,  ;,  ;,  ;,  ;,  ;,  ;,  ;,  ;,  ;,  ;,  ;,  ;
;   exportFileFormat,x3g
;   celebration,0
;   celebrationSong,Random Song
;   postProcessing,{REPLACE "\n;SET_PROFILE_NAME" "\nM70 P1 (ZYYX Pro PETG)"}  ;,  ;{REPLACE "\n;SET_SUPPORT_BUMPMAP" "\nM420 R255 E20 B12 P2\nM420 R253 P0"},  ;{REPLACE "\n;SET_ZXPARAM" "\nM420 R1 E8 B130 P0"},  ;,  ;{REPLACE "\n; outer perimeter" "\n; outer perimeter\nM420 B1 P75"},  ;{REPLACE "\n; solid layer" "\n; solid layer\nM420 B1 P75"},  ;{REPLACE "\n; bridge" "\n; bridge\nM420 B1 P200"},  ;,  ;{REPLACE "\n; inner perimeter" "\n; inner perimeter\nM420 B1 P25"},  ;{REPLACE "\n; infill" "\n; infill\nM420 B1 P25"},  ;{REPLACE "\n; gap fill" "\n; gap fill\nM420 B1 P25"},  ;{REPLACE "\n; support" "\n; support\nM420 B1 P25"},  ;{REPLACE "\n; dense support" "\n; dense support\nM420 B1 P25"},{REPLACE "\nM126 S" "\nM420 B0 P"}  ;,  ;,  ;{REPLACE "\n; outer perimeter" "\n; outer perimeter\nM420 R253 P0"},  ;{REPLACE "\n; gap fill" "\n; gap fill\nM420 R253 P0"},  ;{REPLACE "\n; bridge" "\n; bridge\nM420 R253 P0"},  ;{REPLACE "\n; inner perimeter" "\n; inner perimeter\nM420 R253 P0"},  ;{REPLACE "\n; infill" "\n; infill\nM420 R253 P0"},  ;{REPLACE "\n; solid layer" "\n; solid layer\nM420 R253 P0"},  ;{REPLACE "\n; support" "\n; support\nM420 R253 P0"},  ;{REPLACE "\n; dense support" "\n; dense support\nM420 R253 P1"},  ;{REPLACE "\n; raft" "\n; raft\nM420 R253 P1"},  ;,  ;,  ;,  ;,  ;,  ;,  ;,  ;,  ;,  ;,CMD /C "REN" [output_filepath] E4-[output_filename].x3g  ;
;   defaultSpeed,2400
;   outlineUnderspeed,0.35
;   solidInfillUnderspeed,0.25
;   supportUnderspeed,1
;   rapidXYspeed,6000
;   rapidZspeed,600
;   minBridgingArea,10
;   bridgingExtraInflation,4
;   bridgingExtrusionMultiplier,1.56
;   bridgingSpeedMultiplier,0.56
;   useFixedBridgingAngle,0
;   fixedBridgingAngle,0
;   applyBridgingToPerimeters,0
;   filamentDiameters,1.75|0|0|0|0|0
;   filamentPricesPerKg,56|0|0|0|0|0
;   filamentDensities,1.06|0|0|0|0|0
;   useMinPrintHeight,0
;   minPrintHeight,0
;   useMaxPrintHeight,0
;   maxPrintHeight,0
;   useDiaphragm,0
;   diaphragmLayerInterval,20
;   robustSlicing,1
;   mergeAllIntoSolid,0
;   onlyRetractWhenCrossingOutline,1
;   retractBetweenLayers,0
;   useRetractionMinTravel,1
;   retractionMinTravel,3
;   retractWhileWiping,1
;   onlyWipeOutlines,1
;   avoidCrossingOutline,1
;   maxMovementDetourFactor,3
;   toolChangeRetractionDistance,0
;   toolChangeExtraRestartDistance,0
;   toolChangeRetractionSpeed,1998
;   externalThinWallType,0
;   internalThinWallType,2
;   thinWallAllowedOverlapPercentage,12
;   singleExtrusionMinLength,0.4
;   singleExtrusionMinPrintingWidthPercentage,50
;   singleExtrusionMaxPrintingWidthPercentage,150
;   singleExtrusionEndpointExtension,0.2
;   horizontalSizeCompensation,0
G90
M83
  ;start of ZYYX Pro startcode
M73 P0  ; enable build progress
G21  ; set units to mm
M127  ; fan off
G90  ; set positioning to absolute
G130 X127 Y127 Z127 A127 B127    ; Set Stepper Vref to default value
  ;
G162 X Y F3000  ; home XY axes maximum
G161 Z F900  ;
G161 Z F200  ; home Z axis minimum
  ;
  ;SET_PROFILE_NAME
M70 P2 (SwiftTool Multi0.4)  ;
  ;
G92 X0 Y0 Z0 E0  ;
G1 X0 Y0 Z20 F3000  ;
G1 X00 Y-110 Z20 F4000  ;
G130 X0 Y0 Z3 A0 B0   ; Set Stepper Vref to low value
  ;
M420 P10  ; set back fan speed 10 off 11-20 10-100% 
M140 S5 T0  ; set 100% heater power
M140 S99 T0  ; set chamber heater negative hysteresis 19 degrees
M140 S130 T0  ; set chamber heater positive hysteresis 30 degrees
M140 S55 T0  ; set chamber temperature
  ;
M134 T0  ; wait for heated chamber temperature
M420 P13  ; set fan speed 10 off 11-20 10-100%
  ;
  ;
  ;
G130 X80 Y80 Z64 A127 B127   ; Set Stepper Vref to default value
  ;
  ; Perform probing of build plate
  ;
G162 X Y F3000  ; home XY axes maximum
G161 Z F450  ;
G161 Z F600  ; home Z axis minimum
G92 X0 Y0 Z0 E0  ;
G1 X0 Y0 Z5 F200  ;
G161 Z F200  ; home Z axis minimum again
G92 X0 Y0 Z0 E0  ;
M131 A  ; store surface calibration point 1
G1 X0 Y0 Z5 F200  ;
  ;
G1 X-182 Y0 Z5 F3000  ; move to 2nd probing point
  ;G1 X-175 Y0 Z5 F3000 Plus Probe point  move to 2nd probing point
  ;
  ;
G161 Z F200  ;
M131 B  ; store surface calibration point 2
G92 X-182 Y0 Z0 E0  ;
G1 X-182 Y0 Z5 F200  ;
G1 X0 Y0 Z5 F3000  ; move to home point
G161 Z F200  ; home Z axis minimum again
G92 X0 Y0 Z0 E0  ; set reference again
G1 X0 Y0 Z5 F200  ; clear Z
G1 X0 Y-225 Z5 F3000  ; move to 3rd calibration point
G161 Z F200  ;
M131 AB  ; store surface calibration point 3
M132 AB  ; activate auto leveling
G92 X0 Y-225 Z0 E0  ;
G1 X0 Y-225 Z5 F200  ;
G162 X Y F3000  ;
G161 Z F200  ;
G92 X135 Y115 Z0 E0  ;
M132 Z  ; Recall stored home offset for Z axis
G1 X135 Y115 Z5 F450   ; clear nozzle from hole
G1 X0 Y115 Z5 F3000  ; clear nozzle from hole
  ;
  ; end of ZYYX Pro build plate calibration
M127  ; turn off fan
  ;
M104 S240 T0  ;
M133 T0   ; stabilize extruder temperature
  ;
  ;SET_ZXPARAM
  ;SET_SUPPORT_BUMPMAP
  ;
G92 E0   ; Set E to 0
  ; end of ZYYX Pro start code
  ;
M140 S45 T0  ;
  ;
G130 X127 Y127 Z127 A127 B127   ; Set Stepper Vref to default value
M127  ;enable fans
  ;
  ;
  ;
  ;
  ;
  ;
  ;
; process Process1
; layer 1, Z = 0.350
  ;
  ;
  ;
  ;
  ;
  ;
  ;
  ;
  ;
  ;
  ;
  ;
  ;
  ;
  ;
M135 T0
G1 E-1.4000 F1500
; feature skirt
; tool H0.300 W0.500
G1 Z0.350 F600
G1 X5.748 Y-0.179 F6000
G1 E1.4000 F1500
G1 X5.752 Y0.077 E0.0159 F720
G1 X5.698 Y0.933 E0.0535
G1 X5.672 Y1.135 E0.0127
G1 X5.516 Y1.953 E0.0519
G1 X5.465 Y2.151 E0.0127
G1 X5.200 Y2.966 E0.0535
G1 X5.103 Y3.202 E0.0159
G1 X4.559 Y4.268 E0.0746
G1 X4.426 Y4.486 E0.0159
G1 X3.922 Y5.180 E0.0535
G1 X3.792 Y5.337 E0.0127
G1 X3.204 Y5.963 E0.0535
G1 X3.016 Y6.135 E0.0159
G1 X2.050 Y6.884 E0.0762
G1 X1.791 Y7.048 E0.0191
G1 X0.680 Y7.614 E0.0778
G1 X0.395 Y7.727 E0.0191
G1 X-0.804 Y8.075 E0.0778
G1 X-1.105 Y8.133 E0.0191
G1 X-2.321 Y8.248 E0.0762
G1 X-2.577 Y8.252 E0.0159
G1 X-3.433 Y8.198 E0.0535
G1 X-3.635 Y8.172 E0.0127
G1 X-4.453 Y8.016 E0.0519
G1 X-4.651 Y7.965 E0.0127
G1 X-5.466 Y7.700 E0.0535
G1 X-5.702 Y7.603 E0.0159
G1 X-6.768 Y7.059 E0.0746
G1 X-6.986 Y6.926 E0.0159
G1 X-7.680 Y6.422 E0.0535
G1 X-7.837 Y6.292 E0.0127
G1 X-8.463 Y5.704 E0.0535
G1 X-8.635 Y5.516 E0.0159
G1 X-9.384 Y4.550 E0.0762
G1 X-9.548 Y4.291 E0.0191
G1 X-10.114 Y3.180 E0.0778
G1 X-10.227 Y2.895 E0.0191
G1 X-10.575 Y1.696 E0.0778
G1 X-10.633 Y1.395 E0.0191
G1 X-10.748 Y0.179 E0.0762
G1 X-10.752 Y-0.077 E0.0159
G1 X-10.698 Y-0.933 E0.0535
G1 X-10.672 Y-1.135 E0.0127
G1 X-10.516 Y-1.953 E0.0519
G1 X-10.465 Y-2.151 E0.0127
G1 X-10.200 Y-2.966 E0.0535
G1 X-10.103 Y-3.202 E0.0159
G1 X-9.548 Y-4.291 E0.0762
G1 X-9.384 Y-4.550 E0.0191
G1 X-8.633 Y-5.518 E0.0764
G1 X-8.457 Y-5.710 E0.0163
G1 X-7.812 Y-6.312 E0.0550
G1 X-7.657 Y-6.440 E0.0125
G1 X-6.984 Y-6.928 E0.0518
G1 X-6.767 Y-7.060 E0.0158
G1 X-5.680 Y-7.614 E0.0761
G1 X-5.395 Y-7.727 E0.0191
G1 X-4.196 Y-8.075 E0.0778
G1 X-3.895 Y-8.133 E0.0191
G1 X-2.679 Y-8.248 E0.0762
G1 X-2.423 Y-8.252 E0.0159
G1 X-1.542 Y-8.196 E0.0551
G1 X-1.289 Y-8.160 E0.0159
G1 X-0.096 Y-7.894 E0.0762
G1 X0.195 Y-7.799 E0.0191
G1 X1.340 Y-7.303 E0.0778
G1 X1.609 Y-7.156 E0.0191
G1 X2.641 Y-6.454 E0.0778
G1 X2.877 Y-6.259 E0.0191
G1 X3.741 Y-5.395 E0.0762
G1 X3.907 Y-5.201 E0.0159
G1 X4.426 Y-4.486 E0.0551
G1 X4.559 Y-4.268 E0.0159
G1 X5.114 Y-3.180 E0.0762
G1 X5.227 Y-2.895 E0.0191
G1 X5.575 Y-1.696 E0.0778
G1 X5.633 Y-1.395 E0.0191
G1 X5.748 Y-0.179 E0.0762
G1 E-1.4000 F1500
; feature inner perimeter
G1 Z0.550 F600
G1 X1.249 Y-0.020 F6000
G1 Z0.350 F600
G1 E1.4000 F1500
G1 X1.218 Y0.470 E0.0306 F486
G1 X1.126 Y0.951 E0.0306
G1 X1.066 Y1.159 E0.0135
G1 X0.993 Y1.362 E0.0135
G1 X0.776 Y1.823 E0.0318
G1 X0.676 Y1.992 E0.0122
G1 X0.387 Y2.389 E0.0306
G1 X0.052 Y2.746 E0.0306
G1 X-0.095 Y2.876 E0.0122
G1 X-0.508 Y3.176 E0.0318
G1 X-0.677 Y3.276 E0.0122
G1 X-1.120 Y3.484 E0.0306
G1 X-1.587 Y3.636 E0.0306
G1 X-1.778 Y3.679 E0.0122
G1 X-2.284 Y3.743 E0.0318
G1 X-2.480 Y3.749 E0.0122
G1 X-2.970 Y3.718 E0.0306
G1 X-3.451 Y3.626 E0.0306
G1 X-3.659 Y3.566 E0.0135
G1 X-3.862 Y3.493 E0.0135
G1 X-4.323 Y3.276 E0.0318
G1 X-4.492 Y3.176 E0.0122
G1 X-4.889 Y2.887 E0.0306
G1 X-5.246 Y2.552 E0.0306
G1 X-5.376 Y2.405 E0.0122
G1 X-5.676 Y1.992 E0.0318
G1 X-5.776 Y1.823 E0.0122
G1 X-5.984 Y1.380 E0.0306
G1 X-6.136 Y0.913 E0.0306
G1 X-6.179 Y0.722 E0.0122
G1 X-6.243 Y0.216 E0.0318
G1 X-6.249 Y0.020 E0.0122
G1 X-6.218 Y-0.470 E0.0306
G1 X-6.126 Y-0.951 E0.0306
G1 X-6.066 Y-1.159 E0.0135
G1 X-5.993 Y-1.362 E0.0135
G1 X-5.776 Y-1.823 E0.0318
G1 X-5.676 Y-1.992 E0.0122
G1 X-5.376 Y-2.405 E0.0318
G1 X-5.248 Y-2.550 E0.0121
G1 X-4.872 Y-2.900 E0.0320
G1 X-4.509 Y-3.164 E0.0280
G1 X-4.078 Y-3.400 E0.0306
G1 X-3.898 Y-3.478 E0.0122
G1 X-3.413 Y-3.636 E0.0318
G1 X-3.222 Y-3.679 E0.0122
G1 X-2.716 Y-3.743 E0.0318
G1 X-2.520 Y-3.749 E0.0122
G1 X-2.030 Y-3.718 E0.0306
G1 X-1.549 Y-3.626 E0.0306
G1 X-1.341 Y-3.566 E0.0135
G1 X-1.138 Y-3.493 E0.0135
G1 X-0.677 Y-3.276 E0.0318
G1 X-0.508 Y-3.176 E0.0122
G1 X-0.111 Y-2.887 E0.0306
G1 X0.246 Y-2.552 E0.0306
