( Made using CamBam - http://www.cambam.co.uk )
( ssc_plexi_Left_Panel 2/21/2021 6:31:21 PM )
( T2 : 2.0 )
( CUTVIEWER )
( FROM/0,0,5 )
( Select dummy tool to avoid warnings )
( TOOL/MILL,1,0,20.0,0 )
( STOCK/BLOCK,90.0,95.0,4.0,0.0,0.0,4.0 )
G21 G90 G91.1 G64 G40
G0 Z3.0
( T2 : 2.0 )
( Tool Taper coming soon )
( TOOL/MILL,2.0,0.0,0.0,0 )
T2 M6
( Drill1 )
G17
M3 S1000
G0 X28.6508 Y62.3492
G0 Z3.0
G0 X28.9008 Y62.3492
G0 Z1.0
G1 F300.0 Z0.0
G2 F500.0 X28.5258 Y62.1327 Z-0.1333 I-0.25 J0.0
G2 Y62.5657 Z-0.2667 I0.125 J0.2165
G2 X28.9008 Y62.3492 Z-0.4 I0.125 J-0.2165
G2 X28.5258 Y62.1327 Z-0.5333 I-0.25 J0.0
G2 Y62.5657 Z-0.6667 I0.125 J0.2165
G2 X28.9008 Y62.3492 Z-0.8 I0.125 J-0.2165
G2 X28.5258 Y62.1327 Z-0.9333 I-0.25 J0.0
G2 Y62.5657 Z-1.0667 I0.125 J0.2165
G2 X28.9008 Y62.3492 Z-1.2 I0.125 J-0.2165
G2 X28.5258 Y62.1327 Z-1.3333 I-0.25 J0.0
G2 Y62.5657 Z-1.4667 I0.125 J0.2165
G2 X28.9008 Y62.3492 Z-1.6 I0.125 J-0.2165
G2 X28.5258 Y62.1327 Z-1.7333 I-0.25 J0.0
G2 Y62.5657 Z-1.8667 I0.125 J0.2165
G2 X28.9008 Y62.3492 Z-2.0 I0.125 J-0.2165
G2 X28.5258 Y62.1327 Z-2.1333 I-0.25 J0.0
G2 Y62.5657 Z-2.2667 I0.125 J0.2165
G2 X28.9008 Y62.3492 Z-2.4 I0.125 J-0.2165
G2 X28.5258 Y62.1327 Z-2.5333 I-0.25 J0.0
G2 Y62.5657 Z-2.6667 I0.125 J0.2165
G2 X28.9008 Y62.3492 Z-2.8 I0.125 J-0.2165
G2 X28.5258 Y62.1327 Z-2.9333 I-0.25 J0.0
G2 Y62.5657 Z-3.0667 I0.125 J0.2165
G2 X28.9008 Y62.3492 Z-3.2 I0.125 J-0.2165
G2 X28.5258 Y62.1327 Z-3.3333 I-0.25 J0.0
G2 Y62.5657 Z-3.4667 I0.125 J0.2165
G2 X28.9008 Y62.3492 Z-3.6 I0.125 J-0.2165
G2 X28.5258 Y62.1327 Z-3.7333 I-0.25 J0.0
G2 Y62.5657 Z-3.8667 I0.125 J0.2165
G2 X28.9008 Y62.3492 Z-4.0 I0.125 J-0.2165
G2 X28.5258 Y62.1327 Z-4.1333 I-0.25 J0.0
G2 X28.4008 Y62.3492 Z-4.2 I0.125 J0.2165
G2 X28.7758 Y62.5657 I0.25 J0.0
G2 Y62.1327 I-0.125 J-0.2165
G2 X28.4008 Y62.3492 I-0.125 J0.2165
G0 Z3.0
G0 X26.0723 Y65.1777
G0 Z1.0
G1 F300.0 Z0.0
G2 F500.0 X25.6973 Y64.9612 Z-0.1333 I-0.25 J0.0
G2 Y65.3942 Z-0.2667 I0.125 J0.2165
G2 X26.0723 Y65.1777 Z-0.4 I0.125 J-0.2165
G2 X25.6973 Y64.9612 Z-0.5333 I-0.25 J0.0
G2 Y65.3942 Z-0.6667 I0.125 J0.2165
G2 X26.0723 Y65.1777 Z-0.8 I0.125 J-0.2165
G2 X25.6973 Y64.9612 Z-0.9333 I-0.25 J0.0
G2 Y65.3942 Z-1.0667 I0.125 J0.2165
G2 X26.0723 Y65.1777 Z-1.2 I0.125 J-0.2165
G2 X25.6973 Y64.9612 Z-1.3333 I-0.25 J0.0
G2 Y65.3942 Z-1.4667 I0.125 J0.2165
G2 X26.0723 Y65.1777 Z-1.6 I0.125 J-0.2165
G2 X25.6973 Y64.9612 Z-1.7333 I-0.25 J0.0
G2 Y65.3942 Z-1.8667 I0.125 J0.2165
G2 X26.0723 Y65.1777 Z-2.0 I0.125 J-0.2165
G2 X25.6973 Y64.9612 Z-2.1333 I-0.25 J0.0
G2 Y65.3942 Z-2.2667 I0.125 J0.2165
G2 X26.0723 Y65.1777 Z-2.4 I0.125 J-0.2165
G2 X25.6973 Y64.9612 Z-2.5333 I-0.25 J0.0
G2 Y65.3942 Z-2.6667 I0.125 J0.2165
G2 X26.0723 Y65.1777 Z-2.8 I0.125 J-0.2165
G2 X25.6973 Y64.9612 Z-2.9333 I-0.25 J0.0
G2 Y65.3942 Z-3.0667 I0.125 J0.2165
G2 X26.0723 Y65.1777 Z-3.2 I0.125 J-0.2165
G2 X25.6973 Y64.9612 Z-3.3333 I-0.25 J0.0
G2 Y65.3942 Z-3.4667 I0.125 J0.2165
G2 X26.0723 Y65.1777 Z-3.6 I0.125 J-0.2165
G2 X25.6973 Y64.9612 Z-3.7333 I-0.25 J0.0
G2 Y65.3942 Z-3.8667 I0.125 J0.2165
G2 X26.0723 Y65.1777 Z-4.0 I0.125 J-0.2165
G2 X25.6973 Y64.9612 Z-4.1333 I-0.25 J0.0
G2 X25.5723 Y65.1777 Z-4.2 I0.125 J0.2165
G2 X25.9473 Y65.3942 I0.25 J0.0
G2 Y64.9612 I-0.125 J-0.2165
G2 X25.5723 Y65.1777 I-0.125 J0.2165
G0 Z3.0
G0 X23.2439 Y68.0061
G0 Z1.0
G1 F300.0 Z0.0
G2 F500.0 X22.8689 Y67.7896 Z-0.1333 I-0.25 J0.0
G2 Y68.2226 Z-0.2667 I0.125 J0.2165
G2 X23.2439 Y68.0061 Z-0.4 I0.125 J-0.2165
G2 X22.8689 Y67.7896 Z-0.5333 I-0.25 J0.0
G2 Y68.2226 Z-0.6667 I0.125 J0.2165
G2 X23.2439 Y68.0061 Z-0.8 I0.125 J-0.2165
G2 X22.8689 Y67.7896 Z-0.9333 I-0.25 J0.0
G2 Y68.2226 Z-1.0667 I0.125 J0.2165
G2 X23.2439 Y68.0061 Z-1.2 I0.125 J-0.2165
G2 X22.8689 Y67.7896 Z-1.3333 I-0.25 J0.0
G2 Y68.2226 Z-1.4667 I0.125 J0.2165
G2 X23.2439 Y68.0061 Z-1.6 I0.125 J-0.2165
G2 X22.8689 Y67.7896 Z-1.7333 I-0.25 J0.0
G2 Y68.2226 Z-1.8667 I0.125 J0.2165
G2 X23.2439 Y68.0061 Z-2.0 I0.125 J-0.2165
G2 X22.8689 Y67.7896 Z-2.1333 I-0.25 J0.0
G2 Y68.2226 Z-2.2667 I0.125 J0.2165
G2 X23.2439 Y68.0061 Z-2.4 I0.125 J-0.2165
G2 X22.8689 Y67.7896 Z-2.5333 I-0.25 J0.0
G2 Y68.2226 Z-2.6667 I0.125 J0.2165
G2 X23.2439 Y68.0061 Z-2.8 I0.125 J-0.2165
G2 X22.8689 Y67.7896 Z-2.9333 I-0.25 J0.0
G2 Y68.2226 Z-3.0667 I0.125 J0.2165
G2 X23.2439 Y68.0061 Z-3.2 I0.125 J-0.2165
G2 X22.8689 Y67.7896 Z-3.3333 I-0.25 J0.0
G2 Y68.2226 Z-3.4667 I0.125 J0.2165
G2 X23.2439 Y68.0061 Z-3.6 I0.125 J-0.2165
G2 X22.8689 Y67.7896 Z-3.7333 I-0.25 J0.0
G2 Y68.2226 Z-3.8667 I0.125 J0.2165
G2 X23.2439 Y68.0061 Z-4.0 I0.125 J-0.2165
G2 X22.8689 Y67.7896 Z-4.1333 I-0.25 J0.0
G2 X22.7439 Y68.0061 Z-4.2 I0.125 J0.2165
G2 X23.1189 Y68.2226 I0.25 J0.0
G2 Y67.7896 I-0.125 J-0.2165
G2 X22.7439 Y68.0061 I-0.125 J0.2165
G0 Z3.0
G0 X20.653 Y57.0671
G0 Z1.0
G1 F300.0 Z0.0
G2 F500.0 X20.278 Y56.8506 Z-0.1333 I-0.25 J0.0
G2 Y57.2836 Z-0.2667 I0.125 J0.2165
G2 X20.653 Y57.0671 Z-0.4 I0.125 J-0.2165
G2 X20.278 Y56.8506 Z-0.5333 I-0.25 J0.0
G2 Y57.2836 Z-0.6667 I0.125 J0.2165
G2 X20.653 Y57.0671 Z-0.8 I0.125 J-0.2165
G2 X20.278 Y56.8506 Z-0.9333 I-0.25 J0.0
G2 Y57.2836 Z-1.0667 I0.125 J0.2165
G2 X20.653 Y57.0671 Z-1.2 I0.125 J-0.2165
G2 X20.278 Y56.8506 Z-1.3333 I-0.25 J0.0
G2 Y57.2836 Z-1.4667 I0.125 J0.2165
G2 X20.653 Y57.0671 Z-1.6 I0.125 J-0.2165
G2 X20.278 Y56.8506 Z-1.7333 I-0.25 J0.0
G2 Y57.2836 Z-1.8667 I0.125 J0.2165
G2 X20.653 Y57.0671 Z-2.0 I0.125 J-0.2165
G2 X20.278 Y56.8506 Z-2.1333 I-0.25 J0.0
G2 Y57.2836 Z-2.2667 I0.125 J0.2165
G2 X20.653 Y57.0671 Z-2.4 I0.125 J-0.2165
G2 X20.278 Y56.8506 Z-2.5333 I-0.25 J0.0
G2 Y57.2836 Z-2.6667 I0.125 J0.2165
G2 X20.653 Y57.0671 Z-2.8 I0.125 J-0.2165
G2 X20.278 Y56.8506 Z-2.9333 I-0.25 J0.0
G2 Y57.2836 Z-3.0667 I0.125 J0.2165
G2 X20.653 Y57.0671 Z-3.2 I0.125 J-0.2165
G2 X20.278 Y56.8506 Z-3.3333 I-0.25 J0.0
G2 Y57.2836 Z-3.4667 I0.125 J0.2165
G2 X20.653 Y57.0671 Z-3.6 I0.125 J-0.2165
G2 X20.278 Y56.8506 Z-3.7333 I-0.25 J0.0
G2 Y57.2836 Z-3.8667 I0.125 J0.2165
G2 X20.653 Y57.0671 Z-4.0 I0.125 J-0.2165
G2 X20.278 Y56.8506 Z-4.1333 I-0.25 J0.0
G2 X20.153 Y57.0671 Z-4.2 I0.125 J0.2165
G2 X20.528 Y57.2836 I0.25 J0.0
G2 Y56.8506 I-0.125 J-0.2165
G2 X20.153 Y57.0671 I-0.125 J0.2165
G0 Z3.0
G0 X16.9575 Y58.5978
G0 Z1.0
G1 F300.0 Z0.0
G2 F500.0 X16.5825 Y58.3813 Z-0.1333 I-0.25 J0.0
G2 Y58.8143 Z-0.2667 I0.125 J0.2165
G2 X16.9575 Y58.5978 Z-0.4 I0.125 J-0.2165
G2 X16.5825 Y58.3813 Z-0.5333 I-0.25 J0.0
G2 Y58.8143 Z-0.6667 I0.125 J0.2165
G2 X16.9575 Y58.5978 Z-0.8 I0.125 J-0.2165
G2 X16.5825 Y58.3813 Z-0.9333 I-0.25 J0.0
G2 Y58.8143 Z-1.0667 I0.125 J0.2165
G2 X16.9575 Y58.5978 Z-1.2 I0.125 J-0.2165
G2 X16.5825 Y58.3813 Z-1.3333 I-0.25 J0.0
G2 Y58.8143 Z-1.4667 I0.125 J0.2165
G2 X16.9575 Y58.5978 Z-1.6 I0.125 J-0.2165
G2 X16.5825 Y58.3813 Z-1.7333 I-0.25 J0.0
G2 Y58.8143 Z-1.8667 I0.125 J0.2165
G2 X16.9575 Y58.5978 Z-2.0 I0.125 J-0.2165
G2 X16.5825 Y58.3813 Z-2.1333 I-0.25 J0.0
G2 Y58.8143 Z-2.2667 I0.125 J0.2165
G2 X16.9575 Y58.5978 Z-2.4 I0.125 J-0.2165
G2 X16.5825 Y58.3813 Z-2.5333 I-0.25 J0.0
G2 Y58.8143 Z-2.6667 I0.125 J0.2165
G2 X16.9575 Y58.5978 Z-2.8 I0.125 J-0.2165
G2 X16.5825 Y58.3813 Z-2.9333 I-0.25 J0.0
G2 Y58.8143 Z-3.0667 I0.125 J0.2165
G2 X16.9575 Y58.5978 Z-3.2 I0.125 J-0.2165
G2 X16.5825 Y58.3813 Z-3.3333 I-0.25 J0.0
G2 Y58.8143 Z-3.4667 I0.125 J0.2165
G2 X16.9575 Y58.5978 Z-3.6 I0.125 J-0.2165
G2 X16.5825 Y58.3813 Z-3.7333 I-0.25 J0.0
G2 Y58.8143 Z-3.8667 I0.125 J0.2165
G2 X16.9575 Y58.5978 Z-4.0 I0.125 J-0.2165
G2 X16.5825 Y58.3813 Z-4.1333 I-0.25 J0.0
G2 X16.4575 Y58.5978 Z-4.2 I0.125 J0.2165
G2 X16.8325 Y58.8143 I0.25 J0.0
G2 Y58.3813 I-0.125 J-0.2165
G2 X16.4575 Y58.5978 I-0.125 J0.2165
G0 Z3.0
G0 X24.3485 Y55.5364
G0 Z1.0
G1 F300.0 Z0.0
G2 F500.0 X23.9735 Y55.3198 Z-0.1333 I-0.25 J0.0
G2 Y55.7529 Z-0.2667 I0.125 J0.2165
G2 X24.3485 Y55.5364 Z-0.4 I0.125 J-0.2165
G2 X23.9735 Y55.3198 Z-0.5333 I-0.25 J0.0
G2 Y55.7529 Z-0.6667 I0.125 J0.2165
G2 X24.3485 Y55.5364 Z-0.8 I0.125 J-0.2165
G2 X23.9735 Y55.3198 Z-0.9333 I-0.25 J0.0
G2 Y55.7529 Z-1.0667 I0.125 J0.2165
G2 X24.3485 Y55.5364 Z-1.2 I0.125 J-0.2165
G2 X23.9735 Y55.3198 Z-1.3333 I-0.25 J0.0
G2 Y55.7529 Z-1.4667 I0.125 J0.2165
G2 X24.3485 Y55.5364 Z-1.6 I0.125 J-0.2165
G2 X23.9735 Y55.3198 Z-1.7333 I-0.25 J0.0
G2 Y55.7529 Z-1.8667 I0.125 J0.2165
G2 X24.3485 Y55.5364 Z-2.0 I0.125 J-0.2165
G2 X23.9735 Y55.3198 Z-2.1333 I-0.25 J0.0
G2 Y55.7529 Z-2.2667 I0.125 J0.2165
G2 X24.3485 Y55.5364 Z-2.4 I0.125 J-0.2165
G2 X23.9735 Y55.3198 Z-2.5333 I-0.25 J0.0
G2 Y55.7529 Z-2.6667 I0.125 J0.2165
G2 X24.3485 Y55.5364 Z-2.8 I0.125 J-0.2165
G2 X23.9735 Y55.3198 Z-2.9333 I-0.25 J0.0
G2 Y55.7529 Z-3.0667 I0.125 J0.2165
G2 X24.3485 Y55.5364 Z-3.2 I0.125 J-0.2165
G2 X23.9735 Y55.3198 Z-3.3333 I-0.25 J0.0
G2 Y55.7529 Z-3.4667 I0.125 J0.2165
G2 X24.3485 Y55.5364 Z-3.6 I0.125 J-0.2165
G2 X23.9735 Y55.3198 Z-3.7333 I-0.25 J0.0
G2 Y55.7529 Z-3.8667 I0.125 J0.2165
G2 X24.3485 Y55.5364 Z-4.0 I0.125 J-0.2165
G2 X23.9735 Y55.3198 Z-4.1333 I-0.25 J0.0
G2 X23.8485 Y55.5364 Z-4.2 I0.125 J0.2165
G2 X24.2235 Y55.7529 I0.25 J0.0
G2 Y55.3198 I-0.125 J-0.2165
G2 X23.8485 Y55.5364 I-0.125 J0.2165
G0 Z3.0
G0 X28.044 Y54.0056
G0 Z1.0
G1 F300.0 Z0.0
G2 F500.0 X27.669 Y53.7891 Z-0.1333 I-0.25 J0.0
G2 Y54.2221 Z-0.2667 I0.125 J0.2165
G2 X28.044 Y54.0056 Z-0.4 I0.125 J-0.2165
G2 X27.669 Y53.7891 Z-0.5333 I-0.25 J0.0
G2 Y54.2221 Z-0.6667 I0.125 J0.2165
G2 X28.044 Y54.0056 Z-0.8 I0.125 J-0.2165
G2 X27.669 Y53.7891 Z-0.9333 I-0.25 J0.0
G2 Y54.2221 Z-1.0667 I0.125 J0.2165
G2 X28.044 Y54.0056 Z-1.2 I0.125 J-0.2165
G2 X27.669 Y53.7891 Z-1.3333 I-0.25 J0.0
G2 Y54.2221 Z-1.4667 I0.125 J0.2165
G2 X28.044 Y54.0056 Z-1.6 I0.125 J-0.2165
G2 X27.669 Y53.7891 Z-1.7333 I-0.25 J0.0
G2 Y54.2221 Z-1.8667 I0.125 J0.2165
G2 X28.044 Y54.0056 Z-2.0 I0.125 J-0.2165
G2 X27.669 Y53.7891 Z-2.1333 I-0.25 J0.0
G2 Y54.2221 Z-2.2667 I0.125 J0.2165
G2 X28.044 Y54.0056 Z-2.4 I0.125 J-0.2165
G2 X27.669 Y53.7891 Z-2.5333 I-0.25 J0.0
G2 Y54.2221 Z-2.6667 I0.125 J0.2165
G2 X28.044 Y54.0056 Z-2.8 I0.125 J-0.2165
G2 X27.669 Y53.7891 Z-2.9333 I-0.25 J0.0
G2 Y54.2221 Z-3.0667 I0.125 J0.2165
G2 X28.044 Y54.0056 Z-3.2 I0.125 J-0.2165
G2 X27.669 Y53.7891 Z-3.3333 I-0.25 J0.0
G2 Y54.2221 Z-3.4667 I0.125 J0.2165
G2 X28.044 Y54.0056 Z-3.6 I0.125 J-0.2165
G2 X27.669 Y53.7891 Z-3.7333 I-0.25 J0.0
G2 Y54.2221 Z-3.8667 I0.125 J0.2165
G2 X28.044 Y54.0056 Z-4.0 I0.125 J-0.2165
G2 X27.669 Y53.7891 Z-4.1333 I-0.25 J0.0
G2 X27.544 Y54.0056 Z-4.2 I0.125 J0.2165
G2 X27.919 Y54.2221 I0.25 J0.0
G2 Y53.7891 I-0.125 J-0.2165
G2 X27.544 Y54.0056 I-0.125 J0.2165
G0 Z3.0
G0 X31.7396 Y52.4749
G0 Z1.0
G1 F300.0 Z0.0
G2 F500.0 X31.3646 Y52.2584 Z-0.1333 I-0.25 J0.0
G2 Y52.6914 Z-0.2667 I0.125 J0.2165
G2 X31.7396 Y52.4749 Z-0.4 I0.125 J-0.2165
G2 X31.3646 Y52.2584 Z-0.5333 I-0.25 J0.0
G2 Y52.6914 Z-0.6667 I0.125 J0.2165
G2 X31.7396 Y52.4749 Z-0.8 I0.125 J-0.2165
G2 X31.3646 Y52.2584 Z-0.9333 I-0.25 J0.0
G2 Y52.6914 Z-1.0667 I0.125 J0.2165
G2 X31.7396 Y52.4749 Z-1.2 I0.125 J-0.2165
G2 X31.3646 Y52.2584 Z-1.3333 I-0.25 J0.0
G2 Y52.6914 Z-1.4667 I0.125 J0.2165
G2 X31.7396 Y52.4749 Z-1.6 I0.125 J-0.2165
G2 X31.3646 Y52.2584 Z-1.7333 I-0.25 J0.0
G2 Y52.6914 Z-1.8667 I0.125 J0.2165
G2 X31.7396 Y52.4749 Z-2.0 I0.125 J-0.2165
G2 X31.3646 Y52.2584 Z-2.1333 I-0.25 J0.0
G2 Y52.6914 Z-2.2667 I0.125 J0.2165
G2 X31.7396 Y52.4749 Z-2.4 I0.125 J-0.2165
G2 X31.3646 Y52.2584 Z-2.5333 I-0.25 J0.0
G2 Y52.6914 Z-2.6667 I0.125 J0.2165
G2 X31.7396 Y52.4749 Z-2.8 I0.125 J-0.2165
G2 X31.3646 Y52.2584 Z-2.9333 I-0.25 J0.0
G2 Y52.6914 Z-3.0667 I0.125 J0.2165
G2 X31.7396 Y52.4749 Z-3.2 I0.125 J-0.2165
G2 X31.3646 Y52.2584 Z-3.3333 I-0.25 J0.0
G2 Y52.6914 Z-3.4667 I0.125 J0.2165
G2 X31.7396 Y52.4749 Z-3.6 I0.125 J-0.2165
G2 X31.3646 Y52.2584 Z-3.7333 I-0.25 J0.0
G2 Y52.6914 Z-3.8667 I0.125 J0.2165
G2 X31.7396 Y52.4749 Z-4.0 I0.125 J-0.2165
G2 X31.3646 Y52.2584 Z-4.1333 I-0.25 J0.0
G2 X31.2396 Y52.4749 Z-4.2 I0.125 J0.2165
G2 X31.6146 Y52.6914 I0.25 J0.0
G2 Y52.2584 I-0.125 J-0.2165
G2 X31.2396 Y52.4749 I-0.125 J0.2165
G0 Z3.0
G0 X30.75 Y47.5
G0 Z1.0
G1 F300.0 Z0.0
G2 F500.0 X30.375 Y47.2835 Z-0.1333 I-0.25 J0.0
G2 Y47.7165 Z-0.2667 I0.125 J0.2165
G2 X30.75 Y47.5 Z-0.4 I0.125 J-0.2165
G2 X30.375 Y47.2835 Z-0.5333 I-0.25 J0.0
G2 Y47.7165 Z-0.6667 I0.125 J0.2165
G2 X30.75 Y47.5 Z-0.8 I0.125 J-0.2165
G2 X30.375 Y47.2835 Z-0.9333 I-0.25 J0.0
G2 Y47.7165 Z-1.0667 I0.125 J0.2165
G2 X30.75 Y47.5 Z-1.2 I0.125 J-0.2165
G2 X30.375 Y47.2835 Z-1.3333 I-0.25 J0.0
G2 Y47.7165 Z-1.4667 I0.125 J0.2165
G2 X30.75 Y47.5 Z-1.6 I0.125 J-0.2165
G2 X30.375 Y47.2835 Z-1.7333 I-0.25 J0.0
G2 Y47.7165 Z-1.8667 I0.125 J0.2165
G2 X30.75 Y47.5 Z-2.0 I0.125 J-0.2165
G2 X30.375 Y47.2835 Z-2.1333 I-0.25 J0.0
G2 Y47.7165 Z-2.2667 I0.125 J0.2165
G2 X30.75 Y47.5 Z-2.4 I0.125 J-0.2165
G2 X30.375 Y47.2835 Z-2.5333 I-0.25 J0.0
G2 Y47.7165 Z-2.6667 I0.125 J0.2165
G2 X30.75 Y47.5 Z-2.8 I0.125 J-0.2165
G2 X30.375 Y47.2835 Z-2.9333 I-0.25 J0.0
G2 Y47.7165 Z-3.0667 I0.125 J0.2165
G2 X30.75 Y47.5 Z-3.2 I0.125 J-0.2165
G2 X30.375 Y47.2835 Z-3.3333 I-0.25 J0.0
G2 Y47.7165 Z-3.4667 I0.125 J0.2165
G2 X30.75 Y47.5 Z-3.6 I0.125 J-0.2165
G2 X30.375 Y47.2835 Z-3.7333 I-0.25 J0.0
G2 Y47.7165 Z-3.8667 I0.125 J0.2165
G2 X30.75 Y47.5 Z-4.0 I0.125 J-0.2165
G2 X30.375 Y47.2835 Z-4.1333 I-0.25 J0.0
G2 X30.25 Y47.5 Z-4.2 I0.125 J0.2165
G2 X30.625 Y47.7165 I0.25 J0.0
G2 Y47.2835 I-0.125 J-0.2165
G2 X30.25 Y47.5 I-0.125 J0.2165
G0 Z3.0
G0 X26.75
G0 Z1.0
G1 F300.0 Z0.0
G2 F500.0 X26.375 Y47.2835 Z-0.1333 I-0.25 J0.0
G2 Y47.7165 Z-0.2667 I0.125 J0.2165
G2 X26.75 Y47.5 Z-0.4 I0.125 J-0.2165
G2 X26.375 Y47.2835 Z-0.5333 I-0.25 J0.0
G2 Y47.7165 Z-0.6667 I0.125 J0.2165
G2 X26.75 Y47.5 Z-0.8 I0.125 J-0.2165
G2 X26.375 Y47.2835 Z-0.9333 I-0.25 J0.0
G2 Y47.7165 Z-1.0667 I0.125 J0.2165
G2 X26.75 Y47.5 Z-1.2 I0.125 J-0.2165
G2 X26.375 Y47.2835 Z-1.3333 I-0.25 J0.0
G2 Y47.7165 Z-1.4667 I0.125 J0.2165
G2 X26.75 Y47.5 Z-1.6 I0.125 J-0.2165
G2 X26.375 Y47.2835 Z-1.7333 I-0.25 J0.0
G2 Y47.7165 Z-1.8667 I0.125 J0.2165
G2 X26.75 Y47.5 Z-2.0 I0.125 J-0.2165
G2 X26.375 Y47.2835 Z-2.1333 I-0.25 J0.0
G2 Y47.7165 Z-2.2667 I0.125 J0.2165
G2 X26.75 Y47.5 Z-2.4 I0.125 J-0.2165
G2 X26.375 Y47.2835 Z-2.5333 I-0.25 J0.0
G2 Y47.7165 Z-2.6667 I0.125 J0.2165
G2 X26.75 Y47.5 Z-2.8 I0.125 J-0.2165
G2 X26.375 Y47.2835 Z-2.9333 I-0.25 J0.0
G2 Y47.7165 Z-3.0667 I0.125 J0.2165
G2 X26.75 Y47.5 Z-3.2 I0.125 J-0.2165
G2 X26.375 Y47.2835 Z-3.3333 I-0.25 J0.0
G2 Y47.7165 Z-3.4667 I0.125 J0.2165
G2 X26.75 Y47.5 Z-3.6 I0.125 J-0.2165
G2 X26.375 Y47.2835 Z-3.7333 I-0.25 J0.0
G2 Y47.7165 Z-3.8667 I0.125 J0.2165
G2 X26.75 Y47.5 Z-4.0 I0.125 J-0.2165
G2 X26.375 Y47.2835 Z-4.1333 I-0.25 J0.0
G2 X26.25 Y47.5 Z-4.2 I0.125 J0.2165
G2 X26.625 Y47.7165 I0.25 J0.0
G2 Y47.2835 I-0.125 J-0.2165
G2 X26.25 Y47.5 I-0.125 J0.2165
G0 Z3.0
G0 X22.75
G0 Z1.0
G1 F300.0 Z0.0
G2 F500.0 X22.375 Y47.2835 Z-0.1333 I-0.25 J0.0
G2 Y47.7165 Z-0.2667 I0.125 J0.2165
G2 X22.75 Y47.5 Z-0.4 I0.125 J-0.2165
G2 X22.375 Y47.2835 Z-0.5333 I-0.25 J0.0
G2 Y47.7165 Z-0.6667 I0.125 J0.2165
G2 X22.75 Y47.5 Z-0.8 I0.125 J-0.2165
G2 X22.375 Y47.2835 Z-0.9333 I-0.25 J0.0
G2 Y47.7165 Z-1.0667 I0.125 J0.2165
G2 X22.75 Y47.5 Z-1.2 I0.125 J-0.2165
G2 X22.375 Y47.2835 Z-1.3333 I-0.25 J0.0
G2 Y47.7165 Z-1.4667 I0.125 J0.2165
G2 X22.75 Y47.5 Z-1.6 I0.125 J-0.2165
G2 X22.375 Y47.2835 Z-1.7333 I-0.25 J0.0
G2 Y47.7165 Z-1.8667 I0.125 J0.2165
G2 X22.75 Y47.5 Z-2.0 I0.125 J-0.2165
G2 X22.375 Y47.2835 Z-2.1333 I-0.25 J0.0
G2 Y47.7165 Z-2.2667 I0.125 J0.2165
G2 X22.75 Y47.5 Z-2.4 I0.125 J-0.2165
G2 X22.375 Y47.2835 Z-2.5333 I-0.25 J0.0
G2 Y47.7165 Z-2.6667 I0.125 J0.2165
G2 X22.75 Y47.5 Z-2.8 I0.125 J-0.2165
G2 X22.375 Y47.2835 Z-2.9333 I-0.25 J0.0
G2 Y47.7165 Z-3.0667 I0.125 J0.2165
G2 X22.75 Y47.5 Z-3.2 I0.125 J-0.2165
G2 X22.375 Y47.2835 Z-3.3333 I-0.25 J0.0
G2 Y47.7165 Z-3.4667 I0.125 J0.2165
G2 X22.75 Y47.5 Z-3.6 I0.125 J-0.2165
G2 X22.375 Y47.2835 Z-3.7333 I-0.25 J0.0
G2 Y47.7165 Z-3.8667 I0.125 J0.2165
G2 X22.75 Y47.5 Z-4.0 I0.125 J-0.2165
G2 X22.375 Y47.2835 Z-4.1333 I-0.25 J0.0
G2 X22.25 Y47.5 Z-4.2 I0.125 J0.2165
G2 X22.625 Y47.7165 I0.25 J0.0
G2 Y47.2835 I-0.125 J-0.2165
G2 X22.25 Y47.5 I-0.125 J0.2165
G0 Z3.0
G0 X18.75
G0 Z1.0
G1 F300.0 Z0.0
G2 F500.0 X18.375 Y47.2835 Z-0.1333 I-0.25 J0.0
G2 Y47.7165 Z-0.2667 I0.125 J0.2165
G2 X18.75 Y47.5 Z-0.4 I0.125 J-0.2165
G2 X18.375 Y47.2835 Z-0.5333 I-0.25 J0.0
G2 Y47.7165 Z-0.6667 I0.125 J0.2165
G2 X18.75 Y47.5 Z-0.8 I0.125 J-0.2165
G2 X18.375 Y47.2835 Z-0.9333 I-0.25 J0.0
G2 Y47.7165 Z-1.0667 I0.125 J0.2165
G2 X18.75 Y47.5 Z-1.2 I0.125 J-0.2165
G2 X18.375 Y47.2835 Z-1.3333 I-0.25 J0.0
G2 Y47.7165 Z-1.4667 I0.125 J0.2165
G2 X18.75 Y47.5 Z-1.6 I0.125 J-0.2165
G2 X18.375 Y47.2835 Z-1.7333 I-0.25 J0.0
G2 Y47.7165 Z-1.8667 I0.125 J0.2165
G2 X18.75 Y47.5 Z-2.0 I0.125 J-0.2165
G2 X18.375 Y47.2835 Z-2.1333 I-0.25 J0.0
G2 Y47.7165 Z-2.2667 I0.125 J0.2165
G2 X18.75 Y47.5 Z-2.4 I0.125 J-0.2165
G2 X18.375 Y47.2835 Z-2.5333 I-0.25 J0.0
G2 Y47.7165 Z-2.6667 I0.125 J0.2165
G2 X18.75 Y47.5 Z-2.8 I0.125 J-0.2165
G2 X18.375 Y47.2835 Z-2.9333 I-0.25 J0.0
G2 Y47.7165 Z-3.0667 I0.125 J0.2165
G2 X18.75 Y47.5 Z-3.2 I0.125 J-0.2165
G2 X18.375 Y47.2835 Z-3.3333 I-0.25 J0.0
G2 Y47.7165 Z-3.4667 I0.125 J0.2165
G2 X18.75 Y47.5 Z-3.6 I0.125 J-0.2165
G2 X18.375 Y47.2835 Z-3.7333 I-0.25 J0.0
G2 Y47.7165 Z-3.8667 I0.125 J0.2165
G2 X18.75 Y47.5 Z-4.0 I0.125 J-0.2165
G2 X18.375 Y47.2835 Z-4.1333 I-0.25 J0.0
G2 X18.25 Y47.5 Z-4.2 I0.125 J0.2165
G2 X18.625 Y47.7165 I0.25 J0.0
G2 Y47.2835 I-0.125 J-0.2165
G2 X18.25 Y47.5 I-0.125 J0.2165
G0 Z3.0
G0 X14.75
G0 Z1.0
G1 F300.0 Z0.0
G2 F500.0 X14.375 Y47.2835 Z-0.1333 I-0.25 J0.0
G2 Y47.7165 Z-0.2667 I0.125 J0.2165
G2 X14.75 Y47.5 Z-0.4 I0.125 J-0.2165
G2 X14.375 Y47.2835 Z-0.5333 I-0.25 J0.0
G2 Y47.7165 Z-0.6667 I0.125 J0.2165
G2 X14.75 Y47.5 Z-0.8 I0.125 J-0.2165
G2 X14.375 Y47.2835 Z-0.9333 I-0.25 J0.0
G2 Y47.7165 Z-1.0667 I0.125 J0.2165
G2 X14.75 Y47.5 Z-1.2 I0.125 J-0.2165
G2 X14.375 Y47.2835 Z-1.3333 I-0.25 J0.0
G2 Y47.7165 Z-1.4667 I0.125 J0.2165
G2 X14.75 Y47.5 Z-1.6 I0.125 J-0.2165
G2 X14.375 Y47.2835 Z-1.7333 I-0.25 J0.0
G2 Y47.7165 Z-1.8667 I0.125 J0.2165
G2 X14.75 Y47.5 Z-2.0 I0.125 J-0.2165
G2 X14.375 Y47.2835 Z-2.1333 I-0.25 J0.0
G2 Y47.7165 Z-2.2667 I0.125 J0.2165
G2 X14.75 Y47.5 Z-2.4 I0.125 J-0.2165
G2 X14.375 Y47.2835 Z-2.5333 I-0.25 J0.0
G2 Y47.7165 Z-2.6667 I0.125 J0.2165
G2 X14.75 Y47.5 Z-2.8 I0.125 J-0.2165
G2 X14.375 Y47.2835 Z-2.9333 I-0.25 J0.0
G2 Y47.7165 Z-3.0667 I0.125 J0.2165
G2 X14.75 Y47.5 Z-3.2 I0.125 J-0.2165
G2 X14.375 Y47.2835 Z-3.3333 I-0.25 J0.0
G2 Y47.7165 Z-3.4667 I0.125 J0.2165
G2 X14.75 Y47.5 Z-3.6 I0.125 J-0.2165
G2 X14.375 Y47.2835 Z-3.7333 I-0.25 J0.0
G2 Y47.7165 Z-3.8667 I0.125 J0.2165
G2 X14.75 Y47.5 Z-4.0 I0.125 J-0.2165
G2 X14.375 Y47.2835 Z-4.1333 I-0.25 J0.0
G2 X14.25 Y47.5 Z-4.2 I0.125 J0.2165
G2 X14.625 Y47.7165 I0.25 J0.0
G2 Y47.2835 I-0.125 J-0.2165
G2 X14.25 Y47.5 I-0.125 J0.2165
G0 Z3.0
G0 X20.653 Y37.9329
G0 Z1.0
G1 F300.0 Z0.0
G2 F500.0 X20.278 Y37.7164 Z-0.1333 I-0.25 J0.0
G2 Y38.1494 Z-0.2667 I0.125 J0.2165
G2 X20.653 Y37.9329 Z-0.4 I0.125 J-0.2165
G2 X20.278 Y37.7164 Z-0.5333 I-0.25 J0.0
G2 Y38.1494 Z-0.6667 I0.125 J0.2165
G2 X20.653 Y37.9329 Z-0.8 I0.125 J-0.2165
G2 X20.278 Y37.7164 Z-0.9333 I-0.25 J0.0
G2 Y38.1494 Z-1.0667 I0.125 J0.2165
G2 X20.653 Y37.9329 Z-1.2 I0.125 J-0.2165
G2 X20.278 Y37.7164 Z-1.3333 I-0.25 J0.0
G2 Y38.1494 Z-1.4667 I0.125 J0.2165
G2 X20.653 Y37.9329 Z-1.6 I0.125 J-0.2165
G2 X20.278 Y37.7164 Z-1.7333 I-0.25 J0.0
G2 Y38.1494 Z-1.8667 I0.125 J0.2165
G2 X20.653 Y37.9329 Z-2.0 I0.125 J-0.2165
G2 X20.278 Y37.7164 Z-2.1333 I-0.25 J0.0
G2 Y38.1494 Z-2.2667 I0.125 J0.2165
G2 X20.653 Y37.9329 Z-2.4 I0.125 J-0.2165
G2 X20.278 Y37.7164 Z-2.5333 I-0.25 J0.0
G2 Y38.1494 Z-2.6667 I0.125 J0.2165
G2 X20.653 Y37.9329 Z-2.8 I0.125 J-0.2165
G2 X20.278 Y37.7164 Z-2.9333 I-0.25 J0.0
G2 Y38.1494 Z-3.0667 I0.125 J0.2165
G2 X20.653 Y37.9329 Z-3.2 I0.125 J-0.2165
G2 X20.278 Y37.7164 Z-3.3333 I-0.25 J0.0
G2 Y38.1494 Z-3.4667 I0.125 J0.2165
G2 X20.653 Y37.9329 Z-3.6 I0.125 J-0.2165
G2 X20.278 Y37.7164 Z-3.7333 I-0.25 J0.0
G2 Y38.1494 Z-3.8667 I0.125 J0.2165
G2 X20.653 Y37.9329 Z-4.0 I0.125 J-0.2165
G2 X20.278 Y37.7164 Z-4.1333 I-0.25 J0.0
G2 X20.153 Y37.9329 Z-4.2 I0.125 J0.2165
G2 X20.528 Y38.1494 I0.25 J0.0
G2 Y37.7164 I-0.125 J-0.2165
G2 X20.153 Y37.9329 I-0.125 J0.2165
G0 Z3.0
G0 X16.9575 Y36.4022
G0 Z1.0
G1 F300.0 Z0.0
G2 F500.0 X16.5825 Y36.1857 Z-0.1333 I-0.25 J0.0
G2 Y36.6187 Z-0.2667 I0.125 J0.2165
G2 X16.9575 Y36.4022 Z-0.4 I0.125 J-0.2165
G2 X16.5825 Y36.1857 Z-0.5333 I-0.25 J0.0
G2 Y36.6187 Z-0.6667 I0.125 J0.2165
G2 X16.9575 Y36.4022 Z-0.8 I0.125 J-0.2165
G2 X16.5825 Y36.1857 Z-0.9333 I-0.25 J0.0
G2 Y36.6187 Z-1.0667 I0.125 J0.2165
G2 X16.9575 Y36.4022 Z-1.2 I0.125 J-0.2165
G2 X16.5825 Y36.1857 Z-1.3333 I-0.25 J0.0
G2 Y36.6187 Z-1.4667 I0.125 J0.2165
G2 X16.9575 Y36.4022 Z-1.6 I0.125 J-0.2165
G2 X16.5825 Y36.1857 Z-1.7333 I-0.25 J0.0
G2 Y36.6187 Z-1.8667 I0.125 J0.2165
G2 X16.9575 Y36.4022 Z-2.0 I0.125 J-0.2165
G2 X16.5825 Y36.1857 Z-2.1333 I-0.25 J0.0
G2 Y36.6187 Z-2.2667 I0.125 J0.2165
G2 X16.9575 Y36.4022 Z-2.4 I0.125 J-0.2165
G2 X16.5825 Y36.1857 Z-2.5333 I-0.25 J0.0
G2 Y36.6187 Z-2.6667 I0.125 J0.2165
G2 X16.9575 Y36.4022 Z-2.8 I0.125 J-0.2165
G2 X16.5825 Y36.1857 Z-2.9333 I-0.25 J0.0
G2 Y36.6187 Z-3.0667 I0.125 J0.2165
G2 X16.9575 Y36.4022 Z-3.2 I0.125 J-0.2165
G2 X16.5825 Y36.1857 Z-3.3333 I-0.25 J0.0
G2 Y36.6187 Z-3.4667 I0.125 J0.2165
G2 X16.9575 Y36.4022 Z-3.6 I0.125 J-0.2165
G2 X16.5825 Y36.1857 Z-3.7333 I-0.25 J0.0
G2 Y36.6187 Z-3.8667 I0.125 J0.2165
G2 X16.9575 Y36.4022 Z-4.0 I0.125 J-0.2165
G2 X16.5825 Y36.1857 Z-4.1333 I-0.25 J0.0
G2 X16.4575 Y36.4022 Z-4.2 I0.125 J0.2165
G2 X16.8325 Y36.6187 I0.25 J0.0
G2 Y36.1857 I-0.125 J-0.2165
G2 X16.4575 Y36.4022 I-0.125 J0.2165
G0 Z3.0
G0 X24.3485 Y39.4636
G0 Z1.0
G1 F300.0 Z0.0
G2 F500.0 X23.9735 Y39.2471 Z-0.1333 I-0.25 J0.0
G2 Y39.6802 Z-0.2667 I0.125 J0.2165
G2 X24.3485 Y39.4636 Z-0.4 I0.125 J-0.2165
G2 X23.9735 Y39.2471 Z-0.5333 I-0.25 J0.0
G2 Y39.6802 Z-0.6667 I0.125 J0.2165
G2 X24.3485 Y39.4636 Z-0.8 I0.125 J-0.2165
G2 X23.9735 Y39.2471 Z-0.9333 I-0.25 J0.0
G2 Y39.6802 Z-1.0667 I0.125 J0.2165
G2 X24.3485 Y39.4636 Z-1.2 I0.125 J-0.2165
G2 X23.9735 Y39.2471 Z-1.3333 I-0.25 J0.0
G2 Y39.6802 Z-1.4667 I0.125 J0.2165
G2 X24.3485 Y39.4636 Z-1.6 I0.125 J-0.2165
G2 X23.9735 Y39.2471 Z-1.7333 I-0.25 J0.0
G2 Y39.6802 Z-1.8667 I0.125 J0.2165
G2 X24.3485 Y39.4636 Z-2.0 I0.125 J-0.2165
G2 X23.9735 Y39.2471 Z-2.1333 I-0.25 J0.0
G2 Y39.6802 Z-2.2667 I0.125 J0.2165
G2 X24.3485 Y39.4636 Z-2.4 I0.125 J-0.2165
G2 X23.9735 Y39.2471 Z-2.5333 I-0.25 J0.0
G2 Y39.6802 Z-2.6667 I0.125 J0.2165
G2 X24.3485 Y39.4636 Z-2.8 I0.125 J-0.2165
G2 X23.9735 Y39.2471 Z-2.9333 I-0.25 J0.0
G2 Y39.6802 Z-3.0667 I0.125 J0.2165
G2 X24.3485 Y39.4636 Z-3.2 I0.125 J-0.2165
G2 X23.9735 Y39.2471 Z-3.3333 I-0.25 J0.0
G2 Y39.6802 Z-3.4667 I0.125 J0.2165
G2 X24.3485 Y39.4636 Z-3.6 I0.125 J-0.2165
G2 X23.9735 Y39.2471 Z-3.7333 I-0.25 J0.0
G2 Y39.6802 Z-3.8667 I0.125 J0.2165
G2 X24.3485 Y39.4636 Z-4.0 I0.125 J-0.2165
G2 X23.9735 Y39.2471 Z-4.1333 I-0.25 J0.0
G2 X23.8485 Y39.4636 Z-4.2 I0.125 J0.2165
G2 X24.2235 Y39.6802 I0.25 J0.0
G2 Y39.2471 I-0.125 J-0.2165
G2 X23.8485 Y39.4636 I-0.125 J0.2165
G0 Z3.0
G0 X28.044 Y40.9944
G0 Z1.0
G1 F300.0 Z0.0
G2 F500.0 X27.669 Y40.7779 Z-0.1333 I-0.25 J0.0
G2 Y41.2109 Z-0.2667 I0.125 J0.2165
G2 X28.044 Y40.9944 Z-0.4 I0.125 J-0.2165
G2 X27.669 Y40.7779 Z-0.5333 I-0.25 J0.0
G2 Y41.2109 Z-0.6667 I0.125 J0.2165
G2 X28.044 Y40.9944 Z-0.8 I0.125 J-0.2165
G2 X27.669 Y40.7779 Z-0.9333 I-0.25 J0.0
G2 Y41.2109 Z-1.0667 I0.125 J0.2165
G2 X28.044 Y40.9944 Z-1.2 I0.125 J-0.2165
G2 X27.669 Y40.7779 Z-1.3333 I-0.25 J0.0
G2 Y41.2109 Z-1.4667 I0.125 J0.2165
G2 X28.044 Y40.9944 Z-1.6 I0.125 J-0.2165
G2 X27.669 Y40.7779 Z-1.7333 I-0.25 J0.0
G2 Y41.2109 Z-1.8667 I0.125 J0.2165
G2 X28.044 Y40.9944 Z-2.0 I0.125 J-0.2165
G2 X27.669 Y40.7779 Z-2.1333 I-0.25 J0.0
G2 Y41.2109 Z-2.2667 I0.125 J0.2165
G2 X28.044 Y40.9944 Z-2.4 I0.125 J-0.2165
G2 X27.669 Y40.7779 Z-2.5333 I-0.25 J0.0
G2 Y41.2109 Z-2.6667 I0.125 J0.2165
G2 X28.044 Y40.9944 Z-2.8 I0.125 J-0.2165
G2 X27.669 Y40.7779 Z-2.9333 I-0.25 J0.0
G2 Y41.2109 Z-3.0667 I0.125 J0.2165
G2 X28.044 Y40.9944 Z-3.2 I0.125 J-0.2165
G2 X27.669 Y40.7779 Z-3.3333 I-0.25 J0.0
G2 Y41.2109 Z-3.4667 I0.125 J0.2165
G2 X28.044 Y40.9944 Z-3.6 I0.125 J-0.2165
G2 X27.669 Y40.7779 Z-3.7333 I-0.25 J0.0
G2 Y41.2109 Z-3.8667 I0.125 J0.2165
G2 X28.044 Y40.9944 Z-4.0 I0.125 J-0.2165
G2 X27.669 Y40.7779 Z-4.1333 I-0.25 J0.0
G2 X27.544 Y40.9944 Z-4.2 I0.125 J0.2165
G2 X27.919 Y41.2109 I0.25 J0.0
G2 Y40.7779 I-0.125 J-0.2165
G2 X27.544 Y40.9944 I-0.125 J0.2165
G0 Z3.0
G0 X31.7396 Y42.5251
G0 Z1.0
G1 F300.0 Z0.0
G2 F500.0 X31.3646 Y42.3086 Z-0.1333 I-0.25 J0.0
G2 Y42.7416 Z-0.2667 I0.125 J0.2165
G2 X31.7396 Y42.5251 Z-0.4 I0.125 J-0.2165
G2 X31.3646 Y42.3086 Z-0.5333 I-0.25 J0.0
G2 Y42.7416 Z-0.6667 I0.125 J0.2165
G2 X31.7396 Y42.5251 Z-0.8 I0.125 J-0.2165
G2 X31.3646 Y42.3086 Z-0.9333 I-0.25 J0.0
G2 Y42.7416 Z-1.0667 I0.125 J0.2165
G2 X31.7396 Y42.5251 Z-1.2 I0.125 J-0.2165
G2 X31.3646 Y42.3086 Z-1.3333 I-0.25 J0.0
G2 Y42.7416 Z-1.4667 I0.125 J0.2165
G2 X31.7396 Y42.5251 Z-1.6 I0.125 J-0.2165
G2 X31.3646 Y42.3086 Z-1.7333 I-0.25 J0.0
G2 Y42.7416 Z-1.8667 I0.125 J0.2165
G2 X31.7396 Y42.5251 Z-2.0 I0.125 J-0.2165
G2 X31.3646 Y42.3086 Z-2.1333 I-0.25 J0.0
G2 Y42.7416 Z-2.2667 I0.125 J0.2165
G2 X31.7396 Y42.5251 Z-2.4 I0.125 J-0.2165
G2 X31.3646 Y42.3086 Z-2.5333 I-0.25 J0.0
G2 Y42.7416 Z-2.6667 I0.125 J0.2165
G2 X31.7396 Y42.5251 Z-2.8 I0.125 J-0.2165
G2 X31.3646 Y42.3086 Z-2.9333 I-0.25 J0.0
G2 Y42.7416 Z-3.0667 I0.125 J0.2165
G2 X31.7396 Y42.5251 Z-3.2 I0.125 J-0.2165
G2 X31.3646 Y42.3086 Z-3.3333 I-0.25 J0.0
G2 Y42.7416 Z-3.4667 I0.125 J0.2165
G2 X31.7396 Y42.5251 Z-3.6 I0.125 J-0.2165
G2 X31.3646 Y42.3086 Z-3.7333 I-0.25 J0.0
G2 Y42.7416 Z-3.8667 I0.125 J0.2165
G2 X31.7396 Y42.5251 Z-4.0 I0.125 J-0.2165
G2 X31.3646 Y42.3086 Z-4.1333 I-0.25 J0.0
G2 X31.2396 Y42.5251 Z-4.2 I0.125 J0.2165
G2 X31.6146 Y42.7416 I0.25 J0.0
G2 Y42.3086 I-0.125 J-0.2165
G2 X31.2396 Y42.5251 I-0.125 J0.2165
G0 Z3.0
G0 X34.5576 Y38.3076
G0 Z1.0
G1 F300.0 Z0.0
G2 F500.0 X34.1826 Y38.0911 Z-0.1333 I-0.25 J0.0
G2 Y38.5241 Z-0.2667 I0.125 J0.2165
G2 X34.5576 Y38.3076 Z-0.4 I0.125 J-0.2165
G2 X34.1826 Y38.0911 Z-0.5333 I-0.25 J0.0
G2 Y38.5241 Z-0.6667 I0.125 J0.2165
G2 X34.5576 Y38.3076 Z-0.8 I0.125 J-0.2165
G2 X34.1826 Y38.0911 Z-0.9333 I-0.25 J0.0
G2 Y38.5241 Z-1.0667 I0.125 J0.2165
G2 X34.5576 Y38.3076 Z-1.2 I0.125 J-0.2165
G2 X34.1826 Y38.0911 Z-1.3333 I-0.25 J0.0
G2 Y38.5241 Z-1.4667 I0.125 J0.2165
G2 X34.5576 Y38.3076 Z-1.6 I0.125 J-0.2165
G2 X34.1826 Y38.0911 Z-1.7333 I-0.25 J0.0
G2 Y38.5241 Z-1.8667 I0.125 J0.2165
G2 X34.5576 Y38.3076 Z-2.0 I0.125 J-0.2165
G2 X34.1826 Y38.0911 Z-2.1333 I-0.25 J0.0
G2 Y38.5241 Z-2.2667 I0.125 J0.2165
G2 X34.5576 Y38.3076 Z-2.4 I0.125 J-0.2165
G2 X34.1826 Y38.0911 Z-2.5333 I-0.25 J0.0
G2 Y38.5241 Z-2.6667 I0.125 J0.2165
G2 X34.5576 Y38.3076 Z-2.8 I0.125 J-0.2165
G2 X34.1826 Y38.0911 Z-2.9333 I-0.25 J0.0
G2 Y38.5241 Z-3.0667 I0.125 J0.2165
G2 X34.5576 Y38.3076 Z-3.2 I0.125 J-0.2165
G2 X34.1826 Y38.0911 Z-3.3333 I-0.25 J0.0
G2 Y38.5241 Z-3.4667 I0.125 J0.2165
G2 X34.5576 Y38.3076 Z-3.6 I0.125 J-0.2165
G2 X34.1826 Y38.0911 Z-3.7333 I-0.25 J0.0
G2 Y38.5241 Z-3.8667 I0.125 J0.2165
G2 X34.5576 Y38.3076 Z-4.0 I0.125 J-0.2165
G2 X34.1826 Y38.0911 Z-4.1333 I-0.25 J0.0
G2 X34.0576 Y38.3076 Z-4.2 I0.125 J0.2165
G2 X34.4326 Y38.5241 I0.25 J0.0
G2 Y38.0911 I-0.125 J-0.2165
G2 X34.0576 Y38.3076 I-0.125 J0.2165
G0 Z3.0
G0 X31.7292 Y35.4792
G0 Z1.0
G1 F300.0 Z0.0
G2 F500.0 X31.3542 Y35.2627 Z-0.1333 I-0.25 J0.0
G2 Y35.6957 Z-0.2667 I0.125 J0.2165
G2 X31.7292 Y35.4792 Z-0.4 I0.125 J-0.2165
G2 X31.3542 Y35.2627 Z-0.5333 I-0.25 J0.0
G2 Y35.6957 Z-0.6667 I0.125 J0.2165
G2 X31.7292 Y35.4792 Z-0.8 I0.125 J-0.2165
G2 X31.3542 Y35.2627 Z-0.9333 I-0.25 J0.0
G2 Y35.6957 Z-1.0667 I0.125 J0.2165
G2 X31.7292 Y35.4792 Z-1.2 I0.125 J-0.2165
G2 X31.3542 Y35.2627 Z-1.3333 I-0.25 J0.0
G2 Y35.6957 Z-1.4667 I0.125 J0.2165
G2 X31.7292 Y35.4792 Z-1.6 I0.125 J-0.2165
G2 X31.3542 Y35.2627 Z-1.7333 I-0.25 J0.0
G2 Y35.6957 Z-1.8667 I0.125 J0.2165
G2 X31.7292 Y35.4792 Z-2.0 I0.125 J-0.2165
G2 X31.3542 Y35.2627 Z-2.1333 I-0.25 J0.0
G2 Y35.6957 Z-2.2667 I0.125 J0.2165
G2 X31.7292 Y35.4792 Z-2.4 I0.125 J-0.2165
G2 X31.3542 Y35.2627 Z-2.5333 I-0.25 J0.0
G2 Y35.6957 Z-2.6667 I0.125 J0.2165
G2 X31.7292 Y35.4792 Z-2.8 I0.125 J-0.2165
G2 X31.3542 Y35.2627 Z-2.9333 I-0.25 J0.0
G2 Y35.6957 Z-3.0667 I0.125 J0.2165
G2 X31.7292 Y35.4792 Z-3.2 I0.125 J-0.2165
G2 X31.3542 Y35.2627 Z-3.3333 I-0.25 J0.0
G2 Y35.6957 Z-3.4667 I0.125 J0.2165
G2 X31.7292 Y35.4792 Z-3.6 I0.125 J-0.2165
G2 X31.3542 Y35.2627 Z-3.7333 I-0.25 J0.0
G2 Y35.6957 Z-3.8667 I0.125 J0.2165
G2 X31.7292 Y35.4792 Z-4.0 I0.125 J-0.2165
G2 X31.3542 Y35.2627 Z-4.1333 I-0.25 J0.0
G2 X31.2292 Y35.4792 Z-4.2 I0.125 J0.2165
G2 X31.6042 Y35.6957 I0.25 J0.0
G2 Y35.2627 I-0.125 J-0.2165
G2 X31.2292 Y35.4792 I-0.125 J0.2165
G0 Z3.0
G0 X28.9008 Y32.6508
G0 Z1.0
G1 F300.0 Z0.0
G2 F500.0 X28.5258 Y32.4343 Z-0.1333 I-0.25 J0.0
G2 Y32.8673 Z-0.2667 I0.125 J0.2165
G2 X28.9008 Y32.6508 Z-0.4 I0.125 J-0.2165
G2 X28.5258 Y32.4343 Z-0.5333 I-0.25 J0.0
G2 Y32.8673 Z-0.6667 I0.125 J0.2165
G2 X28.9008 Y32.6508 Z-0.8 I0.125 J-0.2165
G2 X28.5258 Y32.4343 Z-0.9333 I-0.25 J0.0
G2 Y32.8673 Z-1.0667 I0.125 J0.2165
G2 X28.9008 Y32.6508 Z-1.2 I0.125 J-0.2165
G2 X28.5258 Y32.4343 Z-1.3333 I-0.25 J0.0
G2 Y32.8673 Z-1.4667 I0.125 J0.2165
G2 X28.9008 Y32.6508 Z-1.6 I0.125 J-0.2165
G2 X28.5258 Y32.4343 Z-1.7333 I-0.25 J0.0
G2 Y32.8673 Z-1.8667 I0.125 J0.2165
G2 X28.9008 Y32.6508 Z-2.0 I0.125 J-0.2165
G2 X28.5258 Y32.4343 Z-2.1333 I-0.25 J0.0
G2 Y32.8673 Z-2.2667 I0.125 J0.2165
G2 X28.9008 Y32.6508 Z-2.4 I0.125 J-0.2165
G2 X28.5258 Y32.4343 Z-2.5333 I-0.25 J0.0
G2 Y32.8673 Z-2.6667 I0.125 J0.2165
G2 X28.9008 Y32.6508 Z-2.8 I0.125 J-0.2165
G2 X28.5258 Y32.4343 Z-2.9333 I-0.25 J0.0
G2 Y32.8673 Z-3.0667 I0.125 J0.2165
G2 X28.9008 Y32.6508 Z-3.2 I0.125 J-0.2165
G2 X28.5258 Y32.4343 Z-3.3333 I-0.25 J0.0
G2 Y32.8673 Z-3.4667 I0.125 J0.2165
G2 X28.9008 Y32.6508 Z-3.6 I0.125 J-0.2165
G2 X28.5258 Y32.4343 Z-3.7333 I-0.25 J0.0
G2 Y32.8673 Z-3.8667 I0.125 J0.2165
G2 X28.9008 Y32.6508 Z-4.0 I0.125 J-0.2165
G2 X28.5258 Y32.4343 Z-4.1333 I-0.25 J0.0
G2 X28.4008 Y32.6508 Z-4.2 I0.125 J0.2165
G2 X28.7758 Y32.8673 I0.25 J0.0
G2 Y32.4343 I-0.125 J-0.2165
G2 X28.4008 Y32.6508 I-0.125 J0.2165
G0 Z3.0
G0 X26.0723 Y29.8223
G0 Z1.0
G1 F300.0 Z0.0
G2 F500.0 X25.6973 Y29.6058 Z-0.1333 I-0.25 J0.0
G2 Y30.0388 Z-0.2667 I0.125 J0.2165
G2 X26.0723 Y29.8223 Z-0.4 I0.125 J-0.2165
G2 X25.6973 Y29.6058 Z-0.5333 I-0.25 J0.0
G2 Y30.0388 Z-0.6667 I0.125 J0.2165
G2 X26.0723 Y29.8223 Z-0.8 I0.125 J-0.2165
G2 X25.6973 Y29.6058 Z-0.9333 I-0.25 J0.0
G2 Y30.0388 Z-1.0667 I0.125 J0.2165
G2 X26.0723 Y29.8223 Z-1.2 I0.125 J-0.2165
G2 X25.6973 Y29.6058 Z-1.3333 I-0.25 J0.0
G2 Y30.0388 Z-1.4667 I0.125 J0.2165
G2 X26.0723 Y29.8223 Z-1.6 I0.125 J-0.2165
G2 X25.6973 Y29.6058 Z-1.7333 I-0.25 J0.0
G2 Y30.0388 Z-1.8667 I0.125 J0.2165
G2 X26.0723 Y29.8223 Z-2.0 I0.125 J-0.2165
G2 X25.6973 Y29.6058 Z-2.1333 I-0.25 J0.0
G2 Y30.0388 Z-2.2667 I0.125 J0.2165
G2 X26.0723 Y29.8223 Z-2.4 I0.125 J-0.2165
G2 X25.6973 Y29.6058 Z-2.5333 I-0.25 J0.0
G2 Y30.0388 Z-2.6667 I0.125 J0.2165
G2 X26.0723 Y29.8223 Z-2.8 I0.125 J-0.2165
G2 X25.6973 Y29.6058 Z-2.9333 I-0.25 J0.0
G2 Y30.0388 Z-3.0667 I0.125 J0.2165
G2 X26.0723 Y29.8223 Z-3.2 I0.125 J-0.2165
G2 X25.6973 Y29.6058 Z-3.3333 I-0.25 J0.0
G2 Y30.0388 Z-3.4667 I0.125 J0.2165
G2 X26.0723 Y29.8223 Z-3.6 I0.125 J-0.2165
G2 X25.6973 Y29.6058 Z-3.7333 I-0.25 J0.0
G2 Y30.0388 Z-3.8667 I0.125 J0.2165
G2 X26.0723 Y29.8223 Z-4.0 I0.125 J-0.2165
G2 X25.6973 Y29.6058 Z-4.1333 I-0.25 J0.0
G2 X25.5723 Y29.8223 Z-4.2 I0.125 J0.2165
G2 X25.9473 Y30.0388 I0.25 J0.0
G2 Y29.6058 I-0.125 J-0.2165
G2 X25.5723 Y29.8223 I-0.125 J0.2165
G0 Z3.0
G0 X23.2439 Y26.9939
G0 Z1.0
G1 F300.0 Z0.0
G2 F500.0 X22.8689 Y26.7774 Z-0.1333 I-0.25 J0.0
G2 Y27.2104 Z-0.2667 I0.125 J0.2165
G2 X23.2439 Y26.9939 Z-0.4 I0.125 J-0.2165
G2 X22.8689 Y26.7774 Z-0.5333 I-0.25 J0.0
G2 Y27.2104 Z-0.6667 I0.125 J0.2165
G2 X23.2439 Y26.9939 Z-0.8 I0.125 J-0.2165
G2 X22.8689 Y26.7774 Z-0.9333 I-0.25 J0.0
G2 Y27.2104 Z-1.0667 I0.125 J0.2165
G2 X23.2439 Y26.9939 Z-1.2 I0.125 J-0.2165
G2 X22.8689 Y26.7774 Z-1.3333 I-0.25 J0.0
G2 Y27.2104 Z-1.4667 I0.125 J0.2165
G2 X23.2439 Y26.9939 Z-1.6 I0.125 J-0.2165
G2 X22.8689 Y26.7774 Z-1.7333 I-0.25 J0.0
G2 Y27.2104 Z-1.8667 I0.125 J0.2165
G2 X23.2439 Y26.9939 Z-2.0 I0.125 J-0.2165
G2 X22.8689 Y26.7774 Z-2.1333 I-0.25 J0.0
G2 Y27.2104 Z-2.2667 I0.125 J0.2165
G2 X23.2439 Y26.9939 Z-2.4 I0.125 J-0.2165
G2 X22.8689 Y26.7774 Z-2.5333 I-0.25 J0.0
G2 Y27.2104 Z-2.6667 I0.125 J0.2165
G2 X23.2439 Y26.9939 Z-2.8 I0.125 J-0.2165
G2 X22.8689 Y26.7774 Z-2.9333 I-0.25 J0.0
G2 Y27.2104 Z-3.0667 I0.125 J0.2165
G2 X23.2439 Y26.9939 Z-3.2 I0.125 J-0.2165
G2 X22.8689 Y26.7774 Z-3.3333 I-0.25 J0.0
G2 Y27.2104 Z-3.4667 I0.125 J0.2165
G2 X23.2439 Y26.9939 Z-3.6 I0.125 J-0.2165
G2 X22.8689 Y26.7774 Z-3.7333 I-0.25 J0.0
G2 Y27.2104 Z-3.8667 I0.125 J0.2165
G2 X23.2439 Y26.9939 Z-4.0 I0.125 J-0.2165
G2 X22.8689 Y26.7774 Z-4.1333 I-0.25 J0.0
G2 X22.7439 Y26.9939 Z-4.2 I0.125 J0.2165
G2 X23.1189 Y27.2104 I0.25 J0.0
G2 Y26.7774 I-0.125 J-0.2165
G2 X22.7439 Y26.9939 I-0.125 J0.2165
G0 Z3.0
G0 X34.1829 Y24.403
G0 Z1.0
G1 F300.0 Z0.0
G2 F500.0 X33.8079 Y24.1865 Z-0.1333 I-0.25 J0.0
G2 Y24.6195 Z-0.2667 I0.125 J0.2165
G2 X34.1829 Y24.403 Z-0.4 I0.125 J-0.2165
G2 X33.8079 Y24.1865 Z-0.5333 I-0.25 J0.0
G2 Y24.6195 Z-0.6667 I0.125 J0.2165
G2 X34.1829 Y24.403 Z-0.8 I0.125 J-0.2165
G2 X33.8079 Y24.1865 Z-0.9333 I-0.25 J0.0
G2 Y24.6195 Z-1.0667 I0.125 J0.2165
G2 X34.1829 Y24.403 Z-1.2 I0.125 J-0.2165
G2 X33.8079 Y24.1865 Z-1.3333 I-0.25 J0.0
G2 Y24.6195 Z-1.4667 I0.125 J0.2165
G2 X34.1829 Y24.403 Z-1.6 I0.125 J-0.2165
G2 X33.8079 Y24.1865 Z-1.7333 I-0.25 J0.0
G2 Y24.6195 Z-1.8667 I0.125 J0.2165
G2 X34.1829 Y24.403 Z-2.0 I0.125 J-0.2165
G2 X33.8079 Y24.1865 Z-2.1333 I-0.25 J0.0
G2 Y24.6195 Z-2.2667 I0.125 J0.2165
G2 X34.1829 Y24.403 Z-2.4 I0.125 J-0.2165
G2 X33.8079 Y24.1865 Z-2.5333 I-0.25 J0.0
G2 Y24.6195 Z-2.6667 I0.125 J0.2165
G2 X34.1829 Y24.403 Z-2.8 I0.125 J-0.2165
G2 X33.8079 Y24.1865 Z-2.9333 I-0.25 J0.0
G2 Y24.6195 Z-3.0667 I0.125 J0.2165
G2 X34.1829 Y24.403 Z-3.2 I0.125 J-0.2165
G2 X33.8079 Y24.1865 Z-3.3333 I-0.25 J0.0
G2 Y24.6195 Z-3.4667 I0.125 J0.2165
G2 X34.1829 Y24.403 Z-3.6 I0.125 J-0.2165
G2 X33.8079 Y24.1865 Z-3.7333 I-0.25 J0.0
G2 Y24.6195 Z-3.8667 I0.125 J0.2165
G2 X34.1829 Y24.403 Z-4.0 I0.125 J-0.2165
G2 X33.8079 Y24.1865 Z-4.1333 I-0.25 J0.0
G2 X33.6829 Y24.403 Z-4.2 I0.125 J0.2165
G2 X34.0579 Y24.6195 I0.25 J0.0
G2 Y24.1865 I-0.125 J-0.2165
G2 X33.6829 Y24.403 I-0.125 J0.2165
G0 Z3.0
G0 X35.7136 Y28.0985
G0 Z1.0
G1 F300.0 Z0.0
G2 F500.0 X35.3386 Y27.882 Z-0.1333 I-0.25 J0.0
G2 Y28.315 Z-0.2667 I0.125 J0.2165
G2 X35.7136 Y28.0985 Z-0.4 I0.125 J-0.2165
G2 X35.3386 Y27.882 Z-0.5333 I-0.25 J0.0
G2 Y28.315 Z-0.6667 I0.125 J0.2165
G2 X35.7136 Y28.0985 Z-0.8 I0.125 J-0.2165
G2 X35.3386 Y27.882 Z-0.9333 I-0.25 J0.0
G2 Y28.315 Z-1.0667 I0.125 J0.2165
G2 X35.7136 Y28.0985 Z-1.2 I0.125 J-0.2165
G2 X35.3386 Y27.882 Z-1.3333 I-0.25 J0.0
G2 Y28.315 Z-1.4667 I0.125 J0.2165
G2 X35.7136 Y28.0985 Z-1.6 I0.125 J-0.2165
G2 X35.3386 Y27.882 Z-1.7333 I-0.25 J0.0
G2 Y28.315 Z-1.8667 I0.125 J0.2165
G2 X35.7136 Y28.0985 Z-2.0 I0.125 J-0.2165
G2 X35.3386 Y27.882 Z-2.1333 I-0.25 J0.0
G2 Y28.315 Z-2.2667 I0.125 J0.2165
G2 X35.7136 Y28.0985 Z-2.4 I0.125 J-0.2165
G2 X35.3386 Y27.882 Z-2.5333 I-0.25 J0.0
G2 Y28.315 Z-2.6667 I0.125 J0.2165
G2 X35.7136 Y28.0985 Z-2.8 I0.125 J-0.2165
G2 X35.3386 Y27.882 Z-2.9333 I-0.25 J0.0
G2 Y28.315 Z-3.0667 I0.125 J0.2165
G2 X35.7136 Y28.0985 Z-3.2 I0.125 J-0.2165
G2 X35.3386 Y27.882 Z-3.3333 I-0.25 J0.0
G2 Y28.315 Z-3.4667 I0.125 J0.2165
G2 X35.7136 Y28.0985 Z-3.6 I0.125 J-0.2165
G2 X35.3386 Y27.882 Z-3.7333 I-0.25 J0.0
G2 Y28.315 Z-3.8667 I0.125 J0.2165
G2 X35.7136 Y28.0985 Z-4.0 I0.125 J-0.2165
G2 X35.3386 Y27.882 Z-4.1333 I-0.25 J0.0
G2 X35.2136 Y28.0985 Z-4.2 I0.125 J0.2165
G2 X35.5886 Y28.315 I0.25 J0.0
G2 Y27.882 I-0.125 J-0.2165
G2 X35.2136 Y28.0985 I-0.125 J0.2165
G0 Z3.0
G0 X37.2444 Y31.794
G0 Z1.0
G1 F300.0 Z0.0
G2 F500.0 X36.8694 Y31.5775 Z-0.1333 I-0.25 J0.0
G2 Y32.0106 Z-0.2667 I0.125 J0.2165
G2 X37.2444 Y31.794 Z-0.4 I0.125 J-0.2165
G2 X36.8694 Y31.5775 Z-0.5333 I-0.25 J0.0
G2 Y32.0106 Z-0.6667 I0.125 J0.2165
G2 X37.2444 Y31.794 Z-0.8 I0.125 J-0.2165
G2 X36.8694 Y31.5775 Z-0.9333 I-0.25 J0.0
G2 Y32.0106 Z-1.0667 I0.125 J0.2165
G2 X37.2444 Y31.794 Z-1.2 I0.125 J-0.2165
G2 X36.8694 Y31.5775 Z-1.3333 I-0.25 J0.0
G2 Y32.0106 Z-1.4667 I0.125 J0.2165
G2 X37.2444 Y31.794 Z-1.6 I0.125 J-0.2165
G2 X36.8694 Y31.5775 Z-1.7333 I-0.25 J0.0
G2 Y32.0106 Z-1.8667 I0.125 J0.2165
G2 X37.2444 Y31.794 Z-2.0 I0.125 J-0.2165
G2 X36.8694 Y31.5775 Z-2.1333 I-0.25 J0.0
G2 Y32.0106 Z-2.2667 I0.125 J0.2165
G2 X37.2444 Y31.794 Z-2.4 I0.125 J-0.2165
G2 X36.8694 Y31.5775 Z-2.5333 I-0.25 J0.0
G2 Y32.0106 Z-2.6667 I0.125 J0.2165
G2 X37.2444 Y31.794 Z-2.8 I0.125 J-0.2165
G2 X36.8694 Y31.5775 Z-2.9333 I-0.25 J0.0
G2 Y32.0106 Z-3.0667 I0.125 J0.2165
G2 X37.2444 Y31.794 Z-3.2 I0.125 J-0.2165
G2 X36.8694 Y31.5775 Z-3.3333 I-0.25 J0.0
G2 Y32.0106 Z-3.4667 I0.125 J0.2165
G2 X37.2444 Y31.794 Z-3.6 I0.125 J-0.2165
G2 X36.8694 Y31.5775 Z-3.7333 I-0.25 J0.0
G2 Y32.0106 Z-3.8667 I0.125 J0.2165
G2 X37.2444 Y31.794 Z-4.0 I0.125 J-0.2165
G2 X36.8694 Y31.5775 Z-4.1333 I-0.25 J0.0
G2 X36.7444 Y31.794 Z-4.2 I0.125 J0.2165
G2 X37.1194 Y32.0106 I0.25 J0.0
G2 Y31.5775 I-0.125 J-0.2165
G2 X36.7444 Y31.794 I-0.125 J0.2165
G0 Z3.0
G0 X38.7751 Y35.4896
G0 Z1.0
G1 F300.0 Z0.0
G2 F500.0 X38.4001 Y35.2731 Z-0.1333 I-0.25 J0.0
G2 Y35.7061 Z-0.2667 I0.125 J0.2165
G2 X38.7751 Y35.4896 Z-0.4 I0.125 J-0.2165
G2 X38.4001 Y35.2731 Z-0.5333 I-0.25 J0.0
G2 Y35.7061 Z-0.6667 I0.125 J0.2165
G2 X38.7751 Y35.4896 Z-0.8 I0.125 J-0.2165
G2 X38.4001 Y35.2731 Z-0.9333 I-0.25 J0.0
G2 Y35.7061 Z-1.0667 I0.125 J0.2165
G2 X38.7751 Y35.4896 Z-1.2 I0.125 J-0.2165
G2 X38.4001 Y35.2731 Z-1.3333 I-0.25 J0.0
G2 Y35.7061 Z-1.4667 I0.125 J0.2165
G2 X38.7751 Y35.4896 Z-1.6 I0.125 J-0.2165
G2 X38.4001 Y35.2731 Z-1.7333 I-0.25 J0.0
G2 Y35.7061 Z-1.8667 I0.125 J0.2165
G2 X38.7751 Y35.4896 Z-2.0 I0.125 J-0.2165
G2 X38.4001 Y35.2731 Z-2.1333 I-0.25 J0.0
G2 Y35.7061 Z-2.2667 I0.125 J0.2165
G2 X38.7751 Y35.4896 Z-2.4 I0.125 J-0.2165
G2 X38.4001 Y35.2731 Z-2.5333 I-0.25 J0.0
G2 Y35.7061 Z-2.6667 I0.125 J0.2165
G2 X38.7751 Y35.4896 Z-2.8 I0.125 J-0.2165
G2 X38.4001 Y35.2731 Z-2.9333 I-0.25 J0.0
G2 Y35.7061 Z-3.0667 I0.125 J0.2165
G2 X38.7751 Y35.4896 Z-3.2 I0.125 J-0.2165
G2 X38.4001 Y35.2731 Z-3.3333 I-0.25 J0.0
G2 Y35.7061 Z-3.4667 I0.125 J0.2165
G2 X38.7751 Y35.4896 Z-3.6 I0.125 J-0.2165
G2 X38.4001 Y35.2731 Z-3.7333 I-0.25 J0.0
G2 Y35.7061 Z-3.8667 I0.125 J0.2165
G2 X38.7751 Y35.4896 Z-4.0 I0.125 J-0.2165
G2 X38.4001 Y35.2731 Z-4.1333 I-0.25 J0.0
G2 X38.2751 Y35.4896 Z-4.2 I0.125 J0.2165
G2 X38.6501 Y35.7061 I0.25 J0.0
G2 Y35.2731 I-0.125 J-0.2165
G2 X38.2751 Y35.4896 I-0.125 J0.2165
G0 Z3.0
G0 X43.75 Y34.5
G0 Z1.0
G1 F300.0 Z0.0
G2 F500.0 X43.375 Y34.2835 Z-0.1333 I-0.25 J0.0
G2 Y34.7165 Z-0.2667 I0.125 J0.2165
G2 X43.75 Y34.5 Z-0.4 I0.125 J-0.2165
G2 X43.375 Y34.2835 Z-0.5333 I-0.25 J0.0
G2 Y34.7165 Z-0.6667 I0.125 J0.2165
G2 X43.75 Y34.5 Z-0.8 I0.125 J-0.2165
G2 X43.375 Y34.2835 Z-0.9333 I-0.25 J0.0
G2 Y34.7165 Z-1.0667 I0.125 J0.2165
G2 X43.75 Y34.5 Z-1.2 I0.125 J-0.2165
G2 X43.375 Y34.2835 Z-1.3333 I-0.25 J0.0
G2 Y34.7165 Z-1.4667 I0.125 J0.2165
G2 X43.75 Y34.5 Z-1.6 I0.125 J-0.2165
G2 X43.375 Y34.2835 Z-1.7333 I-0.25 J0.0
G2 Y34.7165 Z-1.8667 I0.125 J0.2165
G2 X43.75 Y34.5 Z-2.0 I0.125 J-0.2165
G2 X43.375 Y34.2835 Z-2.1333 I-0.25 J0.0
G2 Y34.7165 Z-2.2667 I0.125 J0.2165
G2 X43.75 Y34.5 Z-2.4 I0.125 J-0.2165
G2 X43.375 Y34.2835 Z-2.5333 I-0.25 J0.0
G2 Y34.7165 Z-2.6667 I0.125 J0.2165
G2 X43.75 Y34.5 Z-2.8 I0.125 J-0.2165
G2 X43.375 Y34.2835 Z-2.9333 I-0.25 J0.0
G2 Y34.7165 Z-3.0667 I0.125 J0.2165
G2 X43.75 Y34.5 Z-3.2 I0.125 J-0.2165
G2 X43.375 Y34.2835 Z-3.3333 I-0.25 J0.0
G2 Y34.7165 Z-3.4667 I0.125 J0.2165
G2 X43.75 Y34.5 Z-3.6 I0.125 J-0.2165
G2 X43.375 Y34.2835 Z-3.7333 I-0.25 J0.0
G2 Y34.7165 Z-3.8667 I0.125 J0.2165
G2 X43.75 Y34.5 Z-4.0 I0.125 J-0.2165
G2 X43.375 Y34.2835 Z-4.1333 I-0.25 J0.0
G2 X43.25 Y34.5 Z-4.2 I0.125 J0.2165
G2 X43.625 Y34.7165 I0.25 J0.0
G2 Y34.2835 I-0.125 J-0.2165
G2 X43.25 Y34.5 I-0.125 J0.2165
G0 Z3.0
G0 X43.75 Y30.5
G0 Z1.0
G1 F300.0 Z0.0
G2 F500.0 X43.375 Y30.2835 Z-0.1333 I-0.25 J0.0
G2 Y30.7165 Z-0.2667 I0.125 J0.2165
G2 X43.75 Y30.5 Z-0.4 I0.125 J-0.2165
G2 X43.375 Y30.2835 Z-0.5333 I-0.25 J0.0
G2 Y30.7165 Z-0.6667 I0.125 J0.2165
G2 X43.75 Y30.5 Z-0.8 I0.125 J-0.2165
G2 X43.375 Y30.2835 Z-0.9333 I-0.25 J0.0
G2 Y30.7165 Z-1.0667 I0.125 J0.2165
G2 X43.75 Y30.5 Z-1.2 I0.125 J-0.2165
G2 X43.375 Y30.2835 Z-1.3333 I-0.25 J0.0
G2 Y30.7165 Z-1.4667 I0.125 J0.2165
G2 X43.75 Y30.5 Z-1.6 I0.125 J-0.2165
G2 X43.375 Y30.2835 Z-1.7333 I-0.25 J0.0
G2 Y30.7165 Z-1.8667 I0.125 J0.2165
G2 X43.75 Y30.5 Z-2.0 I0.125 J-0.2165
G2 X43.375 Y30.2835 Z-2.1333 I-0.25 J0.0
G2 Y30.7165 Z-2.2667 I0.125 J0.2165
G2 X43.75 Y30.5 Z-2.4 I0.125 J-0.2165
G2 X43.375 Y30.2835 Z-2.5333 I-0.25 J0.0
G2 Y30.7165 Z-2.6667 I0.125 J0.2165
G2 X43.75 Y30.5 Z-2.8 I0.125 J-0.2165
G2 X43.375 Y30.2835 Z-2.9333 I-0.25 J0.0
G2 Y30.7165 Z-3.0667 I0.125 J0.2165
G2 X43.75 Y30.5 Z-3.2 I0.125 J-0.2165
G2 X43.375 Y30.2835 Z-3.3333 I-0.25 J0.0
G2 Y30.7165 Z-3.4667 I0.125 J0.2165
G2 X43.75 Y30.5 Z-3.6 I0.125 J-0.2165
G2 X43.375 Y30.2835 Z-3.7333 I-0.25 J0.0
G2 Y30.7165 Z-3.8667 I0.125 J0.2165
G2 X43.75 Y30.5 Z-4.0 I0.125 J-0.2165
G2 X43.375 Y30.2835 Z-4.1333 I-0.25 J0.0
G2 X43.25 Y30.5 Z-4.2 I0.125 J0.2165
G2 X43.625 Y30.7165 I0.25 J0.0
G2 Y30.2835 I-0.125 J-0.2165
G2 X43.25 Y30.5 I-0.125 J0.2165
G0 Z3.0
G0 X43.75 Y26.5
G0 Z1.0
G1 F300.0 Z0.0
G2 F500.0 X43.375 Y26.2835 Z-0.1333 I-0.25 J0.0
G2 Y26.7165 Z-0.2667 I0.125 J0.2165
G2 X43.75 Y26.5 Z-0.4 I0.125 J-0.2165
G2 X43.375 Y26.2835 Z-0.5333 I-0.25 J0.0
G2 Y26.7165 Z-0.6667 I0.125 J0.2165
G2 X43.75 Y26.5 Z-0.8 I0.125 J-0.2165
G2 X43.375 Y26.2835 Z-0.9333 I-0.25 J0.0
G2 Y26.7165 Z-1.0667 I0.125 J0.2165
G2 X43.75 Y26.5 Z-1.2 I0.125 J-0.2165
G2 X43.375 Y26.2835 Z-1.3333 I-0.25 J0.0
G2 Y26.7165 Z-1.4667 I0.125 J0.2165
G2 X43.75 Y26.5 Z-1.6 I0.125 J-0.2165
G2 X43.375 Y26.2835 Z-1.7333 I-0.25 J0.0
G2 Y26.7165 Z-1.8667 I0.125 J0.2165
G2 X43.75 Y26.5 Z-2.0 I0.125 J-0.2165
G2 X43.375 Y26.2835 Z-2.1333 I-0.25 J0.0
G2 Y26.7165 Z-2.2667 I0.125 J0.2165
G2 X43.75 Y26.5 Z-2.4 I0.125 J-0.2165
G2 X43.375 Y26.2835 Z-2.5333 I-0.25 J0.0
G2 Y26.7165 Z-2.6667 I0.125 J0.2165
G2 X43.75 Y26.5 Z-2.8 I0.125 J-0.2165
G2 X43.375 Y26.2835 Z-2.9333 I-0.25 J0.0
G2 Y26.7165 Z-3.0667 I0.125 J0.2165
G2 X43.75 Y26.5 Z-3.2 I0.125 J-0.2165
G2 X43.375 Y26.2835 Z-3.3333 I-0.25 J0.0
G2 Y26.7165 Z-3.4667 I0.125 J0.2165
G2 X43.75 Y26.5 Z-3.6 I0.125 J-0.2165
G2 X43.375 Y26.2835 Z-3.7333 I-0.25 J0.0
G2 Y26.7165 Z-3.8667 I0.125 J0.2165
G2 X43.75 Y26.5 Z-4.0 I0.125 J-0.2165
G2 X43.375 Y26.2835 Z-4.1333 I-0.25 J0.0
G2 X43.25 Y26.5 Z-4.2 I0.125 J0.2165
G2 X43.625 Y26.7165 I0.25 J0.0
G2 Y26.2835 I-0.125 J-0.2165
G2 X43.25 Y26.5 I-0.125 J0.2165
G0 Z3.0
G0 X43.75 Y22.5
G0 Z1.0
G1 F300.0 Z0.0
G2 F500.0 X43.375 Y22.2835 Z-0.1333 I-0.25 J0.0
G2 Y22.7165 Z-0.2667 I0.125 J0.2165
G2 X43.75 Y22.5 Z-0.4 I0.125 J-0.2165
G2 X43.375 Y22.2835 Z-0.5333 I-0.25 J0.0
G2 Y22.7165 Z-0.6667 I0.125 J0.2165
G2 X43.75 Y22.5 Z-0.8 I0.125 J-0.2165
G2 X43.375 Y22.2835 Z-0.9333 I-0.25 J0.0
G2 Y22.7165 Z-1.0667 I0.125 J0.2165
G2 X43.75 Y22.5 Z-1.2 I0.125 J-0.2165
G2 X43.375 Y22.2835 Z-1.3333 I-0.25 J0.0
G2 Y22.7165 Z-1.4667 I0.125 J0.2165
G2 X43.75 Y22.5 Z-1.6 I0.125 J-0.2165
G2 X43.375 Y22.2835 Z-1.7333 I-0.25 J0.0
G2 Y22.7165 Z-1.8667 I0.125 J0.2165
G2 X43.75 Y22.5 Z-2.0 I0.125 J-0.2165
G2 X43.375 Y22.2835 Z-2.1333 I-0.25 J0.0
G2 Y22.7165 Z-2.2667 I0.125 J0.2165
G2 X43.75 Y22.5 Z-2.4 I0.125 J-0.2165
G2 X43.375 Y22.2835 Z-2.5333 I-0.25 J0.0
G2 Y22.7165 Z-2.6667 I0.125 J0.2165
G2 X43.75 Y22.5 Z-2.8 I0.125 J-0.2165
G2 X43.375 Y22.2835 Z-2.9333 I-0.25 J0.0
G2 Y22.7165 Z-3.0667 I0.125 J0.2165
G2 X43.75 Y22.5 Z-3.2 I0.125 J-0.2165
G2 X43.375 Y22.2835 Z-3.3333 I-0.25 J0.0
G2 Y22.7165 Z-3.4667 I0.125 J0.2165
G2 X43.75 Y22.5 Z-3.6 I0.125 J-0.2165
G2 X43.375 Y22.2835 Z-3.7333 I-0.25 J0.0
G2 Y22.7165 Z-3.8667 I0.125 J0.2165
G2 X43.75 Y22.5 Z-4.0 I0.125 J-0.2165
G2 X43.375 Y22.2835 Z-4.1333 I-0.25 J0.0
G2 X43.25 Y22.5 Z-4.2 I0.125 J0.2165
G2 X43.625 Y22.7165 I0.25 J0.0
G2 Y22.2835 I-0.125 J-0.2165
G2 X43.25 Y22.5 I-0.125 J0.2165
G0 Z3.0
G0 X43.75 Y18.5
G0 Z1.0
G1 F300.0 Z0.0
G2 F500.0 X43.375 Y18.2835 Z-0.1333 I-0.25 J0.0
G2 Y18.7165 Z-0.2667 I0.125 J0.2165
G2 X43.75 Y18.5 Z-0.4 I0.125 J-0.2165
G2 X43.375 Y18.2835 Z-0.5333 I-0.25 J0.0
G2 Y18.7165 Z-0.6667 I0.125 J0.2165
G2 X43.75 Y18.5 Z-0.8 I0.125 J-0.2165
G2 X43.375 Y18.2835 Z-0.9333 I-0.25 J0.0
G2 Y18.7165 Z-1.0667 I0.125 J0.2165
G2 X43.75 Y18.5 Z-1.2 I0.125 J-0.2165
G2 X43.375 Y18.2835 Z-1.3333 I-0.25 J0.0
G2 Y18.7165 Z-1.4667 I0.125 J0.2165
G2 X43.75 Y18.5 Z-1.6 I0.125 J-0.2165
G2 X43.375 Y18.2835 Z-1.7333 I-0.25 J0.0
G2 Y18.7165 Z-1.8667 I0.125 J0.2165
G2 X43.75 Y18.5 Z-2.0 I0.125 J-0.2165
G2 X43.375 Y18.2835 Z-2.1333 I-0.25 J0.0
G2 Y18.7165 Z-2.2667 I0.125 J0.2165
G2 X43.75 Y18.5 Z-2.4 I0.125 J-0.2165
G2 X43.375 Y18.2835 Z-2.5333 I-0.25 J0.0
G2 Y18.7165 Z-2.6667 I0.125 J0.2165
G2 X43.75 Y18.5 Z-2.8 I0.125 J-0.2165
G2 X43.375 Y18.2835 Z-2.9333 I-0.25 J0.0
G2 Y18.7165 Z-3.0667 I0.125 J0.2165
G2 X43.75 Y18.5 Z-3.2 I0.125 J-0.2165
G2 X43.375 Y18.2835 Z-3.3333 I-0.25 J0.0
G2 Y18.7165 Z-3.4667 I0.125 J0.2165
G2 X43.75 Y18.5 Z-3.6 I0.125 J-0.2165
G2 X43.375 Y18.2835 Z-3.7333 I-0.25 J0.0
G2 Y18.7165 Z-3.8667 I0.125 J0.2165
G2 X43.75 Y18.5 Z-4.0 I0.125 J-0.2165
G2 X43.375 Y18.2835 Z-4.1333 I-0.25 J0.0
G2 X43.25 Y18.5 Z-4.2 I0.125 J0.2165
G2 X43.625 Y18.7165 I0.25 J0.0
G2 Y18.2835 I-0.125 J-0.2165
G2 X43.25 Y18.5 I-0.125 J0.2165
G0 Z3.0
G0 X53.3171 Y24.403
G0 Z1.0
G1 F300.0 Z0.0
G2 F500.0 X52.9421 Y24.1865 Z-0.1333 I-0.25 J0.0
G2 Y24.6195 Z-0.2667 I0.125 J0.2165
G2 X53.3171 Y24.403 Z-0.4 I0.125 J-0.2165
G2 X52.9421 Y24.1865 Z-0.5333 I-0.25 J0.0
G2 Y24.6195 Z-0.6667 I0.125 J0.2165
G2 X53.3171 Y24.403 Z-0.8 I0.125 J-0.2165
G2 X52.9421 Y24.1865 Z-0.9333 I-0.25 J0.0
G2 Y24.6195 Z-1.0667 I0.125 J0.2165
G2 X53.3171 Y24.403 Z-1.2 I0.125 J-0.2165
G2 X52.9421 Y24.1865 Z-1.3333 I-0.25 J0.0
G2 Y24.6195 Z-1.4667 I0.125 J0.2165
G2 X53.3171 Y24.403 Z-1.6 I0.125 J-0.2165
G2 X52.9421 Y24.1865 Z-1.7333 I-0.25 J0.0
G2 Y24.6195 Z-1.8667 I0.125 J0.2165
G2 X53.3171 Y24.403 Z-2.0 I0.125 J-0.2165
G2 X52.9421 Y24.1865 Z-2.1333 I-0.25 J0.0
G2 Y24.6195 Z-2.2667 I0.125 J0.2165
G2 X53.3171 Y24.403 Z-2.4 I0.125 J-0.2165
G2 X52.9421 Y24.1865 Z-2.5333 I-0.25 J0.0
G2 Y24.6195 Z-2.6667 I0.125 J0.2165
G2 X53.3171 Y24.403 Z-2.8 I0.125 J-0.2165
G2 X52.9421 Y24.1865 Z-2.9333 I-0.25 J0.0
G2 Y24.6195 Z-3.0667 I0.125 J0.2165
G2 X53.3171 Y24.403 Z-3.2 I0.125 J-0.2165
G2 X52.9421 Y24.1865 Z-3.3333 I-0.25 J0.0
G2 Y24.6195 Z-3.4667 I0.125 J0.2165
G2 X53.3171 Y24.403 Z-3.6 I0.125 J-0.2165
G2 X52.9421 Y24.1865 Z-3.7333 I-0.25 J0.0
G2 Y24.6195 Z-3.8667 I0.125 J0.2165
G2 X53.3171 Y24.403 Z-4.0 I0.125 J-0.2165
G2 X52.9421 Y24.1865 Z-4.1333 I-0.25 J0.0
G2 X52.8171 Y24.403 Z-4.2 I0.125 J0.2165
G2 X53.1921 Y24.6195 I0.25 J0.0
G2 Y24.1865 I-0.125 J-0.2165
G2 X52.8171 Y24.403 I-0.125 J0.2165
G0 Z3.0
G0 X51.7864 Y28.0985
G0 Z1.0
G1 F300.0 Z0.0
G2 F500.0 X51.4114 Y27.882 Z-0.1333 I-0.25 J0.0
G2 Y28.315 Z-0.2667 I0.125 J0.2165
G2 X51.7864 Y28.0985 Z-0.4 I0.125 J-0.2165
G2 X51.4114 Y27.882 Z-0.5333 I-0.25 J0.0
G2 Y28.315 Z-0.6667 I0.125 J0.2165
G2 X51.7864 Y28.0985 Z-0.8 I0.125 J-0.2165
G2 X51.4114 Y27.882 Z-0.9333 I-0.25 J0.0
G2 Y28.315 Z-1.0667 I0.125 J0.2165
G2 X51.7864 Y28.0985 Z-1.2 I0.125 J-0.2165
G2 X51.4114 Y27.882 Z-1.3333 I-0.25 J0.0
G2 Y28.315 Z-1.4667 I0.125 J0.2165
G2 X51.7864 Y28.0985 Z-1.6 I0.125 J-0.2165
G2 X51.4114 Y27.882 Z-1.7333 I-0.25 J0.0
G2 Y28.315 Z-1.8667 I0.125 J0.2165
G2 X51.7864 Y28.0985 Z-2.0 I0.125 J-0.2165
G2 X51.4114 Y27.882 Z-2.1333 I-0.25 J0.0
G2 Y28.315 Z-2.2667 I0.125 J0.2165
G2 X51.7864 Y28.0985 Z-2.4 I0.125 J-0.2165
G2 X51.4114 Y27.882 Z-2.5333 I-0.25 J0.0
G2 Y28.315 Z-2.6667 I0.125 J0.2165
G2 X51.7864 Y28.0985 Z-2.8 I0.125 J-0.2165
G2 X51.4114 Y27.882 Z-2.9333 I-0.25 J0.0
G2 Y28.315 Z-3.0667 I0.125 J0.2165
G2 X51.7864 Y28.0985 Z-3.2 I0.125 J-0.2165
G2 X51.4114 Y27.882 Z-3.3333 I-0.25 J0.0
G2 Y28.315 Z-3.4667 I0.125 J0.2165
G2 X51.7864 Y28.0985 Z-3.6 I0.125 J-0.2165
G2 X51.4114 Y27.882 Z-3.7333 I-0.25 J0.0
G2 Y28.315 Z-3.8667 I0.125 J0.2165
G2 X51.7864 Y28.0985 Z-4.0 I0.125 J-0.2165
G2 X51.4114 Y27.882 Z-4.1333 I-0.25 J0.0
G2 X51.2864 Y28.0985 Z-4.2 I0.125 J0.2165
G2 X51.6614 Y28.315 I0.25 J0.0
G2 Y27.882 I-0.125 J-0.2165
G2 X51.2864 Y28.0985 I-0.125 J0.2165
G0 Z3.0
G0 X50.2556 Y31.794
G0 Z1.0
G1 F300.0 Z0.0
G2 F500.0 X49.8806 Y31.5775 Z-0.1333 I-0.25 J0.0
G2 Y32.0106 Z-0.2667 I0.125 J0.2165
G2 X50.2556 Y31.794 Z-0.4 I0.125 J-0.2165
G2 X49.8806 Y31.5775 Z-0.5333 I-0.25 J0.0
G2 Y32.0106 Z-0.6667 I0.125 J0.2165
G2 X50.2556 Y31.794 Z-0.8 I0.125 J-0.2165
G2 X49.8806 Y31.5775 Z-0.9333 I-0.25 J0.0
G2 Y32.0106 Z-1.0667 I0.125 J0.2165
G2 X50.2556 Y31.794 Z-1.2 I0.125 J-0.2165
G2 X49.8806 Y31.5775 Z-1.3333 I-0.25 J0.0
G2 Y32.0106 Z-1.4667 I0.125 J0.2165
G2 X50.2556 Y31.794 Z-1.6 I0.125 J-0.2165
G2 X49.8806 Y31.5775 Z-1.7333 I-0.25 J0.0
G2 Y32.0106 Z-1.8667 I0.125 J0.2165
G2 X50.2556 Y31.794 Z-2.0 I0.125 J-0.2165
G2 X49.8806 Y31.5775 Z-2.1333 I-0.25 J0.0
G2 Y32.0106 Z-2.2667 I0.125 J0.2165
G2 X50.2556 Y31.794 Z-2.4 I0.125 J-0.2165
G2 X49.8806 Y31.5775 Z-2.5333 I-0.25 J0.0
G2 Y32.0106 Z-2.6667 I0.125 J0.2165
G2 X50.2556 Y31.794 Z-2.8 I0.125 J-0.2165
G2 X49.8806 Y31.5775 Z-2.9333 I-0.25 J0.0
G2 Y32.0106 Z-3.0667 I0.125 J0.2165
G2 X50.2556 Y31.794 Z-3.2 I0.125 J-0.2165
G2 X49.8806 Y31.5775 Z-3.3333 I-0.25 J0.0
G2 Y32.0106 Z-3.4667 I0.125 J0.2165
G2 X50.2556 Y31.794 Z-3.6 I0.125 J-0.2165
G2 X49.8806 Y31.5775 Z-3.7333 I-0.25 J0.0
G2 Y32.0106 Z-3.8667 I0.125 J0.2165
G2 X50.2556 Y31.794 Z-4.0 I0.125 J-0.2165
G2 X49.8806 Y31.5775 Z-4.1333 I-0.25 J0.0
G2 X49.7556 Y31.794 Z-4.2 I0.125 J0.2165
G2 X50.1306 Y32.0106 I0.25 J0.0
G2 Y31.5775 I-0.125 J-0.2165
G2 X49.7556 Y31.794 I-0.125 J0.2165
G0 Z3.0
G0 X48.7249 Y35.4896
G0 Z1.0
G1 F300.0 Z0.0
G2 F500.0 X48.3499 Y35.2731 Z-0.1333 I-0.25 J0.0
G2 Y35.7061 Z-0.2667 I0.125 J0.2165
G2 X48.7249 Y35.4896 Z-0.4 I0.125 J-0.2165
G2 X48.3499 Y35.2731 Z-0.5333 I-0.25 J0.0
G2 Y35.7061 Z-0.6667 I0.125 J0.2165
G2 X48.7249 Y35.4896 Z-0.8 I0.125 J-0.2165
G2 X48.3499 Y35.2731 Z-0.9333 I-0.25 J0.0
G2 Y35.7061 Z-1.0667 I0.125 J0.2165
G2 X48.7249 Y35.4896 Z-1.2 I0.125 J-0.2165
G2 X48.3499 Y35.2731 Z-1.3333 I-0.25 J0.0
G2 Y35.7061 Z-1.4667 I0.125 J0.2165
G2 X48.7249 Y35.4896 Z-1.6 I0.125 J-0.2165
G2 X48.3499 Y35.2731 Z-1.7333 I-0.25 J0.0
G2 Y35.7061 Z-1.8667 I0.125 J0.2165
G2 X48.7249 Y35.4896 Z-2.0 I0.125 J-0.2165
G2 X48.3499 Y35.2731 Z-2.1333 I-0.25 J0.0
G2 Y35.7061 Z-2.2667 I0.125 J0.2165
G2 X48.7249 Y35.4896 Z-2.4 I0.125 J-0.2165
G2 X48.3499 Y35.2731 Z-2.5333 I-0.25 J0.0
G2 Y35.7061 Z-2.6667 I0.125 J0.2165
G2 X48.7249 Y35.4896 Z-2.8 I0.125 J-0.2165
G2 X48.3499 Y35.2731 Z-2.9333 I-0.25 J0.0
G2 Y35.7061 Z-3.0667 I0.125 J0.2165
G2 X48.7249 Y35.4896 Z-3.2 I0.125 J-0.2165
G2 X48.3499 Y35.2731 Z-3.3333 I-0.25 J0.0
G2 Y35.7061 Z-3.4667 I0.125 J0.2165
G2 X48.7249 Y35.4896 Z-3.6 I0.125 J-0.2165
G2 X48.3499 Y35.2731 Z-3.7333 I-0.25 J0.0
G2 Y35.7061 Z-3.8667 I0.125 J0.2165
G2 X48.7249 Y35.4896 Z-4.0 I0.125 J-0.2165
G2 X48.3499 Y35.2731 Z-4.1333 I-0.25 J0.0
G2 X48.2249 Y35.4896 Z-4.2 I0.125 J0.2165
G2 X48.5999 Y35.7061 I0.25 J0.0
G2 Y35.2731 I-0.125 J-0.2165
G2 X48.2249 Y35.4896 I-0.125 J0.2165
G0 Z3.0
G0 X52.9424 Y38.3076
G0 Z1.0
G1 F300.0 Z0.0
G2 F500.0 X52.5674 Y38.0911 Z-0.1333 I-0.25 J0.0
G2 Y38.5241 Z-0.2667 I0.125 J0.2165
G2 X52.9424 Y38.3076 Z-0.4 I0.125 J-0.2165
G2 X52.5674 Y38.0911 Z-0.5333 I-0.25 J0.0
G2 Y38.5241 Z-0.6667 I0.125 J0.2165
G2 X52.9424 Y38.3076 Z-0.8 I0.125 J-0.2165
G2 X52.5674 Y38.0911 Z-0.9333 I-0.25 J0.0
G2 Y38.5241 Z-1.0667 I0.125 J0.2165
G2 X52.9424 Y38.3076 Z-1.2 I0.125 J-0.2165
G2 X52.5674 Y38.0911 Z-1.3333 I-0.25 J0.0
G2 Y38.5241 Z-1.4667 I0.125 J0.2165
G2 X52.9424 Y38.3076 Z-1.6 I0.125 J-0.2165
G2 X52.5674 Y38.0911 Z-1.7333 I-0.25 J0.0
G2 Y38.5241 Z-1.8667 I0.125 J0.2165
G2 X52.9424 Y38.3076 Z-2.0 I0.125 J-0.2165
G2 X52.5674 Y38.0911 Z-2.1333 I-0.25 J0.0
G2 Y38.5241 Z-2.2667 I0.125 J0.2165
G2 X52.9424 Y38.3076 Z-2.4 I0.125 J-0.2165
G2 X52.5674 Y38.0911 Z-2.5333 I-0.25 J0.0
G2 Y38.5241 Z-2.6667 I0.125 J0.2165
G2 X52.9424 Y38.3076 Z-2.8 I0.125 J-0.2165
G2 X52.5674 Y38.0911 Z-2.9333 I-0.25 J0.0
G2 Y38.5241 Z-3.0667 I0.125 J0.2165
G2 X52.9424 Y38.3076 Z-3.2 I0.125 J-0.2165
G2 X52.5674 Y38.0911 Z-3.3333 I-0.25 J0.0
G2 Y38.5241 Z-3.4667 I0.125 J0.2165
G2 X52.9424 Y38.3076 Z-3.6 I0.125 J-0.2165
G2 X52.5674 Y38.0911 Z-3.7333 I-0.25 J0.0
G2 Y38.5241 Z-3.8667 I0.125 J0.2165
G2 X52.9424 Y38.3076 Z-4.0 I0.125 J-0.2165
G2 X52.5674 Y38.0911 Z-4.1333 I-0.25 J0.0
G2 X52.4424 Y38.3076 Z-4.2 I0.125 J0.2165
G2 X52.8174 Y38.5241 I0.25 J0.0
G2 Y38.0911 I-0.125 J-0.2165
G2 X52.4424 Y38.3076 I-0.125 J0.2165
G0 Z3.0
G0 X55.7708 Y35.4792
G0 Z1.0
G1 F300.0 Z0.0
G2 F500.0 X55.3958 Y35.2627 Z-0.1333 I-0.25 J0.0
G2 Y35.6957 Z-0.2667 I0.125 J0.2165
G2 X55.7708 Y35.4792 Z-0.4 I0.125 J-0.2165
G2 X55.3958 Y35.2627 Z-0.5333 I-0.25 J0.0
G2 Y35.6957 Z-0.6667 I0.125 J0.2165
G2 X55.7708 Y35.4792 Z-0.8 I0.125 J-0.2165
G2 X55.3958 Y35.2627 Z-0.9333 I-0.25 J0.0
G2 Y35.6957 Z-1.0667 I0.125 J0.2165
G2 X55.7708 Y35.4792 Z-1.2 I0.125 J-0.2165
G2 X55.3958 Y35.2627 Z-1.3333 I-0.25 J0.0
G2 Y35.6957 Z-1.4667 I0.125 J0.2165
G2 X55.7708 Y35.4792 Z-1.6 I0.125 J-0.2165
G2 X55.3958 Y35.2627 Z-1.7333 I-0.25 J0.0
G2 Y35.6957 Z-1.8667 I0.125 J0.2165
G2 X55.7708 Y35.4792 Z-2.0 I0.125 J-0.2165
G2 X55.3958 Y35.2627 Z-2.1333 I-0.25 J0.0
G2 Y35.6957 Z-2.2667 I0.125 J0.2165
G2 X55.7708 Y35.4792 Z-2.4 I0.125 J-0.2165
G2 X55.3958 Y35.2627 Z-2.5333 I-0.25 J0.0
G2 Y35.6957 Z-2.6667 I0.125 J0.2165
G2 X55.7708 Y35.4792 Z-2.8 I0.125 J-0.2165
G2 X55.3958 Y35.2627 Z-2.9333 I-0.25 J0.0
G2 Y35.6957 Z-3.0667 I0.125 J0.2165
G2 X55.7708 Y35.4792 Z-3.2 I0.125 J-0.2165
G2 X55.3958 Y35.2627 Z-3.3333 I-0.25 J0.0
G2 Y35.6957 Z-3.4667 I0.125 J0.2165
G2 X55.7708 Y35.4792 Z-3.6 I0.125 J-0.2165
G2 X55.3958 Y35.2627 Z-3.7333 I-0.25 J0.0
G2 Y35.6957 Z-3.8667 I0.125 J0.2165
G2 X55.7708 Y35.4792 Z-4.0 I0.125 J-0.2165
G2 X55.3958 Y35.2627 Z-4.1333 I-0.25 J0.0
G2 X55.2708 Y35.4792 Z-4.2 I0.125 J0.2165
G2 X55.6458 Y35.6957 I0.25 J0.0
G2 Y35.2627 I-0.125 J-0.2165
G2 X55.2708 Y35.4792 I-0.125 J0.2165
G0 Z3.0
G0 X58.5992 Y32.6508
G0 Z1.0
G1 F300.0 Z0.0
G2 F500.0 X58.2242 Y32.4343 Z-0.1333 I-0.25 J0.0
G2 Y32.8673 Z-0.2667 I0.125 J0.2165
G2 X58.5992 Y32.6508 Z-0.4 I0.125 J-0.2165
G2 X58.2242 Y32.4343 Z-0.5333 I-0.25 J0.0
G2 Y32.8673 Z-0.6667 I0.125 J0.2165
G2 X58.5992 Y32.6508 Z-0.8 I0.125 J-0.2165
G2 X58.2242 Y32.4343 Z-0.9333 I-0.25 J0.0
G2 Y32.8673 Z-1.0667 I0.125 J0.2165
G2 X58.5992 Y32.6508 Z-1.2 I0.125 J-0.2165
G2 X58.2242 Y32.4343 Z-1.3333 I-0.25 J0.0
G2 Y32.8673 Z-1.4667 I0.125 J0.2165
G2 X58.5992 Y32.6508 Z-1.6 I0.125 J-0.2165
G2 X58.2242 Y32.4343 Z-1.7333 I-0.25 J0.0
G2 Y32.8673 Z-1.8667 I0.125 J0.2165
G2 X58.5992 Y32.6508 Z-2.0 I0.125 J-0.2165
G2 X58.2242 Y32.4343 Z-2.1333 I-0.25 J0.0
G2 Y32.8673 Z-2.2667 I0.125 J0.2165
G2 X58.5992 Y32.6508 Z-2.4 I0.125 J-0.2165
G2 X58.2242 Y32.4343 Z-2.5333 I-0.25 J0.0
G2 Y32.8673 Z-2.6667 I0.125 J0.2165
G2 X58.5992 Y32.6508 Z-2.8 I0.125 J-0.2165
G2 X58.2242 Y32.4343 Z-2.9333 I-0.25 J0.0
G2 Y32.8673 Z-3.0667 I0.125 J0.2165
G2 X58.5992 Y32.6508 Z-3.2 I0.125 J-0.2165
G2 X58.2242 Y32.4343 Z-3.3333 I-0.25 J0.0
G2 Y32.8673 Z-3.4667 I0.125 J0.2165
G2 X58.5992 Y32.6508 Z-3.6 I0.125 J-0.2165
G2 X58.2242 Y32.4343 Z-3.7333 I-0.25 J0.0
G2 Y32.8673 Z-3.8667 I0.125 J0.2165
G2 X58.5992 Y32.6508 Z-4.0 I0.125 J-0.2165
G2 X58.2242 Y32.4343 Z-4.1333 I-0.25 J0.0
G2 X58.0992 Y32.6508 Z-4.2 I0.125 J0.2165
G2 X58.4742 Y32.8673 I0.25 J0.0
G2 Y32.4343 I-0.125 J-0.2165
G2 X58.0992 Y32.6508 I-0.125 J0.2165
G0 Z3.0
G0 X61.4277 Y29.8223
G0 Z1.0
G1 F300.0 Z0.0
G2 F500.0 X61.0527 Y29.6058 Z-0.1333 I-0.25 J0.0
G2 Y30.0388 Z-0.2667 I0.125 J0.2165
G2 X61.4277 Y29.8223 Z-0.4 I0.125 J-0.2165
G2 X61.0527 Y29.6058 Z-0.5333 I-0.25 J0.0
G2 Y30.0388 Z-0.6667 I0.125 J0.2165
G2 X61.4277 Y29.8223 Z-0.8 I0.125 J-0.2165
G2 X61.0527 Y29.6058 Z-0.9333 I-0.25 J0.0
G2 Y30.0388 Z-1.0667 I0.125 J0.2165
G2 X61.4277 Y29.8223 Z-1.2 I0.125 J-0.2165
G2 X61.0527 Y29.6058 Z-1.3333 I-0.25 J0.0
G2 Y30.0388 Z-1.4667 I0.125 J0.2165
G2 X61.4277 Y29.8223 Z-1.6 I0.125 J-0.2165
G2 X61.0527 Y29.6058 Z-1.7333 I-0.25 J0.0
G2 Y30.0388 Z-1.8667 I0.125 J0.2165
G2 X61.4277 Y29.8223 Z-2.0 I0.125 J-0.2165
G2 X61.0527 Y29.6058 Z-2.1333 I-0.25 J0.0
G2 Y30.0388 Z-2.2667 I0.125 J0.2165
G2 X61.4277 Y29.8223 Z-2.4 I0.125 J-0.2165
G2 X61.0527 Y29.6058 Z-2.5333 I-0.25 J0.0
G2 Y30.0388 Z-2.6667 I0.125 J0.2165
G2 X61.4277 Y29.8223 Z-2.8 I0.125 J-0.2165
G2 X61.0527 Y29.6058 Z-2.9333 I-0.25 J0.0
G2 Y30.0388 Z-3.0667 I0.125 J0.2165
G2 X61.4277 Y29.8223 Z-3.2 I0.125 J-0.2165
G2 X61.0527 Y29.6058 Z-3.3333 I-0.25 J0.0
G2 Y30.0388 Z-3.4667 I0.125 J0.2165
G2 X61.4277 Y29.8223 Z-3.6 I0.125 J-0.2165
G2 X61.0527 Y29.6058 Z-3.7333 I-0.25 J0.0
G2 Y30.0388 Z-3.8667 I0.125 J0.2165
G2 X61.4277 Y29.8223 Z-4.0 I0.125 J-0.2165
G2 X61.0527 Y29.6058 Z-4.1333 I-0.25 J0.0
G2 X60.9277 Y29.8223 Z-4.2 I0.125 J0.2165
G2 X61.3027 Y30.0388 I0.25 J0.0
G2 Y29.6058 I-0.125 J-0.2165
G2 X60.9277 Y29.8223 I-0.125 J0.2165
G0 Z3.0
G0 X64.2561 Y26.9939
G0 Z1.0
G1 F300.0 Z0.0
G2 F500.0 X63.8811 Y26.7774 Z-0.1333 I-0.25 J0.0
G2 Y27.2104 Z-0.2667 I0.125 J0.2165
G2 X64.2561 Y26.9939 Z-0.4 I0.125 J-0.2165
G2 X63.8811 Y26.7774 Z-0.5333 I-0.25 J0.0
G2 Y27.2104 Z-0.6667 I0.125 J0.2165
G2 X64.2561 Y26.9939 Z-0.8 I0.125 J-0.2165
G2 X63.8811 Y26.7774 Z-0.9333 I-0.25 J0.0
G2 Y27.2104 Z-1.0667 I0.125 J0.2165
G2 X64.2561 Y26.9939 Z-1.2 I0.125 J-0.2165
G2 X63.8811 Y26.7774 Z-1.3333 I-0.25 J0.0
G2 Y27.2104 Z-1.4667 I0.125 J0.2165
G2 X64.2561 Y26.9939 Z-1.6 I0.125 J-0.2165
G2 X63.8811 Y26.7774 Z-1.7333 I-0.25 J0.0
G2 Y27.2104 Z-1.8667 I0.125 J0.2165
G2 X64.2561 Y26.9939 Z-2.0 I0.125 J-0.2165
G2 X63.8811 Y26.7774 Z-2.1333 I-0.25 J0.0
G2 Y27.2104 Z-2.2667 I0.125 J0.2165
G2 X64.2561 Y26.9939 Z-2.4 I0.125 J-0.2165
G2 X63.8811 Y26.7774 Z-2.5333 I-0.25 J0.0
G2 Y27.2104 Z-2.6667 I0.125 J0.2165
G2 X64.2561 Y26.9939 Z-2.8 I0.125 J-0.2165
G2 X63.8811 Y26.7774 Z-2.9333 I-0.25 J0.0
G2 Y27.2104 Z-3.0667 I0.125 J0.2165
G2 X64.2561 Y26.9939 Z-3.2 I0.125 J-0.2165
G2 X63.8811 Y26.7774 Z-3.3333 I-0.25 J0.0
G2 Y27.2104 Z-3.4667 I0.125 J0.2165
G2 X64.2561 Y26.9939 Z-3.6 I0.125 J-0.2165
G2 X63.8811 Y26.7774 Z-3.7333 I-0.25 J0.0
G2 Y27.2104 Z-3.8667 I0.125 J0.2165
G2 X64.2561 Y26.9939 Z-4.0 I0.125 J-0.2165
G2 X63.8811 Y26.7774 Z-4.1333 I-0.25 J0.0
G2 X63.7561 Y26.9939 Z-4.2 I0.125 J0.2165
G2 X64.1311 Y27.2104 I0.25 J0.0
G2 Y26.7774 I-0.125 J-0.2165
G2 X63.7561 Y26.9939 I-0.125 J0.2165
G0 Z3.0
G0 X66.847 Y37.9329
G0 Z1.0
G1 F300.0 Z0.0
G2 F500.0 X66.472 Y37.7164 Z-0.1333 I-0.25 J0.0
G2 Y38.1494 Z-0.2667 I0.125 J0.2165
G2 X66.847 Y37.9329 Z-0.4 I0.125 J-0.2165
G2 X66.472 Y37.7164 Z-0.5333 I-0.25 J0.0
G2 Y38.1494 Z-0.6667 I0.125 J0.2165
G2 X66.847 Y37.9329 Z-0.8 I0.125 J-0.2165
G2 X66.472 Y37.7164 Z-0.9333 I-0.25 J0.0
G2 Y38.1494 Z-1.0667 I0.125 J0.2165
G2 X66.847 Y37.9329 Z-1.2 I0.125 J-0.2165
G2 X66.472 Y37.7164 Z-1.3333 I-0.25 J0.0
G2 Y38.1494 Z-1.4667 I0.125 J0.2165
G2 X66.847 Y37.9329 Z-1.6 I0.125 J-0.2165
G2 X66.472 Y37.7164 Z-1.7333 I-0.25 J0.0
G2 Y38.1494 Z-1.8667 I0.125 J0.2165
G2 X66.847 Y37.9329 Z-2.0 I0.125 J-0.2165
G2 X66.472 Y37.7164 Z-2.1333 I-0.25 J0.0
G2 Y38.1494 Z-2.2667 I0.125 J0.2165
G2 X66.847 Y37.9329 Z-2.4 I0.125 J-0.2165
G2 X66.472 Y37.7164 Z-2.5333 I-0.25 J0.0
G2 Y38.1494 Z-2.6667 I0.125 J0.2165
G2 X66.847 Y37.9329 Z-2.8 I0.125 J-0.2165
G2 X66.472 Y37.7164 Z-2.9333 I-0.25 J0.0
G2 Y38.1494 Z-3.0667 I0.125 J0.2165
G2 X66.847 Y37.9329 Z-3.2 I0.125 J-0.2165
G2 X66.472 Y37.7164 Z-3.3333 I-0.25 J0.0
G2 Y38.1494 Z-3.4667 I0.125 J0.2165
G2 X66.847 Y37.9329 Z-3.6 I0.125 J-0.2165
G2 X66.472 Y37.7164 Z-3.7333 I-0.25 J0.0
G2 Y38.1494 Z-3.8667 I0.125 J0.2165
G2 X66.847 Y37.9329 Z-4.0 I0.125 J-0.2165
G2 X66.472 Y37.7164 Z-4.1333 I-0.25 J0.0
G2 X66.347 Y37.9329 Z-4.2 I0.125 J0.2165
G2 X66.722 Y38.1494 I0.25 J0.0
G2 Y37.7164 I-0.125 J-0.2165
G2 X66.347 Y37.9329 I-0.125 J0.2165
G0 Z3.0
G0 X63.1515 Y39.4636
G0 Z1.0
G1 F300.0 Z0.0
G2 F500.0 X62.7765 Y39.2471 Z-0.1333 I-0.25 J0.0
G2 Y39.6802 Z-0.2667 I0.125 J0.2165
G2 X63.1515 Y39.4636 Z-0.4 I0.125 J-0.2165
G2 X62.7765 Y39.2471 Z-0.5333 I-0.25 J0.0
G2 Y39.6802 Z-0.6667 I0.125 J0.2165
G2 X63.1515 Y39.4636 Z-0.8 I0.125 J-0.2165
G2 X62.7765 Y39.2471 Z-0.9333 I-0.25 J0.0
G2 Y39.6802 Z-1.0667 I0.125 J0.2165
G2 X63.1515 Y39.4636 Z-1.2 I0.125 J-0.2165
G2 X62.7765 Y39.2471 Z-1.3333 I-0.25 J0.0
G2 Y39.6802 Z-1.4667 I0.125 J0.2165
G2 X63.1515 Y39.4636 Z-1.6 I0.125 J-0.2165
G2 X62.7765 Y39.2471 Z-1.7333 I-0.25 J0.0
G2 Y39.6802 Z-1.8667 I0.125 J0.2165
G2 X63.1515 Y39.4636 Z-2.0 I0.125 J-0.2165
G2 X62.7765 Y39.2471 Z-2.1333 I-0.25 J0.0
G2 Y39.6802 Z-2.2667 I0.125 J0.2165
G2 X63.1515 Y39.4636 Z-2.4 I0.125 J-0.2165
G2 X62.7765 Y39.2471 Z-2.5333 I-0.25 J0.0
G2 Y39.6802 Z-2.6667 I0.125 J0.2165
G2 X63.1515 Y39.4636 Z-2.8 I0.125 J-0.2165
G2 X62.7765 Y39.2471 Z-2.9333 I-0.25 J0.0
G2 Y39.6802 Z-3.0667 I0.125 J0.2165
G2 X63.1515 Y39.4636 Z-3.2 I0.125 J-0.2165
G2 X62.7765 Y39.2471 Z-3.3333 I-0.25 J0.0
G2 Y39.6802 Z-3.4667 I0.125 J0.2165
G2 X63.1515 Y39.4636 Z-3.6 I0.125 J-0.2165
G2 X62.7765 Y39.2471 Z-3.7333 I-0.25 J0.0
G2 Y39.6802 Z-3.8667 I0.125 J0.2165
G2 X63.1515 Y39.4636 Z-4.0 I0.125 J-0.2165
G2 X62.7765 Y39.2471 Z-4.1333 I-0.25 J0.0
G2 X62.6515 Y39.4636 Z-4.2 I0.125 J0.2165
G2 X63.0265 Y39.6802 I0.25 J0.0
G2 Y39.2471 I-0.125 J-0.2165
G2 X62.6515 Y39.4636 I-0.125 J0.2165
G0 Z3.0
G0 X59.456 Y40.9944
G0 Z1.0
G1 F300.0 Z0.0
G2 F500.0 X59.081 Y40.7779 Z-0.1333 I-0.25 J0.0
G2 Y41.2109 Z-0.2667 I0.125 J0.2165
G2 X59.456 Y40.9944 Z-0.4 I0.125 J-0.2165
G2 X59.081 Y40.7779 Z-0.5333 I-0.25 J0.0
G2 Y41.2109 Z-0.6667 I0.125 J0.2165
G2 X59.456 Y40.9944 Z-0.8 I0.125 J-0.2165
G2 X59.081 Y40.7779 Z-0.9333 I-0.25 J0.0
G2 Y41.2109 Z-1.0667 I0.125 J0.2165
G2 X59.456 Y40.9944 Z-1.2 I0.125 J-0.2165
G2 X59.081 Y40.7779 Z-1.3333 I-0.25 J0.0
G2 Y41.2109 Z-1.4667 I0.125 J0.2165
G2 X59.456 Y40.9944 Z-1.6 I0.125 J-0.2165
G2 X59.081 Y40.7779 Z-1.7333 I-0.25 J0.0
G2 Y41.2109 Z-1.8667 I0.125 J0.2165
G2 X59.456 Y40.9944 Z-2.0 I0.125 J-0.2165
G2 X59.081 Y40.7779 Z-2.1333 I-0.25 J0.0
G2 Y41.2109 Z-2.2667 I0.125 J0.2165
G2 X59.456 Y40.9944 Z-2.4 I0.125 J-0.2165
G2 X59.081 Y40.7779 Z-2.5333 I-0.25 J0.0
G2 Y41.2109 Z-2.6667 I0.125 J0.2165
G2 X59.456 Y40.9944 Z-2.8 I0.125 J-0.2165
G2 X59.081 Y40.7779 Z-2.9333 I-0.25 J0.0
G2 Y41.2109 Z-3.0667 I0.125 J0.2165
G2 X59.456 Y40.9944 Z-3.2 I0.125 J-0.2165
G2 X59.081 Y40.7779 Z-3.3333 I-0.25 J0.0
G2 Y41.2109 Z-3.4667 I0.125 J0.2165
G2 X59.456 Y40.9944 Z-3.6 I0.125 J-0.2165
G2 X59.081 Y40.7779 Z-3.7333 I-0.25 J0.0
G2 Y41.2109 Z-3.8667 I0.125 J0.2165
G2 X59.456 Y40.9944 Z-4.0 I0.125 J-0.2165
G2 X59.081 Y40.7779 Z-4.1333 I-0.25 J0.0
G2 X58.956 Y40.9944 Z-4.2 I0.125 J0.2165
G2 X59.331 Y41.2109 I0.25 J0.0
G2 Y40.7779 I-0.125 J-0.2165
G2 X58.956 Y40.9944 I-0.125 J0.2165
G0 Z3.0
G0 X55.7604 Y42.5251
G0 Z1.0
G1 F300.0 Z0.0
G2 F500.0 X55.3854 Y42.3086 Z-0.1333 I-0.25 J0.0
G2 Y42.7416 Z-0.2667 I0.125 J0.2165
G2 X55.7604 Y42.5251 Z-0.4 I0.125 J-0.2165
G2 X55.3854 Y42.3086 Z-0.5333 I-0.25 J0.0
G2 Y42.7416 Z-0.6667 I0.125 J0.2165
G2 X55.7604 Y42.5251 Z-0.8 I0.125 J-0.2165
G2 X55.3854 Y42.3086 Z-0.9333 I-0.25 J0.0
G2 Y42.7416 Z-1.0667 I0.125 J0.2165
G2 X55.7604 Y42.5251 Z-1.2 I0.125 J-0.2165
G2 X55.3854 Y42.3086 Z-1.3333 I-0.25 J0.0
G2 Y42.7416 Z-1.4667 I0.125 J0.2165
G2 X55.7604 Y42.5251 Z-1.6 I0.125 J-0.2165
G2 X55.3854 Y42.3086 Z-1.7333 I-0.25 J0.0
G2 Y42.7416 Z-1.8667 I0.125 J0.2165
G2 X55.7604 Y42.5251 Z-2.0 I0.125 J-0.2165
G2 X55.3854 Y42.3086 Z-2.1333 I-0.25 J0.0
G2 Y42.7416 Z-2.2667 I0.125 J0.2165
G2 X55.7604 Y42.5251 Z-2.4 I0.125 J-0.2165
G2 X55.3854 Y42.3086 Z-2.5333 I-0.25 J0.0
G2 Y42.7416 Z-2.6667 I0.125 J0.2165
G2 X55.7604 Y42.5251 Z-2.8 I0.125 J-0.2165
G2 X55.3854 Y42.3086 Z-2.9333 I-0.25 J0.0
G2 Y42.7416 Z-3.0667 I0.125 J0.2165
G2 X55.7604 Y42.5251 Z-3.2 I0.125 J-0.2165
G2 X55.3854 Y42.3086 Z-3.3333 I-0.25 J0.0
G2 Y42.7416 Z-3.4667 I0.125 J0.2165
G2 X55.7604 Y42.5251 Z-3.6 I0.125 J-0.2165
G2 X55.3854 Y42.3086 Z-3.7333 I-0.25 J0.0
G2 Y42.7416 Z-3.8667 I0.125 J0.2165
G2 X55.7604 Y42.5251 Z-4.0 I0.125 J-0.2165
G2 X55.3854 Y42.3086 Z-4.1333 I-0.25 J0.0
G2 X55.2604 Y42.5251 Z-4.2 I0.125 J0.2165
G2 X55.6354 Y42.7416 I0.25 J0.0
G2 Y42.3086 I-0.125 J-0.2165
G2 X55.2604 Y42.5251 I-0.125 J0.2165
G0 Z3.0
G0 X56.75 Y47.5
G0 Z1.0
G1 F300.0 Z0.0
G2 F500.0 X56.375 Y47.2835 Z-0.1333 I-0.25 J0.0
G2 Y47.7165 Z-0.2667 I0.125 J0.2165
G2 X56.75 Y47.5 Z-0.4 I0.125 J-0.2165
G2 X56.375 Y47.2835 Z-0.5333 I-0.25 J0.0
G2 Y47.7165 Z-0.6667 I0.125 J0.2165
G2 X56.75 Y47.5 Z-0.8 I0.125 J-0.2165
G2 X56.375 Y47.2835 Z-0.9333 I-0.25 J0.0
G2 Y47.7165 Z-1.0667 I0.125 J0.2165
G2 X56.75 Y47.5 Z-1.2 I0.125 J-0.2165
G2 X56.375 Y47.2835 Z-1.3333 I-0.25 J0.0
G2 Y47.7165 Z-1.4667 I0.125 J0.2165
G2 X56.75 Y47.5 Z-1.6 I0.125 J-0.2165
G2 X56.375 Y47.2835 Z-1.7333 I-0.25 J0.0
G2 Y47.7165 Z-1.8667 I0.125 J0.2165
G2 X56.75 Y47.5 Z-2.0 I0.125 J-0.2165
G2 X56.375 Y47.2835 Z-2.1333 I-0.25 J0.0
G2 Y47.7165 Z-2.2667 I0.125 J0.2165
G2 X56.75 Y47.5 Z-2.4 I0.125 J-0.2165
G2 X56.375 Y47.2835 Z-2.5333 I-0.25 J0.0
G2 Y47.7165 Z-2.6667 I0.125 J0.2165
G2 X56.75 Y47.5 Z-2.8 I0.125 J-0.2165
G2 X56.375 Y47.2835 Z-2.9333 I-0.25 J0.0
G2 Y47.7165 Z-3.0667 I0.125 J0.2165
G2 X56.75 Y47.5 Z-3.2 I0.125 J-0.2165
G2 X56.375 Y47.2835 Z-3.3333 I-0.25 J0.0
G2 Y47.7165 Z-3.4667 I0.125 J0.2165
G2 X56.75 Y47.5 Z-3.6 I0.125 J-0.2165
G2 X56.375 Y47.2835 Z-3.7333 I-0.25 J0.0
G2 Y47.7165 Z-3.8667 I0.125 J0.2165
G2 X56.75 Y47.5 Z-4.0 I0.125 J-0.2165
G2 X56.375 Y47.2835 Z-4.1333 I-0.25 J0.0
G2 X56.25 Y47.5 Z-4.2 I0.125 J0.2165
G2 X56.625 Y47.7165 I0.25 J0.0
G2 Y47.2835 I-0.125 J-0.2165
G2 X56.25 Y47.5 I-0.125 J0.2165
G0 Z3.0
G0 X60.75
G0 Z1.0
G1 F300.0 Z0.0
G2 F500.0 X60.375 Y47.2835 Z-0.1333 I-0.25 J0.0
G2 Y47.7165 Z-0.2667 I0.125 J0.2165
G2 X60.75 Y47.5 Z-0.4 I0.125 J-0.2165
G2 X60.375 Y47.2835 Z-0.5333 I-0.25 J0.0
G2 Y47.7165 Z-0.6667 I0.125 J0.2165
G2 X60.75 Y47.5 Z-0.8 I0.125 J-0.2165
G2 X60.375 Y47.2835 Z-0.9333 I-0.25 J0.0
G2 Y47.7165 Z-1.0667 I0.125 J0.2165
G2 X60.75 Y47.5 Z-1.2 I0.125 J-0.2165
G2 X60.375 Y47.2835 Z-1.3333 I-0.25 J0.0
G2 Y47.7165 Z-1.4667 I0.125 J0.2165
G2 X60.75 Y47.5 Z-1.6 I0.125 J-0.2165
G2 X60.375 Y47.2835 Z-1.7333 I-0.25 J0.0
G2 Y47.7165 Z-1.8667 I0.125 J0.2165
G2 X60.75 Y47.5 Z-2.0 I0.125 J-0.2165
G2 X60.375 Y47.2835 Z-2.1333 I-0.25 J0.0
G2 Y47.7165 Z-2.2667 I0.125 J0.2165
G2 X60.75 Y47.5 Z-2.4 I0.125 J-0.2165
G2 X60.375 Y47.2835 Z-2.5333 I-0.25 J0.0
G2 Y47.7165 Z-2.6667 I0.125 J0.2165
G2 X60.75 Y47.5 Z-2.8 I0.125 J-0.2165
G2 X60.375 Y47.2835 Z-2.9333 I-0.25 J0.0
G2 Y47.7165 Z-3.0667 I0.125 J0.2165
G2 X60.75 Y47.5 Z-3.2 I0.125 J-0.2165
G2 X60.375 Y47.2835 Z-3.3333 I-0.25 J0.0
G2 Y47.7165 Z-3.4667 I0.125 J0.2165
G2 X60.75 Y47.5 Z-3.6 I0.125 J-0.2165
G2 X60.375 Y47.2835 Z-3.7333 I-0.25 J0.0
G2 Y47.7165 Z-3.8667 I0.125 J0.2165
G2 X60.75 Y47.5 Z-4.0 I0.125 J-0.2165
G2 X60.375 Y47.2835 Z-4.1333 I-0.25 J0.0
G2 X60.25 Y47.5 Z-4.2 I0.125 J0.2165
G2 X60.625 Y47.7165 I0.25 J0.0
G2 Y47.2835 I-0.125 J-0.2165
G2 X60.25 Y47.5 I-0.125 J0.2165
G0 Z3.0
G0 X64.75
G0 Z1.0
G1 F300.0 Z0.0
G2 F500.0 X64.375 Y47.2835 Z-0.1333 I-0.25 J0.0
G2 Y47.7165 Z-0.2667 I0.125 J0.2165
G2 X64.75 Y47.5 Z-0.4 I0.125 J-0.2165
G2 X64.375 Y47.2835 Z-0.5333 I-0.25 J0.0
G2 Y47.7165 Z-0.6667 I0.125 J0.2165
G2 X64.75 Y47.5 Z-0.8 I0.125 J-0.2165
G2 X64.375 Y47.2835 Z-0.9333 I-0.25 J0.0
G2 Y47.7165 Z-1.0667 I0.125 J0.2165
G2 X64.75 Y47.5 Z-1.2 I0.125 J-0.2165
G2 X64.375 Y47.2835 Z-1.3333 I-0.25 J0.0
G2 Y47.7165 Z-1.4667 I0.125 J0.2165
G2 X64.75 Y47.5 Z-1.6 I0.125 J-0.2165
G2 X64.375 Y47.2835 Z-1.7333 I-0.25 J0.0
G2 Y47.7165 Z-1.8667 I0.125 J0.2165
G2 X64.75 Y47.5 Z-2.0 I0.125 J-0.2165
G2 X64.375 Y47.2835 Z-2.1333 I-0.25 J0.0
G2 Y47.7165 Z-2.2667 I0.125 J0.2165
G2 X64.75 Y47.5 Z-2.4 I0.125 J-0.2165
G2 X64.375 Y47.2835 Z-2.5333 I-0.25 J0.0
G2 Y47.7165 Z-2.6667 I0.125 J0.2165
G2 X64.75 Y47.5 Z-2.8 I0.125 J-0.2165
G2 X64.375 Y47.2835 Z-2.9333 I-0.25 J0.0
G2 Y47.7165 Z-3.0667 I0.125 J0.2165
G2 X64.75 Y47.5 Z-3.2 I0.125 J-0.2165
G2 X64.375 Y47.2835 Z-3.3333 I-0.25 J0.0
G2 Y47.7165 Z-3.4667 I0.125 J0.2165
G2 X64.75 Y47.5 Z-3.6 I0.125 J-0.2165
G2 X64.375 Y47.2835 Z-3.7333 I-0.25 J0.0
G2 Y47.7165 Z-3.8667 I0.125 J0.2165
G2 X64.75 Y47.5 Z-4.0 I0.125 J-0.2165
G2 X64.375 Y47.2835 Z-4.1333 I-0.25 J0.0
G2 X64.25 Y47.5 Z-4.2 I0.125 J0.2165
G2 X64.625 Y47.7165 I0.25 J0.0
G2 Y47.2835 I-0.125 J-0.2165
G2 X64.25 Y47.5 I-0.125 J0.2165
G0 Z3.0
G0 X68.75
G0 Z1.0
G1 F300.0 Z0.0
G2 F500.0 X68.375 Y47.2835 Z-0.1333 I-0.25 J0.0
G2 Y47.7165 Z-0.2667 I0.125 J0.2165
G2 X68.75 Y47.5 Z-0.4 I0.125 J-0.2165
G2 X68.375 Y47.2835 Z-0.5333 I-0.25 J0.0
G2 Y47.7165 Z-0.6667 I0.125 J0.2165
G2 X68.75 Y47.5 Z-0.8 I0.125 J-0.2165
G2 X68.375 Y47.2835 Z-0.9333 I-0.25 J0.0
G2 Y47.7165 Z-1.0667 I0.125 J0.2165
G2 X68.75 Y47.5 Z-1.2 I0.125 J-0.2165
G2 X68.375 Y47.2835 Z-1.3333 I-0.25 J0.0
G2 Y47.7165 Z-1.4667 I0.125 J0.2165
G2 X68.75 Y47.5 Z-1.6 I0.125 J-0.2165
G2 X68.375 Y47.2835 Z-1.7333 I-0.25 J0.0
G2 Y47.7165 Z-1.8667 I0.125 J0.2165
G2 X68.75 Y47.5 Z-2.0 I0.125 J-0.2165
G2 X68.375 Y47.2835 Z-2.1333 I-0.25 J0.0
G2 Y47.7165 Z-2.2667 I0.125 J0.2165
G2 X68.75 Y47.5 Z-2.4 I0.125 J-0.2165
G2 X68.375 Y47.2835 Z-2.5333 I-0.25 J0.0
G2 Y47.7165 Z-2.6667 I0.125 J0.2165
G2 X68.75 Y47.5 Z-2.8 I0.125 J-0.2165
G2 X68.375 Y47.2835 Z-2.9333 I-0.25 J0.0
G2 Y47.7165 Z-3.0667 I0.125 J0.2165
G2 X68.75 Y47.5 Z-3.2 I0.125 J-0.2165
G2 X68.375 Y47.2835 Z-3.3333 I-0.25 J0.0
G2 Y47.7165 Z-3.4667 I0.125 J0.2165
G2 X68.75 Y47.5 Z-3.6 I0.125 J-0.2165
G2 X68.375 Y47.2835 Z-3.7333 I-0.25 J0.0
G2 Y47.7165 Z-3.8667 I0.125 J0.2165
G2 X68.75 Y47.5 Z-4.0 I0.125 J-0.2165
G2 X68.375 Y47.2835 Z-4.1333 I-0.25 J0.0
G2 X68.25 Y47.5 Z-4.2 I0.125 J0.2165
G2 X68.625 Y47.7165 I0.25 J0.0
G2 Y47.2835 I-0.125 J-0.2165
G2 X68.25 Y47.5 I-0.125 J0.2165
G0 Z3.0
G0 X72.75
G0 Z1.0
G1 F300.0 Z0.0
G2 F500.0 X72.375 Y47.2835 Z-0.1333 I-0.25 J0.0
G2 Y47.7165 Z-0.2667 I0.125 J0.2165
G2 X72.75 Y47.5 Z-0.4 I0.125 J-0.2165
G2 X72.375 Y47.2835 Z-0.5333 I-0.25 J0.0
G2 Y47.7165 Z-0.6667 I0.125 J0.2165
G2 X72.75 Y47.5 Z-0.8 I0.125 J-0.2165
G2 X72.375 Y47.2835 Z-0.9333 I-0.25 J0.0
G2 Y47.7165 Z-1.0667 I0.125 J0.2165
G2 X72.75 Y47.5 Z-1.2 I0.125 J-0.2165
G2 X72.375 Y47.2835 Z-1.3333 I-0.25 J0.0
G2 Y47.7165 Z-1.4667 I0.125 J0.2165
G2 X72.75 Y47.5 Z-1.6 I0.125 J-0.2165
G2 X72.375 Y47.2835 Z-1.7333 I-0.25 J0.0
G2 Y47.7165 Z-1.8667 I0.125 J0.2165
G2 X72.75 Y47.5 Z-2.0 I0.125 J-0.2165
G2 X72.375 Y47.2835 Z-2.1333 I-0.25 J0.0
G2 Y47.7165 Z-2.2667 I0.125 J0.2165
G2 X72.75 Y47.5 Z-2.4 I0.125 J-0.2165
G2 X72.375 Y47.2835 Z-2.5333 I-0.25 J0.0
G2 Y47.7165 Z-2.6667 I0.125 J0.2165
G2 X72.75 Y47.5 Z-2.8 I0.125 J-0.2165
G2 X72.375 Y47.2835 Z-2.9333 I-0.25 J0.0
G2 Y47.7165 Z-3.0667 I0.125 J0.2165
G2 X72.75 Y47.5 Z-3.2 I0.125 J-0.2165
G2 X72.375 Y47.2835 Z-3.3333 I-0.25 J0.0
G2 Y47.7165 Z-3.4667 I0.125 J0.2165
G2 X72.75 Y47.5 Z-3.6 I0.125 J-0.2165
G2 X72.375 Y47.2835 Z-3.7333 I-0.25 J0.0
G2 Y47.7165 Z-3.8667 I0.125 J0.2165
G2 X72.75 Y47.5 Z-4.0 I0.125 J-0.2165
G2 X72.375 Y47.2835 Z-4.1333 I-0.25 J0.0
G2 X72.25 Y47.5 Z-4.2 I0.125 J0.2165
G2 X72.625 Y47.7165 I0.25 J0.0
G2 Y47.2835 I-0.125 J-0.2165
G2 X72.25 Y47.5 I-0.125 J0.2165
G0 Z3.0
G0 X66.847 Y57.0671
G0 Z1.0
G1 F300.0 Z0.0
G2 F500.0 X66.472 Y56.8506 Z-0.1333 I-0.25 J0.0
G2 Y57.2836 Z-0.2667 I0.125 J0.2165
G2 X66.847 Y57.0671 Z-0.4 I0.125 J-0.2165
G2 X66.472 Y56.8506 Z-0.5333 I-0.25 J0.0
G2 Y57.2836 Z-0.6667 I0.125 J0.2165
G2 X66.847 Y57.0671 Z-0.8 I0.125 J-0.2165
G2 X66.472 Y56.8506 Z-0.9333 I-0.25 J0.0
G2 Y57.2836 Z-1.0667 I0.125 J0.2165
G2 X66.847 Y57.0671 Z-1.2 I0.125 J-0.2165
G2 X66.472 Y56.8506 Z-1.3333 I-0.25 J0.0
G2 Y57.2836 Z-1.4667 I0.125 J0.2165
G2 X66.847 Y57.0671 Z-1.6 I0.125 J-0.2165
G2 X66.472 Y56.8506 Z-1.7333 I-0.25 J0.0
G2 Y57.2836 Z-1.8667 I0.125 J0.2165
G2 X66.847 Y57.0671 Z-2.0 I0.125 J-0.2165
G2 X66.472 Y56.8506 Z-2.1333 I-0.25 J0.0
G2 Y57.2836 Z-2.2667 I0.125 J0.2165
G2 X66.847 Y57.0671 Z-2.4 I0.125 J-0.2165
G2 X66.472 Y56.8506 Z-2.5333 I-0.25 J0.0
G2 Y57.2836 Z-2.6667 I0.125 J0.2165
G2 X66.847 Y57.0671 Z-2.8 I0.125 J-0.2165
G2 X66.472 Y56.8506 Z-2.9333 I-0.25 J0.0
G2 Y57.2836 Z-3.0667 I0.125 J0.2165
G2 X66.847 Y57.0671 Z-3.2 I0.125 J-0.2165
G2 X66.472 Y56.8506 Z-3.3333 I-0.25 J0.0
G2 Y57.2836 Z-3.4667 I0.125 J0.2165
G2 X66.847 Y57.0671 Z-3.6 I0.125 J-0.2165
G2 X66.472 Y56.8506 Z-3.7333 I-0.25 J0.0
G2 Y57.2836 Z-3.8667 I0.125 J0.2165
G2 X66.847 Y57.0671 Z-4.0 I0.125 J-0.2165
G2 X66.472 Y56.8506 Z-4.1333 I-0.25 J0.0
G2 X66.347 Y57.0671 Z-4.2 I0.125 J0.2165
G2 X66.722 Y57.2836 I0.25 J0.0
G2 Y56.8506 I-0.125 J-0.2165
G2 X66.347 Y57.0671 I-0.125 J0.2165
G0 Z3.0
G0 X63.1515 Y55.5364
G0 Z1.0
G1 F300.0 Z0.0
G2 F500.0 X62.7765 Y55.3198 Z-0.1333 I-0.25 J0.0
G2 Y55.7529 Z-0.2667 I0.125 J0.2165
G2 X63.1515 Y55.5364 Z-0.4 I0.125 J-0.2165
G2 X62.7765 Y55.3198 Z-0.5333 I-0.25 J0.0
G2 Y55.7529 Z-0.6667 I0.125 J0.2165
G2 X63.1515 Y55.5364 Z-0.8 I0.125 J-0.2165
G2 X62.7765 Y55.3198 Z-0.9333 I-0.25 J0.0
G2 Y55.7529 Z-1.0667 I0.125 J0.2165
G2 X63.1515 Y55.5364 Z-1.2 I0.125 J-0.2165
G2 X62.7765 Y55.3198 Z-1.3333 I-0.25 J0.0
G2 Y55.7529 Z-1.4667 I0.125 J0.2165
G2 X63.1515 Y55.5364 Z-1.6 I0.125 J-0.2165
G2 X62.7765 Y55.3198 Z-1.7333 I-0.25 J0.0
G2 Y55.7529 Z-1.8667 I0.125 J0.2165
G2 X63.1515 Y55.5364 Z-2.0 I0.125 J-0.2165
G2 X62.7765 Y55.3198 Z-2.1333 I-0.25 J0.0
G2 Y55.7529 Z-2.2667 I0.125 J0.2165
G2 X63.1515 Y55.5364 Z-2.4 I0.125 J-0.2165
G2 X62.7765 Y55.3198 Z-2.5333 I-0.25 J0.0
G2 Y55.7529 Z-2.6667 I0.125 J0.2165
G2 X63.1515 Y55.5364 Z-2.8 I0.125 J-0.2165
G2 X62.7765 Y55.3198 Z-2.9333 I-0.25 J0.0
G2 Y55.7529 Z-3.0667 I0.125 J0.2165
G2 X63.1515 Y55.5364 Z-3.2 I0.125 J-0.2165
G2 X62.7765 Y55.3198 Z-3.3333 I-0.25 J0.0
G2 Y55.7529 Z-3.4667 I0.125 J0.2165
G2 X63.1515 Y55.5364 Z-3.6 I0.125 J-0.2165
G2 X62.7765 Y55.3198 Z-3.7333 I-0.25 J0.0
G2 Y55.7529 Z-3.8667 I0.125 J0.2165
G2 X63.1515 Y55.5364 Z-4.0 I0.125 J-0.2165
G2 X62.7765 Y55.3198 Z-4.1333 I-0.25 J0.0
G2 X62.6515 Y55.5364 Z-4.2 I0.125 J0.2165
G2 X63.0265 Y55.7529 I0.25 J0.0
G2 Y55.3198 I-0.125 J-0.2165
G2 X62.6515 Y55.5364 I-0.125 J0.2165
G0 Z3.0
G0 X59.456 Y54.0056
G0 Z1.0
G1 F300.0 Z0.0
G2 F500.0 X59.081 Y53.7891 Z-0.1333 I-0.25 J0.0
G2 Y54.2221 Z-0.2667 I0.125 J0.2165
G2 X59.456 Y54.0056 Z-0.4 I0.125 J-0.2165
G2 X59.081 Y53.7891 Z-0.5333 I-0.25 J0.0
G2 Y54.2221 Z-0.6667 I0.125 J0.2165
G2 X59.456 Y54.0056 Z-0.8 I0.125 J-0.2165
G2 X59.081 Y53.7891 Z-0.9333 I-0.25 J0.0
G2 Y54.2221 Z-1.0667 I0.125 J0.2165
G2 X59.456 Y54.0056 Z-1.2 I0.125 J-0.2165
G2 X59.081 Y53.7891 Z-1.3333 I-0.25 J0.0
G2 Y54.2221 Z-1.4667 I0.125 J0.2165
G2 X59.456 Y54.0056 Z-1.6 I0.125 J-0.2165
G2 X59.081 Y53.7891 Z-1.7333 I-0.25 J0.0
G2 Y54.2221 Z-1.8667 I0.125 J0.2165
G2 X59.456 Y54.0056 Z-2.0 I0.125 J-0.2165
G2 X59.081 Y53.7891 Z-2.1333 I-0.25 J0.0
G2 Y54.2221 Z-2.2667 I0.125 J0.2165
G2 X59.456 Y54.0056 Z-2.4 I0.125 J-0.2165
G2 X59.081 Y53.7891 Z-2.5333 I-0.25 J0.0
G2 Y54.2221 Z-2.6667 I0.125 J0.2165
G2 X59.456 Y54.0056 Z-2.8 I0.125 J-0.2165
G2 X59.081 Y53.7891 Z-2.9333 I-0.25 J0.0
G2 Y54.2221 Z-3.0667 I0.125 J0.2165
G2 X59.456 Y54.0056 Z-3.2 I0.125 J-0.2165
G2 X59.081 Y53.7891 Z-3.3333 I-0.25 J0.0
G2 Y54.2221 Z-3.4667 I0.125 J0.2165
G2 X59.456 Y54.0056 Z-3.6 I0.125 J-0.2165
G2 X59.081 Y53.7891 Z-3.7333 I-0.25 J0.0
G2 Y54.2221 Z-3.8667 I0.125 J0.2165
G2 X59.456 Y54.0056 Z-4.0 I0.125 J-0.2165
G2 X59.081 Y53.7891 Z-4.1333 I-0.25 J0.0
G2 X58.956 Y54.0056 Z-4.2 I0.125 J0.2165
G2 X59.331 Y54.2221 I0.25 J0.0
G2 Y53.7891 I-0.125 J-0.2165
G2 X58.956 Y54.0056 I-0.125 J0.2165
G0 Z3.0
G0 X55.7604 Y52.4749
G0 Z1.0
G1 F300.0 Z0.0
G2 F500.0 X55.3854 Y52.2584 Z-0.1333 I-0.25 J0.0
G2 Y52.6914 Z-0.2667 I0.125 J0.2165
G2 X55.7604 Y52.4749 Z-0.4 I0.125 J-0.2165
G2 X55.3854 Y52.2584 Z-0.5333 I-0.25 J0.0
G2 Y52.6914 Z-0.6667 I0.125 J0.2165
G2 X55.7604 Y52.4749 Z-0.8 I0.125 J-0.2165
G2 X55.3854 Y52.2584 Z-0.9333 I-0.25 J0.0
G2 Y52.6914 Z-1.0667 I0.125 J0.2165
G2 X55.7604 Y52.4749 Z-1.2 I0.125 J-0.2165
G2 X55.3854 Y52.2584 Z-1.3333 I-0.25 J0.0
G2 Y52.6914 Z-1.4667 I0.125 J0.2165
G2 X55.7604 Y52.4749 Z-1.6 I0.125 J-0.2165
G2 X55.3854 Y52.2584 Z-1.7333 I-0.25 J0.0
G2 Y52.6914 Z-1.8667 I0.125 J0.2165
G2 X55.7604 Y52.4749 Z-2.0 I0.125 J-0.2165
G2 X55.3854 Y52.2584 Z-2.1333 I-0.25 J0.0
G2 Y52.6914 Z-2.2667 I0.125 J0.2165
G2 X55.7604 Y52.4749 Z-2.4 I0.125 J-0.2165
G2 X55.3854 Y52.2584 Z-2.5333 I-0.25 J0.0
G2 Y52.6914 Z-2.6667 I0.125 J0.2165
G2 X55.7604 Y52.4749 Z-2.8 I0.125 J-0.2165
G2 X55.3854 Y52.2584 Z-2.9333 I-0.25 J0.0
G2 Y52.6914 Z-3.0667 I0.125 J0.2165
G2 X55.7604 Y52.4749 Z-3.2 I0.125 J-0.2165
G2 X55.3854 Y52.2584 Z-3.3333 I-0.25 J0.0
G2 Y52.6914 Z-3.4667 I0.125 J0.2165
G2 X55.7604 Y52.4749 Z-3.6 I0.125 J-0.2165
G2 X55.3854 Y52.2584 Z-3.7333 I-0.25 J0.0
G2 Y52.6914 Z-3.8667 I0.125 J0.2165
G2 X55.7604 Y52.4749 Z-4.0 I0.125 J-0.2165
G2 X55.3854 Y52.2584 Z-4.1333 I-0.25 J0.0
G2 X55.2604 Y52.4749 Z-4.2 I0.125 J0.2165
G2 X55.6354 Y52.6914 I0.25 J0.0
G2 Y52.2584 I-0.125 J-0.2165
G2 X55.2604 Y52.4749 I-0.125 J0.2165
G0 Z3.0
G0 X52.9424 Y56.6924
G0 Z1.0
G1 F300.0 Z0.0
G2 F500.0 X52.5674 Y56.4759 Z-0.1333 I-0.25 J0.0
G2 Y56.9089 Z-0.2667 I0.125 J0.2165
G2 X52.9424 Y56.6924 Z-0.4 I0.125 J-0.2165
G2 X52.5674 Y56.4759 Z-0.5333 I-0.25 J0.0
G2 Y56.9089 Z-0.6667 I0.125 J0.2165
G2 X52.9424 Y56.6924 Z-0.8 I0.125 J-0.2165
G2 X52.5674 Y56.4759 Z-0.9333 I-0.25 J0.0
G2 Y56.9089 Z-1.0667 I0.125 J0.2165
G2 X52.9424 Y56.6924 Z-1.2 I0.125 J-0.2165
G2 X52.5674 Y56.4759 Z-1.3333 I-0.25 J0.0
G2 Y56.9089 Z-1.4667 I0.125 J0.2165
G2 X52.9424 Y56.6924 Z-1.6 I0.125 J-0.2165
G2 X52.5674 Y56.4759 Z-1.7333 I-0.25 J0.0
G2 Y56.9089 Z-1.8667 I0.125 J0.2165
G2 X52.9424 Y56.6924 Z-2.0 I0.125 J-0.2165
G2 X52.5674 Y56.4759 Z-2.1333 I-0.25 J0.0
G2 Y56.9089 Z-2.2667 I0.125 J0.2165
G2 X52.9424 Y56.6924 Z-2.4 I0.125 J-0.2165
G2 X52.5674 Y56.4759 Z-2.5333 I-0.25 J0.0
G2 Y56.9089 Z-2.6667 I0.125 J0.2165
G2 X52.9424 Y56.6924 Z-2.8 I0.125 J-0.2165
G2 X52.5674 Y56.4759 Z-2.9333 I-0.25 J0.0
G2 Y56.9089 Z-3.0667 I0.125 J0.2165
G2 X52.9424 Y56.6924 Z-3.2 I0.125 J-0.2165
G2 X52.5674 Y56.4759 Z-3.3333 I-0.25 J0.0
G2 Y56.9089 Z-3.4667 I0.125 J0.2165
G2 X52.9424 Y56.6924 Z-3.6 I0.125 J-0.2165
G2 X52.5674 Y56.4759 Z-3.7333 I-0.25 J0.0
G2 Y56.9089 Z-3.8667 I0.125 J0.2165
G2 X52.9424 Y56.6924 Z-4.0 I0.125 J-0.2165
G2 X52.5674 Y56.4759 Z-4.1333 I-0.25 J0.0
G2 X52.4424 Y56.6924 Z-4.2 I0.125 J0.2165
G2 X52.8174 Y56.9089 I0.25 J0.0
G2 Y56.4759 I-0.125 J-0.2165
G2 X52.4424 Y56.6924 I-0.125 J0.2165
G0 Z3.0
G0 X55.7708 Y59.5208
G0 Z1.0
G1 F300.0 Z0.0
G2 F500.0 X55.3958 Y59.3043 Z-0.1333 I-0.25 J0.0
G2 Y59.7373 Z-0.2667 I0.125 J0.2165
G2 X55.7708 Y59.5208 Z-0.4 I0.125 J-0.2165
G2 X55.3958 Y59.3043 Z-0.5333 I-0.25 J0.0
G2 Y59.7373 Z-0.6667 I0.125 J0.2165
G2 X55.7708 Y59.5208 Z-0.8 I0.125 J-0.2165
G2 X55.3958 Y59.3043 Z-0.9333 I-0.25 J0.0
G2 Y59.7373 Z-1.0667 I0.125 J0.2165
G2 X55.7708 Y59.5208 Z-1.2 I0.125 J-0.2165
G2 X55.3958 Y59.3043 Z-1.3333 I-0.25 J0.0
G2 Y59.7373 Z-1.4667 I0.125 J0.2165
G2 X55.7708 Y59.5208 Z-1.6 I0.125 J-0.2165
G2 X55.3958 Y59.3043 Z-1.7333 I-0.25 J0.0
G2 Y59.7373 Z-1.8667 I0.125 J0.2165
G2 X55.7708 Y59.5208 Z-2.0 I0.125 J-0.2165
G2 X55.3958 Y59.3043 Z-2.1333 I-0.25 J0.0
G2 Y59.7373 Z-2.2667 I0.125 J0.2165
G2 X55.7708 Y59.5208 Z-2.4 I0.125 J-0.2165
G2 X55.3958 Y59.3043 Z-2.5333 I-0.25 J0.0
G2 Y59.7373 Z-2.6667 I0.125 J0.2165
G2 X55.7708 Y59.5208 Z-2.8 I0.125 J-0.2165
G2 X55.3958 Y59.3043 Z-2.9333 I-0.25 J0.0
G2 Y59.7373 Z-3.0667 I0.125 J0.2165
G2 X55.7708 Y59.5208 Z-3.2 I0.125 J-0.2165
G2 X55.3958 Y59.3043 Z-3.3333 I-0.25 J0.0
G2 Y59.7373 Z-3.4667 I0.125 J0.2165
G2 X55.7708 Y59.5208 Z-3.6 I0.125 J-0.2165
G2 X55.3958 Y59.3043 Z-3.7333 I-0.25 J0.0
G2 Y59.7373 Z-3.8667 I0.125 J0.2165
G2 X55.7708 Y59.5208 Z-4.0 I0.125 J-0.2165
G2 X55.3958 Y59.3043 Z-4.1333 I-0.25 J0.0
G2 X55.2708 Y59.5208 Z-4.2 I0.125 J0.2165
G2 X55.6458 Y59.7373 I0.25 J0.0
G2 Y59.3043 I-0.125 J-0.2165
G2 X55.2708 Y59.5208 I-0.125 J0.2165
G0 Z3.0
G0 X58.5992 Y62.3492
G0 Z1.0
G1 F300.0 Z0.0
G2 F500.0 X58.2242 Y62.1327 Z-0.1333 I-0.25 J0.0
G2 Y62.5657 Z-0.2667 I0.125 J0.2165
G2 X58.5992 Y62.3492 Z-0.4 I0.125 J-0.2165
G2 X58.2242 Y62.1327 Z-0.5333 I-0.25 J0.0
G2 Y62.5657 Z-0.6667 I0.125 J0.2165
G2 X58.5992 Y62.3492 Z-0.8 I0.125 J-0.2165
G2 X58.2242 Y62.1327 Z-0.9333 I-0.25 J0.0
G2 Y62.5657 Z-1.0667 I0.125 J0.2165
G2 X58.5992 Y62.3492 Z-1.2 I0.125 J-0.2165
G2 X58.2242 Y62.1327 Z-1.3333 I-0.25 J0.0
G2 Y62.5657 Z-1.4667 I0.125 J0.2165
G2 X58.5992 Y62.3492 Z-1.6 I0.125 J-0.2165
G2 X58.2242 Y62.1327 Z-1.7333 I-0.25 J0.0
G2 Y62.5657 Z-1.8667 I0.125 J0.2165
G2 X58.5992 Y62.3492 Z-2.0 I0.125 J-0.2165
G2 X58.2242 Y62.1327 Z-2.1333 I-0.25 J0.0
G2 Y62.5657 Z-2.2667 I0.125 J0.2165
G2 X58.5992 Y62.3492 Z-2.4 I0.125 J-0.2165
G2 X58.2242 Y62.1327 Z-2.5333 I-0.25 J0.0
G2 Y62.5657 Z-2.6667 I0.125 J0.2165
G2 X58.5992 Y62.3492 Z-2.8 I0.125 J-0.2165
G2 X58.2242 Y62.1327 Z-2.9333 I-0.25 J0.0
G2 Y62.5657 Z-3.0667 I0.125 J0.2165
G2 X58.5992 Y62.3492 Z-3.2 I0.125 J-0.2165
G2 X58.2242 Y62.1327 Z-3.3333 I-0.25 J0.0
G2 Y62.5657 Z-3.4667 I0.125 J0.2165
G2 X58.5992 Y62.3492 Z-3.6 I0.125 J-0.2165
G2 X58.2242 Y62.1327 Z-3.7333 I-0.25 J0.0
G2 Y62.5657 Z-3.8667 I0.125 J0.2165
G2 X58.5992 Y62.3492 Z-4.0 I0.125 J-0.2165
G2 X58.2242 Y62.1327 Z-4.1333 I-0.25 J0.0
G2 X58.0992 Y62.3492 Z-4.2 I0.125 J0.2165
G2 X58.4742 Y62.5657 I0.25 J0.0
G2 Y62.1327 I-0.125 J-0.2165
G2 X58.0992 Y62.3492 I-0.125 J0.2165
G0 Z3.0
G0 X61.4277 Y65.1777
G0 Z1.0
G1 F300.0 Z0.0
G2 F500.0 X61.0527 Y64.9612 Z-0.1333 I-0.25 J0.0
G2 Y65.3942 Z-0.2667 I0.125 J0.2165
G2 X61.4277 Y65.1777 Z-0.4 I0.125 J-0.2165
G2 X61.0527 Y64.9612 Z-0.5333 I-0.25 J0.0
G2 Y65.3942 Z-0.6667 I0.125 J0.2165
G2 X61.4277 Y65.1777 Z-0.8 I0.125 J-0.2165
G2 X61.0527 Y64.9612 Z-0.9333 I-0.25 J0.0
G2 Y65.3942 Z-1.0667 I0.125 J0.2165
G2 X61.4277 Y65.1777 Z-1.2 I0.125 J-0.2165
G2 X61.0527 Y64.9612 Z-1.3333 I-0.25 J0.0
G2 Y65.3942 Z-1.4667 I0.125 J0.2165
G2 X61.4277 Y65.1777 Z-1.6 I0.125 J-0.2165
G2 X61.0527 Y64.9612 Z-1.7333 I-0.25 J0.0
G2 Y65.3942 Z-1.8667 I0.125 J0.2165
G2 X61.4277 Y65.1777 Z-2.0 I0.125 J-0.2165
G2 X61.0527 Y64.9612 Z-2.1333 I-0.25 J0.0
G2 Y65.3942 Z-2.2667 I0.125 J0.2165
G2 X61.4277 Y65.1777 Z-2.4 I0.125 J-0.2165
G2 X61.0527 Y64.9612 Z-2.5333 I-0.25 J0.0
G2 Y65.3942 Z-2.6667 I0.125 J0.2165
G2 X61.4277 Y65.1777 Z-2.8 I0.125 J-0.2165
G2 X61.0527 Y64.9612 Z-2.9333 I-0.25 J0.0
G2 Y65.3942 Z-3.0667 I0.125 J0.2165
G2 X61.4277 Y65.1777 Z-3.2 I0.125 J-0.2165
G2 X61.0527 Y64.9612 Z-3.3333 I-0.25 J0.0
G2 Y65.3942 Z-3.4667 I0.125 J0.2165
G2 X61.4277 Y65.1777 Z-3.6 I0.125 J-0.2165
G2 X61.0527 Y64.9612 Z-3.7333 I-0.25 J0.0
G2 Y65.3942 Z-3.8667 I0.125 J0.2165
G2 X61.4277 Y65.1777 Z-4.0 I0.125 J-0.2165
G2 X61.0527 Y64.9612 Z-4.1333 I-0.25 J0.0
G2 X60.9277 Y65.1777 Z-4.2 I0.125 J0.2165
G2 X61.3027 Y65.3942 I0.25 J0.0
G2 Y64.9612 I-0.125 J-0.2165
G2 X60.9277 Y65.1777 I-0.125 J0.2165
G0 Z3.0
G0 X64.2561 Y68.0061
G0 Z1.0
G1 F300.0 Z0.0
G2 F500.0 X63.8811 Y67.7896 Z-0.1333 I-0.25 J0.0
G2 Y68.2226 Z-0.2667 I0.125 J0.2165
G2 X64.2561 Y68.0061 Z-0.4 I0.125 J-0.2165
G2 X63.8811 Y67.7896 Z-0.5333 I-0.25 J0.0
G2 Y68.2226 Z-0.6667 I0.125 J0.2165
G2 X64.2561 Y68.0061 Z-0.8 I0.125 J-0.2165
G2 X63.8811 Y67.7896 Z-0.9333 I-0.25 J0.0
G2 Y68.2226 Z-1.0667 I0.125 J0.2165
G2 X64.2561 Y68.0061 Z-1.2 I0.125 J-0.2165
G2 X63.8811 Y67.7896 Z-1.3333 I-0.25 J0.0
G2 Y68.2226 Z-1.4667 I0.125 J0.2165
G2 X64.2561 Y68.0061 Z-1.6 I0.125 J-0.2165
G2 X63.8811 Y67.7896 Z-1.7333 I-0.25 J0.0
G2 Y68.2226 Z-1.8667 I0.125 J0.2165
G2 X64.2561 Y68.0061 Z-2.0 I0.125 J-0.2165
G2 X63.8811 Y67.7896 Z-2.1333 I-0.25 J0.0
G2 Y68.2226 Z-2.2667 I0.125 J0.2165
G2 X64.2561 Y68.0061 Z-2.4 I0.125 J-0.2165
G2 X63.8811 Y67.7896 Z-2.5333 I-0.25 J0.0
G2 Y68.2226 Z-2.6667 I0.125 J0.2165
G2 X64.2561 Y68.0061 Z-2.8 I0.125 J-0.2165
G2 X63.8811 Y67.7896 Z-2.9333 I-0.25 J0.0
G2 Y68.2226 Z-3.0667 I0.125 J0.2165
G2 X64.2561 Y68.0061 Z-3.2 I0.125 J-0.2165
G2 X63.8811 Y67.7896 Z-3.3333 I-0.25 J0.0
G2 Y68.2226 Z-3.4667 I0.125 J0.2165
G2 X64.2561 Y68.0061 Z-3.6 I0.125 J-0.2165
G2 X63.8811 Y67.7896 Z-3.7333 I-0.25 J0.0
G2 Y68.2226 Z-3.8667 I0.125 J0.2165
G2 X64.2561 Y68.0061 Z-4.0 I0.125 J-0.2165
G2 X63.8811 Y67.7896 Z-4.1333 I-0.25 J0.0
G2 X63.7561 Y68.0061 Z-4.2 I0.125 J0.2165
G2 X64.1311 Y68.2226 I0.25 J0.0
G2 Y67.7896 I-0.125 J-0.2165
G2 X63.7561 Y68.0061 I-0.125 J0.2165
G0 Z3.0
G0 X53.3171 Y70.597
G0 Z1.0
G1 F300.0 Z0.0
G2 F500.0 X52.9421 Y70.3805 Z-0.1333 I-0.25 J0.0
G2 Y70.8135 Z-0.2667 I0.125 J0.2165
G2 X53.3171 Y70.597 Z-0.4 I0.125 J-0.2165
G2 X52.9421 Y70.3805 Z-0.5333 I-0.25 J0.0
G2 Y70.8135 Z-0.6667 I0.125 J0.2165
G2 X53.3171 Y70.597 Z-0.8 I0.125 J-0.2165
G2 X52.9421 Y70.3805 Z-0.9333 I-0.25 J0.0
G2 Y70.8135 Z-1.0667 I0.125 J0.2165
G2 X53.3171 Y70.597 Z-1.2 I0.125 J-0.2165
G2 X52.9421 Y70.3805 Z-1.3333 I-0.25 J0.0
G2 Y70.8135 Z-1.4667 I0.125 J0.2165
G2 X53.3171 Y70.597 Z-1.6 I0.125 J-0.2165
G2 X52.9421 Y70.3805 Z-1.7333 I-0.25 J0.0
G2 Y70.8135 Z-1.8667 I0.125 J0.2165
G2 X53.3171 Y70.597 Z-2.0 I0.125 J-0.2165
G2 X52.9421 Y70.3805 Z-2.1333 I-0.25 J0.0
G2 Y70.8135 Z-2.2667 I0.125 J0.2165
G2 X53.3171 Y70.597 Z-2.4 I0.125 J-0.2165
G2 X52.9421 Y70.3805 Z-2.5333 I-0.25 J0.0
G2 Y70.8135 Z-2.6667 I0.125 J0.2165
G2 X53.3171 Y70.597 Z-2.8 I0.125 J-0.2165
G2 X52.9421 Y70.3805 Z-2.9333 I-0.25 J0.0
G2 Y70.8135 Z-3.0667 I0.125 J0.2165
G2 X53.3171 Y70.597 Z-3.2 I0.125 J-0.2165
G2 X52.9421 Y70.3805 Z-3.3333 I-0.25 J0.0
G2 Y70.8135 Z-3.4667 I0.125 J0.2165
G2 X53.3171 Y70.597 Z-3.6 I0.125 J-0.2165
G2 X52.9421 Y70.3805 Z-3.7333 I-0.25 J0.0
G2 Y70.8135 Z-3.8667 I0.125 J0.2165
G2 X53.3171 Y70.597 Z-4.0 I0.125 J-0.2165
G2 X52.9421 Y70.3805 Z-4.1333 I-0.25 J0.0
G2 X52.8171 Y70.597 Z-4.2 I0.125 J0.2165
G2 X53.1921 Y70.8135 I0.25 J0.0
G2 Y70.3805 I-0.125 J-0.2165
G2 X52.8171 Y70.597 I-0.125 J0.2165
G0 Z3.0
G0 X51.7864 Y66.9015
G0 Z1.0
G1 F300.0 Z0.0
G2 F500.0 X51.4114 Y66.685 Z-0.1333 I-0.25 J0.0
G2 Y67.118 Z-0.2667 I0.125 J0.2165
G2 X51.7864 Y66.9015 Z-0.4 I0.125 J-0.2165
G2 X51.4114 Y66.685 Z-0.5333 I-0.25 J0.0
G2 Y67.118 Z-0.6667 I0.125 J0.2165
G2 X51.7864 Y66.9015 Z-0.8 I0.125 J-0.2165
G2 X51.4114 Y66.685 Z-0.9333 I-0.25 J0.0
G2 Y67.118 Z-1.0667 I0.125 J0.2165
G2 X51.7864 Y66.9015 Z-1.2 I0.125 J-0.2165
G2 X51.4114 Y66.685 Z-1.3333 I-0.25 J0.0
G2 Y67.118 Z-1.4667 I0.125 J0.2165
G2 X51.7864 Y66.9015 Z-1.6 I0.125 J-0.2165
G2 X51.4114 Y66.685 Z-1.7333 I-0.25 J0.0
G2 Y67.118 Z-1.8667 I0.125 J0.2165
G2 X51.7864 Y66.9015 Z-2.0 I0.125 J-0.2165
G2 X51.4114 Y66.685 Z-2.1333 I-0.25 J0.0
G2 Y67.118 Z-2.2667 I0.125 J0.2165
G2 X51.7864 Y66.9015 Z-2.4 I0.125 J-0.2165
G2 X51.4114 Y66.685 Z-2.5333 I-0.25 J0.0
G2 Y67.118 Z-2.6667 I0.125 J0.2165
G2 X51.7864 Y66.9015 Z-2.8 I0.125 J-0.2165
G2 X51.4114 Y66.685 Z-2.9333 I-0.25 J0.0
G2 Y67.118 Z-3.0667 I0.125 J0.2165
G2 X51.7864 Y66.9015 Z-3.2 I0.125 J-0.2165
G2 X51.4114 Y66.685 Z-3.3333 I-0.25 J0.0
G2 Y67.118 Z-3.4667 I0.125 J0.2165
G2 X51.7864 Y66.9015 Z-3.6 I0.125 J-0.2165
G2 X51.4114 Y66.685 Z-3.7333 I-0.25 J0.0
G2 Y67.118 Z-3.8667 I0.125 J0.2165
G2 X51.7864 Y66.9015 Z-4.0 I0.125 J-0.2165
G2 X51.4114 Y66.685 Z-4.1333 I-0.25 J0.0
G2 X51.2864 Y66.9015 Z-4.2 I0.125 J0.2165
G2 X51.6614 Y67.118 I0.25 J0.0
G2 Y66.685 I-0.125 J-0.2165
G2 X51.2864 Y66.9015 I-0.125 J0.2165
G0 Z3.0
G0 X50.2556 Y63.206
G0 Z1.0
G1 F300.0 Z0.0
G2 F500.0 X49.8806 Y62.9894 Z-0.1333 I-0.25 J0.0
G2 Y63.4225 Z-0.2667 I0.125 J0.2165
G2 X50.2556 Y63.206 Z-0.4 I0.125 J-0.2165
G2 X49.8806 Y62.9894 Z-0.5333 I-0.25 J0.0
G2 Y63.4225 Z-0.6667 I0.125 J0.2165
G2 X50.2556 Y63.206 Z-0.8 I0.125 J-0.2165
G2 X49.8806 Y62.9894 Z-0.9333 I-0.25 J0.0
G2 Y63.4225 Z-1.0667 I0.125 J0.2165
G2 X50.2556 Y63.206 Z-1.2 I0.125 J-0.2165
G2 X49.8806 Y62.9894 Z-1.3333 I-0.25 J0.0
G2 Y63.4225 Z-1.4667 I0.125 J0.2165
G2 X50.2556 Y63.206 Z-1.6 I0.125 J-0.2165
G2 X49.8806 Y62.9894 Z-1.7333 I-0.25 J0.0
G2 Y63.4225 Z-1.8667 I0.125 J0.2165
G2 X50.2556 Y63.206 Z-2.0 I0.125 J-0.2165
G2 X49.8806 Y62.9894 Z-2.1333 I-0.25 J0.0
G2 Y63.4225 Z-2.2667 I0.125 J0.2165
G2 X50.2556 Y63.206 Z-2.4 I0.125 J-0.2165
G2 X49.8806 Y62.9894 Z-2.5333 I-0.25 J0.0
G2 Y63.4225 Z-2.6667 I0.125 J0.2165
G2 X50.2556 Y63.206 Z-2.8 I0.125 J-0.2165
G2 X49.8806 Y62.9894 Z-2.9333 I-0.25 J0.0
G2 Y63.4225 Z-3.0667 I0.125 J0.2165
G2 X50.2556 Y63.206 Z-3.2 I0.125 J-0.2165
G2 X49.8806 Y62.9894 Z-3.3333 I-0.25 J0.0
G2 Y63.4225 Z-3.4667 I0.125 J0.2165
G2 X50.2556 Y63.206 Z-3.6 I0.125 J-0.2165
G2 X49.8806 Y62.9894 Z-3.7333 I-0.25 J0.0
G2 Y63.4225 Z-3.8667 I0.125 J0.2165
G2 X50.2556 Y63.206 Z-4.0 I0.125 J-0.2165
G2 X49.8806 Y62.9894 Z-4.1333 I-0.25 J0.0
G2 X49.7556 Y63.206 Z-4.2 I0.125 J0.2165
G2 X50.1306 Y63.4225 I0.25 J0.0
G2 Y62.9894 I-0.125 J-0.2165
G2 X49.7556 Y63.206 I-0.125 J0.2165
G0 Z3.0
G0 X48.7249 Y59.5104
G0 Z1.0
G1 F300.0 Z0.0
G2 F500.0 X48.3499 Y59.2939 Z-0.1333 I-0.25 J0.0
G2 Y59.7269 Z-0.2667 I0.125 J0.2165
G2 X48.7249 Y59.5104 Z-0.4 I0.125 J-0.2165
G2 X48.3499 Y59.2939 Z-0.5333 I-0.25 J0.0
G2 Y59.7269 Z-0.6667 I0.125 J0.2165
G2 X48.7249 Y59.5104 Z-0.8 I0.125 J-0.2165
G2 X48.3499 Y59.2939 Z-0.9333 I-0.25 J0.0
G2 Y59.7269 Z-1.0667 I0.125 J0.2165
G2 X48.7249 Y59.5104 Z-1.2 I0.125 J-0.2165
G2 X48.3499 Y59.2939 Z-1.3333 I-0.25 J0.0
G2 Y59.7269 Z-1.4667 I0.125 J0.2165
G2 X48.7249 Y59.5104 Z-1.6 I0.125 J-0.2165
G2 X48.3499 Y59.2939 Z-1.7333 I-0.25 J0.0
G2 Y59.7269 Z-1.8667 I0.125 J0.2165
G2 X48.7249 Y59.5104 Z-2.0 I0.125 J-0.2165
G2 X48.3499 Y59.2939 Z-2.1333 I-0.25 J0.0
G2 Y59.7269 Z-2.2667 I0.125 J0.2165
G2 X48.7249 Y59.5104 Z-2.4 I0.125 J-0.2165
G2 X48.3499 Y59.2939 Z-2.5333 I-0.25 J0.0
G2 Y59.7269 Z-2.6667 I0.125 J0.2165
G2 X48.7249 Y59.5104 Z-2.8 I0.125 J-0.2165
G2 X48.3499 Y59.2939 Z-2.9333 I-0.25 J0.0
G2 Y59.7269 Z-3.0667 I0.125 J0.2165
G2 X48.7249 Y59.5104 Z-3.2 I0.125 J-0.2165
G2 X48.3499 Y59.2939 Z-3.3333 I-0.25 J0.0
G2 Y59.7269 Z-3.4667 I0.125 J0.2165
G2 X48.7249 Y59.5104 Z-3.6 I0.125 J-0.2165
G2 X48.3499 Y59.2939 Z-3.7333 I-0.25 J0.0
G2 Y59.7269 Z-3.8667 I0.125 J0.2165
G2 X48.7249 Y59.5104 Z-4.0 I0.125 J-0.2165
G2 X48.3499 Y59.2939 Z-4.1333 I-0.25 J0.0
G2 X48.2249 Y59.5104 Z-4.2 I0.125 J0.2165
G2 X48.5999 Y59.7269 I0.25 J0.0
G2 Y59.2939 I-0.125 J-0.2165
G2 X48.2249 Y59.5104 I-0.125 J0.2165
G0 Z3.0
G0 X43.75 Y60.5
G0 Z1.0
G1 F300.0 Z0.0
G2 F500.0 X43.375 Y60.2835 Z-0.1333 I-0.25 J0.0
G2 Y60.7165 Z-0.2667 I0.125 J0.2165
G2 X43.75 Y60.5 Z-0.4 I0.125 J-0.2165
G2 X43.375 Y60.2835 Z-0.5333 I-0.25 J0.0
G2 Y60.7165 Z-0.6667 I0.125 J0.2165
G2 X43.75 Y60.5 Z-0.8 I0.125 J-0.2165
G2 X43.375 Y60.2835 Z-0.9333 I-0.25 J0.0
G2 Y60.7165 Z-1.0667 I0.125 J0.2165
G2 X43.75 Y60.5 Z-1.2 I0.125 J-0.2165
G2 X43.375 Y60.2835 Z-1.3333 I-0.25 J0.0
G2 Y60.7165 Z-1.4667 I0.125 J0.2165
G2 X43.75 Y60.5 Z-1.6 I0.125 J-0.2165
G2 X43.375 Y60.2835 Z-1.7333 I-0.25 J0.0
G2 Y60.7165 Z-1.8667 I0.125 J0.2165
G2 X43.75 Y60.5 Z-2.0 I0.125 J-0.2165
G2 X43.375 Y60.2835 Z-2.1333 I-0.25 J0.0
G2 Y60.7165 Z-2.2667 I0.125 J0.2165
G2 X43.75 Y60.5 Z-2.4 I0.125 J-0.2165
G2 X43.375 Y60.2835 Z-2.5333 I-0.25 J0.0
G2 Y60.7165 Z-2.6667 I0.125 J0.2165
G2 X43.75 Y60.5 Z-2.8 I0.125 J-0.2165
G2 X43.375 Y60.2835 Z-2.9333 I-0.25 J0.0
G2 Y60.7165 Z-3.0667 I0.125 J0.2165
G2 X43.75 Y60.5 Z-3.2 I0.125 J-0.2165
G2 X43.375 Y60.2835 Z-3.3333 I-0.25 J0.0
G2 Y60.7165 Z-3.4667 I0.125 J0.2165
G2 X43.75 Y60.5 Z-3.6 I0.125 J-0.2165
G2 X43.375 Y60.2835 Z-3.7333 I-0.25 J0.0
G2 Y60.7165 Z-3.8667 I0.125 J0.2165
G2 X43.75 Y60.5 Z-4.0 I0.125 J-0.2165
G2 X43.375 Y60.2835 Z-4.1333 I-0.25 J0.0
G2 X43.25 Y60.5 Z-4.2 I0.125 J0.2165
G2 X43.625 Y60.7165 I0.25 J0.0
G2 Y60.2835 I-0.125 J-0.2165
G2 X43.25 Y60.5 I-0.125 J0.2165
G0 Z3.0
G0 X43.75 Y64.5
G0 Z1.0
G1 F300.0 Z0.0
G2 F500.0 X43.375 Y64.2835 Z-0.1333 I-0.25 J0.0
G2 Y64.7165 Z-0.2667 I0.125 J0.2165
G2 X43.75 Y64.5 Z-0.4 I0.125 J-0.2165
G2 X43.375 Y64.2835 Z-0.5333 I-0.25 J0.0
G2 Y64.7165 Z-0.6667 I0.125 J0.2165
G2 X43.75 Y64.5 Z-0.8 I0.125 J-0.2165
G2 X43.375 Y64.2835 Z-0.9333 I-0.25 J0.0
G2 Y64.7165 Z-1.0667 I0.125 J0.2165
G2 X43.75 Y64.5 Z-1.2 I0.125 J-0.2165
G2 X43.375 Y64.2835 Z-1.3333 I-0.25 J0.0
G2 Y64.7165 Z-1.4667 I0.125 J0.2165
G2 X43.75 Y64.5 Z-1.6 I0.125 J-0.2165
G2 X43.375 Y64.2835 Z-1.7333 I-0.25 J0.0
G2 Y64.7165 Z-1.8667 I0.125 J0.2165
G2 X43.75 Y64.5 Z-2.0 I0.125 J-0.2165
G2 X43.375 Y64.2835 Z-2.1333 I-0.25 J0.0
G2 Y64.7165 Z-2.2667 I0.125 J0.2165
G2 X43.75 Y64.5 Z-2.4 I0.125 J-0.2165
G2 X43.375 Y64.2835 Z-2.5333 I-0.25 J0.0
G2 Y64.7165 Z-2.6667 I0.125 J0.2165
G2 X43.75 Y64.5 Z-2.8 I0.125 J-0.2165
G2 X43.375 Y64.2835 Z-2.9333 I-0.25 J0.0
G2 Y64.7165 Z-3.0667 I0.125 J0.2165
G2 X43.75 Y64.5 Z-3.2 I0.125 J-0.2165
G2 X43.375 Y64.2835 Z-3.3333 I-0.25 J0.0
G2 Y64.7165 Z-3.4667 I0.125 J0.2165
G2 X43.75 Y64.5 Z-3.6 I0.125 J-0.2165
G2 X43.375 Y64.2835 Z-3.7333 I-0.25 J0.0
G2 Y64.7165 Z-3.8667 I0.125 J0.2165
G2 X43.75 Y64.5 Z-4.0 I0.125 J-0.2165
G2 X43.375 Y64.2835 Z-4.1333 I-0.25 J0.0
G2 X43.25 Y64.5 Z-4.2 I0.125 J0.2165
G2 X43.625 Y64.7165 I0.25 J0.0
G2 Y64.2835 I-0.125 J-0.2165
G2 X43.25 Y64.5 I-0.125 J0.2165
G0 Z3.0
G0 X43.75 Y68.5
G0 Z1.0
G1 F300.0 Z0.0
G2 F500.0 X43.375 Y68.2835 Z-0.1333 I-0.25 J0.0
G2 Y68.7165 Z-0.2667 I0.125 J0.2165
G2 X43.75 Y68.5 Z-0.4 I0.125 J-0.2165
G2 X43.375 Y68.2835 Z-0.5333 I-0.25 J0.0
G2 Y68.7165 Z-0.6667 I0.125 J0.2165
G2 X43.75 Y68.5 Z-0.8 I0.125 J-0.2165
G2 X43.375 Y68.2835 Z-0.9333 I-0.25 J0.0
G2 Y68.7165 Z-1.0667 I0.125 J0.2165
G2 X43.75 Y68.5 Z-1.2 I0.125 J-0.2165
G2 X43.375 Y68.2835 Z-1.3333 I-0.25 J0.0
G2 Y68.7165 Z-1.4667 I0.125 J0.2165
G2 X43.75 Y68.5 Z-1.6 I0.125 J-0.2165
G2 X43.375 Y68.2835 Z-1.7333 I-0.25 J0.0
G2 Y68.7165 Z-1.8667 I0.125 J0.2165
G2 X43.75 Y68.5 Z-2.0 I0.125 J-0.2165
G2 X43.375 Y68.2835 Z-2.1333 I-0.25 J0.0
G2 Y68.7165 Z-2.2667 I0.125 J0.2165
G2 X43.75 Y68.5 Z-2.4 I0.125 J-0.2165
G2 X43.375 Y68.2835 Z-2.5333 I-0.25 J0.0
G2 Y68.7165 Z-2.6667 I0.125 J0.2165
G2 X43.75 Y68.5 Z-2.8 I0.125 J-0.2165
G2 X43.375 Y68.2835 Z-2.9333 I-0.25 J0.0
G2 Y68.7165 Z-3.0667 I0.125 J0.2165
G2 X43.75 Y68.5 Z-3.2 I0.125 J-0.2165
G2 X43.375 Y68.2835 Z-3.3333 I-0.25 J0.0
G2 Y68.7165 Z-3.4667 I0.125 J0.2165
G2 X43.75 Y68.5 Z-3.6 I0.125 J-0.2165
G2 X43.375 Y68.2835 Z-3.7333 I-0.25 J0.0
G2 Y68.7165 Z-3.8667 I0.125 J0.2165
G2 X43.75 Y68.5 Z-4.0 I0.125 J-0.2165
G2 X43.375 Y68.2835 Z-4.1333 I-0.25 J0.0
G2 X43.25 Y68.5 Z-4.2 I0.125 J0.2165
G2 X43.625 Y68.7165 I0.25 J0.0
G2 Y68.2835 I-0.125 J-0.2165
G2 X43.25 Y68.5 I-0.125 J0.2165
G0 Z3.0
G0 X43.75 Y72.5
G0 Z1.0
G1 F300.0 Z0.0
G2 F500.0 X43.375 Y72.2835 Z-0.1333 I-0.25 J0.0
G2 Y72.7165 Z-0.2667 I0.125 J0.2165
G2 X43.75 Y72.5 Z-0.4 I0.125 J-0.2165
G2 X43.375 Y72.2835 Z-0.5333 I-0.25 J0.0
G2 Y72.7165 Z-0.6667 I0.125 J0.2165
G2 X43.75 Y72.5 Z-0.8 I0.125 J-0.2165
G2 X43.375 Y72.2835 Z-0.9333 I-0.25 J0.0
G2 Y72.7165 Z-1.0667 I0.125 J0.2165
G2 X43.75 Y72.5 Z-1.2 I0.125 J-0.2165
G2 X43.375 Y72.2835 Z-1.3333 I-0.25 J0.0
G2 Y72.7165 Z-1.4667 I0.125 J0.2165
G2 X43.75 Y72.5 Z-1.6 I0.125 J-0.2165
G2 X43.375 Y72.2835 Z-1.7333 I-0.25 J0.0
G2 Y72.7165 Z-1.8667 I0.125 J0.2165
G2 X43.75 Y72.5 Z-2.0 I0.125 J-0.2165
G2 X43.375 Y72.2835 Z-2.1333 I-0.25 J0.0
G2 Y72.7165 Z-2.2667 I0.125 J0.2165
G2 X43.75 Y72.5 Z-2.4 I0.125 J-0.2165
G2 X43.375 Y72.2835 Z-2.5333 I-0.25 J0.0
G2 Y72.7165 Z-2.6667 I0.125 J0.2165
G2 X43.75 Y72.5 Z-2.8 I0.125 J-0.2165
G2 X43.375 Y72.2835 Z-2.9333 I-0.25 J0.0
G2 Y72.7165 Z-3.0667 I0.125 J0.2165
G2 X43.75 Y72.5 Z-3.2 I0.125 J-0.2165
G2 X43.375 Y72.2835 Z-3.3333 I-0.25 J0.0
G2 Y72.7165 Z-3.4667 I0.125 J0.2165
G2 X43.75 Y72.5 Z-3.6 I0.125 J-0.2165
G2 X43.375 Y72.2835 Z-3.7333 I-0.25 J0.0
G2 Y72.7165 Z-3.8667 I0.125 J0.2165
G2 X43.75 Y72.5 Z-4.0 I0.125 J-0.2165
G2 X43.375 Y72.2835 Z-4.1333 I-0.25 J0.0
G2 X43.25 Y72.5 Z-4.2 I0.125 J0.2165
G2 X43.625 Y72.7165 I0.25 J0.0
G2 Y72.2835 I-0.125 J-0.2165
G2 X43.25 Y72.5 I-0.125 J0.2165
G0 Z3.0
G0 X43.75 Y76.5
G0 Z1.0
G1 F300.0 Z0.0
G2 F500.0 X43.375 Y76.2835 Z-0.1333 I-0.25 J0.0
G2 Y76.7165 Z-0.2667 I0.125 J0.2165
G2 X43.75 Y76.5 Z-0.4 I0.125 J-0.2165
G2 X43.375 Y76.2835 Z-0.5333 I-0.25 J0.0
G2 Y76.7165 Z-0.6667 I0.125 J0.2165
G2 X43.75 Y76.5 Z-0.8 I0.125 J-0.2165
G2 X43.375 Y76.2835 Z-0.9333 I-0.25 J0.0
G2 Y76.7165 Z-1.0667 I0.125 J0.2165
G2 X43.75 Y76.5 Z-1.2 I0.125 J-0.2165
G2 X43.375 Y76.2835 Z-1.3333 I-0.25 J0.0
G2 Y76.7165 Z-1.4667 I0.125 J0.2165
G2 X43.75 Y76.5 Z-1.6 I0.125 J-0.2165
G2 X43.375 Y76.2835 Z-1.7333 I-0.25 J0.0
G2 Y76.7165 Z-1.8667 I0.125 J0.2165
G2 X43.75 Y76.5 Z-2.0 I0.125 J-0.2165
G2 X43.375 Y76.2835 Z-2.1333 I-0.25 J0.0
G2 Y76.7165 Z-2.2667 I0.125 J0.2165
G2 X43.75 Y76.5 Z-2.4 I0.125 J-0.2165
G2 X43.375 Y76.2835 Z-2.5333 I-0.25 J0.0
G2 Y76.7165 Z-2.6667 I0.125 J0.2165
G2 X43.75 Y76.5 Z-2.8 I0.125 J-0.2165
G2 X43.375 Y76.2835 Z-2.9333 I-0.25 J0.0
G2 Y76.7165 Z-3.0667 I0.125 J0.2165
G2 X43.75 Y76.5 Z-3.2 I0.125 J-0.2165
G2 X43.375 Y76.2835 Z-3.3333 I-0.25 J0.0
G2 Y76.7165 Z-3.4667 I0.125 J0.2165
G2 X43.75 Y76.5 Z-3.6 I0.125 J-0.2165
G2 X43.375 Y76.2835 Z-3.7333 I-0.25 J0.0
G2 Y76.7165 Z-3.8667 I0.125 J0.2165
G2 X43.75 Y76.5 Z-4.0 I0.125 J-0.2165
G2 X43.375 Y76.2835 Z-4.1333 I-0.25 J0.0
G2 X43.25 Y76.5 Z-4.2 I0.125 J0.2165
G2 X43.625 Y76.7165 I0.25 J0.0
G2 Y76.2835 I-0.125 J-0.2165
G2 X43.25 Y76.5 I-0.125 J0.2165
G0 Z3.0
G0 X34.1829 Y70.597
G0 Z1.0
G1 F300.0 Z0.0
G2 F500.0 X33.8079 Y70.3805 Z-0.1333 I-0.25 J0.0
G2 Y70.8135 Z-0.2667 I0.125 J0.2165
G2 X34.1829 Y70.597 Z-0.4 I0.125 J-0.2165
G2 X33.8079 Y70.3805 Z-0.5333 I-0.25 J0.0
G2 Y70.8135 Z-0.6667 I0.125 J0.2165
G2 X34.1829 Y70.597 Z-0.8 I0.125 J-0.2165
G2 X33.8079 Y70.3805 Z-0.9333 I-0.25 J0.0
G2 Y70.8135 Z-1.0667 I0.125 J0.2165
G2 X34.1829 Y70.597 Z-1.2 I0.125 J-0.2165
G2 X33.8079 Y70.3805 Z-1.3333 I-0.25 J0.0
G2 Y70.8135 Z-1.4667 I0.125 J0.2165
G2 X34.1829 Y70.597 Z-1.6 I0.125 J-0.2165
G2 X33.8079 Y70.3805 Z-1.7333 I-0.25 J0.0
G2 Y70.8135 Z-1.8667 I0.125 J0.2165
G2 X34.1829 Y70.597 Z-2.0 I0.125 J-0.2165
G2 X33.8079 Y70.3805 Z-2.1333 I-0.25 J0.0
G2 Y70.8135 Z-2.2667 I0.125 J0.2165
G2 X34.1829 Y70.597 Z-2.4 I0.125 J-0.2165
G2 X33.8079 Y70.3805 Z-2.5333 I-0.25 J0.0
G2 Y70.8135 Z-2.6667 I0.125 J0.2165
G2 X34.1829 Y70.597 Z-2.8 I0.125 J-0.2165
G2 X33.8079 Y70.3805 Z-2.9333 I-0.25 J0.0
G2 Y70.8135 Z-3.0667 I0.125 J0.2165
G2 X34.1829 Y70.597 Z-3.2 I0.125 J-0.2165
G2 X33.8079 Y70.3805 Z-3.3333 I-0.25 J0.0
G2 Y70.8135 Z-3.4667 I0.125 J0.2165
G2 X34.1829 Y70.597 Z-3.6 I0.125 J-0.2165
G2 X33.8079 Y70.3805 Z-3.7333 I-0.25 J0.0
G2 Y70.8135 Z-3.8667 I0.125 J0.2165
G2 X34.1829 Y70.597 Z-4.0 I0.125 J-0.2165
G2 X33.8079 Y70.3805 Z-4.1333 I-0.25 J0.0
G2 X33.6829 Y70.597 Z-4.2 I0.125 J0.2165
G2 X34.0579 Y70.8135 I0.25 J0.0
G2 Y70.3805 I-0.125 J-0.2165
G2 X33.6829 Y70.597 I-0.125 J0.2165
G0 Z3.0
G0 X35.7136 Y66.9015
G0 Z1.0
G1 F300.0 Z0.0
G2 F500.0 X35.3386 Y66.685 Z-0.1333 I-0.25 J0.0
G2 Y67.118 Z-0.2667 I0.125 J0.2165
G2 X35.7136 Y66.9015 Z-0.4 I0.125 J-0.2165
G2 X35.3386 Y66.685 Z-0.5333 I-0.25 J0.0
G2 Y67.118 Z-0.6667 I0.125 J0.2165
G2 X35.7136 Y66.9015 Z-0.8 I0.125 J-0.2165
G2 X35.3386 Y66.685 Z-0.9333 I-0.25 J0.0
G2 Y67.118 Z-1.0667 I0.125 J0.2165
G2 X35.7136 Y66.9015 Z-1.2 I0.125 J-0.2165
G2 X35.3386 Y66.685 Z-1.3333 I-0.25 J0.0
G2 Y67.118 Z-1.4667 I0.125 J0.2165
G2 X35.7136 Y66.9015 Z-1.6 I0.125 J-0.2165
G2 X35.3386 Y66.685 Z-1.7333 I-0.25 J0.0
G2 Y67.118 Z-1.8667 I0.125 J0.2165
G2 X35.7136 Y66.9015 Z-2.0 I0.125 J-0.2165
G2 X35.3386 Y66.685 Z-2.1333 I-0.25 J0.0
G2 Y67.118 Z-2.2667 I0.125 J0.2165
G2 X35.7136 Y66.9015 Z-2.4 I0.125 J-0.2165
G2 X35.3386 Y66.685 Z-2.5333 I-0.25 J0.0
G2 Y67.118 Z-2.6667 I0.125 J0.2165
G2 X35.7136 Y66.9015 Z-2.8 I0.125 J-0.2165
G2 X35.3386 Y66.685 Z-2.9333 I-0.25 J0.0
G2 Y67.118 Z-3.0667 I0.125 J0.2165
G2 X35.7136 Y66.9015 Z-3.2 I0.125 J-0.2165
G2 X35.3386 Y66.685 Z-3.3333 I-0.25 J0.0
G2 Y67.118 Z-3.4667 I0.125 J0.2165
G2 X35.7136 Y66.9015 Z-3.6 I0.125 J-0.2165
G2 X35.3386 Y66.685 Z-3.7333 I-0.25 J0.0
G2 Y67.118 Z-3.8667 I0.125 J0.2165
G2 X35.7136 Y66.9015 Z-4.0 I0.125 J-0.2165
G2 X35.3386 Y66.685 Z-4.1333 I-0.25 J0.0
G2 X35.2136 Y66.9015 Z-4.2 I0.125 J0.2165
G2 X35.5886 Y67.118 I0.25 J0.0
G2 Y66.685 I-0.125 J-0.2165
G2 X35.2136 Y66.9015 I-0.125 J0.2165
G0 Z3.0
