( Made using CamBam - http://www.cambam.co.uk )
( ssc_plexi_Top_Panelstl 2/21/2021 7:03:45 PM )
( T2 : 2.0 )
( CUTVIEWER )
( FROM/0,0,5 )
( Select dummy tool to avoid warnings )
( TOOL/MILL,1,0,20.0,0 )
( STOCK/BLOCK,180.0,95.0,4.0,0.0,0.0,4.0 )
G21 G90 G91.1 G64 G40
G0 Z3.0
( T2 : 2.0 )
( Tool Taper coming soon )
( TOOL/MILL,2.0,0.0,0.0,0 )
T2 M6
( trail )
G17
M3 S1000
G0 X170.2 Y8.4719
G0 Z1.0
G1 F300.0 Z0.0
G1 F800.0 Y7.8 Z-0.0006
G1 X7.8 Z-0.15
G1 Y8.4719 Z-0.1506
G3 X9.0 Y8.2016 Z-0.1517 I1.2 J2.5281
G1 X169.0 Z-0.2989
G3 X170.2 Y8.4719 Z-0.3 I0.0 J2.7984
G1 F300.0 X169.8569 Y9.1947
G3 F800.0 X170.9984 Y11.0 I-0.8569 J1.8053
G1 Y86.0
G3 X169.0 Y87.9984 I-1.9984 J0.0
G1 X9.0
G3 X7.0016 Y86.0 I0.0 J-1.9984
G1 Y11.0
G3 X9.0 Y9.0016 I1.9984 J0.0
G1 X169.0
G3 X169.8569 Y9.1947 I0.0 J1.9984
G1 F300.0 X169.5146 Y9.9159
G3 F800.0 X170.2 Y11.0 I-0.5146 J1.0841
G1 Y86.0
G3 X169.0 Y87.2 I-1.2 J0.0
G1 X9.0
G3 X7.8 Y86.0 I0.0 J-1.2
G1 Y11.0
G3 X9.0 Y9.8 I1.2 J0.0
G1 X169.0
G3 X169.5146 Y9.9159 I0.0 J1.2
G0 Z3.0
G0 X171.0
G0 Z1.0
G1 F300.0 Z0.0
G1 F800.0 Y7.0 Z-0.0018
G1 X7.0 Z-0.1022
G1 Y88.0 Z-0.1518
G1 X171.0 Z-0.2522
G1 Y9.9159 Z-0.3
G1 F300.0 X171.8
G1 F800.0 Y6.2
G1 X6.2
G1 Y88.8
G1 X171.8
G1 Y9.9159
G0 Z3.0
G0 X170.2 Y8.4719
G0 Z0.7
G1 F300.0 Z-0.3
G1 F800.0 Y7.8 Z-0.3006
G1 X7.8 Z-0.45
G1 Y8.4719 Z-0.4506
G3 X9.0 Y8.2016 Z-0.4517 I1.2 J2.5281
G1 X169.0 Z-0.5989
G3 X170.2 Y8.4719 Z-0.6 I0.0 J2.7984
G1 F300.0 X169.8569 Y9.1947
G3 F800.0 X170.9984 Y11.0 I-0.8569 J1.8053
G1 Y86.0
G3 X169.0 Y87.9984 I-1.9984 J0.0
G1 X9.0
G3 X7.0016 Y86.0 I0.0 J-1.9984
G1 Y11.0
G3 X9.0 Y9.0016 I1.9984 J0.0
G1 X169.0
G3 X169.8569 Y9.1947 I0.0 J1.9984
G1 F300.0 X169.5146 Y9.9159
G3 F800.0 X170.2 Y11.0 I-0.5146 J1.0841
G1 Y86.0
G3 X169.0 Y87.2 I-1.2 J0.0
G1 X9.0
G3 X7.8 Y86.0 I0.0 J-1.2
G1 Y11.0
G3 X9.0 Y9.8 I1.2 J0.0
G1 X169.0
G3 X169.5146 Y9.9159 I0.0 J1.2
G0 Z3.0
G0 X171.0
G0 Z0.7
G1 F300.0 Z-0.3
G1 F800.0 Y7.0 Z-0.3018
G1 X7.0 Z-0.4022
G1 Y88.0 Z-0.4518
G1 X171.0 Z-0.5522
G1 Y9.9159 Z-0.6
G1 F300.0 X171.8
G1 F800.0 Y6.2
G1 X6.2
G1 Y88.8
G1 X171.8
G1 Y9.9159
G0 Z3.0
G0 X170.2 Y8.4719
G0 Z0.4
G1 F300.0 Z-0.6
G1 F800.0 Y7.8 Z-0.6006
G1 X7.8 Z-0.75
G1 Y8.4719 Z-0.7506
G3 X9.0 Y8.2016 Z-0.7517 I1.2 J2.5281
G1 X169.0 Z-0.8989
G3 X170.2 Y8.4719 Z-0.9 I0.0 J2.7984
G1 F300.0 X169.8569 Y9.1947
G3 F800.0 X170.9984 Y11.0 I-0.8569 J1.8053
G1 Y86.0
G3 X169.0 Y87.9984 I-1.9984 J0.0
G1 X9.0
G3 X7.0016 Y86.0 I0.0 J-1.9984
G1 Y11.0
G3 X9.0 Y9.0016 I1.9984 J0.0
G1 X169.0
G3 X169.8569 Y9.1947 I0.0 J1.9984
G1 F300.0 X169.5146 Y9.9159
G3 F800.0 X170.2 Y11.0 I-0.5146 J1.0841
G1 Y86.0
G3 X169.0 Y87.2 I-1.2 J0.0
G1 X9.0
G3 X7.8 Y86.0 I0.0 J-1.2
G1 Y11.0
G3 X9.0 Y9.8 I1.2 J0.0
G1 X169.0
G3 X169.5146 Y9.9159 I0.0 J1.2
G0 Z3.0
G0 X171.0
G0 Z0.4
G1 F300.0 Z-0.6
G1 F800.0 Y7.0 Z-0.6018
G1 X7.0 Z-0.7022
G1 Y88.0 Z-0.7518
G1 X171.0 Z-0.8522
G1 Y9.9159 Z-0.9
G1 F300.0 X171.8
G1 F800.0 Y6.2
G1 X6.2
G1 Y88.8
G1 X171.8
G1 Y9.9159
G0 Z3.0
G0 X170.2 Y8.4719
G1 F300.0 Z-0.9
G1 F800.0 Y7.8 Z-0.9006
G1 X7.8 Z-1.05
G1 Y8.4719 Z-1.0506
G3 X9.0 Y8.2016 Z-1.0517 I1.2 J2.5281
G1 X169.0 Z-1.1989
G3 X170.2 Y8.4719 Z-1.2 I0.0 J2.7984
G1 F300.0 X169.8569 Y9.1947
G3 F800.0 X170.9984 Y11.0 I-0.8569 J1.8053
G1 Y86.0
G3 X169.0 Y87.9984 I-1.9984 J0.0
G1 X9.0
G3 X7.0016 Y86.0 I0.0 J-1.9984
G1 Y11.0
G3 X9.0 Y9.0016 I1.9984 J0.0
G1 X169.0
G3 X169.8569 Y9.1947 I0.0 J1.9984
G1 F300.0 X169.5146 Y9.9159
G3 F800.0 X170.2 Y11.0 I-0.5146 J1.0841
G1 Y86.0
G3 X169.0 Y87.2 I-1.2 J0.0
G1 X9.0
G3 X7.8 Y86.0 I0.0 J-1.2
G1 Y11.0
G3 X9.0 Y9.8 I1.2 J0.0
G1 X169.0
G3 X169.5146 Y9.9159 I0.0 J1.2
G0 Z3.0
G0 X171.0
G1 F300.0 Z-0.9
G1 F800.0 Y7.0 Z-0.9018
G1 X7.0 Z-1.0022
G1 Y88.0 Z-1.0518
G1 X171.0 Z-1.1522
G1 Y9.9159 Z-1.2
G1 F300.0 X171.8
G1 F800.0 Y6.2
G1 X6.2
G1 Y88.8
G1 X171.8
G1 Y9.9159
G0 Z3.0
G0 X170.2 Y8.4719
G0 Z-0.2
G1 F300.0 Z-1.2
G1 F800.0 Y7.8 Z-1.2006
G1 X7.8 Z-1.35
G1 Y8.4719 Z-1.3506
G3 X9.0 Y8.2016 Z-1.3517 I1.2 J2.5281
G1 X169.0 Z-1.4989
G3 X170.2 Y8.4719 Z-1.5 I0.0 J2.7984
G1 F300.0 X169.8569 Y9.1947
G3 F800.0 X170.9984 Y11.0 I-0.8569 J1.8053
G1 Y86.0
G3 X169.0 Y87.9984 I-1.9984 J0.0
G1 X9.0
G3 X7.0016 Y86.0 I0.0 J-1.9984
G1 Y11.0
G3 X9.0 Y9.0016 I1.9984 J0.0
G1 X169.0
G3 X169.8569 Y9.1947 I0.0 J1.9984
G1 F300.0 X169.5146 Y9.9159
G3 F800.0 X170.2 Y11.0 I-0.5146 J1.0841
G1 Y86.0
G3 X169.0 Y87.2 I-1.2 J0.0
G1 X9.0
G3 X7.8 Y86.0 I0.0 J-1.2
G1 Y11.0
G3 X9.0 Y9.8 I1.2 J0.0
G1 X169.0
G3 X169.5146 Y9.9159 I0.0 J1.2
G0 Z3.0
G0 X171.0
G0 Z-0.2
G1 F300.0 Z-1.2
G1 F800.0 Y7.0 Z-1.2018
G1 X7.0 Z-1.3022
G1 Y88.0 Z-1.3518
G1 X171.0 Z-1.4522
G1 Y9.9159 Z-1.5
G1 F300.0 X171.8
G1 F800.0 Y6.2
G1 X6.2
G1 Y88.8
G1 X171.8
G1 Y9.9159
G0 Z3.0
G0 X170.2 Y8.4719
G0 Z-0.5
G1 F300.0 Z-1.5
G1 F800.0 Y7.8 Z-1.5006
G1 X7.8 Z-1.65
G1 Y8.4719 Z-1.6506
G3 X9.0 Y8.2016 Z-1.6517 I1.2 J2.5281
G1 X169.0 Z-1.7989
G3 X170.2 Y8.4719 Z-1.8 I0.0 J2.7984
G1 F300.0 X169.8569 Y9.1947
G3 F800.0 X170.9984 Y11.0 I-0.8569 J1.8053
G1 Y86.0
G3 X169.0 Y87.9984 I-1.9984 J0.0
G1 X9.0
G3 X7.0016 Y86.0 I0.0 J-1.9984
G1 Y11.0
G3 X9.0 Y9.0016 I1.9984 J0.0
G1 X169.0
G3 X169.8569 Y9.1947 I0.0 J1.9984
G1 F300.0 X169.5146 Y9.9159
G3 F800.0 X170.2 Y11.0 I-0.5146 J1.0841
G1 Y86.0
G3 X169.0 Y87.2 I-1.2 J0.0
G1 X9.0
G3 X7.8 Y86.0 I0.0 J-1.2
G1 Y11.0
G3 X9.0 Y9.8 I1.2 J0.0
G1 X169.0
G3 X169.5146 Y9.9159 I0.0 J1.2
G0 Z3.0
G0 X171.0
G0 Z-0.5
G1 F300.0 Z-1.5
G1 F800.0 Y7.0 Z-1.5018
G1 X7.0 Z-1.6022
G1 Y88.0 Z-1.6518
G1 X171.0 Z-1.7522
G1 Y9.9159 Z-1.8
G1 F300.0 X171.8
G1 F800.0 Y6.2
G1 X6.2
G1 Y88.8
G1 X171.8
G1 Y9.9159
G0 Z3.0
G0 X170.2 Y8.4719
G0 Z-0.8
G1 F300.0 Z-1.8
G1 F800.0 Y7.8 Z-1.8002
G1 X7.8 Z-1.85
G1 Y8.4719 Z-1.8502
G3 X9.0 Y8.2016 Z-1.8506 I1.2 J2.5281
G1 X169.0 Z-1.8996
G3 X170.2 Y8.4719 Z-1.9 I0.0 J2.7984
G1 F300.0 X169.8569 Y9.1947
G3 F800.0 X170.9984 Y11.0 I-0.8569 J1.8053
G1 Y86.0
G3 X169.0 Y87.9984 I-1.9984 J0.0
G1 X9.0
G3 X7.0016 Y86.0 I0.0 J-1.9984
G1 Y11.0
G3 X9.0 Y9.0016 I1.9984 J0.0
G1 X169.0
G3 X169.8569 Y9.1947 I0.0 J1.9984
G1 F300.0 X169.5146 Y9.9159
G3 F800.0 X170.2 Y11.0 I-0.5146 J1.0841
G1 Y86.0
G3 X169.0 Y87.2 I-1.2 J0.0
G1 X9.0
G3 X7.8 Y86.0 I0.0 J-1.2
G1 Y11.0
G3 X9.0 Y9.8 I1.2 J0.0
G1 X169.0
G3 X169.5146 Y9.9159 I0.0 J1.2
G0 Z3.0
G0 X171.0
G0 Z-0.8
G1 F300.0 Z-1.8
G1 F800.0 Y7.0 Z-1.8006
G1 X7.0 Z-1.8341
G1 Y88.0 Z-1.8506
G1 X171.0 Z-1.8841
G1 Y9.9159 Z-1.9
G1 F300.0 X171.8
G1 F800.0 Y6.2
G1 X6.2
G1 Y88.8
G1 X171.8
G1 Y9.9159
G0 Z3.0
G0 X170.2 Y8.4719
G0 Z-0.9
G1 F300.0 Z-1.9
G1 F800.0 Y7.8 Z-1.9002
G1 X7.8 Z-1.95
G1 Y8.4719 Z-1.9502
G3 X9.0 Y8.2016 Z-1.9506 I1.2 J2.5281
G1 X169.0 Z-1.9996
G3 X170.2 Y8.4719 Z-2.0 I0.0 J2.7984
G1 Y7.8
G1 X7.8
G1 Y8.4719
G3 X9.0 Y8.2016 I1.2 J2.5281
G1 X169.0
G3 X170.2 Y8.4719 I0.0 J2.7984
G1 F300.0 X169.8569 Y9.1947
G3 F800.0 X170.9984 Y11.0 I-0.8569 J1.8053
G1 Y86.0
G3 X169.0 Y87.9984 I-1.9984 J0.0
G1 X9.0
G3 X7.0016 Y86.0 I0.0 J-1.9984
G1 Y11.0
G3 X9.0 Y9.0016 I1.9984 J0.0
G1 X169.0
G3 X169.8569 Y9.1947 I0.0 J1.9984
G1 F300.0 X169.5146 Y9.9159
G3 F800.0 X170.2 Y11.0 I-0.5146 J1.0841
G1 Y86.0
G3 X169.0 Y87.2 I-1.2 J0.0
G1 X9.0
G3 X7.8 Y86.0 I0.0 J-1.2
G1 Y11.0
G3 X9.0 Y9.8 I1.2 J0.0
G1 X169.0
G3 X169.5146 Y9.9159 I0.0 J1.2
G0 Z3.0
G0 X171.0
G0 Z-0.9
G1 F300.0 Z-1.9
G1 F800.0 Y7.0 Z-1.9006
G1 X7.0 Z-1.9341
G1 Y88.0 Z-1.9506
G1 X171.0 Z-1.9841
G1 Y9.9159 Z-2.0
G1 Y7.0
G1 X7.0
G1 Y88.0
G1 X171.0
G1 Y9.9159
G1 F300.0 X171.8
G1 F800.0 Y6.2
G1 X6.2
G1 Y88.8
G1 X171.8
G1 Y9.9159
( trailFinishing )
S1000
G0 Z3.0
G0 X9.0 Y10.0
G0 Z1.0
G1 F300.0 Z0.0
G1 F800.0 X169.0 Z-0.1008
G3 X170.0 Y11.0 Z-0.1018 I0.0 J1.0
G1 Y86.0 Z-0.149
G3 X169.0 Y87.0 Z-0.15 I-1.0 J0.0
G1 X9.0 Z-0.2508
G3 X8.0 Y86.0 Z-0.2518 I0.0 J-1.0
G1 Y11.0 Z-0.299
G3 X9.0 Y10.0 Z-0.3 I1.0 J0.0
G1 X169.0 Z-0.4008
G3 X170.0 Y11.0 Z-0.4018 I0.0 J1.0
G1 Y86.0 Z-0.449
G3 X169.0 Y87.0 Z-0.45 I-1.0 J0.0
G1 X9.0 Z-0.5508
G3 X8.0 Y86.0 Z-0.5518 I0.0 J-1.0
G1 Y11.0 Z-0.599
G3 X9.0 Y10.0 Z-0.6 I1.0 J0.0
G1 X169.0 Z-0.7008
G3 X170.0 Y11.0 Z-0.7018 I0.0 J1.0
G1 Y86.0 Z-0.749
G3 X169.0 Y87.0 Z-0.75 I-1.0 J0.0
G1 X9.0 Z-0.8508
G3 X8.0 Y86.0 Z-0.8518 I0.0 J-1.0
G1 Y11.0 Z-0.899
G3 X9.0 Y10.0 Z-0.9 I1.0 J0.0
G1 X169.0 Z-1.0008
G3 X170.0 Y11.0 Z-1.0018 I0.0 J1.0
G1 Y86.0 Z-1.049
G3 X169.0 Y87.0 Z-1.05 I-1.0 J0.0
G1 X9.0 Z-1.1508
G3 X8.0 Y86.0 Z-1.1518 I0.0 J-1.0
G1 Y11.0 Z-1.199
G3 X9.0 Y10.0 Z-1.2 I1.0 J0.0
G1 X169.0 Z-1.3008
G3 X170.0 Y11.0 Z-1.3018 I0.0 J1.0
G1 Y86.0 Z-1.349
G3 X169.0 Y87.0 Z-1.35 I-1.0 J0.0
G1 X9.0 Z-1.4508
G3 X8.0 Y86.0 Z-1.4518 I0.0 J-1.0
G1 Y11.0 Z-1.499
G3 X9.0 Y10.0 Z-1.5 I1.0 J0.0
G1 X169.0 Z-1.6008
G3 X170.0 Y11.0 Z-1.6018 I0.0 J1.0
G1 Y86.0 Z-1.649
G3 X169.0 Y87.0 Z-1.65 I-1.0 J0.0
G1 X9.0 Z-1.7508
G3 X8.0 Y86.0 Z-1.7518 I0.0 J-1.0
G1 Y11.0 Z-1.799
G3 X9.0 Y10.0 Z-1.8 I1.0 J0.0
G1 X169.0 Z-1.8336
G3 X170.0 Y11.0 Z-1.8339 I0.0 J1.0
G1 Y86.0 Z-1.8497
G3 X169.0 Y87.0 Z-1.85 I-1.0 J0.0
G1 X9.0 Z-1.8836
G3 X8.0 Y86.0 Z-1.8839 I0.0 J-1.0
G1 Y11.0 Z-1.8997
G3 X9.0 Y10.0 Z-1.9 I1.0 J0.0
G1 X169.0 Z-1.9336
G3 X170.0 Y11.0 Z-1.9339 I0.0 J1.0
G1 Y86.0 Z-1.9497
G3 X169.0 Y87.0 Z-1.95 I-1.0 J0.0
G1 X9.0 Z-1.9836
G3 X8.0 Y86.0 Z-1.9839 I0.0 J-1.0
G1 Y11.0 Z-1.9997
G3 X9.0 Y10.0 Z-2.0 I1.0 J0.0
G1 X169.0
G3 X170.0 Y11.0 I0.0 J1.0
G1 Y86.0
G3 X169.0 Y87.0 I-1.0 J0.0
G1 X9.0
G3 X8.0 Y86.0 I0.0 J-1.0
G1 Y11.0
G3 X9.0 Y10.0 I1.0 J0.0
( cutOut )
S1000
G0 Z3.0
G0 X173.0 Y91.0
G0 Z1.0
G1 F300.0 Z0.0
G1 F800.0 X5.0 Z-0.0984
G3 X4.0 Y90.0 Z-0.0993 I0.0 J-1.0
G1 Y5.0 Z-0.1491
G3 X5.0 Y4.0 Z-0.15 I1.0 J0.0
G1 X173.0 Z-0.2484
G3 X174.0 Y5.0 Z-0.2493 I0.0 J1.0
G1 Y90.0 Z-0.2991
G3 X173.0 Y91.0 Z-0.3 I-1.0 J0.0
G1 X5.0 Z-0.3984
G3 X4.0 Y90.0 Z-0.3993 I0.0 J-1.0
G1 Y5.0 Z-0.4491
G3 X5.0 Y4.0 Z-0.45 I1.0 J0.0
G1 X173.0 Z-0.5484
G3 X174.0 Y5.0 Z-0.5493 I0.0 J1.0
G1 Y90.0 Z-0.5991
G3 X173.0 Y91.0 Z-0.6 I-1.0 J0.0
G1 X5.0 Z-0.6984
G3 X4.0 Y90.0 Z-0.6993 I0.0 J-1.0
G1 Y5.0 Z-0.7491
G3 X5.0 Y4.0 Z-0.75 I1.0 J0.0
G1 X173.0 Z-0.8484
G3 X174.0 Y5.0 Z-0.8493 I0.0 J1.0
G1 Y90.0 Z-0.8991
G3 X173.0 Y91.0 Z-0.9 I-1.0 J0.0
G1 X5.0 Z-0.9984
G3 X4.0 Y90.0 Z-0.9993 I0.0 J-1.0
G1 Y5.0 Z-1.0491
G3 X5.0 Y4.0 Z-1.05 I1.0 J0.0
G1 X173.0 Z-1.1484
G3 X174.0 Y5.0 Z-1.1493 I0.0 J1.0
G1 Y90.0 Z-1.1991
G3 X173.0 Y91.0 Z-1.2 I-1.0 J0.0
G1 X5.0 Z-1.2984
G3 X4.0 Y90.0 Z-1.2993 I0.0 J-1.0
G1 Y5.0 Z-1.3491
G3 X5.0 Y4.0 Z-1.35 I1.0 J0.0
G1 X173.0 Z-1.4484
G3 X174.0 Y5.0 Z-1.4493 I0.0 J1.0
G1 Y90.0 Z-1.4991
G3 X173.0 Y91.0 Z-1.5 I-1.0 J0.0
G1 X5.0 Z-1.5984
G3 X4.0 Y90.0 Z-1.5993 I0.0 J-1.0
G1 Y5.0 Z-1.6491
G3 X5.0 Y4.0 Z-1.65 I1.0 J0.0
G1 X173.0 Z-1.7484
G3 X174.0 Y5.0 Z-1.7493 I0.0 J1.0
G1 Y90.0 Z-1.7991
G3 X173.0 Y91.0 Z-1.8 I-1.0 J0.0
G1 X5.0 Z-1.8984
G3 X4.0 Y90.0 Z-1.8993 I0.0 J-1.0
G1 Y5.0 Z-1.9491
G3 X5.0 Y4.0 Z-1.95 I1.0 J0.0
G1 X173.0 Z-2.0484
G3 X174.0 Y5.0 Z-2.0493 I0.0 J1.0
G1 Y90.0 Z-2.0991
G3 X173.0 Y91.0 Z-2.1 I-1.0 J0.0
G1 X5.0 Z-2.1984
G3 X4.0 Y90.0 Z-2.1993 I0.0 J-1.0
G1 Y5.0 Z-2.2491
G3 X5.0 Y4.0 Z-2.25 I1.0 J0.0
G1 X173.0 Z-2.3484
G3 X174.0 Y5.0 Z-2.3493 I0.0 J1.0
G1 Y90.0 Z-2.3991
G3 X173.0 Y91.0 Z-2.4 I-1.0 J0.0
G1 X5.0 Z-2.4984
G3 X4.0 Y90.0 Z-2.4993 I0.0 J-1.0
G1 Y5.0 Z-2.5491
G3 X5.0 Y4.0 Z-2.55 I1.0 J0.0
G1 X173.0 Z-2.6484
G3 X174.0 Y5.0 Z-2.6493 I0.0 J1.0
G1 Y90.0 Z-2.6991
G3 X173.0 Y91.0 Z-2.7 I-1.0 J0.0
G1 X5.0 Z-2.7984
G3 X4.0 Y90.0 Z-2.7993 I0.0 J-1.0
G1 Y5.0 Z-2.8491
G3 X5.0 Y4.0 Z-2.85 I1.0 J0.0
G1 X173.0 Z-2.9484
G3 X174.0 Y5.0 Z-2.9493 I0.0 J1.0
G1 Y90.0 Z-2.9991
G3 X173.0 Y91.0 Z-3.0 I-1.0 J0.0
G1 X5.0 Z-3.0984
G3 X4.0 Y90.0 Z-3.0993 I0.0 J-1.0
G1 Y5.0 Z-3.1491
G3 X5.0 Y4.0 Z-3.15 I1.0 J0.0
G1 X173.0 Z-3.2484
G3 X174.0 Y5.0 Z-3.2493 I0.0 J1.0
G1 Y90.0 Z-3.2991
G3 X173.0 Y91.0 Z-3.3 I-1.0 J0.0
G1 X5.0 Z-3.3984
G3 X4.0 Y90.0 Z-3.3993 I0.0 J-1.0
G1 Y5.0 Z-3.4491
G3 X5.0 Y4.0 Z-3.45 I1.0 J0.0
G1 X173.0 Z-3.5484
G3 X174.0 Y5.0 Z-3.5493 I0.0 J1.0
G1 Y90.0 Z-3.5991
G3 X173.0 Y91.0 Z-3.6 I-1.0 J0.0
G1 X5.0 Z-3.6656
G3 X4.0 Y90.0 Z-3.6662 I0.0 J-1.0
G1 Y5.0 Z-3.6994
G3 X5.0 Y4.0 Z-3.7 I1.0 J0.0
G1 X173.0 Z-3.7656
G3 X174.0 Y5.0 Z-3.7662 I0.0 J1.0
G1 Y90.0 Z-3.7994
G3 X173.0 Y91.0 Z-3.8 I-1.0 J0.0
G1 X5.0
G3 X4.0 Y90.0 I0.0 J-1.0
G1 Y5.0
G3 X5.0 Y4.0 I1.0 J0.0
G1 X173.0
G3 X174.0 Y5.0 I0.0 J1.0
G1 Y90.0
G3 X173.0 Y91.0 I-1.0 J0.0
( cutOutFinishing )
S1000
G0 Z0.0
G1 X5.0 Z-0.0984
G3 X4.0 Y90.0 Z-0.0993 I0.0 J-1.0
G1 Y5.0 Z-0.1491
G3 X5.0 Y4.0 Z-0.15 I1.0 J0.0
G1 X173.0 Z-0.2484
G3 X174.0 Y5.0 Z-0.2493 I0.0 J1.0
G1 Y90.0 Z-0.2991
G3 X173.0 Y91.0 Z-0.3 I-1.0 J0.0
G1 X5.0 Z-0.3984
G3 X4.0 Y90.0 Z-0.3993 I0.0 J-1.0
G1 Y5.0 Z-0.4491
G3 X5.0 Y4.0 Z-0.45 I1.0 J0.0
G1 X173.0 Z-0.5484
G3 X174.0 Y5.0 Z-0.5493 I0.0 J1.0
G1 Y90.0 Z-0.5991
G3 X173.0 Y91.0 Z-0.6 I-1.0 J0.0
G1 X5.0 Z-0.6984
G3 X4.0 Y90.0 Z-0.6993 I0.0 J-1.0
G1 Y5.0 Z-0.7491
G3 X5.0 Y4.0 Z-0.75 I1.0 J0.0
G1 X173.0 Z-0.8484
G3 X174.0 Y5.0 Z-0.8493 I0.0 J1.0
G1 Y90.0 Z-0.8991
G3 X173.0 Y91.0 Z-0.9 I-1.0 J0.0
G1 X5.0 Z-0.9984
G3 X4.0 Y90.0 Z-0.9993 I0.0 J-1.0
G1 Y5.0 Z-1.0491
G3 X5.0 Y4.0 Z-1.05 I1.0 J0.0
G1 X173.0 Z-1.1484
G3 X174.0 Y5.0 Z-1.1493 I0.0 J1.0
G1 Y90.0 Z-1.1991
G3 X173.0 Y91.0 Z-1.2 I-1.0 J0.0
G1 X5.0 Z-1.2984
G3 X4.0 Y90.0 Z-1.2993 I0.0 J-1.0
G1 Y5.0 Z-1.3491
G3 X5.0 Y4.0 Z-1.35 I1.0 J0.0
G1 X173.0 Z-1.4484
G3 X174.0 Y5.0 Z-1.4493 I0.0 J1.0
G1 Y90.0 Z-1.4991
G3 X173.0 Y91.0 Z-1.5 I-1.0 J0.0
G1 X5.0 Z-1.5984
G3 X4.0 Y90.0 Z-1.5993 I0.0 J-1.0
G1 Y5.0 Z-1.6491
G3 X5.0 Y4.0 Z-1.65 I1.0 J0.0
G1 X173.0 Z-1.7484
G3 X174.0 Y5.0 Z-1.7493 I0.0 J1.0
G1 Y90.0 Z-1.7991
G3 X173.0 Y91.0 Z-1.8 I-1.0 J0.0
G1 X5.0 Z-1.8984
G3 X4.0 Y90.0 Z-1.8993 I0.0 J-1.0
G1 Y5.0 Z-1.9491
G3 X5.0 Y4.0 Z-1.95 I1.0 J0.0
G1 X173.0 Z-2.0484
G3 X174.0 Y5.0 Z-2.0493 I0.0 J1.0
G1 Y90.0 Z-2.0991
G3 X173.0 Y91.0 Z-2.1 I-1.0 J0.0
G1 X5.0 Z-2.1984
G3 X4.0 Y90.0 Z-2.1993 I0.0 J-1.0
G1 Y5.0 Z-2.2491
G3 X5.0 Y4.0 Z-2.25 I1.0 J0.0
G1 X173.0 Z-2.3484
G3 X174.0 Y5.0 Z-2.3493 I0.0 J1.0
G1 Y90.0 Z-2.3991
G3 X173.0 Y91.0 Z-2.4 I-1.0 J0.0
G1 X5.0 Z-2.4984
G3 X4.0 Y90.0 Z-2.4993 I0.0 J-1.0
G1 Y5.0 Z-2.5491
G3 X5.0 Y4.0 Z-2.55 I1.0 J0.0
G1 X173.0 Z-2.6484
G3 X174.0 Y5.0 Z-2.6493 I0.0 J1.0
G1 Y90.0 Z-2.6991
G3 X173.0 Y91.0 Z-2.7 I-1.0 J0.0
G1 X5.0 Z-2.7984
G3 X4.0 Y90.0 Z-2.7993 I0.0 J-1.0
G1 Y5.0 Z-2.8491
G3 X5.0 Y4.0 Z-2.85 I1.0 J0.0
G1 X173.0 Z-2.9484
G3 X174.0 Y5.0 Z-2.9493 I0.0 J1.0
G1 Y90.0 Z-2.9991
G3 X173.0 Y91.0 Z-3.0 I-1.0 J0.0
G1 X5.0 Z-3.0984
G3 X4.0 Y90.0 Z-3.0993 I0.0 J-1.0
G1 Y5.0 Z-3.1491
G3 X5.0 Y4.0 Z-3.15 I1.0 J0.0
G1 X173.0 Z-3.2484
G3 X174.0 Y5.0 Z-3.2493 I0.0 J1.0
G1 Y90.0 Z-3.2991
G3 X173.0 Y91.0 Z-3.3 I-1.0 J0.0
G1 X5.0 Z-3.3984
G3 X4.0 Y90.0 Z-3.3993 I0.0 J-1.0
G1 Y5.0 Z-3.4491
G3 X5.0 Y4.0 Z-3.45 I1.0 J0.0
G1 X173.0 Z-3.5484
G3 X174.0 Y5.0 Z-3.5493 I0.0 J1.0
G1 Y90.0 Z-3.5991
G3 X173.0 Y91.0 Z-3.6 I-1.0 J0.0
G1 X5.0 Z-3.6984
G3 X4.0 Y90.0 Z-3.6993 I0.0 J-1.0
G1 Y5.0 Z-3.7491
G3 X5.0 Y4.0 Z-3.75 I1.0 J0.0
G1 X173.0 Z-3.8484
G3 X174.0 Y5.0 Z-3.8493 I0.0 J1.0
G1 Y90.0 Z-3.8991
G3 X173.0 Y91.0 Z-3.9 I-1.0 J0.0
G1 X5.0 Z-3.9984
G3 X4.0 Y90.0 Z-3.9993 I0.0 J-1.0
G1 Y5.0 Z-4.0491
G3 X5.0 Y4.0 Z-4.05 I1.0 J0.0
G1 X173.0 Z-4.1484
G3 X174.0 Y5.0 Z-4.1493 I0.0 J1.0
G1 Y90.0 Z-4.1991
G3 X173.0 Y91.0 Z-4.2 I-1.0 J0.0
G1 X5.0
G3 X4.0 Y90.0 I0.0 J-1.0
G1 Y5.0
G3 X5.0 Y4.0 I1.0 J0.0
G1 X173.0
G3 X174.0 Y5.0 I0.0 J1.0
G1 Y90.0
G3 X173.0 Y91.0 I-1.0 J0.0
G0 Z3.0
M5
M30
