( Made using CamBam - http://www.cambam.co.uk )
( ssc_plexi_Bottom_Panel 2/21/2021 6:35:25 PM )
( T2 : 2.0 )
( CUTVIEWER )
( FROM/0,0,5 )
( Select dummy tool to avoid warnings )
( TOOL/MILL,1,0,20.0,0 )
( STOCK/BLOCK,180.0,90.0,4.0,0.0,0.0,4.0 )
G21 G90 G91.1 G64 G40
G0 Z3.0
( T2 : 2.0 )
( Tool Taper coming soon )
( TOOL/MILL,2.0,0.0,0.0,0 )
T2 M6
( Drill1 )
G17
M3 S1000
G0 X102.1 Y74.5
G0 Z3.0
G0 X102.2 Y74.5
G0 Z1.0
G1 F300.0 Z0.0
G2 F800.0 X102.05 Y74.4134 Z-0.1 I-0.1 J0.0
G2 Y74.5866 Z-0.2 I0.05 J0.0866
G2 X102.2 Y74.5 Z-0.3 I0.05 J-0.0866
G2 X102.05 Y74.4134 Z-0.4 I-0.1 J0.0
G2 Y74.5866 Z-0.5 I0.05 J0.0866
G2 X102.2 Y74.5 Z-0.6 I0.05 J-0.0866
G2 X102.05 Y74.4134 Z-0.7 I-0.1 J0.0
G2 Y74.5866 Z-0.8 I0.05 J0.0866
G2 X102.2 Y74.5 Z-0.9 I0.05 J-0.0866
G2 X102.05 Y74.4134 Z-1.0 I-0.1 J0.0
G2 Y74.5866 Z-1.1 I0.05 J0.0866
G2 X102.2 Y74.5 Z-1.2 I0.05 J-0.0866
G2 X102.05 Y74.4134 Z-1.3 I-0.1 J0.0
G2 Y74.5866 Z-1.4 I0.05 J0.0866
G2 X102.2 Y74.5 Z-1.5 I0.05 J-0.0866
G2 X102.05 Y74.4134 Z-1.6 I-0.1 J0.0
G2 Y74.5866 Z-1.7 I0.05 J0.0866
G2 X102.2 Y74.5 Z-1.8 I0.05 J-0.0866
G2 X102.05 Y74.4134 Z-1.9 I-0.1 J0.0
G2 Y74.5866 Z-2.0 I0.05 J0.0866
G2 X102.2 Y74.5 Z-2.1 I0.05 J-0.0866
G2 X102.05 Y74.4134 Z-2.2 I-0.1 J0.0
G2 Y74.5866 Z-2.3 I0.05 J0.0866
G2 X102.2 Y74.5 Z-2.4 I0.05 J-0.0866
G2 X102.05 Y74.4134 Z-2.5 I-0.1 J0.0
G2 Y74.5866 I0.05 J0.0866
G2 X102.2 Y74.5 I0.05 J-0.0866
G2 X102.05 Y74.4134 I-0.1 J0.0
( airBars )
S1000
G0 Z3.0
G0 X41.027 Y32.4596
G0 Z1.0
G1 F300.0 Z0.0
G1 F800.0 X41.0229 Y32.4572
G1 X41.0186 Y32.4551
G1 X41.0141 Y32.4535 Z-0.0001
G1 X41.0095 Y32.4524
G1 X41.0048 Y32.4517
G1 X41.0 Y32.4514
G1 X40.9952 Y32.4517 Z-0.0002
G1 X40.9905 Y32.4524
G1 X40.9859 Y32.4535
G1 X40.9814 Y32.4551
G1 X40.9771 Y32.4572 Z-0.0003
G1 X40.973 Y32.4596
G1 X40.9692 Y32.4625
G1 X40.9657 Y32.4657
G1 X40.9625 Y32.4692 Z-0.0004
G1 X40.9596 Y32.473
G1 X40.9572 Y32.4771
G1 X40.9551 Y32.4814
G1 X40.9535 Y32.4859 Z-0.0005
G1 X40.9524 Y32.4905
G1 X40.9517 Y32.4952
G1 X40.95 Y32.5295 Z-0.0007
G1 Y62.4705 Z-0.1496
G1 X40.9517 Y62.5048 Z-0.1498
G1 X40.9524 Y62.5095
G1 X40.9535 Y62.5141
G1 X40.9551 Y62.5186 Z-0.1499
G1 X40.9572 Y62.5229
G1 X40.9596 Y62.527
G1 X40.9625 Y62.5308
G1 X40.9657 Y62.5343 Z-0.15
G1 X40.9692 Y62.5375
G1 X40.973 Y62.5404
G1 X40.9771 Y62.5428
G1 X40.9814 Y62.5449
G1 X40.9859 Y62.5465 Z-0.1501
G1 X40.9905 Y62.5476
G1 X40.9952 Y62.5483
G1 X41.0 Y62.5486
G1 X41.0048 Y62.5483 Z-0.1502
G1 X41.0095 Y62.5476
G1 X41.0141 Y62.5465
G1 X41.0186 Y62.5449
G1 X41.0229 Y62.5428 Z-0.1503
G1 X41.027 Y62.5404
G1 X41.0308 Y62.5375
G1 X41.0343 Y62.5343
G1 X41.0375 Y62.5308 Z-0.1504
G1 X41.0404 Y62.527
G1 X41.0428 Y62.5229
G1 X41.0449 Y62.5186
G1 X41.0465 Y62.5141 Z-0.1505
G1 X41.0476 Y62.5095
G1 X41.0483 Y62.5048
G1 X41.05 Y62.4705 Z-0.1507
G1 Y32.5295 Z-0.2996
G1 X41.0483 Y32.4952 Z-0.2998
G1 X41.0476 Y32.4905
G1 X41.0465 Y32.4859
G1 X41.0449 Y32.4814 Z-0.2999
G1 X41.0428 Y32.4771
G1 X41.0404 Y32.473
G1 X41.0375 Y32.4692
G1 X41.0343 Y32.4657 Z-0.3
G1 X41.0308 Y32.4625
G1 X41.027 Y32.4596
G1 X41.0229 Y32.4572
G1 X41.0186 Y32.4551
G1 X41.0141 Y32.4535 Z-0.3001
G1 X41.0095 Y32.4524
G1 X41.0048 Y32.4517
G1 X41.0 Y32.4514
G1 X40.9952 Y32.4517 Z-0.3002
G1 X40.9905 Y32.4524
G1 X40.9859 Y32.4535
G1 X40.9814 Y32.4551
G1 X40.9771 Y32.4572 Z-0.3003
G1 X40.973 Y32.4596
G1 X40.9692 Y32.4625
G1 X40.9657 Y32.4657
G1 X40.9625 Y32.4692 Z-0.3004
G1 X40.9596 Y32.473
G1 X40.9572 Y32.4771
G1 X40.9551 Y32.4814
G1 X40.9535 Y32.4859 Z-0.3005
G1 X40.9524 Y32.4905
G1 X40.9517 Y32.4952
G1 X40.95 Y32.5295 Z-0.3007
G1 Y62.4705 Z-0.4496
G1 X40.9517 Y62.5048 Z-0.4498
G1 X40.9524 Y62.5095
G1 X40.9535 Y62.5141
G1 X40.9551 Y62.5186 Z-0.4499
G1 X40.9572 Y62.5229
G1 X40.9596 Y62.527
G1 X40.9625 Y62.5308
G1 X40.9657 Y62.5343 Z-0.45
G1 X40.9692 Y62.5375
G1 X40.973 Y62.5404
G1 X40.9771 Y62.5428
G1 X40.9814 Y62.5449
G1 X40.9859 Y62.5465 Z-0.4501
G1 X40.9905 Y62.5476
G1 X40.9952 Y62.5483
G1 X41.0 Y62.5486
G1 X41.0048 Y62.5483 Z-0.4502
G1 X41.0095 Y62.5476
G1 X41.0141 Y62.5465
G1 X41.0186 Y62.5449
G1 X41.0229 Y62.5428 Z-0.4503
G1 X41.027 Y62.5404
G1 X41.0308 Y62.5375
G1 X41.0343 Y62.5343
G1 X41.0375 Y62.5308 Z-0.4504
G1 X41.0404 Y62.527
G1 X41.0428 Y62.5229
G1 X41.0449 Y62.5186
G1 X41.0465 Y62.5141 Z-0.4505
G1 X41.0476 Y62.5095
G1 X41.0483 Y62.5048
G1 X41.05 Y62.4705 Z-0.4507
G1 Y32.5295 Z-0.5996
G1 X41.0483 Y32.4952 Z-0.5998
G1 X41.0476 Y32.4905
G1 X41.0465 Y32.4859
G1 X41.0449 Y32.4814 Z-0.5999
G1 X41.0428 Y32.4771
G1 X41.0404 Y32.473
G1 X41.0375 Y32.4692
G1 X41.0343 Y32.4657 Z-0.6
G1 X41.0308 Y32.4625
G1 X41.027 Y32.4596
G1 X41.0229 Y32.4572
G1 X41.0186 Y32.4551
G1 X41.0141 Y32.4535 Z-0.6001
G1 X41.0095 Y32.4524
G1 X41.0048 Y32.4517
G1 X41.0 Y32.4514
G1 X40.9952 Y32.4517 Z-0.6002
G1 X40.9905 Y32.4524
G1 X40.9859 Y32.4535
G1 X40.9814 Y32.4551
G1 X40.9771 Y32.4572 Z-0.6003
G1 X40.973 Y32.4596
G1 X40.9692 Y32.4625
G1 X40.9657 Y32.4657
G1 X40.9625 Y32.4692 Z-0.6004
G1 X40.9596 Y32.473
G1 X40.9572 Y32.4771
G1 X40.9551 Y32.4814
G1 X40.9535 Y32.4859 Z-0.6005
G1 X40.9524 Y32.4905
G1 X40.9517 Y32.4952
G1 X40.95 Y32.5295 Z-0.6007
G1 Y62.4705 Z-0.7496
G1 X40.9517 Y62.5048 Z-0.7498
G1 X40.9524 Y62.5095
G1 X40.9535 Y62.5141
G1 X40.9551 Y62.5186 Z-0.7499
G1 X40.9572 Y62.5229
G1 X40.9596 Y62.527
G1 X40.9625 Y62.5308
G1 X40.9657 Y62.5343 Z-0.75
G1 X40.9692 Y62.5375
G1 X40.973 Y62.5404
G1 X40.9771 Y62.5428
G1 X40.9814 Y62.5449
G1 X40.9859 Y62.5465 Z-0.7501
G1 X40.9905 Y62.5476
G1 X40.9952 Y62.5483
G1 X41.0 Y62.5486
G1 X41.0048 Y62.5483 Z-0.7502
G1 X41.0095 Y62.5476
G1 X41.0141 Y62.5465
G1 X41.0186 Y62.5449
G1 X41.0229 Y62.5428 Z-0.7503
G1 X41.027 Y62.5404
G1 X41.0308 Y62.5375
G1 X41.0343 Y62.5343
G1 X41.0375 Y62.5308 Z-0.7504
G1 X41.0404 Y62.527
G1 X41.0428 Y62.5229
G1 X41.0449 Y62.5186
G1 X41.0465 Y62.5141 Z-0.7505
G1 X41.0476 Y62.5095
G1 X41.0483 Y62.5048
G1 X41.05 Y62.4705 Z-0.7507
G1 Y32.5295 Z-0.8996
G1 X41.0483 Y32.4952 Z-0.8998
G1 X41.0476 Y32.4905
G1 X41.0465 Y32.4859
G1 X41.0449 Y32.4814 Z-0.8999
G1 X41.0428 Y32.4771
G1 X41.0404 Y32.473
G1 X41.0375 Y32.4692
G1 X41.0343 Y32.4657 Z-0.9
G1 X41.0308 Y32.4625
G1 X41.027 Y32.4596
G1 X41.0229 Y32.4572
G1 X41.0186 Y32.4551
G1 X41.0141 Y32.4535 Z-0.9001
G1 X41.0095 Y32.4524
G1 X41.0048 Y32.4517
G1 X41.0 Y32.4514
G1 X40.9952 Y32.4517 Z-0.9002
G1 X40.9905 Y32.4524
G1 X40.9859 Y32.4535
G1 X40.9814 Y32.4551
G1 X40.9771 Y32.4572 Z-0.9003
G1 X40.973 Y32.4596
G1 X40.9692 Y32.4625
G1 X40.9657 Y32.4657
G1 X40.9625 Y32.4692 Z-0.9004
G1 X40.9596 Y32.473
G1 X40.9572 Y32.4771
G1 X40.9551 Y32.4814
G1 X40.9535 Y32.4859 Z-0.9005
G1 X40.9524 Y32.4905
G1 X40.9517 Y32.4952
G1 X40.95 Y32.5295 Z-0.9007
G1 Y62.4705 Z-1.0496
G1 X40.9517 Y62.5048 Z-1.0498
G1 X40.9524 Y62.5095
G1 X40.9535 Y62.5141
G1 X40.9551 Y62.5186 Z-1.0499
G1 X40.9572 Y62.5229
G1 X40.9596 Y62.527
G1 X40.9625 Y62.5308
G1 X40.9657 Y62.5343 Z-1.05
G1 X40.9692 Y62.5375
G1 X40.973 Y62.5404
G1 X40.9771 Y62.5428
G1 X40.9814 Y62.5449
G1 X40.9859 Y62.5465 Z-1.0501
G1 X40.9905 Y62.5476
G1 X40.9952 Y62.5483
G1 X41.0 Y62.5486
G1 X41.0048 Y62.5483 Z-1.0502
G1 X41.0095 Y62.5476
G1 X41.0141 Y62.5465
G1 X41.0186 Y62.5449
G1 X41.0229 Y62.5428 Z-1.0503
G1 X41.027 Y62.5404
G1 X41.0308 Y62.5375
G1 X41.0343 Y62.5343
G1 X41.0375 Y62.5308 Z-1.0504
G1 X41.0404 Y62.527
G1 X41.0428 Y62.5229
G1 X41.0449 Y62.5186
G1 X41.0465 Y62.5141 Z-1.0505
G1 X41.0476 Y62.5095
G1 X41.0483 Y62.5048
G1 X41.05 Y62.4705 Z-1.0507
G1 Y32.5295 Z-1.1996
G1 X41.0483 Y32.4952 Z-1.1998
G1 X41.0476 Y32.4905
G1 X41.0465 Y32.4859
G1 X41.0449 Y32.4814 Z-1.1999
G1 X41.0428 Y32.4771
G1 X41.0404 Y32.473
G1 X41.0375 Y32.4692
G1 X41.0343 Y32.4657 Z-1.2
G1 X41.0308 Y32.4625
G1 X41.027 Y32.4596
G1 X41.0229 Y32.4572
G1 X41.0186 Y32.4551
G1 X41.0141 Y32.4535 Z-1.2001
G1 X41.0095 Y32.4524
G1 X41.0048 Y32.4517
G1 X41.0 Y32.4514
G1 X40.9952 Y32.4517 Z-1.2002
G1 X40.9905 Y32.4524
G1 X40.9859 Y32.4535
G1 X40.9814 Y32.4551
G1 X40.9771 Y32.4572 Z-1.2003
G1 X40.973 Y32.4596
G1 X40.9692 Y32.4625
G1 X40.9657 Y32.4657
G1 X40.9625 Y32.4692 Z-1.2004
G1 X40.9596 Y32.473
G1 X40.9572 Y32.4771
G1 X40.9551 Y32.4814
G1 X40.9535 Y32.4859 Z-1.2005
G1 X40.9524 Y32.4905
G1 X40.9517 Y32.4952
G1 X40.95 Y32.5295 Z-1.2007
G1 Y62.4705 Z-1.3496
G1 X40.9517 Y62.5048 Z-1.3498
G1 X40.9524 Y62.5095
G1 X40.9535 Y62.5141
G1 X40.9551 Y62.5186 Z-1.3499
G1 X40.9572 Y62.5229
G1 X40.9596 Y62.527
G1 X40.9625 Y62.5308
G1 X40.9657 Y62.5343 Z-1.35
G1 X40.9692 Y62.5375
G1 X40.973 Y62.5404
G1 X40.9771 Y62.5428
G1 X40.9814 Y62.5449
G1 X40.9859 Y62.5465 Z-1.3501
G1 X40.9905 Y62.5476
G1 X40.9952 Y62.5483
G1 X41.0 Y62.5486
G1 X41.0048 Y62.5483 Z-1.3502
G1 X41.0095 Y62.5476
G1 X41.0141 Y62.5465
G1 X41.0186 Y62.5449
G1 X41.0229 Y62.5428 Z-1.3503
G1 X41.027 Y62.5404
G1 X41.0308 Y62.5375
G1 X41.0343 Y62.5343
G1 X41.0375 Y62.5308 Z-1.3504
G1 X41.0404 Y62.527
G1 X41.0428 Y62.5229
G1 X41.0449 Y62.5186
G1 X41.0465 Y62.5141 Z-1.3505
G1 X41.0476 Y62.5095
G1 X41.0483 Y62.5048
G1 X41.05 Y62.4705 Z-1.3507
G1 Y32.5295 Z-1.4996
G1 X41.0483 Y32.4952 Z-1.4998
G1 X41.0476 Y32.4905
G1 X41.0465 Y32.4859
G1 X41.0449 Y32.4814 Z-1.4999
G1 X41.0428 Y32.4771
G1 X41.0404 Y32.473
G1 X41.0375 Y32.4692
G1 X41.0343 Y32.4657 Z-1.5
G1 X41.0308 Y32.4625
G1 X41.027 Y32.4596
G1 X41.0229 Y32.4572
G1 X41.0186 Y32.4551
G1 X41.0141 Y32.4535 Z-1.5001
G1 X41.0095 Y32.4524
G1 X41.0048 Y32.4517
G1 X41.0 Y32.4514
G1 X40.9952 Y32.4517 Z-1.5002
G1 X40.9905 Y32.4524
G1 X40.9859 Y32.4535
G1 X40.9814 Y32.4551
G1 X40.9771 Y32.4572 Z-1.5003
G1 X40.973 Y32.4596
G1 X40.9692 Y32.4625
G1 X40.9657 Y32.4657
G1 X40.9625 Y32.4692 Z-1.5004
G1 X40.9596 Y32.473
G1 X40.9572 Y32.4771
G1 X40.9551 Y32.4814
G1 X40.9535 Y32.4859 Z-1.5005
G1 X40.9524 Y32.4905
G1 X40.9517 Y32.4952
G1 X40.95 Y32.5295 Z-1.5007
G1 Y62.4705 Z-1.6496
G1 X40.9517 Y62.5048 Z-1.6498
G1 X40.9524 Y62.5095
G1 X40.9535 Y62.5141
G1 X40.9551 Y62.5186 Z-1.6499
G1 X40.9572 Y62.5229
G1 X40.9596 Y62.527
G1 X40.9625 Y62.5308
G1 X40.9657 Y62.5343 Z-1.65
G1 X40.9692 Y62.5375
G1 X40.973 Y62.5404
G1 X40.9771 Y62.5428
G1 X40.9814 Y62.5449
G1 X40.9859 Y62.5465 Z-1.6501
G1 X40.9905 Y62.5476
G1 X40.9952 Y62.5483
G1 X41.0 Y62.5486
G1 X41.0048 Y62.5483 Z-1.6502
G1 X41.0095 Y62.5476
G1 X41.0141 Y62.5465
G1 X41.0186 Y62.5449
G1 X41.0229 Y62.5428 Z-1.6503
G1 X41.027 Y62.5404
G1 X41.0308 Y62.5375
G1 X41.0343 Y62.5343
G1 X41.0375 Y62.5308 Z-1.6504
G1 X41.0404 Y62.527
G1 X41.0428 Y62.5229
G1 X41.0449 Y62.5186
G1 X41.0465 Y62.5141 Z-1.6505
G1 X41.0476 Y62.5095
G1 X41.0483 Y62.5048
G1 X41.05 Y62.4705 Z-1.6507
G1 Y32.5295 Z-1.7996
G1 X41.0483 Y32.4952 Z-1.7998
G1 X41.0476 Y32.4905
G1 X41.0465 Y32.4859
G1 X41.0449 Y32.4814 Z-1.7999
G1 X41.0428 Y32.4771
G1 X41.0404 Y32.473
G1 X41.0375 Y32.4692
G1 X41.0343 Y32.4657 Z-1.8
G1 X41.0308 Y32.4625
G1 X41.027 Y32.4596
G1 X41.0229 Y32.4572
G1 X41.0186 Y32.4551
G1 X41.0141 Y32.4535 Z-1.8001
G1 X41.0095 Y32.4524
G1 X41.0048 Y32.4517
G1 X41.0 Y32.4514
G1 X40.9952 Y32.4517 Z-1.8002
G1 X40.9905 Y32.4524
G1 X40.9859 Y32.4535
G1 X40.9814 Y32.4551
G1 X40.9771 Y32.4572 Z-1.8003
G1 X40.973 Y32.4596
G1 X40.9692 Y32.4625
G1 X40.9657 Y32.4657
G1 X40.9625 Y32.4692 Z-1.8004
G1 X40.9596 Y32.473
G1 X40.9572 Y32.4771
G1 X40.9551 Y32.4814
G1 X40.9535 Y32.4859 Z-1.8005
G1 X40.9524 Y32.4905
G1 X40.9517 Y32.4952
G1 X40.95 Y32.5295 Z-1.8007
G1 Y62.4705 Z-1.9496
G1 X40.9517 Y62.5048 Z-1.9498
G1 X40.9524 Y62.5095
G1 X40.9535 Y62.5141
G1 X40.9551 Y62.5186 Z-1.9499
G1 X40.9572 Y62.5229
G1 X40.9596 Y62.527
G1 X40.9625 Y62.5308
G1 X40.9657 Y62.5343 Z-1.95
G1 X40.9692 Y62.5375
G1 X40.973 Y62.5404
G1 X40.9771 Y62.5428
G1 X40.9814 Y62.5449
G1 X40.9859 Y62.5465 Z-1.9501
G1 X40.9905 Y62.5476
G1 X40.9952 Y62.5483
G1 X41.0 Y62.5486
G1 X41.0048 Y62.5483 Z-1.9502
G1 X41.0095 Y62.5476
G1 X41.0141 Y62.5465
G1 X41.0186 Y62.5449
G1 X41.0229 Y62.5428 Z-1.9503
G1 X41.027 Y62.5404
G1 X41.0308 Y62.5375
G1 X41.0343 Y62.5343
G1 X41.0375 Y62.5308 Z-1.9504
G1 X41.0404 Y62.527
G1 X41.0428 Y62.5229
G1 X41.0449 Y62.5186
G1 X41.0465 Y62.5141 Z-1.9505
G1 X41.0476 Y62.5095
G1 X41.0483 Y62.5048
G1 X41.05 Y62.4705 Z-1.9507
G1 Y32.5295 Z-2.0996
G1 X41.0483 Y32.4952 Z-2.0998
G1 X41.0476 Y32.4905
G1 X41.0465 Y32.4859
G1 X41.0449 Y32.4814 Z-2.0999
G1 X41.0428 Y32.4771
G1 X41.0404 Y32.473
G1 X41.0375 Y32.4692
G1 X41.0343 Y32.4657 Z-2.1
G1 X41.0308 Y32.4625
G1 X41.027 Y32.4596
G1 X41.0229 Y32.4572
G1 X41.0186 Y32.4551
G1 X41.0141 Y32.4535 Z-2.1001
G1 X41.0095 Y32.4524
G1 X41.0048 Y32.4517
G1 X41.0 Y32.4514
G1 X40.9952 Y32.4517 Z-2.1002
G1 X40.9905 Y32.4524
G1 X40.9859 Y32.4535
G1 X40.9814 Y32.4551
G1 X40.9771 Y32.4572 Z-2.1003
G1 X40.973 Y32.4596
G1 X40.9692 Y32.4625
G1 X40.9657 Y32.4657
G1 X40.9625 Y32.4692 Z-2.1004
G1 X40.9596 Y32.473
G1 X40.9572 Y32.4771
G1 X40.9551 Y32.4814
G1 X40.9535 Y32.4859 Z-2.1005
G1 X40.9524 Y32.4905
G1 X40.9517 Y32.4952
G1 X40.95 Y32.5295 Z-2.1007
G1 Y62.4705 Z-2.2496
G1 X40.9517 Y62.5048 Z-2.2498
G1 X40.9524 Y62.5095
G1 X40.9535 Y62.5141
G1 X40.9551 Y62.5186 Z-2.2499
G1 X40.9572 Y62.5229
G1 X40.9596 Y62.527
G1 X40.9625 Y62.5308
G1 X40.9657 Y62.5343 Z-2.25
G1 X40.9692 Y62.5375
G1 X40.973 Y62.5404
G1 X40.9771 Y62.5428
G1 X40.9814 Y62.5449
G1 X40.9859 Y62.5465 Z-2.2501
G1 X40.9905 Y62.5476
G1 X40.9952 Y62.5483
G1 X41.0 Y62.5486
G1 X41.0048 Y62.5483 Z-2.2502
G1 X41.0095 Y62.5476
G1 X41.0141 Y62.5465
G1 X41.0186 Y62.5449
G1 X41.0229 Y62.5428 Z-2.2503
G1 X41.027 Y62.5404
G1 X41.0308 Y62.5375
G1 X41.0343 Y62.5343
G1 X41.0375 Y62.5308 Z-2.2504
G1 X41.0404 Y62.527
G1 X41.0428 Y62.5229
G1 X41.0449 Y62.5186
G1 X41.0465 Y62.5141 Z-2.2505
G1 X41.0476 Y62.5095
G1 X41.0483 Y62.5048
G1 X41.05 Y62.4705 Z-2.2507
G1 Y32.5295 Z-2.3996
G1 X41.0483 Y32.4952 Z-2.3998
G1 X41.0476 Y32.4905
G1 X41.0465 Y32.4859
G1 X41.0449 Y32.4814 Z-2.3999
G1 X41.0428 Y32.4771
G1 X41.0404 Y32.473
G1 X41.0375 Y32.4692
G1 X41.0343 Y32.4657 Z-2.4
G1 X41.0308 Y32.4625
G1 X41.027 Y32.4596
G1 X41.0229 Y32.4572
G1 X41.0186 Y32.4551
G1 X41.0141 Y32.4535 Z-2.4001
G1 X41.0095 Y32.4524
G1 X41.0048 Y32.4517
G1 X41.0 Y32.4514
G1 X40.9952 Y32.4517 Z-2.4002
G1 X40.9905 Y32.4524
G1 X40.9859 Y32.4535
G1 X40.9814 Y32.4551
G1 X40.9771 Y32.4572 Z-2.4003
G1 X40.973 Y32.4596
G1 X40.9692 Y32.4625
G1 X40.9657 Y32.4657
G1 X40.9625 Y32.4692 Z-2.4004
G1 X40.9596 Y32.473
G1 X40.9572 Y32.4771
G1 X40.9551 Y32.4814
G1 X40.9535 Y32.4859 Z-2.4005
G1 X40.9524 Y32.4905
G1 X40.9517 Y32.4952
G1 X40.95 Y32.5295 Z-2.4007
G1 Y62.4705 Z-2.5496
G1 X40.9517 Y62.5048 Z-2.5498
G1 X40.9524 Y62.5095
G1 X40.9535 Y62.5141
G1 X40.9551 Y62.5186 Z-2.5499
G1 X40.9572 Y62.5229
G1 X40.9596 Y62.527
G1 X40.9625 Y62.5308
G1 X40.9657 Y62.5343 Z-2.55
G1 X40.9692 Y62.5375
G1 X40.973 Y62.5404
G1 X40.9771 Y62.5428
G1 X40.9814 Y62.5449
G1 X40.9859 Y62.5465 Z-2.5501
G1 X40.9905 Y62.5476
G1 X40.9952 Y62.5483
G1 X41.0 Y62.5486
G1 X41.0048 Y62.5483 Z-2.5502
G1 X41.0095 Y62.5476
G1 X41.0141 Y62.5465
G1 X41.0186 Y62.5449
G1 X41.0229 Y62.5428 Z-2.5503
G1 X41.027 Y62.5404
G1 X41.0308 Y62.5375
G1 X41.0343 Y62.5343
G1 X41.0375 Y62.5308 Z-2.5504
G1 X41.0404 Y62.527
G1 X41.0428 Y62.5229
G1 X41.0449 Y62.5186
G1 X41.0465 Y62.5141 Z-2.5505
G1 X41.0476 Y62.5095
G1 X41.0483 Y62.5048
G1 X41.05 Y62.4705 Z-2.5507
G1 Y32.5295 Z-2.6996
G1 X41.0483 Y32.4952 Z-2.6998
G1 X41.0476 Y32.4905
G1 X41.0465 Y32.4859
G1 X41.0449 Y32.4814 Z-2.6999
G1 X41.0428 Y32.4771
G1 X41.0404 Y32.473
G1 X41.0375 Y32.4692
G1 X41.0343 Y32.4657 Z-2.7
G1 X41.0308 Y32.4625
G1 X41.027 Y32.4596
G1 X41.0229 Y32.4572
G1 X41.0186 Y32.4551
G1 X41.0141 Y32.4535 Z-2.7001
G1 X41.0095 Y32.4524
G1 X41.0048 Y32.4517
G1 X41.0 Y32.4514
G1 X40.9952 Y32.4517 Z-2.7002
G1 X40.9905 Y32.4524
G1 X40.9859 Y32.4535
G1 X40.9814 Y32.4551
G1 X40.9771 Y32.4572 Z-2.7003
G1 X40.973 Y32.4596
G1 X40.9692 Y32.4625
G1 X40.9657 Y32.4657
G1 X40.9625 Y32.4692 Z-2.7004
G1 X40.9596 Y32.473
G1 X40.9572 Y32.4771
G1 X40.9551 Y32.4814
G1 X40.9535 Y32.4859 Z-2.7005
G1 X40.9524 Y32.4905
G1 X40.9517 Y32.4952
G1 X40.95 Y32.5295 Z-2.7007
G1 Y62.4705 Z-2.8496
G1 X40.9517 Y62.5048 Z-2.8498
G1 X40.9524 Y62.5095
G1 X40.9535 Y62.5141
G1 X40.9551 Y62.5186 Z-2.8499
G1 X40.9572 Y62.5229
G1 X40.9596 Y62.527
G1 X40.9625 Y62.5308
G1 X40.9657 Y62.5343 Z-2.85
G1 X40.9692 Y62.5375
G1 X40.973 Y62.5404
G1 X40.9771 Y62.5428
G1 X40.9814 Y62.5449
G1 X40.9859 Y62.5465 Z-2.8501
G1 X40.9905 Y62.5476
G1 X40.9952 Y62.5483
G1 X41.0 Y62.5486
G1 X41.0048 Y62.5483 Z-2.8502
G1 X41.0095 Y62.5476
G1 X41.0141 Y62.5465
G1 X41.0186 Y62.5449
G1 X41.0229 Y62.5428 Z-2.8503
G1 X41.027 Y62.5404
G1 X41.0308 Y62.5375
G1 X41.0343 Y62.5343
G1 X41.0375 Y62.5308 Z-2.8504
G1 X41.0404 Y62.527
G1 X41.0428 Y62.5229
G1 X41.0449 Y62.5186
G1 X41.0465 Y62.5141 Z-2.8505
G1 X41.0476 Y62.5095
G1 X41.0483 Y62.5048
G1 X41.05 Y62.4705 Z-2.8507
G1 Y32.5295 Z-2.9996
G1 X41.0483 Y32.4952 Z-2.9998
G1 X41.0476 Y32.4905
G1 X41.0465 Y32.4859
G1 X41.0449 Y32.4814 Z-2.9999
G1 X41.0428 Y32.4771
G1 X41.0404 Y32.473
G1 X41.0375 Y32.4692
G1 X41.0343 Y32.4657 Z-3.0
G1 X41.0308 Y32.4625
G1 X41.027 Y32.4596
G1 X41.0229 Y32.4572
G1 X41.0186 Y32.4551
G1 X41.0141 Y32.4535 Z-3.0001
G1 X41.0095 Y32.4524
G1 X41.0048 Y32.4517
G1 X41.0 Y32.4514
G1 X40.9952 Y32.4517 Z-3.0002
G1 X40.9905 Y32.4524
G1 X40.9859 Y32.4535
G1 X40.9814 Y32.4551
G1 X40.9771 Y32.4572 Z-3.0003
G1 X40.973 Y32.4596
G1 X40.9692 Y32.4625
G1 X40.9657 Y32.4657
G1 X40.9625 Y32.4692 Z-3.0004
G1 X40.9596 Y32.473
G1 X40.9572 Y32.4771
G1 X40.9551 Y32.4814
G1 X40.9535 Y32.4859 Z-3.0005
G1 X40.9524 Y32.4905
G1 X40.9517 Y32.4952
G1 X40.95 Y32.5295 Z-3.0007
G1 Y62.4705 Z-3.1496
G1 X40.9517 Y62.5048 Z-3.1498
G1 X40.9524 Y62.5095
G1 X40.9535 Y62.5141
G1 X40.9551 Y62.5186 Z-3.1499
G1 X40.9572 Y62.5229
G1 X40.9596 Y62.527
G1 X40.9625 Y62.5308
G1 X40.9657 Y62.5343 Z-3.15
G1 X40.9692 Y62.5375
G1 X40.973 Y62.5404
G1 X40.9771 Y62.5428
G1 X40.9814 Y62.5449
G1 X40.9859 Y62.5465 Z-3.1501
G1 X40.9905 Y62.5476
G1 X40.9952 Y62.5483
G1 X41.0 Y62.5486
G1 X41.0048 Y62.5483 Z-3.1502
G1 X41.0095 Y62.5476
G1 X41.0141 Y62.5465
G1 X41.0186 Y62.5449
G1 X41.0229 Y62.5428 Z-3.1503
G1 X41.027 Y62.5404
G1 X41.0308 Y62.5375
G1 X41.0343 Y62.5343
G1 X41.0375 Y62.5308 Z-3.1504
G1 X41.0404 Y62.527
G1 X41.0428 Y62.5229
G1 X41.0449 Y62.5186
G1 X41.0465 Y62.5141 Z-3.1505
G1 X41.0476 Y62.5095
G1 X41.0483 Y62.5048
G1 X41.05 Y62.4705 Z-3.1507
G1 Y32.5295 Z-3.2996
G1 X41.0483 Y32.4952 Z-3.2998
G1 X41.0476 Y32.4905
G1 X41.0465 Y32.4859
G1 X41.0449 Y32.4814 Z-3.2999
G1 X41.0428 Y32.4771
G1 X41.0404 Y32.473
G1 X41.0375 Y32.4692
G1 X41.0343 Y32.4657 Z-3.3
G1 X41.0308 Y32.4625
G1 X41.027 Y32.4596
G1 X41.0229 Y32.4572
G1 X41.0186 Y32.4551
G1 X41.0141 Y32.4535 Z-3.3001
G1 X41.0095 Y32.4524
G1 X41.0048 Y32.4517
G1 X41.0 Y32.4514
G1 X40.9952 Y32.4517 Z-3.3002
G1 X40.9905 Y32.4524
G1 X40.9859 Y32.4535
G1 X40.9814 Y32.4551
G1 X40.9771 Y32.4572 Z-3.3003
G1 X40.973 Y32.4596
G1 X40.9692 Y32.4625
G1 X40.9657 Y32.4657
G1 X40.9625 Y32.4692 Z-3.3004
G1 X40.9596 Y32.473
G1 X40.9572 Y32.4771
G1 X40.9551 Y32.4814
G1 X40.9535 Y32.4859 Z-3.3005
G1 X40.9524 Y32.4905
G1 X40.9517 Y32.4952
G1 X40.95 Y32.5295 Z-3.3007
G1 Y62.4705 Z-3.4496
G1 X40.9517 Y62.5048 Z-3.4498
G1 X40.9524 Y62.5095
G1 X40.9535 Y62.5141
G1 X40.9551 Y62.5186 Z-3.4499
G1 X40.9572 Y62.5229
G1 X40.9596 Y62.527
G1 X40.9625 Y62.5308
G1 X40.9657 Y62.5343 Z-3.45
G1 X40.9692 Y62.5375
G1 X40.973 Y62.5404
G1 X40.9771 Y62.5428
G1 X40.9814 Y62.5449
G1 X40.9859 Y62.5465 Z-3.4501
G1 X40.9905 Y62.5476
G1 X40.9952 Y62.5483
G1 X41.0 Y62.5486
G1 X41.0048 Y62.5483 Z-3.4502
G1 X41.0095 Y62.5476
G1 X41.0141 Y62.5465
G1 X41.0186 Y62.5449
G1 X41.0229 Y62.5428 Z-3.4503
G1 X41.027 Y62.5404
G1 X41.0308 Y62.5375
G1 X41.0343 Y62.5343
G1 X41.0375 Y62.5308 Z-3.4504
G1 X41.0404 Y62.527
G1 X41.0428 Y62.5229
G1 X41.0449 Y62.5186
G1 X41.0465 Y62.5141 Z-3.4505
G1 X41.0476 Y62.5095
G1 X41.0483 Y62.5048
G1 X41.05 Y62.4705 Z-3.4507
G1 Y32.5295 Z-3.5996
G1 X41.0483 Y32.4952 Z-3.5998
G1 X41.0476 Y32.4905
G1 X41.0465 Y32.4859
G1 X41.0449 Y32.4814 Z-3.5999
G1 X41.0428 Y32.4771
G1 X41.0404 Y32.473
G1 X41.0375 Y32.4692
G1 X41.0343 Y32.4657 Z-3.6
G1 X41.0308 Y32.4625
G1 X41.027 Y32.4596
G1 X41.0229 Y32.4572
G1 X41.0186 Y32.4551
G1 X41.0141 Y32.4535 Z-3.6001
G1 X41.0095 Y32.4524
G1 X41.0048 Y32.4517
G1 X41.0 Y32.4514
G1 X40.9952 Y32.4517 Z-3.6002
G1 X40.9905 Y32.4524
G1 X40.9859 Y32.4535
G1 X40.9814 Y32.4551
G1 X40.9771 Y32.4572 Z-3.6003
G1 X40.973 Y32.4596
G1 X40.9692 Y32.4625
G1 X40.9657 Y32.4657
G1 X40.9625 Y32.4692 Z-3.6004
G1 X40.9596 Y32.473
G1 X40.9572 Y32.4771
G1 X40.9551 Y32.4814
G1 X40.9535 Y32.4859 Z-3.6005
G1 X40.9524 Y32.4905
G1 X40.9517 Y32.4952
G1 X40.95 Y32.5295 Z-3.6007
G1 Y62.4705 Z-3.7496
G1 X40.9517 Y62.5048 Z-3.7498
G1 X40.9524 Y62.5095
G1 X40.9535 Y62.5141
G1 X40.9551 Y62.5186 Z-3.7499
G1 X40.9572 Y62.5229
G1 X40.9596 Y62.527
G1 X40.9625 Y62.5308
G1 X40.9657 Y62.5343 Z-3.75
G1 X40.9692 Y62.5375
G1 X40.973 Y62.5404
G1 X40.9771 Y62.5428
G1 X40.9814 Y62.5449
G1 X40.9859 Y62.5465 Z-3.7501
G1 X40.9905 Y62.5476
G1 X40.9952 Y62.5483
G1 X41.0 Y62.5486
G1 X41.0048 Y62.5483 Z-3.7502
G1 X41.0095 Y62.5476
G1 X41.0141 Y62.5465
G1 X41.0186 Y62.5449
G1 X41.0229 Y62.5428 Z-3.7503
G1 X41.027 Y62.5404
G1 X41.0308 Y62.5375
G1 X41.0343 Y62.5343
G1 X41.0375 Y62.5308 Z-3.7504
G1 X41.0404 Y62.527
G1 X41.0428 Y62.5229
G1 X41.0449 Y62.5186
G1 X41.0465 Y62.5141 Z-3.7505
G1 X41.0476 Y62.5095
G1 X41.0483 Y62.5048
G1 X41.05 Y62.4705 Z-3.7507
G1 Y32.5295 Z-3.8996
G1 X41.0483 Y32.4952 Z-3.8998
G1 X41.0476 Y32.4905
G1 X41.0465 Y32.4859
G1 X41.0449 Y32.4814 Z-3.8999
G1 X41.0428 Y32.4771
G1 X41.0404 Y32.473
G1 X41.0375 Y32.4692
G1 X41.0343 Y32.4657 Z-3.9
G1 X41.0308 Y32.4625
G1 X41.027 Y32.4596
G1 X41.0229 Y32.4572
G1 X41.0186 Y32.4551
G1 X41.0141 Y32.4535 Z-3.9001
G1 X41.0095 Y32.4524
G1 X41.0048 Y32.4517
G1 X41.0 Y32.4514
G1 X40.9952 Y32.4517 Z-3.9002
G1 X40.9905 Y32.4524
G1 X40.9859 Y32.4535
G1 X40.9814 Y32.4551
G1 X40.9771 Y32.4572 Z-3.9003
G1 X40.973 Y32.4596
G1 X40.9692 Y32.4625
G1 X40.9657 Y32.4657
G1 X40.9625 Y32.4692 Z-3.9004
G1 X40.9596 Y32.473
G1 X40.9572 Y32.4771
G1 X40.9551 Y32.4814
G1 X40.9535 Y32.4859 Z-3.9005
G1 X40.9524 Y32.4905
G1 X40.9517 Y32.4952
G1 X40.95 Y32.5295 Z-3.9007
G1 Y62.4705 Z-4.0496
G1 X40.9517 Y62.5048 Z-4.0498
G1 X40.9524 Y62.5095
G1 X40.9535 Y62.5141
G1 X40.9551 Y62.5186 Z-4.0499
G1 X40.9572 Y62.5229
G1 X40.9596 Y62.527
G1 X40.9625 Y62.5308
G1 X40.9657 Y62.5343 Z-4.05
G1 X40.9692 Y62.5375
G1 X40.973 Y62.5404
G1 X40.9771 Y62.5428
G1 X40.9814 Y62.5449
G1 X40.9859 Y62.5465 Z-4.0501
G1 X40.9905 Y62.5476
G1 X40.9952 Y62.5483
G1 X41.0 Y62.5486
G1 X41.0048 Y62.5483 Z-4.0502
G1 X41.0095 Y62.5476
G1 X41.0141 Y62.5465
G1 X41.0186 Y62.5449
G1 X41.0229 Y62.5428 Z-4.0503
G1 X41.027 Y62.5404
G1 X41.0308 Y62.5375
G1 X41.0343 Y62.5343
G1 X41.0375 Y62.5308 Z-4.0504
G1 X41.0404 Y62.527
G1 X41.0428 Y62.5229
G1 X41.0449 Y62.5186
G1 X41.0465 Y62.5141 Z-4.0505
G1 X41.0476 Y62.5095
G1 X41.0483 Y62.5048
G1 X41.05 Y62.4705 Z-4.0507
G1 Y32.5295 Z-4.1996
G1 X41.0483 Y32.4952 Z-4.1998
G1 X41.0476 Y32.4905
G1 X41.0465 Y32.4859
G1 X41.0449 Y32.4814 Z-4.1999
G1 X41.0428 Y32.4771
G1 X41.0404 Y32.473
G1 X41.0375 Y32.4692
G1 X41.0343 Y32.4657 Z-4.2
G1 X41.0308 Y32.4625
G1 X41.027 Y32.4596
G1 X41.0229 Y32.4572
G1 X41.0186 Y32.4551
G1 X41.0141 Y32.4535
G1 X41.0095 Y32.4524
G1 X41.0048 Y32.4517
G1 X41.0 Y32.4514
G1 X40.9952 Y32.4517
G1 X40.9905 Y32.4524
G1 X40.9859 Y32.4535
G1 X40.9814 Y32.4551
G1 X40.9771 Y32.4572
G1 X40.973 Y32.4596
G1 X40.9692 Y32.4625
G1 X40.9657 Y32.4657
G1 X40.9625 Y32.4692
G1 X40.9596 Y32.473
G1 X40.9572 Y32.4771
G1 X40.9551 Y32.4814
G1 X40.9535 Y32.4859
G1 X40.9524 Y32.4905
G1 X40.9517 Y32.4952
G1 X40.95 Y32.5295
G1 Y62.4705
G1 X40.9517 Y62.5048
G1 X40.9524 Y62.5095
G1 X40.9535 Y62.5141
G1 X40.9551 Y62.5186
G1 X40.9572 Y62.5229
G1 X40.9596 Y62.527
G1 X40.9625 Y62.5308
G1 X40.9657 Y62.5343
G1 X40.9692 Y62.5375
G1 X40.973 Y62.5404
G1 X40.9771 Y62.5428
G1 X40.9814 Y62.5449
G1 X40.9859 Y62.5465
G1 X40.9905 Y62.5476
G1 X40.9952 Y62.5483
G1 X41.0 Y62.5486
G1 X41.0048 Y62.5483
G1 X41.0095 Y62.5476
G1 X41.0141 Y62.5465
G1 X41.0186 Y62.5449
G1 X41.0229 Y62.5428
G1 X41.027 Y62.5404
G1 X41.0308 Y62.5375
G1 X41.0343 Y62.5343
G1 X41.0375 Y62.5308
G1 X41.0404 Y62.527
G1 X41.0428 Y62.5229
G1 X41.0449 Y62.5186
G1 X41.0465 Y62.5141
G1 X41.0476 Y62.5095
G1 X41.0483 Y62.5048
G1 X41.05 Y62.4705
G1 Y32.5295
G1 X41.0483 Y32.4952
G1 X41.0476 Y32.4905
G1 X41.0465 Y32.4859
G1 X41.0449 Y32.4814
G1 X41.0428 Y32.4771
G1 X41.0404 Y32.473
G1 X41.0375 Y32.4692
G1 X41.0343 Y32.4657
G1 X41.0308 Y32.4625
G1 X41.027 Y32.4596
G0 Z3.0
G0 X56.95 Y32.5295
G0 Z1.0
G1 F300.0 Z0.0
G1 F800.0 Y62.4705 Z-0.1489
G1 X56.9517 Y62.5048 Z-0.1491
G1 X56.9524 Y62.5095
G1 X56.9535 Y62.5141 Z-0.1492
G1 X56.9551 Y62.5186
G1 X56.9572 Y62.5229
G1 X56.9596 Y62.527
G1 X56.9625 Y62.5308 Z-0.1493
G1 X56.9657 Y62.5343
G1 X56.9692 Y62.5375
G1 X56.973 Y62.5404
G1 X56.9771 Y62.5428 Z-0.1494
G1 X56.9814 Y62.5449
G1 X56.9859 Y62.5465
G1 X56.9905 Y62.5476
G1 X56.9952 Y62.5483 Z-0.1495
G1 X57.0 Y62.5486
G1 X57.0048 Y62.5483
G1 X57.0095 Y62.5476
G1 X57.0141 Y62.5465
G1 X57.0186 Y62.5449 Z-0.1496
G1 X57.0229 Y62.5428
G1 X57.027 Y62.5404
G1 X57.0308 Y62.5375
G1 X57.0343 Y62.5343 Z-0.1497
G1 X57.0375 Y62.5308
G1 X57.0404 Y62.527
G1 X57.0428 Y62.5229
G1 X57.0449 Y62.5186 Z-0.1498
G1 X57.0465 Y62.5141
G1 X57.0476 Y62.5095
G1 X57.0483 Y62.5048
G1 X57.05 Y62.4705 Z-0.15
G1 Y32.5295 Z-0.2989
G1 X57.0483 Y32.4952 Z-0.2991
G1 X57.0476 Y32.4905
G1 X57.0465 Y32.4859 Z-0.2992
G1 X57.0449 Y32.4814
G1 X57.0428 Y32.4771
G1 X57.0404 Y32.473
G1 X57.0375 Y32.4692 Z-0.2993
G1 X57.0343 Y32.4657
G1 X57.0308 Y32.4625
G1 X57.027 Y32.4596
G1 X57.0229 Y32.4572 Z-0.2994
G1 X57.0186 Y32.4551
G1 X57.0141 Y32.4535
G1 X57.0095 Y32.4524
G1 X57.0048 Y32.4517 Z-0.2995
G1 X57.0 Y32.4514
G1 X56.9952 Y32.4517
G1 X56.9905 Y32.4524
G1 X56.9859 Y32.4535
G1 X56.9814 Y32.4551 Z-0.2996
G1 X56.9771 Y32.4572
G1 X56.973 Y32.4596
G1 X56.9692 Y32.4625
G1 X56.9657 Y32.4657 Z-0.2997
G1 X56.9625 Y32.4692
G1 X56.9596 Y32.473
G1 X56.9572 Y32.4771
G1 X56.9551 Y32.4814 Z-0.2998
G1 X56.9535 Y32.4859
G1 X56.9524 Y32.4905
G1 X56.9517 Y32.4952
G1 X56.95 Y32.5295 Z-0.3
G1 Y62.4705 Z-0.4489
G1 X56.9517 Y62.5048 Z-0.4491
G1 X56.9524 Y62.5095
G1 X56.9535 Y62.5141 Z-0.4492
G1 X56.9551 Y62.5186
G1 X56.9572 Y62.5229
G1 X56.9596 Y62.527
G1 X56.9625 Y62.5308 Z-0.4493
G1 X56.9657 Y62.5343
G1 X56.9692 Y62.5375
G1 X56.973 Y62.5404
G1 X56.9771 Y62.5428 Z-0.4494
G1 X56.9814 Y62.5449
G1 X56.9859 Y62.5465
G1 X56.9905 Y62.5476
G1 X56.9952 Y62.5483 Z-0.4495
G1 X57.0 Y62.5486
G1 X57.0048 Y62.5483
G1 X57.0095 Y62.5476
G1 X57.0141 Y62.5465
G1 X57.0186 Y62.5449 Z-0.4496
G1 X57.0229 Y62.5428
G1 X57.027 Y62.5404
G1 X57.0308 Y62.5375
G1 X57.0343 Y62.5343 Z-0.4497
G1 X57.0375 Y62.5308
G1 X57.0404 Y62.527
G1 X57.0428 Y62.5229
G1 X57.0449 Y62.5186 Z-0.4498
G1 X57.0465 Y62.5141
G1 X57.0476 Y62.5095
G1 X57.0483 Y62.5048
G1 X57.05 Y62.4705 Z-0.45
G1 Y32.5295 Z-0.5989
G1 X57.0483 Y32.4952 Z-0.5991
G1 X57.0476 Y32.4905
G1 X57.0465 Y32.4859 Z-0.5992
G1 X57.0449 Y32.4814
G1 X57.0428 Y32.4771
G1 X57.0404 Y32.473
G1 X57.0375 Y32.4692 Z-0.5993
G1 X57.0343 Y32.4657
G1 X57.0308 Y32.4625
G1 X57.027 Y32.4596
G1 X57.0229 Y32.4572 Z-0.5994
G1 X57.0186 Y32.4551
G1 X57.0141 Y32.4535
G1 X57.0095 Y32.4524
G1 X57.0048 Y32.4517 Z-0.5995
G1 X57.0 Y32.4514
G1 X56.9952 Y32.4517
G1 X56.9905 Y32.4524
G1 X56.9859 Y32.4535
G1 X56.9814 Y32.4551 Z-0.5996
G1 X56.9771 Y32.4572
G1 X56.973 Y32.4596
G1 X56.9692 Y32.4625
G1 X56.9657 Y32.4657 Z-0.5997
G1 X56.9625 Y32.4692
G1 X56.9596 Y32.473
G1 X56.9572 Y32.4771
G1 X56.9551 Y32.4814 Z-0.5998
G1 X56.9535 Y32.4859
G1 X56.9524 Y32.4905
G1 X56.9517 Y32.4952
G1 X56.95 Y32.5295 Z-0.6
G1 Y62.4705 Z-0.7489
G1 X56.9517 Y62.5048 Z-0.7491
G1 X56.9524 Y62.5095
G1 X56.9535 Y62.5141 Z-0.7492
G1 X56.9551 Y62.5186
G1 X56.9572 Y62.5229
G1 X56.9596 Y62.527
G1 X56.9625 Y62.5308 Z-0.7493
G1 X56.9657 Y62.5343
G1 X56.9692 Y62.5375
G1 X56.973 Y62.5404
G1 X56.9771 Y62.5428 Z-0.7494
G1 X56.9814 Y62.5449
G1 X56.9859 Y62.5465
G1 X56.9905 Y62.5476
G1 X56.9952 Y62.5483 Z-0.7495
G1 X57.0 Y62.5486
G1 X57.0048 Y62.5483
G1 X57.0095 Y62.5476
G1 X57.0141 Y62.5465
G1 X57.0186 Y62.5449 Z-0.7496
G1 X57.0229 Y62.5428
G1 X57.027 Y62.5404
G1 X57.0308 Y62.5375
G1 X57.0343 Y62.5343 Z-0.7497
G1 X57.0375 Y62.5308
G1 X57.0404 Y62.527
G1 X57.0428 Y62.5229
G1 X57.0449 Y62.5186 Z-0.7498
G1 X57.0465 Y62.5141
G1 X57.0476 Y62.5095
G1 X57.0483 Y62.5048
G1 X57.05 Y62.4705 Z-0.75
G1 Y32.5295 Z-0.8989
G1 X57.0483 Y32.4952 Z-0.8991
G1 X57.0476 Y32.4905
G1 X57.0465 Y32.4859 Z-0.8992
G1 X57.0449 Y32.4814
G1 X57.0428 Y32.4771
G1 X57.0404 Y32.473
G1 X57.0375 Y32.4692 Z-0.8993
G1 X57.0343 Y32.4657
G1 X57.0308 Y32.4625
G1 X57.027 Y32.4596
G1 X57.0229 Y32.4572 Z-0.8994
G1 X57.0186 Y32.4551
G1 X57.0141 Y32.4535
G1 X57.0095 Y32.4524
G1 X57.0048 Y32.4517 Z-0.8995
G1 X57.0 Y32.4514
G1 X56.9952 Y32.4517
G1 X56.9905 Y32.4524
G1 X56.9859 Y32.4535
G1 X56.9814 Y32.4551 Z-0.8996
G1 X56.9771 Y32.4572
G1 X56.973 Y32.4596
G1 X56.9692 Y32.4625
G1 X56.9657 Y32.4657 Z-0.8997
G1 X56.9625 Y32.4692
G1 X56.9596 Y32.473
G1 X56.9572 Y32.4771
G1 X56.9551 Y32.4814 Z-0.8998
G1 X56.9535 Y32.4859
G1 X56.9524 Y32.4905
G1 X56.9517 Y32.4952
G1 X56.95 Y32.5295 Z-0.9
G1 Y62.4705 Z-1.0489
G1 X56.9517 Y62.5048 Z-1.0491
G1 X56.9524 Y62.5095
G1 X56.9535 Y62.5141 Z-1.0492
G1 X56.9551 Y62.5186
G1 X56.9572 Y62.5229
G1 X56.9596 Y62.527
G1 X56.9625 Y62.5308 Z-1.0493
G1 X56.9657 Y62.5343
G1 X56.9692 Y62.5375
G1 X56.973 Y62.5404
G1 X56.9771 Y62.5428 Z-1.0494
G1 X56.9814 Y62.5449
G1 X56.9859 Y62.5465
G1 X56.9905 Y62.5476
G1 X56.9952 Y62.5483 Z-1.0495
G1 X57.0 Y62.5486
G1 X57.0048 Y62.5483
G1 X57.0095 Y62.5476
G1 X57.0141 Y62.5465
G1 X57.0186 Y62.5449 Z-1.0496
G1 X57.0229 Y62.5428
G1 X57.027 Y62.5404
G1 X57.0308 Y62.5375
G1 X57.0343 Y62.5343 Z-1.0497
G1 X57.0375 Y62.5308
G1 X57.0404 Y62.527
G1 X57.0428 Y62.5229
G1 X57.0449 Y62.5186 Z-1.0498
G1 X57.0465 Y62.5141
G1 X57.0476 Y62.5095
G1 X57.0483 Y62.5048
G1 X57.05 Y62.4705 Z-1.05
G1 Y32.5295 Z-1.1989
G1 X57.0483 Y32.4952 Z-1.1991
G1 X57.0476 Y32.4905
G1 X57.0465 Y32.4859 Z-1.1992
G1 X57.0449 Y32.4814
G1 X57.0428 Y32.4771
G1 X57.0404 Y32.473
G1 X57.0375 Y32.4692 Z-1.1993
G1 X57.0343 Y32.4657
G1 X57.0308 Y32.4625
G1 X57.027 Y32.4596
G1 X57.0229 Y32.4572 Z-1.1994
G1 X57.0186 Y32.4551
G1 X57.0141 Y32.4535
G1 X57.0095 Y32.4524
G1 X57.0048 Y32.4517 Z-1.1995
G1 X57.0 Y32.4514
G1 X56.9952 Y32.4517
G1 X56.9905 Y32.4524
G1 X56.9859 Y32.4535
G1 X56.9814 Y32.4551 Z-1.1996
G1 X56.9771 Y32.4572
G1 X56.973 Y32.4596
G1 X56.9692 Y32.4625
G1 X56.9657 Y32.4657 Z-1.1997
G1 X56.9625 Y32.4692
G1 X56.9596 Y32.473
G1 X56.9572 Y32.4771
G1 X56.9551 Y32.4814 Z-1.1998
G1 X56.9535 Y32.4859
G1 X56.9524 Y32.4905
G1 X56.9517 Y32.4952
G1 X56.95 Y32.5295 Z-1.2
G1 Y62.4705 Z-1.3489
G1 X56.9517 Y62.5048 Z-1.3491
G1 X56.9524 Y62.5095
G1 X56.9535 Y62.5141 Z-1.3492
G1 X56.9551 Y62.5186
G1 X56.9572 Y62.5229
G1 X56.9596 Y62.527
G1 X56.9625 Y62.5308 Z-1.3493
G1 X56.9657 Y62.5343
G1 X56.9692 Y62.5375
G1 X56.973 Y62.5404
G1 X56.9771 Y62.5428 Z-1.3494
G1 X56.9814 Y62.5449
G1 X56.9859 Y62.5465
G1 X56.9905 Y62.5476
G1 X56.9952 Y62.5483 Z-1.3495
G1 X57.0 Y62.5486
G1 X57.0048 Y62.5483
G1 X57.0095 Y62.5476
G1 X57.0141 Y62.5465
G1 X57.0186 Y62.5449 Z-1.3496
G1 X57.0229 Y62.5428
G1 X57.027 Y62.5404
G1 X57.0308 Y62.5375
G1 X57.0343 Y62.5343 Z-1.3497
G1 X57.0375 Y62.5308
G1 X57.0404 Y62.527
G1 X57.0428 Y62.5229
G1 X57.0449 Y62.5186 Z-1.3498
G1 X57.0465 Y62.5141
G1 X57.0476 Y62.5095
G1 X57.0483 Y62.5048
G1 X57.05 Y62.4705 Z-1.35
G1 Y32.5295 Z-1.4989
G1 X57.0483 Y32.4952 Z-1.4991
G1 X57.0476 Y32.4905
G1 X57.0465 Y32.4859 Z-1.4992
G1 X57.0449 Y32.4814
G1 X57.0428 Y32.4771
G1 X57.0404 Y32.473
G1 X57.0375 Y32.4692 Z-1.4993
G1 X57.0343 Y32.4657
G1 X57.0308 Y32.4625
G1 X57.027 Y32.4596
G1 X57.0229 Y32.4572 Z-1.4994
G1 X57.0186 Y32.4551
G1 X57.0141 Y32.4535
G1 X57.0095 Y32.4524
G1 X57.0048 Y32.4517 Z-1.4995
G1 X57.0 Y32.4514
G1 X56.9952 Y32.4517
G1 X56.9905 Y32.4524
G1 X56.9859 Y32.4535
G1 X56.9814 Y32.4551 Z-1.4996
G1 X56.9771 Y32.4572
G1 X56.973 Y32.4596
G1 X56.9692 Y32.4625
G1 X56.9657 Y32.4657 Z-1.4997
G1 X56.9625 Y32.4692
G1 X56.9596 Y32.473
G1 X56.9572 Y32.4771
G1 X56.9551 Y32.4814 Z-1.4998
G1 X56.9535 Y32.4859
G1 X56.9524 Y32.4905
G1 X56.9517 Y32.4952
G1 X56.95 Y32.5295 Z-1.5
G1 Y62.4705 Z-1.6489
G1 X56.9517 Y62.5048 Z-1.6491
G1 X56.9524 Y62.5095
G1 X56.9535 Y62.5141 Z-1.6492
G1 X56.9551 Y62.5186
G1 X56.9572 Y62.5229
G1 X56.9596 Y62.527
G1 X56.9625 Y62.5308 Z-1.6493
G1 X56.9657 Y62.5343
G1 X56.9692 Y62.5375
G1 X56.973 Y62.5404
G1 X56.9771 Y62.5428 Z-1.6494
G1 X56.9814 Y62.5449
G1 X56.9859 Y62.5465
G1 X56.9905 Y62.5476
G1 X56.9952 Y62.5483 Z-1.6495
G1 X57.0 Y62.5486
G1 X57.0048 Y62.5483
G1 X57.0095 Y62.5476
G1 X57.0141 Y62.5465
G1 X57.0186 Y62.5449 Z-1.6496
G1 X57.0229 Y62.5428
G1 X57.027 Y62.5404
G1 X57.0308 Y62.5375
G1 X57.0343 Y62.5343 Z-1.6497
G1 X57.0375 Y62.5308
G1 X57.0404 Y62.527
G1 X57.0428 Y62.5229
G1 X57.0449 Y62.5186 Z-1.6498
G1 X57.0465 Y62.5141
G1 X57.0476 Y62.5095
G1 X57.0483 Y62.5048
G1 X57.05 Y62.4705 Z-1.65
G1 Y32.5295 Z-1.7989
G1 X57.0483 Y32.4952 Z-1.7991
G1 X57.0476 Y32.4905
G1 X57.0465 Y32.4859 Z-1.7992
G1 X57.0449 Y32.4814
G1 X57.0428 Y32.4771
G1 X57.0404 Y32.473
G1 X57.0375 Y32.4692 Z-1.7993
G1 X57.0343 Y32.4657
G1 X57.0308 Y32.4625
G1 X57.027 Y32.4596
G1 X57.0229 Y32.4572 Z-1.7994
G1 X57.0186 Y32.4551
G1 X57.0141 Y32.4535
G1 X57.0095 Y32.4524
G1 X57.0048 Y32.4517 Z-1.7995
G1 X57.0 Y32.4514
G1 X56.9952 Y32.4517
G1 X56.9905 Y32.4524
G1 X56.9859 Y32.4535
G1 X56.9814 Y32.4551 Z-1.7996
G1 X56.9771 Y32.4572
G1 X56.973 Y32.4596
G1 X56.9692 Y32.4625
G1 X56.9657 Y32.4657 Z-1.7997
G1 X56.9625 Y32.4692
G1 X56.9596 Y32.473
G1 X56.9572 Y32.4771
G1 X56.9551 Y32.4814 Z-1.7998
G1 X56.9535 Y32.4859
G1 X56.9524 Y32.4905
G1 X56.9517 Y32.4952
G1 X56.95 Y32.5295 Z-1.8
G1 Y62.4705 Z-1.9489
G1 X56.9517 Y62.5048 Z-1.9491
G1 X56.9524 Y62.5095
G1 X56.9535 Y62.5141 Z-1.9492
G1 X56.9551 Y62.5186
G1 X56.9572 Y62.5229
G1 X56.9596 Y62.527
G1 X56.9625 Y62.5308 Z-1.9493
G1 X56.9657 Y62.5343
G1 X56.9692 Y62.5375
G1 X56.973 Y62.5404
G1 X56.9771 Y62.5428 Z-1.9494
G1 X56.9814 Y62.5449
G1 X56.9859 Y62.5465
G1 X56.9905 Y62.5476
G1 X56.9952 Y62.5483 Z-1.9495
G1 X57.0 Y62.5486
G1 X57.0048 Y62.5483
G1 X57.0095 Y62.5476
G1 X57.0141 Y62.5465
G1 X57.0186 Y62.5449 Z-1.9496
G1 X57.0229 Y62.5428
G1 X57.027 Y62.5404
G1 X57.0308 Y62.5375
G1 X57.0343 Y62.5343 Z-1.9497
G1 X57.0375 Y62.5308
G1 X57.0404 Y62.527
G1 X57.0428 Y62.5229
G1 X57.0449 Y62.5186 Z-1.9498
G1 X57.0465 Y62.5141
G1 X57.0476 Y62.5095
G1 X57.0483 Y62.5048
G1 X57.05 Y62.4705 Z-1.95
G1 Y32.5295 Z-2.0989
G1 X57.0483 Y32.4952 Z-2.0991
G1 X57.0476 Y32.4905
G1 X57.0465 Y32.4859 Z-2.0992
G1 X57.0449 Y32.4814
G1 X57.0428 Y32.4771
G1 X57.0404 Y32.473
G1 X57.0375 Y32.4692 Z-2.0993
G1 X57.0343 Y32.4657
G1 X57.0308 Y32.4625
G1 X57.027 Y32.4596
G1 X57.0229 Y32.4572 Z-2.0994
G1 X57.0186 Y32.4551
G1 X57.0141 Y32.4535
G1 X57.0095 Y32.4524
G1 X57.0048 Y32.4517 Z-2.0995
G1 X57.0 Y32.4514
G1 X56.9952 Y32.4517
G1 X56.9905 Y32.4524
G1 X56.9859 Y32.4535
G1 X56.9814 Y32.4551 Z-2.0996
G1 X56.9771 Y32.4572
G1 X56.973 Y32.4596
G1 X56.9692 Y32.4625
G1 X56.9657 Y32.4657 Z-2.0997
G1 X56.9625 Y32.4692
G1 X56.9596 Y32.473
G1 X56.9572 Y32.4771
G1 X56.9551 Y32.4814 Z-2.0998
G1 X56.9535 Y32.4859
G1 X56.9524 Y32.4905
G1 X56.9517 Y32.4952
G1 X56.95 Y32.5295 Z-2.1
G1 Y62.4705 Z-2.2489
G1 X56.9517 Y62.5048 Z-2.2491
G1 X56.9524 Y62.5095
G1 X56.9535 Y62.5141 Z-2.2492
G1 X56.9551 Y62.5186
G1 X56.9572 Y62.5229
G1 X56.9596 Y62.527
G1 X56.9625 Y62.5308 Z-2.2493
G1 X56.9657 Y62.5343
G1 X56.9692 Y62.5375
G1 X56.973 Y62.5404
G1 X56.9771 Y62.5428 Z-2.2494
G1 X56.9814 Y62.5449
G1 X56.9859 Y62.5465
G1 X56.9905 Y62.5476
G1 X56.9952 Y62.5483 Z-2.2495
G1 X57.0 Y62.5486
G1 X57.0048 Y62.5483
G1 X57.0095 Y62.5476
G1 X57.0141 Y62.5465
G1 X57.0186 Y62.5449 Z-2.2496
G1 X57.0229 Y62.5428
G1 X57.027 Y62.5404
G1 X57.0308 Y62.5375
G1 X57.0343 Y62.5343 Z-2.2497
G1 X57.0375 Y62.5308
G1 X57.0404 Y62.527
G1 X57.0428 Y62.5229
G1 X57.0449 Y62.5186 Z-2.2498
G1 X57.0465 Y62.5141
G1 X57.0476 Y62.5095
G1 X57.0483 Y62.5048
G1 X57.05 Y62.4705 Z-2.25
G1 Y32.5295 Z-2.3989
G1 X57.0483 Y32.4952 Z-2.3991
G1 X57.0476 Y32.4905
G1 X57.0465 Y32.4859 Z-2.3992
G1 X57.0449 Y32.4814
G1 X57.0428 Y32.4771
G1 X57.0404 Y32.473
G1 X57.0375 Y32.4692 Z-2.3993
G1 X57.0343 Y32.4657
G1 X57.0308 Y32.4625
G1 X57.027 Y32.4596
G1 X57.0229 Y32.4572 Z-2.3994
G1 X57.0186 Y32.4551
G1 X57.0141 Y32.4535
G1 X57.0095 Y32.4524
G1 X57.0048 Y32.4517 Z-2.3995
G1 X57.0 Y32.4514
G1 X56.9952 Y32.4517
G1 X56.9905 Y32.4524
G1 X56.9859 Y32.4535
G1 X56.9814 Y32.4551 Z-2.3996
G1 X56.9771 Y32.4572
G1 X56.973 Y32.4596
G1 X56.9692 Y32.4625
G1 X56.9657 Y32.4657 Z-2.3997
G1 X56.9625 Y32.4692
G1 X56.9596 Y32.473
G1 X56.9572 Y32.4771
G1 X56.9551 Y32.4814 Z-2.3998
G1 X56.9535 Y32.4859
G1 X56.9524 Y32.4905
G1 X56.9517 Y32.4952
G1 X56.95 Y32.5295 Z-2.4
G1 Y62.4705 Z-2.5489
G1 X56.9517 Y62.5048 Z-2.5491
G1 X56.9524 Y62.5095
G1 X56.9535 Y62.5141 Z-2.5492
G1 X56.9551 Y62.5186
G1 X56.9572 Y62.5229
G1 X56.9596 Y62.527
G1 X56.9625 Y62.5308 Z-2.5493
G1 X56.9657 Y62.5343
G1 X56.9692 Y62.5375
G1 X56.973 Y62.5404
G1 X56.9771 Y62.5428 Z-2.5494
G1 X56.9814 Y62.5449
G1 X56.9859 Y62.5465
G1 X56.9905 Y62.5476
G1 X56.9952 Y62.5483 Z-2.5495
G1 X57.0 Y62.5486
G1 X57.0048 Y62.5483
G1 X57.0095 Y62.5476
G1 X57.0141 Y62.5465
G1 X57.0186 Y62.5449 Z-2.5496
G1 X57.0229 Y62.5428
G1 X57.027 Y62.5404
G1 X57.0308 Y62.5375
G1 X57.0343 Y62.5343 Z-2.5497
G1 X57.0375 Y62.5308
G1 X57.0404 Y62.527
G1 X57.0428 Y62.5229
G1 X57.0449 Y62.5186 Z-2.5498
G1 X57.0465 Y62.5141
G1 X57.0476 Y62.5095
G1 X57.0483 Y62.5048
G1 X57.05 Y62.4705 Z-2.55
G1 Y32.5295 Z-2.6989
G1 X57.0483 Y32.4952 Z-2.6991
G1 X57.0476 Y32.4905
G1 X57.0465 Y32.4859 Z-2.6992
G1 X57.0449 Y32.4814
G1 X57.0428 Y32.4771
G1 X57.0404 Y32.473
G1 X57.0375 Y32.4692 Z-2.6993
G1 X57.0343 Y32.4657
G1 X57.0308 Y32.4625
G1 X57.027 Y32.4596
G1 X57.0229 Y32.4572 Z-2.6994
G1 X57.0186 Y32.4551
G1 X57.0141 Y32.4535
G1 X57.0095 Y32.4524
G1 X57.0048 Y32.4517 Z-2.6995
G1 X57.0 Y32.4514
G1 X56.9952 Y32.4517
G1 X56.9905 Y32.4524
G1 X56.9859 Y32.4535
G1 X56.9814 Y32.4551 Z-2.6996
G1 X56.9771 Y32.4572
G1 X56.973 Y32.4596
G1 X56.9692 Y32.4625
G1 X56.9657 Y32.4657 Z-2.6997
G1 X56.9625 Y32.4692
G1 X56.9596 Y32.473
G1 X56.9572 Y32.4771
G1 X56.9551 Y32.4814 Z-2.6998
G1 X56.9535 Y32.4859
G1 X56.9524 Y32.4905
G1 X56.9517 Y32.4952
G1 X56.95 Y32.5295 Z-2.7
G1 Y62.4705 Z-2.8489
G1 X56.9517 Y62.5048 Z-2.8491
G1 X56.9524 Y62.5095
G1 X56.9535 Y62.5141 Z-2.8492
G1 X56.9551 Y62.5186
G1 X56.9572 Y62.5229
G1 X56.9596 Y62.527
G1 X56.9625 Y62.5308 Z-2.8493
G1 X56.9657 Y62.5343
G1 X56.9692 Y62.5375
G1 X56.973 Y62.5404
G1 X56.9771 Y62.5428 Z-2.8494
G1 X56.9814 Y62.5449
G1 X56.9859 Y62.5465
G1 X56.9905 Y62.5476
G1 X56.9952 Y62.5483 Z-2.8495
G1 X57.0 Y62.5486
G1 X57.0048 Y62.5483
G1 X57.0095 Y62.5476
G1 X57.0141 Y62.5465
G1 X57.0186 Y62.5449 Z-2.8496
G1 X57.0229 Y62.5428
G1 X57.027 Y62.5404
G1 X57.0308 Y62.5375
G1 X57.0343 Y62.5343 Z-2.8497
G1 X57.0375 Y62.5308
G1 X57.0404 Y62.527
G1 X57.0428 Y62.5229
G1 X57.0449 Y62.5186 Z-2.8498
G1 X57.0465 Y62.5141
G1 X57.0476 Y62.5095
G1 X57.0483 Y62.5048
G1 X57.05 Y62.4705 Z-2.85
G1 Y32.5295 Z-2.9989
G1 X57.0483 Y32.4952 Z-2.9991
G1 X57.0476 Y32.4905
G1 X57.0465 Y32.4859 Z-2.9992
G1 X57.0449 Y32.4814
G1 X57.0428 Y32.4771
G1 X57.0404 Y32.473
G1 X57.0375 Y32.4692 Z-2.9993
G1 X57.0343 Y32.4657
G1 X57.0308 Y32.4625
G1 X57.027 Y32.4596
G1 X57.0229 Y32.4572 Z-2.9994
G1 X57.0186 Y32.4551
G1 X57.0141 Y32.4535
G1 X57.0095 Y32.4524
G1 X57.0048 Y32.4517 Z-2.9995
G1 X57.0 Y32.4514
G1 X56.9952 Y32.4517
G1 X56.9905 Y32.4524
G1 X56.9859 Y32.4535
G1 X56.9814 Y32.4551 Z-2.9996
G1 X56.9771 Y32.4572
G1 X56.973 Y32.4596
G1 X56.9692 Y32.4625
G1 X56.9657 Y32.4657 Z-2.9997
G1 X56.9625 Y32.4692
G1 X56.9596 Y32.473
G1 X56.9572 Y32.4771
G1 X56.9551 Y32.4814 Z-2.9998
G1 X56.9535 Y32.4859
G1 X56.9524 Y32.4905
G1 X56.9517 Y32.4952
G1 X56.95 Y32.5295 Z-3.0
G1 Y62.4705 Z-3.1489
G1 X56.9517 Y62.5048 Z-3.1491
G1 X56.9524 Y62.5095
G1 X56.9535 Y62.5141 Z-3.1492
G1 X56.9551 Y62.5186
G1 X56.9572 Y62.5229
G1 X56.9596 Y62.527
G1 X56.9625 Y62.5308 Z-3.1493
G1 X56.9657 Y62.5343
G1 X56.9692 Y62.5375
G1 X56.973 Y62.5404
G1 X56.9771 Y62.5428 Z-3.1494
G1 X56.9814 Y62.5449
G1 X56.9859 Y62.5465
G1 X56.9905 Y62.5476
G1 X56.9952 Y62.5483 Z-3.1495
G1 X57.0 Y62.5486
G1 X57.0048 Y62.5483
G1 X57.0095 Y62.5476
G1 X57.0141 Y62.5465
G1 X57.0186 Y62.5449 Z-3.1496
G1 X57.0229 Y62.5428
G1 X57.027 Y62.5404
G1 X57.0308 Y62.5375
G1 X57.0343 Y62.5343 Z-3.1497
G1 X57.0375 Y62.5308
G1 X57.0404 Y62.527
G1 X57.0428 Y62.5229
G1 X57.0449 Y62.5186 Z-3.1498
G1 X57.0465 Y62.5141
G1 X57.0476 Y62.5095
G1 X57.0483 Y62.5048
G1 X57.05 Y62.4705 Z-3.15
G1 Y32.5295 Z-3.2989
G1 X57.0483 Y32.4952 Z-3.2991
G1 X57.0476 Y32.4905
G1 X57.0465 Y32.4859 Z-3.2992
G1 X57.0449 Y32.4814
G1 X57.0428 Y32.4771
G1 X57.0404 Y32.473
G1 X57.0375 Y32.4692 Z-3.2993
G1 X57.0343 Y32.4657
G1 X57.0308 Y32.4625
G1 X57.027 Y32.4596
G1 X57.0229 Y32.4572 Z-3.2994
G1 X57.0186 Y32.4551
G1 X57.0141 Y32.4535
G1 X57.0095 Y32.4524
G1 X57.0048 Y32.4517 Z-3.2995
G1 X57.0 Y32.4514
G1 X56.9952 Y32.4517
G1 X56.9905 Y32.4524
G1 X56.9859 Y32.4535
G1 X56.9814 Y32.4551 Z-3.2996
G1 X56.9771 Y32.4572
G1 X56.973 Y32.4596
G1 X56.9692 Y32.4625
G1 X56.9657 Y32.4657 Z-3.2997
G1 X56.9625 Y32.4692
G1 X56.9596 Y32.473
G1 X56.9572 Y32.4771
G1 X56.9551 Y32.4814 Z-3.2998
G1 X56.9535 Y32.4859
G1 X56.9524 Y32.4905
G1 X56.9517 Y32.4952
G1 X56.95 Y32.5295 Z-3.3
G1 Y62.4705 Z-3.4489
G1 X56.9517 Y62.5048 Z-3.4491
G1 X56.9524 Y62.5095
G1 X56.9535 Y62.5141 Z-3.4492
G1 X56.9551 Y62.5186
G1 X56.9572 Y62.5229
G1 X56.9596 Y62.527
G1 X56.9625 Y62.5308 Z-3.4493
G1 X56.9657 Y62.5343
G1 X56.9692 Y62.5375
G1 X56.973 Y62.5404
G1 X56.9771 Y62.5428 Z-3.4494
G1 X56.9814 Y62.5449
G1 X56.9859 Y62.5465
G1 X56.9905 Y62.5476
G1 X56.9952 Y62.5483 Z-3.4495
G1 X57.0 Y62.5486
G1 X57.0048 Y62.5483
G1 X57.0095 Y62.5476
G1 X57.0141 Y62.5465
G1 X57.0186 Y62.5449 Z-3.4496
G1 X57.0229 Y62.5428
G1 X57.027 Y62.5404
G1 X57.0308 Y62.5375
G1 X57.0343 Y62.5343 Z-3.4497
G1 X57.0375 Y62.5308
G1 X57.0404 Y62.527
G1 X57.0428 Y62.5229
G1 X57.0449 Y62.5186 Z-3.4498
G1 X57.0465 Y62.5141
G1 X57.0476 Y62.5095
G1 X57.0483 Y62.5048
G1 X57.05 Y62.4705 Z-3.45
G1 Y32.5295 Z-3.5989
G1 X57.0483 Y32.4952 Z-3.5991
G1 X57.0476 Y32.4905
G1 X57.0465 Y32.4859 Z-3.5992
G1 X57.0449 Y32.4814
G1 X57.0428 Y32.4771
G1 X57.0404 Y32.473
G1 X57.0375 Y32.4692 Z-3.5993
G1 X57.0343 Y32.4657
G1 X57.0308 Y32.4625
G1 X57.027 Y32.4596
G1 X57.0229 Y32.4572 Z-3.5994
G1 X57.0186 Y32.4551
G1 X57.0141 Y32.4535
G1 X57.0095 Y32.4524
G1 X57.0048 Y32.4517 Z-3.5995
G1 X57.0 Y32.4514
G1 X56.9952 Y32.4517
G1 X56.9905 Y32.4524
G1 X56.9859 Y32.4535
G1 X56.9814 Y32.4551 Z-3.5996
G1 X56.9771 Y32.4572
G1 X56.973 Y32.4596
G1 X56.9692 Y32.4625
G1 X56.9657 Y32.4657 Z-3.5997
G1 X56.9625 Y32.4692
G1 X56.9596 Y32.473
G1 X56.9572 Y32.4771
G1 X56.9551 Y32.4814 Z-3.5998
G1 X56.9535 Y32.4859
G1 X56.9524 Y32.4905
G1 X56.9517 Y32.4952
G1 X56.95 Y32.5295 Z-3.6
G1 Y62.4705 Z-3.7489
G1 X56.9517 Y62.5048 Z-3.7491
G1 X56.9524 Y62.5095
G1 X56.9535 Y62.5141 Z-3.7492
G1 X56.9551 Y62.5186
G1 X56.9572 Y62.5229
G1 X56.9596 Y62.527
G1 X56.9625 Y62.5308 Z-3.7493
G1 X56.9657 Y62.5343
G1 X56.9692 Y62.5375
G1 X56.973 Y62.5404
G1 X56.9771 Y62.5428 Z-3.7494
G1 X56.9814 Y62.5449
G1 X56.9859 Y62.5465
G1 X56.9905 Y62.5476
G1 X56.9952 Y62.5483 Z-3.7495
G1 X57.0 Y62.5486
G1 X57.0048 Y62.5483
G1 X57.0095 Y62.5476
G1 X57.0141 Y62.5465
G1 X57.0186 Y62.5449 Z-3.7496
G1 X57.0229 Y62.5428
G1 X57.027 Y62.5404
G1 X57.0308 Y62.5375
G1 X57.0343 Y62.5343 Z-3.7497
G1 X57.0375 Y62.5308
G1 X57.0404 Y62.527
G1 X57.0428 Y62.5229
G1 X57.0449 Y62.5186 Z-3.7498
G1 X57.0465 Y62.5141
G1 X57.0476 Y62.5095
G1 X57.0483 Y62.5048
G1 X57.05 Y62.4705 Z-3.75
G1 Y32.5295 Z-3.8989
G1 X57.0483 Y32.4952 Z-3.8991
G1 X57.0476 Y32.4905
G1 X57.0465 Y32.4859 Z-3.8992
G1 X57.0449 Y32.4814
G1 X57.0428 Y32.4771
G1 X57.0404 Y32.473
G1 X57.0375 Y32.4692 Z-3.8993
G1 X57.0343 Y32.4657
G1 X57.0308 Y32.4625
G1 X57.027 Y32.4596
G1 X57.0229 Y32.4572 Z-3.8994
G1 X57.0186 Y32.4551
G1 X57.0141 Y32.4535
G1 X57.0095 Y32.4524
G1 X57.0048 Y32.4517 Z-3.8995
G1 X57.0 Y32.4514
G1 X56.9952 Y32.4517
G1 X56.9905 Y32.4524
G1 X56.9859 Y32.4535
G1 X56.9814 Y32.4551 Z-3.8996
G1 X56.9771 Y32.4572
G1 X56.973 Y32.4596
G1 X56.9692 Y32.4625
G1 X56.9657 Y32.4657 Z-3.8997
G1 X56.9625 Y32.4692
G1 X56.9596 Y32.473
G1 X56.9572 Y32.4771
G1 X56.9551 Y32.4814 Z-3.8998
G1 X56.9535 Y32.4859
G1 X56.9524 Y32.4905
G1 X56.9517 Y32.4952
G1 X56.95 Y32.5295 Z-3.9
G1 Y62.4705 Z-4.0489
G1 X56.9517 Y62.5048 Z-4.0491
G1 X56.9524 Y62.5095
G1 X56.9535 Y62.5141 Z-4.0492
G1 X56.9551 Y62.5186
G1 X56.9572 Y62.5229
G1 X56.9596 Y62.527
G1 X56.9625 Y62.5308 Z-4.0493
G1 X56.9657 Y62.5343
G1 X56.9692 Y62.5375
G1 X56.973 Y62.5404
G1 X56.9771 Y62.5428 Z-4.0494
G1 X56.9814 Y62.5449
G1 X56.9859 Y62.5465
G1 X56.9905 Y62.5476
G1 X56.9952 Y62.5483 Z-4.0495
G1 X57.0 Y62.5486
G1 X57.0048 Y62.5483
G1 X57.0095 Y62.5476
G1 X57.0141 Y62.5465
G1 X57.0186 Y62.5449 Z-4.0496
G1 X57.0229 Y62.5428
G1 X57.027 Y62.5404
G1 X57.0308 Y62.5375
G1 X57.0343 Y62.5343 Z-4.0497
G1 X57.0375 Y62.5308
G1 X57.0404 Y62.527
G1 X57.0428 Y62.5229
G1 X57.0449 Y62.5186 Z-4.0498
G1 X57.0465 Y62.5141
G1 X57.0476 Y62.5095
G1 X57.0483 Y62.5048
G1 X57.05 Y62.4705 Z-4.05
G1 Y32.5295 Z-4.1989
G1 X57.0483 Y32.4952 Z-4.1991
G1 X57.0476 Y32.4905
G1 X57.0465 Y32.4859 Z-4.1992
G1 X57.0449 Y32.4814
G1 X57.0428 Y32.4771
G1 X57.0404 Y32.473
G1 X57.0375 Y32.4692 Z-4.1993
G1 X57.0343 Y32.4657
G1 X57.0308 Y32.4625
G1 X57.027 Y32.4596
G1 X57.0229 Y32.4572 Z-4.1994
G1 X57.0186 Y32.4551
G1 X57.0141 Y32.4535
G1 X57.0095 Y32.4524
G1 X57.0048 Y32.4517 Z-4.1995
G1 X57.0 Y32.4514
G1 X56.9952 Y32.4517
G1 X56.9905 Y32.4524
G1 X56.9859 Y32.4535
G1 X56.9814 Y32.4551 Z-4.1996
G1 X56.9771 Y32.4572
G1 X56.973 Y32.4596
G1 X56.9692 Y32.4625
G1 X56.9657 Y32.4657 Z-4.1997
G1 X56.9625 Y32.4692
G1 X56.9596 Y32.473
G1 X56.9572 Y32.4771
G1 X56.9551 Y32.4814 Z-4.1998
G1 X56.9535 Y32.4859
G1 X56.9524 Y32.4905
G1 X56.9517 Y32.4952
G1 X56.95 Y32.5295 Z-4.2
G1 Y62.4705
G1 X56.9517 Y62.5048
G1 X56.9524 Y62.5095
G1 X56.9535 Y62.5141
G1 X56.9551 Y62.5186
G1 X56.9572 Y62.5229
G1 X56.9596 Y62.527
G1 X56.9625 Y62.5308
G1 X56.9657 Y62.5343
G1 X56.9692 Y62.5375
G1 X56.973 Y62.5404
G1 X56.9771 Y62.5428
G1 X56.9814 Y62.5449
G1 X56.9859 Y62.5465
G1 X56.9905 Y62.5476
G1 X56.9952 Y62.5483
G1 X57.0 Y62.5486
G1 X57.0048 Y62.5483
G1 X57.0095 Y62.5476
G1 X57.0141 Y62.5465
G1 X57.0186 Y62.5449
G1 X57.0229 Y62.5428
G1 X57.027 Y62.5404
G1 X57.0308 Y62.5375
G1 X57.0343 Y62.5343
G1 X57.0375 Y62.5308
G1 X57.0404 Y62.527
G1 X57.0428 Y62.5229
G1 X57.0449 Y62.5186
G1 X57.0465 Y62.5141
G1 X57.0476 Y62.5095
G1 X57.0483 Y62.5048
G1 X57.05 Y62.4705
G1 Y32.5295
G1 X57.0483 Y32.4952
G1 X57.0476 Y32.4905
G1 X57.0465 Y32.4859
G1 X57.0449 Y32.4814
G1 X57.0428 Y32.4771
G1 X57.0404 Y32.473
G1 X57.0375 Y32.4692
G1 X57.0343 Y32.4657
G1 X57.0308 Y32.4625
G1 X57.027 Y32.4596
G1 X57.0229 Y32.4572
G1 X57.0186 Y32.4551
G1 X57.0141 Y32.4535
G1 X57.0095 Y32.4524
G1 X57.0048 Y32.4517
G1 X57.0 Y32.4514
G1 X56.9952 Y32.4517
G1 X56.9905 Y32.4524
G1 X56.9859 Y32.4535
G1 X56.9814 Y32.4551
G1 X56.9771 Y32.4572
G1 X56.973 Y32.4596
G1 X56.9692 Y32.4625
G1 X56.9657 Y32.4657
G1 X56.9625 Y32.4692
G1 X56.9596 Y32.473
G1 X56.9572 Y32.4771
G1 X56.9551 Y32.4814
G1 X56.9535 Y32.4859
G1 X56.9524 Y32.4905
G1 X56.9517 Y32.4952
G1 X56.95 Y32.5295
G0 Z3.0
G0 X72.95
G0 Z1.0
G1 F300.0 Z0.0
G1 F800.0 Y62.4705 Z-0.1489
G1 X72.9517 Y62.5048 Z-0.1491
G1 X72.9524 Y62.5095
G1 X72.9535 Y62.5141 Z-0.1492
G1 X72.9551 Y62.5186
G1 X72.9572 Y62.5229
G1 X72.9596 Y62.527
G1 X72.9625 Y62.5308 Z-0.1493
G1 X72.9657 Y62.5343
G1 X72.9692 Y62.5375
G1 X72.973 Y62.5404
G1 X72.9771 Y62.5428 Z-0.1494
G1 X72.9814 Y62.5449
G1 X72.9859 Y62.5465
G1 X72.9905 Y62.5476
G1 X72.9952 Y62.5483 Z-0.1495
G1 X73.0 Y62.5486
G1 X73.0048 Y62.5483
G1 X73.0095 Y62.5476
G1 X73.0141 Y62.5465
G1 X73.0186 Y62.5449 Z-0.1496
G1 X73.0229 Y62.5428
G1 X73.027 Y62.5404
G1 X73.0308 Y62.5375
G1 X73.0343 Y62.5343 Z-0.1497
G1 X73.0375 Y62.5308
G1 X73.0404 Y62.527
G1 X73.0428 Y62.5229
G1 X73.0449 Y62.5186 Z-0.1498
G1 X73.0465 Y62.5141
G1 X73.0476 Y62.5095
G1 X73.0483 Y62.5048
G1 X73.05 Y62.4705 Z-0.15
G1 Y32.5295 Z-0.2989
G1 X73.0483 Y32.4952 Z-0.2991
G1 X73.0476 Y32.4905
G1 X73.0465 Y32.4859 Z-0.2992
G1 X73.0449 Y32.4814
G1 X73.0428 Y32.4771
G1 X73.0404 Y32.473
G1 X73.0375 Y32.4692 Z-0.2993
G1 X73.0343 Y32.4657
G1 X73.0308 Y32.4625
G1 X73.027 Y32.4596
G1 X73.0229 Y32.4572 Z-0.2994
G1 X73.0186 Y32.4551
G1 X73.0141 Y32.4535
G1 X73.0095 Y32.4524
G1 X73.0048 Y32.4517 Z-0.2995
G1 X73.0 Y32.4514
G1 X72.9952 Y32.4517
G1 X72.9905 Y32.4524
G1 X72.9859 Y32.4535
G1 X72.9814 Y32.4551 Z-0.2996
G1 X72.9771 Y32.4572
G1 X72.973 Y32.4596
G1 X72.9692 Y32.4625
G1 X72.9657 Y32.4657 Z-0.2997
G1 X72.9625 Y32.4692
G1 X72.9596 Y32.473
G1 X72.9572 Y32.4771
G1 X72.9551 Y32.4814 Z-0.2998
G1 X72.9535 Y32.4859
G1 X72.9524 Y32.4905
G1 X72.9517 Y32.4952
G1 X72.95 Y32.5295 Z-0.3
G1 Y62.4705 Z-0.4489
G1 X72.9517 Y62.5048 Z-0.4491
G1 X72.9524 Y62.5095
G1 X72.9535 Y62.5141 Z-0.4492
G1 X72.9551 Y62.5186
G1 X72.9572 Y62.5229
G1 X72.9596 Y62.527
G1 X72.9625 Y62.5308 Z-0.4493
G1 X72.9657 Y62.5343
G1 X72.9692 Y62.5375
G1 X72.973 Y62.5404
G1 X72.9771 Y62.5428 Z-0.4494
G1 X72.9814 Y62.5449
G1 X72.9859 Y62.5465
G1 X72.9905 Y62.5476
G1 X72.9952 Y62.5483 Z-0.4495
G1 X73.0 Y62.5486
G1 X73.0048 Y62.5483
G1 X73.0095 Y62.5476
G1 X73.0141 Y62.5465
G1 X73.0186 Y62.5449 Z-0.4496
G1 X73.0229 Y62.5428
G1 X73.027 Y62.5404
G1 X73.0308 Y62.5375
G1 X73.0343 Y62.5343 Z-0.4497
G1 X73.0375 Y62.5308
G1 X73.0404 Y62.527
G1 X73.0428 Y62.5229
G1 X73.0449 Y62.5186 Z-0.4498
G1 X73.0465 Y62.5141
G1 X73.0476 Y62.5095
G1 X73.0483 Y62.5048
G1 X73.05 Y62.4705 Z-0.45
G1 Y32.5295 Z-0.5989
G1 X73.0483 Y32.4952 Z-0.5991
G1 X73.0476 Y32.4905
G1 X73.0465 Y32.4859 Z-0.5992
G1 X73.0449 Y32.4814
G1 X73.0428 Y32.4771
G1 X73.0404 Y32.473
G1 X73.0375 Y32.4692 Z-0.5993
G1 X73.0343 Y32.4657
G1 X73.0308 Y32.4625
G1 X73.027 Y32.4596
G1 X73.0229 Y32.4572 Z-0.5994
G1 X73.0186 Y32.4551
G1 X73.0141 Y32.4535
G1 X73.0095 Y32.4524
G1 X73.0048 Y32.4517 Z-0.5995
G1 X73.0 Y32.4514
G1 X72.9952 Y32.4517
G1 X72.9905 Y32.4524
G1 X72.9859 Y32.4535
G1 X72.9814 Y32.4551 Z-0.5996
G1 X72.9771 Y32.4572
G1 X72.973 Y32.4596
G1 X72.9692 Y32.4625
G1 X72.9657 Y32.4657 Z-0.5997
G1 X72.9625 Y32.4692
G1 X72.9596 Y32.473
G1 X72.9572 Y32.4771
G1 X72.9551 Y32.4814 Z-0.5998
G1 X72.9535 Y32.4859
G1 X72.9524 Y32.4905
G1 X72.9517 Y32.4952
G1 X72.95 Y32.5295 Z-0.6
G1 Y62.4705 Z-0.7489
G1 X72.9517 Y62.5048 Z-0.7491
G1 X72.9524 Y62.5095
G1 X72.9535 Y62.5141 Z-0.7492
G1 X72.9551 Y62.5186
G1 X72.9572 Y62.5229
G1 X72.9596 Y62.527
G1 X72.9625 Y62.5308 Z-0.7493
G1 X72.9657 Y62.5343
G1 X72.9692 Y62.5375
G1 X72.973 Y62.5404
G1 X72.9771 Y62.5428 Z-0.7494
G1 X72.9814 Y62.5449
G1 X72.9859 Y62.5465
G1 X72.9905 Y62.5476
G1 X72.9952 Y62.5483 Z-0.7495
G1 X73.0 Y62.5486
G1 X73.0048 Y62.5483
G1 X73.0095 Y62.5476
G1 X73.0141 Y62.5465
G1 X73.0186 Y62.5449 Z-0.7496
G1 X73.0229 Y62.5428
G1 X73.027 Y62.5404
G1 X73.0308 Y62.5375
G1 X73.0343 Y62.5343 Z-0.7497
G1 X73.0375 Y62.5308
G1 X73.0404 Y62.527
G1 X73.0428 Y62.5229
G1 X73.0449 Y62.5186 Z-0.7498
G1 X73.0465 Y62.5141
G1 X73.0476 Y62.5095
G1 X73.0483 Y62.5048
G1 X73.05 Y62.4705 Z-0.75
G1 Y32.5295 Z-0.8989
G1 X73.0483 Y32.4952 Z-0.8991
G1 X73.0476 Y32.4905
G1 X73.0465 Y32.4859 Z-0.8992
G1 X73.0449 Y32.4814
G1 X73.0428 Y32.4771
G1 X73.0404 Y32.473
G1 X73.0375 Y32.4692 Z-0.8993
G1 X73.0343 Y32.4657
G1 X73.0308 Y32.4625
G1 X73.027 Y32.4596
G1 X73.0229 Y32.4572 Z-0.8994
G1 X73.0186 Y32.4551
G1 X73.0141 Y32.4535
G1 X73.0095 Y32.4524
G1 X73.0048 Y32.4517 Z-0.8995
G1 X73.0 Y32.4514
G1 X72.9952 Y32.4517
G1 X72.9905 Y32.4524
G1 X72.9859 Y32.4535
G1 X72.9814 Y32.4551 Z-0.8996
G1 X72.9771 Y32.4572
G1 X72.973 Y32.4596
G1 X72.9692 Y32.4625
G1 X72.9657 Y32.4657 Z-0.8997
G1 X72.9625 Y32.4692
G1 X72.9596 Y32.473
G1 X72.9572 Y32.4771
G1 X72.9551 Y32.4814 Z-0.8998
G1 X72.9535 Y32.4859
G1 X72.9524 Y32.4905
G1 X72.9517 Y32.4952
G1 X72.95 Y32.5295 Z-0.9
G1 Y62.4705 Z-1.0489
G1 X72.9517 Y62.5048 Z-1.0491
G1 X72.9524 Y62.5095
G1 X72.9535 Y62.5141 Z-1.0492
G1 X72.9551 Y62.5186
G1 X72.9572 Y62.5229
G1 X72.9596 Y62.527
G1 X72.9625 Y62.5308 Z-1.0493
G1 X72.9657 Y62.5343
G1 X72.9692 Y62.5375
G1 X72.973 Y62.5404
G1 X72.9771 Y62.5428 Z-1.0494
G1 X72.9814 Y62.5449
G1 X72.9859 Y62.5465
G1 X72.9905 Y62.5476
G1 X72.9952 Y62.5483 Z-1.0495
G1 X73.0 Y62.5486
G1 X73.0048 Y62.5483
G1 X73.0095 Y62.5476
G1 X73.0141 Y62.5465
G1 X73.0186 Y62.5449 Z-1.0496
G1 X73.0229 Y62.5428
G1 X73.027 Y62.5404
G1 X73.0308 Y62.5375
G1 X73.0343 Y62.5343 Z-1.0497
G1 X73.0375 Y62.5308
G1 X73.0404 Y62.527
G1 X73.0428 Y62.5229
G1 X73.0449 Y62.5186 Z-1.0498
G1 X73.0465 Y62.5141
G1 X73.0476 Y62.5095
G1 X73.0483 Y62.5048
G1 X73.05 Y62.4705 Z-1.05
G1 Y32.5295 Z-1.1989
G1 X73.0483 Y32.4952 Z-1.1991
G1 X73.0476 Y32.4905
G1 X73.0465 Y32.4859 Z-1.1992
G1 X73.0449 Y32.4814
G1 X73.0428 Y32.4771
G1 X73.0404 Y32.473
G1 X73.0375 Y32.4692 Z-1.1993
G1 X73.0343 Y32.4657
G1 X73.0308 Y32.4625
G1 X73.027 Y32.4596
G1 X73.0229 Y32.4572 Z-1.1994
G1 X73.0186 Y32.4551
G1 X73.0141 Y32.4535
G1 X73.0095 Y32.4524
G1 X73.0048 Y32.4517 Z-1.1995
G1 X73.0 Y32.4514
G1 X72.9952 Y32.4517
G1 X72.9905 Y32.4524
G1 X72.9859 Y32.4535
G1 X72.9814 Y32.4551 Z-1.1996
G1 X72.9771 Y32.4572
G1 X72.973 Y32.4596
G1 X72.9692 Y32.4625
G1 X72.9657 Y32.4657 Z-1.1997
G1 X72.9625 Y32.4692
G1 X72.9596 Y32.473
G1 X72.9572 Y32.4771
G1 X72.9551 Y32.4814 Z-1.1998
G1 X72.9535 Y32.4859
G1 X72.9524 Y32.4905
G1 X72.9517 Y32.4952
G1 X72.95 Y32.5295 Z-1.2
G1 Y62.4705 Z-1.3489
G1 X72.9517 Y62.5048 Z-1.3491
G1 X72.9524 Y62.5095
G1 X72.9535 Y62.5141 Z-1.3492
G1 X72.9551 Y62.5186
G1 X72.9572 Y62.5229
G1 X72.9596 Y62.527
G1 X72.9625 Y62.5308 Z-1.3493
G1 X72.9657 Y62.5343
G1 X72.9692 Y62.5375
G1 X72.973 Y62.5404
G1 X72.9771 Y62.5428 Z-1.3494
G1 X72.9814 Y62.5449
G1 X72.9859 Y62.5465
G1 X72.9905 Y62.5476
G1 X72.9952 Y62.5483 Z-1.3495
G1 X73.0 Y62.5486
G1 X73.0048 Y62.5483
G1 X73.0095 Y62.5476
G1 X73.0141 Y62.5465
G1 X73.0186 Y62.5449 Z-1.3496
G1 X73.0229 Y62.5428
G1 X73.027 Y62.5404
G1 X73.0308 Y62.5375
G1 X73.0343 Y62.5343 Z-1.3497
G1 X73.0375 Y62.5308
G1 X73.0404 Y62.527
G1 X73.0428 Y62.5229
G1 X73.0449 Y62.5186 Z-1.3498
G1 X73.0465 Y62.5141
G1 X73.0476 Y62.5095
G1 X73.0483 Y62.5048
G1 X73.05 Y62.4705 Z-1.35
G1 Y32.5295 Z-1.4989
G1 X73.0483 Y32.4952 Z-1.4991
G1 X73.0476 Y32.4905
G1 X73.0465 Y32.4859 Z-1.4992
G1 X73.0449 Y32.4814
G1 X73.0428 Y32.4771
G1 X73.0404 Y32.473
G1 X73.0375 Y32.4692 Z-1.4993
G1 X73.0343 Y32.4657
G1 X73.0308 Y32.4625
G1 X73.027 Y32.4596
G1 X73.0229 Y32.4572 Z-1.4994
G1 X73.0186 Y32.4551
G1 X73.0141 Y32.4535
G1 X73.0095 Y32.4524
G1 X73.0048 Y32.4517 Z-1.4995
G1 X73.0 Y32.4514
G1 X72.9952 Y32.4517
G1 X72.9905 Y32.4524
G1 X72.9859 Y32.4535
G1 X72.9814 Y32.4551 Z-1.4996
G1 X72.9771 Y32.4572
G1 X72.973 Y32.4596
G1 X72.9692 Y32.4625
G1 X72.9657 Y32.4657 Z-1.4997
G1 X72.9625 Y32.4692
G1 X72.9596 Y32.473
G1 X72.9572 Y32.4771
G1 X72.9551 Y32.4814 Z-1.4998
G1 X72.9535 Y32.4859
G1 X72.9524 Y32.4905
G1 X72.9517 Y32.4952
G1 X72.95 Y32.5295 Z-1.5
G1 Y62.4705 Z-1.6489
G1 X72.9517 Y62.5048 Z-1.6491
G1 X72.9524 Y62.5095
G1 X72.9535 Y62.5141 Z-1.6492
G1 X72.9551 Y62.5186
G1 X72.9572 Y62.5229
G1 X72.9596 Y62.527
G1 X72.9625 Y62.5308 Z-1.6493
G1 X72.9657 Y62.5343
G1 X72.9692 Y62.5375
G1 X72.973 Y62.5404
G1 X72.9771 Y62.5428 Z-1.6494
G1 X72.9814 Y62.5449
G1 X72.9859 Y62.5465
G1 X72.9905 Y62.5476
G1 X72.9952 Y62.5483 Z-1.6495
G1 X73.0 Y62.5486
G1 X73.0048 Y62.5483
G1 X73.0095 Y62.5476
G1 X73.0141 Y62.5465
G1 X73.0186 Y62.5449 Z-1.6496
G1 X73.0229 Y62.5428
G1 X73.027 Y62.5404
G1 X73.0308 Y62.5375
G1 X73.0343 Y62.5343 Z-1.6497
G1 X73.0375 Y62.5308
G1 X73.0404 Y62.527
G1 X73.0428 Y62.5229
G1 X73.0449 Y62.5186 Z-1.6498
G1 X73.0465 Y62.5141
G1 X73.0476 Y62.5095
G1 X73.0483 Y62.5048
G1 X73.05 Y62.4705 Z-1.65
G1 Y32.5295 Z-1.7989
G1 X73.0483 Y32.4952 Z-1.7991
G1 X73.0476 Y32.4905
G1 X73.0465 Y32.4859 Z-1.7992
G1 X73.0449 Y32.4814
G1 X73.0428 Y32.4771
G1 X73.0404 Y32.473
G1 X73.0375 Y32.4692 Z-1.7993
G1 X73.0343 Y32.4657
G1 X73.0308 Y32.4625
G1 X73.027 Y32.4596
G1 X73.0229 Y32.4572 Z-1.7994
G1 X73.0186 Y32.4551
G1 X73.0141 Y32.4535
G1 X73.0095 Y32.4524
G1 X73.0048 Y32.4517 Z-1.7995
G1 X73.0 Y32.4514
G1 X72.9952 Y32.4517
G1 X72.9905 Y32.4524
G1 X72.9859 Y32.4535
G1 X72.9814 Y32.4551 Z-1.7996
G1 X72.9771 Y32.4572
G1 X72.973 Y32.4596
G1 X72.9692 Y32.4625
G1 X72.9657 Y32.4657 Z-1.7997
G1 X72.9625 Y32.4692
G1 X72.9596 Y32.473
G1 X72.9572 Y32.4771
G1 X72.9551 Y32.4814 Z-1.7998
G1 X72.9535 Y32.4859
G1 X72.9524 Y32.4905
G1 X72.9517 Y32.4952
G1 X72.95 Y32.5295 Z-1.8
G1 Y62.4705 Z-1.9489
G1 X72.9517 Y62.5048 Z-1.9491
G1 X72.9524 Y62.5095
G1 X72.9535 Y62.5141 Z-1.9492
G1 X72.9551 Y62.5186
G1 X72.9572 Y62.5229
G1 X72.9596 Y62.527
G1 X72.9625 Y62.5308 Z-1.9493
G1 X72.9657 Y62.5343
G1 X72.9692 Y62.5375
G1 X72.973 Y62.5404
G1 X72.9771 Y62.5428 Z-1.9494
G1 X72.9814 Y62.5449
G1 X72.9859 Y62.5465
G1 X72.9905 Y62.5476
G1 X72.9952 Y62.5483 Z-1.9495
G1 X73.0 Y62.5486
G1 X73.0048 Y62.5483
G1 X73.0095 Y62.5476
G1 X73.0141 Y62.5465
G1 X73.0186 Y62.5449 Z-1.9496
G1 X73.0229 Y62.5428
G1 X73.027 Y62.5404
G1 X73.0308 Y62.5375
G1 X73.0343 Y62.5343 Z-1.9497
G1 X73.0375 Y62.5308
G1 X73.0404 Y62.527
G1 X73.0428 Y62.5229
G1 X73.0449 Y62.5186 Z-1.9498
G1 X73.0465 Y62.5141
G1 X73.0476 Y62.5095
G1 X73.0483 Y62.5048
G1 X73.05 Y62.4705 Z-1.95
G1 Y32.5295 Z-2.0989
G1 X73.0483 Y32.4952 Z-2.0991
G1 X73.0476 Y32.4905
G1 X73.0465 Y32.4859 Z-2.0992
G1 X73.0449 Y32.4814
G1 X73.0428 Y32.4771
G1 X73.0404 Y32.473
G1 X73.0375 Y32.4692 Z-2.0993
G1 X73.0343 Y32.4657
G1 X73.0308 Y32.4625
G1 X73.027 Y32.4596
G1 X73.0229 Y32.4572 Z-2.0994
G1 X73.0186 Y32.4551
G1 X73.0141 Y32.4535
G1 X73.0095 Y32.4524
G1 X73.0048 Y32.4517 Z-2.0995
G1 X73.0 Y32.4514
G1 X72.9952 Y32.4517
G1 X72.9905 Y32.4524
G1 X72.9859 Y32.4535
G1 X72.9814 Y32.4551 Z-2.0996
G1 X72.9771 Y32.4572
G1 X72.973 Y32.4596
G1 X72.9692 Y32.4625
G1 X72.9657 Y32.4657 Z-2.0997
G1 X72.9625 Y32.4692
G1 X72.9596 Y32.473
G1 X72.9572 Y32.4771
G1 X72.9551 Y32.4814 Z-2.0998
G1 X72.9535 Y32.4859
G1 X72.9524 Y32.4905
G1 X72.9517 Y32.4952
G1 X72.95 Y32.5295 Z-2.1
G1 Y62.4705 Z-2.2489
G1 X72.9517 Y62.5048 Z-2.2491
G1 X72.9524 Y62.5095
G1 X72.9535 Y62.5141 Z-2.2492
G1 X72.9551 Y62.5186
G1 X72.9572 Y62.5229
G1 X72.9596 Y62.527
G1 X72.9625 Y62.5308 Z-2.2493
G1 X72.9657 Y62.5343
G1 X72.9692 Y62.5375
G1 X72.973 Y62.5404
G1 X72.9771 Y62.5428 Z-2.2494
G1 X72.9814 Y62.5449
G1 X72.9859 Y62.5465
G1 X72.9905 Y62.5476
G1 X72.9952 Y62.5483 Z-2.2495
G1 X73.0 Y62.5486
G1 X73.0048 Y62.5483
G1 X73.0095 Y62.5476
G1 X73.0141 Y62.5465
G1 X73.0186 Y62.5449 Z-2.2496
G1 X73.0229 Y62.5428
G1 X73.027 Y62.5404
G1 X73.0308 Y62.5375
G1 X73.0343 Y62.5343 Z-2.2497
G1 X73.0375 Y62.5308
G1 X73.0404 Y62.527
G1 X73.0428 Y62.5229
G1 X73.0449 Y62.5186 Z-2.2498
G1 X73.0465 Y62.5141
G1 X73.0476 Y62.5095
G1 X73.0483 Y62.5048
G1 X73.05 Y62.4705 Z-2.25
G1 Y32.5295 Z-2.3989
G1 X73.0483 Y32.4952 Z-2.3991
G1 X73.0476 Y32.4905
G1 X73.0465 Y32.4859 Z-2.3992
G1 X73.0449 Y32.4814
G1 X73.0428 Y32.4771
G1 X73.0404 Y32.473
G1 X73.0375 Y32.4692 Z-2.3993
G1 X73.0343 Y32.4657
G1 X73.0308 Y32.4625
G1 X73.027 Y32.4596
G1 X73.0229 Y32.4572 Z-2.3994
G1 X73.0186 Y32.4551
G1 X73.0141 Y32.4535
G1 X73.0095 Y32.4524
G1 X73.0048 Y32.4517 Z-2.3995
G1 X73.0 Y32.4514
G1 X72.9952 Y32.4517
G1 X72.9905 Y32.4524
G1 X72.9859 Y32.4535
G1 X72.9814 Y32.4551 Z-2.3996
G1 X72.9771 Y32.4572
G1 X72.973 Y32.4596
G1 X72.9692 Y32.4625
G1 X72.9657 Y32.4657 Z-2.3997
G1 X72.9625 Y32.4692
G1 X72.9596 Y32.473
G1 X72.9572 Y32.4771
G1 X72.9551 Y32.4814 Z-2.3998
G1 X72.9535 Y32.4859
G1 X72.9524 Y32.4905
G1 X72.9517 Y32.4952
G1 X72.95 Y32.5295 Z-2.4
G1 Y62.4705 Z-2.5489
G1 X72.9517 Y62.5048 Z-2.5491
G1 X72.9524 Y62.5095
G1 X72.9535 Y62.5141 Z-2.5492
G1 X72.9551 Y62.5186
G1 X72.9572 Y62.5229
G1 X72.9596 Y62.527
G1 X72.9625 Y62.5308 Z-2.5493
G1 X72.9657 Y62.5343
G1 X72.9692 Y62.5375
G1 X72.973 Y62.5404
G1 X72.9771 Y62.5428 Z-2.5494
G1 X72.9814 Y62.5449
G1 X72.9859 Y62.5465
G1 X72.9905 Y62.5476
G1 X72.9952 Y62.5483 Z-2.5495
G1 X73.0 Y62.5486
G1 X73.0048 Y62.5483
G1 X73.0095 Y62.5476
G1 X73.0141 Y62.5465
G1 X73.0186 Y62.5449 Z-2.5496
G1 X73.0229 Y62.5428
G1 X73.027 Y62.5404
G1 X73.0308 Y62.5375
G1 X73.0343 Y62.5343 Z-2.5497
G1 X73.0375 Y62.5308
G1 X73.0404 Y62.527
G1 X73.0428 Y62.5229
G1 X73.0449 Y62.5186 Z-2.5498
G1 X73.0465 Y62.5141
G1 X73.0476 Y62.5095
G1 X73.0483 Y62.5048
G1 X73.05 Y62.4705 Z-2.55
G1 Y32.5295 Z-2.6989
G1 X73.0483 Y32.4952 Z-2.6991
G1 X73.0476 Y32.4905
G1 X73.0465 Y32.4859 Z-2.6992
G1 X73.0449 Y32.4814
G1 X73.0428 Y32.4771
G1 X73.0404 Y32.473
G1 X73.0375 Y32.4692 Z-2.6993
G1 X73.0343 Y32.4657
G1 X73.0308 Y32.4625
G1 X73.027 Y32.4596
G1 X73.0229 Y32.4572 Z-2.6994
G1 X73.0186 Y32.4551
G1 X73.0141 Y32.4535
G1 X73.0095 Y32.4524
G1 X73.0048 Y32.4517 Z-2.6995
G1 X73.0 Y32.4514
G1 X72.9952 Y32.4517
G1 X72.9905 Y32.4524
G1 X72.9859 Y32.4535
G1 X72.9814 Y32.4551 Z-2.6996
G1 X72.9771 Y32.4572
G1 X72.973 Y32.4596
G1 X72.9692 Y32.4625
G1 X72.9657 Y32.4657 Z-2.6997
G1 X72.9625 Y32.4692
G1 X72.9596 Y32.473
G1 X72.9572 Y32.4771
G1 X72.9551 Y32.4814 Z-2.6998
G1 X72.9535 Y32.4859
G1 X72.9524 Y32.4905
G1 X72.9517 Y32.4952
G1 X72.95 Y32.5295 Z-2.7
G1 Y62.4705 Z-2.8489
G1 X72.9517 Y62.5048 Z-2.8491
G1 X72.9524 Y62.5095
G1 X72.9535 Y62.5141 Z-2.8492
G1 X72.9551 Y62.5186
G1 X72.9572 Y62.5229
G1 X72.9596 Y62.527
G1 X72.9625 Y62.5308 Z-2.8493
G1 X72.9657 Y62.5343
G1 X72.9692 Y62.5375
G1 X72.973 Y62.5404
G1 X72.9771 Y62.5428 Z-2.8494
G1 X72.9814 Y62.5449
G1 X72.9859 Y62.5465
G1 X72.9905 Y62.5476
G1 X72.9952 Y62.5483 Z-2.8495
G1 X73.0 Y62.5486
G1 X73.0048 Y62.5483
G1 X73.0095 Y62.5476
G1 X73.0141 Y62.5465
G1 X73.0186 Y62.5449 Z-2.8496
G1 X73.0229 Y62.5428
G1 X73.027 Y62.5404
G1 X73.0308 Y62.5375
G1 X73.0343 Y62.5343 Z-2.8497
G1 X73.0375 Y62.5308
G1 X73.0404 Y62.527
G1 X73.0428 Y62.5229
G1 X73.0449 Y62.5186 Z-2.8498
G1 X73.0465 Y62.5141
G1 X73.0476 Y62.5095
G1 X73.0483 Y62.5048
G1 X73.05 Y62.4705 Z-2.85
G1 Y32.5295 Z-2.9989
G1 X73.0483 Y32.4952 Z-2.9991
G1 X73.0476 Y32.4905
G1 X73.0465 Y32.4859 Z-2.9992
G1 X73.0449 Y32.4814
G1 X73.0428 Y32.4771
G1 X73.0404 Y32.473
G1 X73.0375 Y32.4692 Z-2.9993
G1 X73.0343 Y32.4657
G1 X73.0308 Y32.4625
G1 X73.027 Y32.4596
G1 X73.0229 Y32.4572 Z-2.9994
G1 X73.0186 Y32.4551
G1 X73.0141 Y32.4535
G1 X73.0095 Y32.4524
G1 X73.0048 Y32.4517 Z-2.9995
G1 X73.0 Y32.4514
G1 X72.9952 Y32.4517
G1 X72.9905 Y32.4524
G1 X72.9859 Y32.4535
G1 X72.9814 Y32.4551 Z-2.9996
G1 X72.9771 Y32.4572
G1 X72.973 Y32.4596
G1 X72.9692 Y32.4625
G1 X72.9657 Y32.4657 Z-2.9997
G1 X72.9625 Y32.4692
G1 X72.9596 Y32.473
G1 X72.9572 Y32.4771
G1 X72.9551 Y32.4814 Z-2.9998
G1 X72.9535 Y32.4859
G1 X72.9524 Y32.4905
G1 X72.9517 Y32.4952
G1 X72.95 Y32.5295 Z-3.0
G1 Y62.4705 Z-3.1489
G1 X72.9517 Y62.5048 Z-3.1491
G1 X72.9524 Y62.5095
G1 X72.9535 Y62.5141 Z-3.1492
G1 X72.9551 Y62.5186
G1 X72.9572 Y62.5229
G1 X72.9596 Y62.527
G1 X72.9625 Y62.5308 Z-3.1493
G1 X72.9657 Y62.5343
G1 X72.9692 Y62.5375
G1 X72.973 Y62.5404
G1 X72.9771 Y62.5428 Z-3.1494
G1 X72.9814 Y62.5449
G1 X72.9859 Y62.5465
G1 X72.9905 Y62.5476
G1 X72.9952 Y62.5483 Z-3.1495
G1 X73.0 Y62.5486
G1 X73.0048 Y62.5483
G1 X73.0095 Y62.5476
G1 X73.0141 Y62.5465
G1 X73.0186 Y62.5449 Z-3.1496
G1 X73.0229 Y62.5428
G1 X73.027 Y62.5404
G1 X73.0308 Y62.5375
G1 X73.0343 Y62.5343 Z-3.1497
G1 X73.0375 Y62.5308
G1 X73.0404 Y62.527
G1 X73.0428 Y62.5229
G1 X73.0449 Y62.5186 Z-3.1498
G1 X73.0465 Y62.5141
G1 X73.0476 Y62.5095
G1 X73.0483 Y62.5048
G1 X73.05 Y62.4705 Z-3.15
G1 Y32.5295 Z-3.2989
G1 X73.0483 Y32.4952 Z-3.2991
G1 X73.0476 Y32.4905
G1 X73.0465 Y32.4859 Z-3.2992
G1 X73.0449 Y32.4814
G1 X73.0428 Y32.4771
G1 X73.0404 Y32.473
G1 X73.0375 Y32.4692 Z-3.2993
G1 X73.0343 Y32.4657
G1 X73.0308 Y32.4625
G1 X73.027 Y32.4596
G1 X73.0229 Y32.4572 Z-3.2994
G1 X73.0186 Y32.4551
G1 X73.0141 Y32.4535
G1 X73.0095 Y32.4524
G1 X73.0048 Y32.4517 Z-3.2995
G1 X73.0 Y32.4514
G1 X72.9952 Y32.4517
G1 X72.9905 Y32.4524
G1 X72.9859 Y32.4535
G1 X72.9814 Y32.4551 Z-3.2996
G1 X72.9771 Y32.4572
G1 X72.973 Y32.4596
G1 X72.9692 Y32.4625
G1 X72.9657 Y32.4657 Z-3.2997
G1 X72.9625 Y32.4692
G1 X72.9596 Y32.473
G1 X72.9572 Y32.4771
G1 X72.9551 Y32.4814 Z-3.2998
G1 X72.9535 Y32.4859
G1 X72.9524 Y32.4905
G1 X72.9517 Y32.4952
G1 X72.95 Y32.5295 Z-3.3
G1 Y62.4705 Z-3.4489
G1 X72.9517 Y62.5048 Z-3.4491
G1 X72.9524 Y62.5095
G1 X72.9535 Y62.5141 Z-3.4492
G1 X72.9551 Y62.5186
G1 X72.9572 Y62.5229
G1 X72.9596 Y62.527
G1 X72.9625 Y62.5308 Z-3.4493
G1 X72.9657 Y62.5343
G1 X72.9692 Y62.5375
G1 X72.973 Y62.5404
G1 X72.9771 Y62.5428 Z-3.4494
G1 X72.9814 Y62.5449
G1 X72.9859 Y62.5465
G1 X72.9905 Y62.5476
G1 X72.9952 Y62.5483 Z-3.4495
G1 X73.0 Y62.5486
G1 X73.0048 Y62.5483
G1 X73.0095 Y62.5476
G1 X73.0141 Y62.5465
G1 X73.0186 Y62.5449 Z-3.4496
G1 X73.0229 Y62.5428
G1 X73.027 Y62.5404
G1 X73.0308 Y62.5375
G1 X73.0343 Y62.5343 Z-3.4497
G1 X73.0375 Y62.5308
G1 X73.0404 Y62.527
G1 X73.0428 Y62.5229
G1 X73.0449 Y62.5186 Z-3.4498
G1 X73.0465 Y62.5141
G1 X73.0476 Y62.5095
G1 X73.0483 Y62.5048
G1 X73.05 Y62.4705 Z-3.45
G1 Y32.5295 Z-3.5989
G1 X73.0483 Y32.4952 Z-3.5991
G1 X73.0476 Y32.4905
G1 X73.0465 Y32.4859 Z-3.5992
G1 X73.0449 Y32.4814
G1 X73.0428 Y32.4771
G1 X73.0404 Y32.473
G1 X73.0375 Y32.4692 Z-3.5993
G1 X73.0343 Y32.4657
G1 X73.0308 Y32.4625
G1 X73.027 Y32.4596
G1 X73.0229 Y32.4572 Z-3.5994
G1 X73.0186 Y32.4551
G1 X73.0141 Y32.4535
G1 X73.0095 Y32.4524
G1 X73.0048 Y32.4517 Z-3.5995
G1 X73.0 Y32.4514
G1 X72.9952 Y32.4517
G1 X72.9905 Y32.4524
G1 X72.9859 Y32.4535
G1 X72.9814 Y32.4551 Z-3.5996
G1 X72.9771 Y32.4572
G1 X72.973 Y32.4596
G1 X72.9692 Y32.4625
G1 X72.9657 Y32.4657 Z-3.5997
G1 X72.9625 Y32.4692
G1 X72.9596 Y32.473
G1 X72.9572 Y32.4771
G1 X72.9551 Y32.4814 Z-3.5998
G1 X72.9535 Y32.4859
G1 X72.9524 Y32.4905
G1 X72.9517 Y32.4952
G1 X72.95 Y32.5295 Z-3.6
G1 Y62.4705 Z-3.7489
G1 X72.9517 Y62.5048 Z-3.7491
G1 X72.9524 Y62.5095
G1 X72.9535 Y62.5141 Z-3.7492
G1 X72.9551 Y62.5186
G1 X72.9572 Y62.5229
G1 X72.9596 Y62.527
G1 X72.9625 Y62.5308 Z-3.7493
G1 X72.9657 Y62.5343
G1 X72.9692 Y62.5375
G1 X72.973 Y62.5404
G1 X72.9771 Y62.5428 Z-3.7494
G1 X72.9814 Y62.5449
G1 X72.9859 Y62.5465
G1 X72.9905 Y62.5476
G1 X72.9952 Y62.5483 Z-3.7495
G1 X73.0 Y62.5486
G1 X73.0048 Y62.5483
G1 X73.0095 Y62.5476
G1 X73.0141 Y62.5465
G1 X73.0186 Y62.5449 Z-3.7496
G1 X73.0229 Y62.5428
G1 X73.027 Y62.5404
G1 X73.0308 Y62.5375
G1 X73.0343 Y62.5343 Z-3.7497
G1 X73.0375 Y62.5308
G1 X73.0404 Y62.527
G1 X73.0428 Y62.5229
G1 X73.0449 Y62.5186 Z-3.7498
G1 X73.0465 Y62.5141
G1 X73.0476 Y62.5095
G1 X73.0483 Y62.5048
G1 X73.05 Y62.4705 Z-3.75
G1 Y32.5295 Z-3.8989
G1 X73.0483 Y32.4952 Z-3.8991
G1 X73.0476 Y32.4905
G1 X73.0465 Y32.4859 Z-3.8992
G1 X73.0449 Y32.4814
G1 X73.0428 Y32.4771
G1 X73.0404 Y32.473
G1 X73.0375 Y32.4692 Z-3.8993
G1 X73.0343 Y32.4657
G1 X73.0308 Y32.4625
G1 X73.027 Y32.4596
G1 X73.0229 Y32.4572 Z-3.8994
G1 X73.0186 Y32.4551
G1 X73.0141 Y32.4535
G1 X73.0095 Y32.4524
G1 X73.0048 Y32.4517 Z-3.8995
G1 X73.0 Y32.4514
G1 X72.9952 Y32.4517
G1 X72.9905 Y32.4524
G1 X72.9859 Y32.4535
G1 X72.9814 Y32.4551 Z-3.8996
G1 X72.9771 Y32.4572
G1 X72.973 Y32.4596
G1 X72.9692 Y32.4625
G1 X72.9657 Y32.4657 Z-3.8997
G1 X72.9625 Y32.4692
G1 X72.9596 Y32.473
G1 X72.9572 Y32.4771
G1 X72.9551 Y32.4814 Z-3.8998
G1 X72.9535 Y32.4859
G1 X72.9524 Y32.4905
G1 X72.9517 Y32.4952
G1 X72.95 Y32.5295 Z-3.9
G1 Y62.4705 Z-4.0489
G1 X72.9517 Y62.5048 Z-4.0491
G1 X72.9524 Y62.5095
G1 X72.9535 Y62.5141 Z-4.0492
G1 X72.9551 Y62.5186
G1 X72.9572 Y62.5229
G1 X72.9596 Y62.527
G1 X72.9625 Y62.5308 Z-4.0493
G1 X72.9657 Y62.5343
G1 X72.9692 Y62.5375
G1 X72.973 Y62.5404
G1 X72.9771 Y62.5428 Z-4.0494
G1 X72.9814 Y62.5449
G1 X72.9859 Y62.5465
G1 X72.9905 Y62.5476
G1 X72.9952 Y62.5483 Z-4.0495
G1 X73.0 Y62.5486
G1 X73.0048 Y62.5483
G1 X73.0095 Y62.5476
G1 X73.0141 Y62.5465
G1 X73.0186 Y62.5449 Z-4.0496
G1 X73.0229 Y62.5428
G1 X73.027 Y62.5404
G1 X73.0308 Y62.5375
G1 X73.0343 Y62.5343 Z-4.0497
G1 X73.0375 Y62.5308
G1 X73.0404 Y62.527
G1 X73.0428 Y62.5229
G1 X73.0449 Y62.5186 Z-4.0498
G1 X73.0465 Y62.5141
G1 X73.0476 Y62.5095
G1 X73.0483 Y62.5048
G1 X73.05 Y62.4705 Z-4.05
G1 Y32.5295 Z-4.1989
G1 X73.0483 Y32.4952 Z-4.1991
G1 X73.0476 Y32.4905
G1 X73.0465 Y32.4859 Z-4.1992
G1 X73.0449 Y32.4814
G1 X73.0428 Y32.4771
G1 X73.0404 Y32.473
G1 X73.0375 Y32.4692 Z-4.1993
G1 X73.0343 Y32.4657
G1 X73.0308 Y32.4625
G1 X73.027 Y32.4596
G1 X73.0229 Y32.4572 Z-4.1994
G1 X73.0186 Y32.4551
G1 X73.0141 Y32.4535
G1 X73.0095 Y32.4524
G1 X73.0048 Y32.4517 Z-4.1995
G1 X73.0 Y32.4514
G1 X72.9952 Y32.4517
G1 X72.9905 Y32.4524
G1 X72.9859 Y32.4535
G1 X72.9814 Y32.4551 Z-4.1996
G1 X72.9771 Y32.4572
G1 X72.973 Y32.4596
G1 X72.9692 Y32.4625
G1 X72.9657 Y32.4657 Z-4.1997
G1 X72.9625 Y32.4692
G1 X72.9596 Y32.473
G1 X72.9572 Y32.4771
G1 X72.9551 Y32.4814 Z-4.1998
G1 X72.9535 Y32.4859
G1 X72.9524 Y32.4905
G1 X72.9517 Y32.4952
G1 X72.95 Y32.5295 Z-4.2
G1 Y62.4705
G1 X72.9517 Y62.5048
G1 X72.9524 Y62.5095
G1 X72.9535 Y62.5141
G1 X72.9551 Y62.5186
G1 X72.9572 Y62.5229
G1 X72.9596 Y62.527
G1 X72.9625 Y62.5308
G1 X72.9657 Y62.5343
G1 X72.9692 Y62.5375
G1 X72.973 Y62.5404
G1 X72.9771 Y62.5428
G1 X72.9814 Y62.5449
G1 X72.9859 Y62.5465
G1 X72.9905 Y62.5476
G1 X72.9952 Y62.5483
G1 X73.0 Y62.5486
G1 X73.0048 Y62.5483
G1 X73.0095 Y62.5476
G1 X73.0141 Y62.5465
G1 X73.0186 Y62.5449
G1 X73.0229 Y62.5428
G1 X73.027 Y62.5404
G1 X73.0308 Y62.5375
G1 X73.0343 Y62.5343
G1 X73.0375 Y62.5308
G1 X73.0404 Y62.527
G1 X73.0428 Y62.5229
G1 X73.0449 Y62.5186
G1 X73.0465 Y62.5141
G1 X73.0476 Y62.5095
G1 X73.0483 Y62.5048
G1 X73.05 Y62.4705
G1 Y32.5295
G1 X73.0483 Y32.4952
G1 X73.0476 Y32.4905
G1 X73.0465 Y32.4859
G1 X73.0449 Y32.4814
G1 X73.0428 Y32.4771
G1 X73.0404 Y32.473
G1 X73.0375 Y32.4692
G1 X73.0343 Y32.4657
G1 X73.0308 Y32.4625
G1 X73.027 Y32.4596
G1 X73.0229 Y32.4572
G1 X73.0186 Y32.4551
G1 X73.0141 Y32.4535
G1 X73.0095 Y32.4524
G1 X73.0048 Y32.4517
G1 X73.0 Y32.4514
G1 X72.9952 Y32.4517
G1 X72.9905 Y32.4524
G1 X72.9859 Y32.4535
G1 X72.9814 Y32.4551
G1 X72.9771 Y32.4572
G1 X72.973 Y32.4596
G1 X72.9692 Y32.4625
G1 X72.9657 Y32.4657
G1 X72.9625 Y32.4692
G1 X72.9596 Y32.473
G1 X72.9572 Y32.4771
G1 X72.9551 Y32.4814
G1 X72.9535 Y32.4859
G1 X72.9524 Y32.4905
G1 X72.9517 Y32.4952
G1 X72.95 Y32.5295
G0 Z3.0
G0 X88.95
G0 Z1.0
G1 F300.0 Z0.0
G1 F800.0 Y62.4705 Z-0.1489
G1 X88.9517 Y62.5048 Z-0.1491
G1 X88.9524 Y62.5095
G1 X88.9535 Y62.5141 Z-0.1492
G1 X88.9551 Y62.5186
G1 X88.9572 Y62.5229
G1 X88.9596 Y62.527
G1 X88.9625 Y62.5308 Z-0.1493
G1 X88.9657 Y62.5343
G1 X88.9692 Y62.5375
G1 X88.973 Y62.5404
G1 X88.9771 Y62.5428 Z-0.1494
G1 X88.9814 Y62.5449
G1 X88.9859 Y62.5465
G1 X88.9905 Y62.5476
G1 X88.9952 Y62.5483 Z-0.1495
G1 X89.0 Y62.5486
G1 X89.0048 Y62.5483
G1 X89.0095 Y62.5476
G1 X89.0141 Y62.5465
G1 X89.0186 Y62.5449 Z-0.1496
G1 X89.0229 Y62.5428
G1 X89.027 Y62.5404
G1 X89.0308 Y62.5375
G1 X89.0343 Y62.5343 Z-0.1497
G1 X89.0375 Y62.5308
G1 X89.0404 Y62.527
G1 X89.0428 Y62.5229
G1 X89.0449 Y62.5186 Z-0.1498
G1 X89.0465 Y62.5141
G1 X89.0476 Y62.5095
G1 X89.0483 Y62.5048
G1 X89.05 Y62.4705 Z-0.15
G1 Y32.5295 Z-0.2989
G1 X89.0483 Y32.4952 Z-0.2991
G1 X89.0476 Y32.4905
G1 X89.0465 Y32.4859 Z-0.2992
G1 X89.0449 Y32.4814
G1 X89.0428 Y32.4771
G1 X89.0404 Y32.473
G1 X89.0375 Y32.4692 Z-0.2993
G1 X89.0343 Y32.4657
G1 X89.0308 Y32.4625
G1 X89.027 Y32.4596
G1 X89.0229 Y32.4572 Z-0.2994
G1 X89.0186 Y32.4551
G1 X89.0141 Y32.4535
G1 X89.0095 Y32.4524
G1 X89.0048 Y32.4517 Z-0.2995
G1 X89.0 Y32.4514
G1 X88.9952 Y32.4517
G1 X88.9905 Y32.4524
G1 X88.9859 Y32.4535
G1 X88.9814 Y32.4551 Z-0.2996
G1 X88.9771 Y32.4572
G1 X88.973 Y32.4596
G1 X88.9692 Y32.4625
G1 X88.9657 Y32.4657 Z-0.2997
G1 X88.9625 Y32.4692
G1 X88.9596 Y32.473
G1 X88.9572 Y32.4771
G1 X88.9551 Y32.4814 Z-0.2998
G1 X88.9535 Y32.4859
G1 X88.9524 Y32.4905
G1 X88.9517 Y32.4952
G1 X88.95 Y32.5295 Z-0.3
G1 Y62.4705 Z-0.4489
G1 X88.9517 Y62.5048 Z-0.4491
G1 X88.9524 Y62.5095
G1 X88.9535 Y62.5141 Z-0.4492
G1 X88.9551 Y62.5186
G1 X88.9572 Y62.5229
G1 X88.9596 Y62.527
G1 X88.9625 Y62.5308 Z-0.4493
G1 X88.9657 Y62.5343
G1 X88.9692 Y62.5375
G1 X88.973 Y62.5404
G1 X88.9771 Y62.5428 Z-0.4494
G1 X88.9814 Y62.5449
G1 X88.9859 Y62.5465
G1 X88.9905 Y62.5476
G1 X88.9952 Y62.5483 Z-0.4495
G1 X89.0 Y62.5486
G1 X89.0048 Y62.5483
G1 X89.0095 Y62.5476
G1 X89.0141 Y62.5465
G1 X89.0186 Y62.5449 Z-0.4496
G1 X89.0229 Y62.5428
G1 X89.027 Y62.5404
G1 X89.0308 Y62.5375
G1 X89.0343 Y62.5343 Z-0.4497
G1 X89.0375 Y62.5308
G1 X89.0404 Y62.527
G1 X89.0428 Y62.5229
G1 X89.0449 Y62.5186 Z-0.4498
G1 X89.0465 Y62.5141
G1 X89.0476 Y62.5095
G1 X89.0483 Y62.5048
G1 X89.05 Y62.4705 Z-0.45
G1 Y32.5295 Z-0.5989
G1 X89.0483 Y32.4952 Z-0.5991
G1 X89.0476 Y32.4905
G1 X89.0465 Y32.4859 Z-0.5992
G1 X89.0449 Y32.4814
G1 X89.0428 Y32.4771
G1 X89.0404 Y32.473
G1 X89.0375 Y32.4692 Z-0.5993
G1 X89.0343 Y32.4657
G1 X89.0308 Y32.4625
G1 X89.027 Y32.4596
G1 X89.0229 Y32.4572 Z-0.5994
G1 X89.0186 Y32.4551
G1 X89.0141 Y32.4535
G1 X89.0095 Y32.4524
G1 X89.0048 Y32.4517 Z-0.5995
G1 X89.0 Y32.4514
G1 X88.9952 Y32.4517
G1 X88.9905 Y32.4524
G1 X88.9859 Y32.4535
G1 X88.9814 Y32.4551 Z-0.5996
G1 X88.9771 Y32.4572
G1 X88.973 Y32.4596
G1 X88.9692 Y32.4625
G1 X88.9657 Y32.4657 Z-0.5997
G1 X88.9625 Y32.4692
G1 X88.9596 Y32.473
G1 X88.9572 Y32.4771
G1 X88.9551 Y32.4814 Z-0.5998
G1 X88.9535 Y32.4859
G1 X88.9524 Y32.4905
G1 X88.9517 Y32.4952
G1 X88.95 Y32.5295 Z-0.6
G1 Y62.4705 Z-0.7489
G1 X88.9517 Y62.5048 Z-0.7491
G1 X88.9524 Y62.5095
G1 X88.9535 Y62.5141 Z-0.7492
G1 X88.9551 Y62.5186
G1 X88.9572 Y62.5229
G1 X88.9596 Y62.527
G1 X88.9625 Y62.5308 Z-0.7493
G1 X88.9657 Y62.5343
G1 X88.9692 Y62.5375
G1 X88.973 Y62.5404
G1 X88.9771 Y62.5428 Z-0.7494
G1 X88.9814 Y62.5449
G1 X88.9859 Y62.5465
G1 X88.9905 Y62.5476
G1 X88.9952 Y62.5483 Z-0.7495
G1 X89.0 Y62.5486
G1 X89.0048 Y62.5483
G1 X89.0095 Y62.5476
G1 X89.0141 Y62.5465
G1 X89.0186 Y62.5449 Z-0.7496
G1 X89.0229 Y62.5428
G1 X89.027 Y62.5404
G1 X89.0308 Y62.5375
G1 X89.0343 Y62.5343 Z-0.7497
G1 X89.0375 Y62.5308
G1 X89.0404 Y62.527
G1 X89.0428 Y62.5229
G1 X89.0449 Y62.5186 Z-0.7498
G1 X89.0465 Y62.5141
G1 X89.0476 Y62.5095
G1 X89.0483 Y62.5048
G1 X89.05 Y62.4705 Z-0.75
G1 Y32.5295 Z-0.8989
G1 X89.0483 Y32.4952 Z-0.8991
G1 X89.0476 Y32.4905
G1 X89.0465 Y32.4859 Z-0.8992
G1 X89.0449 Y32.4814
G1 X89.0428 Y32.4771
G1 X89.0404 Y32.473
G1 X89.0375 Y32.4692 Z-0.8993
G1 X89.0343 Y32.4657
G1 X89.0308 Y32.4625
G1 X89.027 Y32.4596
G1 X89.0229 Y32.4572 Z-0.8994
G1 X89.0186 Y32.4551
G1 X89.0141 Y32.4535
G1 X89.0095 Y32.4524
G1 X89.0048 Y32.4517 Z-0.8995
G1 X89.0 Y32.4514
G1 X88.9952 Y32.4517
G1 X88.9905 Y32.4524
G1 X88.9859 Y32.4535
G1 X88.9814 Y32.4551 Z-0.8996
G1 X88.9771 Y32.4572
G1 X88.973 Y32.4596
G1 X88.9692 Y32.4625
G1 X88.9657 Y32.4657 Z-0.8997
G1 X88.9625 Y32.4692
G1 X88.9596 Y32.473
G1 X88.9572 Y32.4771
G1 X88.9551 Y32.4814 Z-0.8998
G1 X88.9535 Y32.4859
G1 X88.9524 Y32.4905
G1 X88.9517 Y32.4952
G1 X88.95 Y32.5295 Z-0.9
G1 Y62.4705 Z-1.0489
G1 X88.9517 Y62.5048 Z-1.0491
G1 X88.9524 Y62.5095
G1 X88.9535 Y62.5141 Z-1.0492
G1 X88.9551 Y62.5186
G1 X88.9572 Y62.5229
G1 X88.9596 Y62.527
G1 X88.9625 Y62.5308 Z-1.0493
G1 X88.9657 Y62.5343
G1 X88.9692 Y62.5375
G1 X88.973 Y62.5404
G1 X88.9771 Y62.5428 Z-1.0494
G1 X88.9814 Y62.5449
G1 X88.9859 Y62.5465
G1 X88.9905 Y62.5476
G1 X88.9952 Y62.5483 Z-1.0495
G1 X89.0 Y62.5486
G1 X89.0048 Y62.5483
G1 X89.0095 Y62.5476
G1 X89.0141 Y62.5465
G1 X89.0186 Y62.5449 Z-1.0496
G1 X89.0229 Y62.5428
G1 X89.027 Y62.5404
G1 X89.0308 Y62.5375
G1 X89.0343 Y62.5343 Z-1.0497
G1 X89.0375 Y62.5308
G1 X89.0404 Y62.527
G1 X89.0428 Y62.5229
G1 X89.0449 Y62.5186 Z-1.0498
G1 X89.0465 Y62.5141
G1 X89.0476 Y62.5095
G1 X89.0483 Y62.5048
G1 X89.05 Y62.4705 Z-1.05
G1 Y32.5295 Z-1.1989
G1 X89.0483 Y32.4952 Z-1.1991
G1 X89.0476 Y32.4905
G1 X89.0465 Y32.4859 Z-1.1992
G1 X89.0449 Y32.4814
G1 X89.0428 Y32.4771
G1 X89.0404 Y32.473
G1 X89.0375 Y32.4692 Z-1.1993
G1 X89.0343 Y32.4657
G1 X89.0308 Y32.4625
G1 X89.027 Y32.4596
G1 X89.0229 Y32.4572 Z-1.1994
G1 X89.0186 Y32.4551
G1 X89.0141 Y32.4535
G1 X89.0095 Y32.4524
G1 X89.0048 Y32.4517 Z-1.1995
G1 X89.0 Y32.4514
G1 X88.9952 Y32.4517
G1 X88.9905 Y32.4524
G1 X88.9859 Y32.4535
G1 X88.9814 Y32.4551 Z-1.1996
G1 X88.9771 Y32.4572
G1 X88.973 Y32.4596
G1 X88.9692 Y32.4625
G1 X88.9657 Y32.4657 Z-1.1997
G1 X88.9625 Y32.4692
G1 X88.9596 Y32.473
G1 X88.9572 Y32.4771
G1 X88.9551 Y32.4814 Z-1.1998
G1 X88.9535 Y32.4859
G1 X88.9524 Y32.4905
G1 X88.9517 Y32.4952
G1 X88.95 Y32.5295 Z-1.2
G1 Y62.4705 Z-1.3489
G1 X88.9517 Y62.5048 Z-1.3491
G1 X88.9524 Y62.5095
G1 X88.9535 Y62.5141 Z-1.3492
G1 X88.9551 Y62.5186
G1 X88.9572 Y62.5229
G1 X88.9596 Y62.527
G1 X88.9625 Y62.5308 Z-1.3493
G1 X88.9657 Y62.5343
G1 X88.9692 Y62.5375
G1 X88.973 Y62.5404
G1 X88.9771 Y62.5428 Z-1.3494
G1 X88.9814 Y62.5449
G1 X88.9859 Y62.5465
G1 X88.9905 Y62.5476
G1 X88.9952 Y62.5483 Z-1.3495
G1 X89.0 Y62.5486
G1 X89.0048 Y62.5483
G1 X89.0095 Y62.5476
G1 X89.0141 Y62.5465
G1 X89.0186 Y62.5449 Z-1.3496
G1 X89.0229 Y62.5428
G1 X89.027 Y62.5404
G1 X89.0308 Y62.5375
G1 X89.0343 Y62.5343 Z-1.3497
G1 X89.0375 Y62.5308
G1 X89.0404 Y62.527
G1 X89.0428 Y62.5229
G1 X89.0449 Y62.5186 Z-1.3498
G1 X89.0465 Y62.5141
G1 X89.0476 Y62.5095
G1 X89.0483 Y62.5048
G1 X89.05 Y62.4705 Z-1.35
G1 Y32.5295 Z-1.4989
G1 X89.0483 Y32.4952 Z-1.4991
G1 X89.0476 Y32.4905
G1 X89.0465 Y32.4859 Z-1.4992
G1 X89.0449 Y32.4814
G1 X89.0428 Y32.4771
G1 X89.0404 Y32.473
G1 X89.0375 Y32.4692 Z-1.4993
G1 X89.0343 Y32.4657
G1 X89.0308 Y32.4625
G1 X89.027 Y32.4596
G1 X89.0229 Y32.4572 Z-1.4994
G1 X89.0186 Y32.4551
G1 X89.0141 Y32.4535
G1 X89.0095 Y32.4524
G1 X89.0048 Y32.4517 Z-1.4995
G1 X89.0 Y32.4514
G1 X88.9952 Y32.4517
G1 X88.9905 Y32.4524
G1 X88.9859 Y32.4535
G1 X88.9814 Y32.4551 Z-1.4996
G1 X88.9771 Y32.4572
G1 X88.973 Y32.4596
G1 X88.9692 Y32.4625
G1 X88.9657 Y32.4657 Z-1.4997
G1 X88.9625 Y32.4692
G1 X88.9596 Y32.473
G1 X88.9572 Y32.4771
G1 X88.9551 Y32.4814 Z-1.4998
G1 X88.9535 Y32.4859
G1 X88.9524 Y32.4905
G1 X88.9517 Y32.4952
G1 X88.95 Y32.5295 Z-1.5
G1 Y62.4705 Z-1.6489
G1 X88.9517 Y62.5048 Z-1.6491
G1 X88.9524 Y62.5095
G1 X88.9535 Y62.5141 Z-1.6492
G1 X88.9551 Y62.5186
G1 X88.9572 Y62.5229
G1 X88.9596 Y62.527
G1 X88.9625 Y62.5308 Z-1.6493
G1 X88.9657 Y62.5343
G1 X88.9692 Y62.5375
G1 X88.973 Y62.5404
G1 X88.9771 Y62.5428 Z-1.6494
G1 X88.9814 Y62.5449
G1 X88.9859 Y62.5465
G1 X88.9905 Y62.5476
G1 X88.9952 Y62.5483 Z-1.6495
G1 X89.0 Y62.5486
G1 X89.0048 Y62.5483
G1 X89.0095 Y62.5476
G1 X89.0141 Y62.5465
G1 X89.0186 Y62.5449 Z-1.6496
G1 X89.0229 Y62.5428
G1 X89.027 Y62.5404
G1 X89.0308 Y62.5375
G1 X89.0343 Y62.5343 Z-1.6497
G1 X89.0375 Y62.5308
G1 X89.0404 Y62.527
G1 X89.0428 Y62.5229
G1 X89.0449 Y62.5186 Z-1.6498
G1 X89.0465 Y62.5141
G1 X89.0476 Y62.5095
G1 X89.0483 Y62.5048
G1 X89.05 Y62.4705 Z-1.65
G1 Y32.5295 Z-1.7989
G1 X89.0483 Y32.4952 Z-1.7991
G1 X89.0476 Y32.4905
G1 X89.0465 Y32.4859 Z-1.7992
G1 X89.0449 Y32.4814
G1 X89.0428 Y32.4771
G1 X89.0404 Y32.473
G1 X89.0375 Y32.4692 Z-1.7993
G1 X89.0343 Y32.4657
G1 X89.0308 Y32.4625
G1 X89.027 Y32.4596
G1 X89.0229 Y32.4572 Z-1.7994
G1 X89.0186 Y32.4551
G1 X89.0141 Y32.4535
G1 X89.0095 Y32.4524
G1 X89.0048 Y32.4517 Z-1.7995
G1 X89.0 Y32.4514
G1 X88.9952 Y32.4517
G1 X88.9905 Y32.4524
G1 X88.9859 Y32.4535
G1 X88.9814 Y32.4551 Z-1.7996
G1 X88.9771 Y32.4572
G1 X88.973 Y32.4596
G1 X88.9692 Y32.4625
G1 X88.9657 Y32.4657 Z-1.7997
G1 X88.9625 Y32.4692
G1 X88.9596 Y32.473
G1 X88.9572 Y32.4771
G1 X88.9551 Y32.4814 Z-1.7998
G1 X88.9535 Y32.4859
G1 X88.9524 Y32.4905
G1 X88.9517 Y32.4952
G1 X88.95 Y32.5295 Z-1.8
G1 Y62.4705 Z-1.9489
G1 X88.9517 Y62.5048 Z-1.9491
G1 X88.9524 Y62.5095
G1 X88.9535 Y62.5141 Z-1.9492
G1 X88.9551 Y62.5186
G1 X88.9572 Y62.5229
G1 X88.9596 Y62.527
G1 X88.9625 Y62.5308 Z-1.9493
G1 X88.9657 Y62.5343
G1 X88.9692 Y62.5375
G1 X88.973 Y62.5404
G1 X88.9771 Y62.5428 Z-1.9494
G1 X88.9814 Y62.5449
G1 X88.9859 Y62.5465
G1 X88.9905 Y62.5476
G1 X88.9952 Y62.5483 Z-1.9495
G1 X89.0 Y62.5486
G1 X89.0048 Y62.5483
G1 X89.0095 Y62.5476
G1 X89.0141 Y62.5465
G1 X89.0186 Y62.5449 Z-1.9496
G1 X89.0229 Y62.5428
G1 X89.027 Y62.5404
G1 X89.0308 Y62.5375
G1 X89.0343 Y62.5343 Z-1.9497
G1 X89.0375 Y62.5308
G1 X89.0404 Y62.527
G1 X89.0428 Y62.5229
G1 X89.0449 Y62.5186 Z-1.9498
G1 X89.0465 Y62.5141
G1 X89.0476 Y62.5095
G1 X89.0483 Y62.5048
G1 X89.05 Y62.4705 Z-1.95
G1 Y32.5295 Z-2.0989
G1 X89.0483 Y32.4952 Z-2.0991
G1 X89.0476 Y32.4905
G1 X89.0465 Y32.4859 Z-2.0992
G1 X89.0449 Y32.4814
G1 X89.0428 Y32.4771
G1 X89.0404 Y32.473
G1 X89.0375 Y32.4692 Z-2.0993
G1 X89.0343 Y32.4657
G1 X89.0308 Y32.4625
G1 X89.027 Y32.4596
G1 X89.0229 Y32.4572 Z-2.0994
G1 X89.0186 Y32.4551
G1 X89.0141 Y32.4535
G1 X89.0095 Y32.4524
G1 X89.0048 Y32.4517 Z-2.0995
G1 X89.0 Y32.4514
G1 X88.9952 Y32.4517
G1 X88.9905 Y32.4524
G1 X88.9859 Y32.4535
G1 X88.9814 Y32.4551 Z-2.0996
G1 X88.9771 Y32.4572
G1 X88.973 Y32.4596
G1 X88.9692 Y32.4625
G1 X88.9657 Y32.4657 Z-2.0997
G1 X88.9625 Y32.4692
G1 X88.9596 Y32.473
G1 X88.9572 Y32.4771
G1 X88.9551 Y32.4814 Z-2.0998
G1 X88.9535 Y32.4859
G1 X88.9524 Y32.4905
G1 X88.9517 Y32.4952
G1 X88.95 Y32.5295 Z-2.1
G1 Y62.4705 Z-2.2489
G1 X88.9517 Y62.5048 Z-2.2491
G1 X88.9524 Y62.5095
G1 X88.9535 Y62.5141 Z-2.2492
G1 X88.9551 Y62.5186
G1 X88.9572 Y62.5229
G1 X88.9596 Y62.527
G1 X88.9625 Y62.5308 Z-2.2493
G1 X88.9657 Y62.5343
G1 X88.9692 Y62.5375
G1 X88.973 Y62.5404
G1 X88.9771 Y62.5428 Z-2.2494
G1 X88.9814 Y62.5449
G1 X88.9859 Y62.5465
G1 X88.9905 Y62.5476
G1 X88.9952 Y62.5483 Z-2.2495
G1 X89.0 Y62.5486
G1 X89.0048 Y62.5483
G1 X89.0095 Y62.5476
G1 X89.0141 Y62.5465
G1 X89.0186 Y62.5449 Z-2.2496
G1 X89.0229 Y62.5428
G1 X89.027 Y62.5404
G1 X89.0308 Y62.5375
G1 X89.0343 Y62.5343 Z-2.2497
G1 X89.0375 Y62.5308
G1 X89.0404 Y62.527
G1 X89.0428 Y62.5229
G1 X89.0449 Y62.5186 Z-2.2498
G1 X89.0465 Y62.5141
G1 X89.0476 Y62.5095
G1 X89.0483 Y62.5048
G1 X89.05 Y62.4705 Z-2.25
G1 Y32.5295 Z-2.3989
G1 X89.0483 Y32.4952 Z-2.3991
G1 X89.0476 Y32.4905
G1 X89.0465 Y32.4859 Z-2.3992
G1 X89.0449 Y32.4814
G1 X89.0428 Y32.4771
G1 X89.0404 Y32.473
G1 X89.0375 Y32.4692 Z-2.3993
G1 X89.0343 Y32.4657
G1 X89.0308 Y32.4625
G1 X89.027 Y32.4596
G1 X89.0229 Y32.4572 Z-2.3994
G1 X89.0186 Y32.4551
G1 X89.0141 Y32.4535
G1 X89.0095 Y32.4524
G1 X89.0048 Y32.4517 Z-2.3995
G1 X89.0 Y32.4514
G1 X88.9952 Y32.4517
G1 X88.9905 Y32.4524
G1 X88.9859 Y32.4535
G1 X88.9814 Y32.4551 Z-2.3996
G1 X88.9771 Y32.4572
G1 X88.973 Y32.4596
G1 X88.9692 Y32.4625
G1 X88.9657 Y32.4657 Z-2.3997
G1 X88.9625 Y32.4692
G1 X88.9596 Y32.473
G1 X88.9572 Y32.4771
G1 X88.9551 Y32.4814 Z-2.3998
G1 X88.9535 Y32.4859
G1 X88.9524 Y32.4905
G1 X88.9517 Y32.4952
G1 X88.95 Y32.5295 Z-2.4
G1 Y62.4705 Z-2.5489
G1 X88.9517 Y62.5048 Z-2.5491
G1 X88.9524 Y62.5095
G1 X88.9535 Y62.5141 Z-2.5492
G1 X88.9551 Y62.5186
G1 X88.9572 Y62.5229
G1 X88.9596 Y62.527
G1 X88.9625 Y62.5308 Z-2.5493
G1 X88.9657 Y62.5343
G1 X88.9692 Y62.5375
G1 X88.973 Y62.5404
G1 X88.9771 Y62.5428 Z-2.5494
G1 X88.9814 Y62.5449
G1 X88.9859 Y62.5465
G1 X88.9905 Y62.5476
G1 X88.9952 Y62.5483 Z-2.5495
G1 X89.0 Y62.5486
G1 X89.0048 Y62.5483
G1 X89.0095 Y62.5476
G1 X89.0141 Y62.5465
G1 X89.0186 Y62.5449 Z-2.5496
G1 X89.0229 Y62.5428
G1 X89.027 Y62.5404
G1 X89.0308 Y62.5375
G1 X89.0343 Y62.5343 Z-2.5497
G1 X89.0375 Y62.5308
G1 X89.0404 Y62.527
G1 X89.0428 Y62.5229
G1 X89.0449 Y62.5186 Z-2.5498
G1 X89.0465 Y62.5141
G1 X89.0476 Y62.5095
G1 X89.0483 Y62.5048
G1 X89.05 Y62.4705 Z-2.55
G1 Y32.5295 Z-2.6989
G1 X89.0483 Y32.4952 Z-2.6991
G1 X89.0476 Y32.4905
G1 X89.0465 Y32.4859 Z-2.6992
G1 X89.0449 Y32.4814
G1 X89.0428 Y32.4771
G1 X89.0404 Y32.473
G1 X89.0375 Y32.4692 Z-2.6993
G1 X89.0343 Y32.4657
G1 X89.0308 Y32.4625
G1 X89.027 Y32.4596
G1 X89.0229 Y32.4572 Z-2.6994
G1 X89.0186 Y32.4551
G1 X89.0141 Y32.4535
G1 X89.0095 Y32.4524
G1 X89.0048 Y32.4517 Z-2.6995
G1 X89.0 Y32.4514
G1 X88.9952 Y32.4517
G1 X88.9905 Y32.4524
G1 X88.9859 Y32.4535
G1 X88.9814 Y32.4551 Z-2.6996
G1 X88.9771 Y32.4572
G1 X88.973 Y32.4596
G1 X88.9692 Y32.4625
G1 X88.9657 Y32.4657 Z-2.6997
G1 X88.9625 Y32.4692
G1 X88.9596 Y32.473
G1 X88.9572 Y32.4771
G1 X88.9551 Y32.4814 Z-2.6998
G1 X88.9535 Y32.4859
G1 X88.9524 Y32.4905
G1 X88.9517 Y32.4952
G1 X88.95 Y32.5295 Z-2.7
G1 Y62.4705 Z-2.8489
G1 X88.9517 Y62.5048 Z-2.8491
G1 X88.9524 Y62.5095
G1 X88.9535 Y62.5141 Z-2.8492
G1 X88.9551 Y62.5186
G1 X88.9572 Y62.5229
G1 X88.9596 Y62.527
G1 X88.9625 Y62.5308 Z-2.8493
G1 X88.9657 Y62.5343
G1 X88.9692 Y62.5375
G1 X88.973 Y62.5404
G1 X88.9771 Y62.5428 Z-2.8494
G1 X88.9814 Y62.5449
G1 X88.9859 Y62.5465
G1 X88.9905 Y62.5476
G1 X88.9952 Y62.5483 Z-2.8495
G1 X89.0 Y62.5486
G1 X89.0048 Y62.5483
G1 X89.0095 Y62.5476
G1 X89.0141 Y62.5465
G1 X89.0186 Y62.5449 Z-2.8496
G1 X89.0229 Y62.5428
G1 X89.027 Y62.5404
G1 X89.0308 Y62.5375
G1 X89.0343 Y62.5343 Z-2.8497
G1 X89.0375 Y62.5308
G1 X89.0404 Y62.527
G1 X89.0428 Y62.5229
G1 X89.0449 Y62.5186 Z-2.8498
G1 X89.0465 Y62.5141
G1 X89.0476 Y62.5095
G1 X89.0483 Y62.5048
G1 X89.05 Y62.4705 Z-2.85
G1 Y32.5295 Z-2.9989
G1 X89.0483 Y32.4952 Z-2.9991
G1 X89.0476 Y32.4905
G1 X89.0465 Y32.4859 Z-2.9992
G1 X89.0449 Y32.4814
G1 X89.0428 Y32.4771
G1 X89.0404 Y32.473
G1 X89.0375 Y32.4692 Z-2.9993
G1 X89.0343 Y32.4657
G1 X89.0308 Y32.4625
G1 X89.027 Y32.4596
G1 X89.0229 Y32.4572 Z-2.9994
G1 X89.0186 Y32.4551
G1 X89.0141 Y32.4535
G1 X89.0095 Y32.4524
G1 X89.0048 Y32.4517 Z-2.9995
G1 X89.0 Y32.4514
G1 X88.9952 Y32.4517
G1 X88.9905 Y32.4524
G1 X88.9859 Y32.4535
G1 X88.9814 Y32.4551 Z-2.9996
G1 X88.9771 Y32.4572
G1 X88.973 Y32.4596
G1 X88.9692 Y32.4625
G1 X88.9657 Y32.4657 Z-2.9997
G1 X88.9625 Y32.4692
G1 X88.9596 Y32.473
G1 X88.9572 Y32.4771
G1 X88.9551 Y32.4814 Z-2.9998
G1 X88.9535 Y32.4859
G1 X88.9524 Y32.4905
G1 X88.9517 Y32.4952
G1 X88.95 Y32.5295 Z-3.0
G1 Y62.4705 Z-3.1489
G1 X88.9517 Y62.5048 Z-3.1491
G1 X88.9524 Y62.5095
G1 X88.9535 Y62.5141 Z-3.1492
G1 X88.9551 Y62.5186
G1 X88.9572 Y62.5229
G1 X88.9596 Y62.527
G1 X88.9625 Y62.5308 Z-3.1493
G1 X88.9657 Y62.5343
G1 X88.9692 Y62.5375
G1 X88.973 Y62.5404
G1 X88.9771 Y62.5428 Z-3.1494
G1 X88.9814 Y62.5449
G1 X88.9859 Y62.5465
G1 X88.9905 Y62.5476
G1 X88.9952 Y62.5483 Z-3.1495
G1 X89.0 Y62.5486
G1 X89.0048 Y62.5483
G1 X89.0095 Y62.5476
G1 X89.0141 Y62.5465
G1 X89.0186 Y62.5449 Z-3.1496
G1 X89.0229 Y62.5428
G1 X89.027 Y62.5404
G1 X89.0308 Y62.5375
G1 X89.0343 Y62.5343 Z-3.1497
G1 X89.0375 Y62.5308
G1 X89.0404 Y62.527
G1 X89.0428 Y62.5229
G1 X89.0449 Y62.5186 Z-3.1498
G1 X89.0465 Y62.5141
G1 X89.0476 Y62.5095
G1 X89.0483 Y62.5048
G1 X89.05 Y62.4705 Z-3.15
G1 Y32.5295 Z-3.2989
G1 X89.0483 Y32.4952 Z-3.2991
G1 X89.0476 Y32.4905
G1 X89.0465 Y32.4859 Z-3.2992
G1 X89.0449 Y32.4814
G1 X89.0428 Y32.4771
G1 X89.0404 Y32.473
G1 X89.0375 Y32.4692 Z-3.2993
G1 X89.0343 Y32.4657
G1 X89.0308 Y32.4625
G1 X89.027 Y32.4596
G1 X89.0229 Y32.4572 Z-3.2994
G1 X89.0186 Y32.4551
G1 X89.0141 Y32.4535
G1 X89.0095 Y32.4524
G1 X89.0048 Y32.4517 Z-3.2995
G1 X89.0 Y32.4514
G1 X88.9952 Y32.4517
G1 X88.9905 Y32.4524
G1 X88.9859 Y32.4535
G1 X88.9814 Y32.4551 Z-3.2996
G1 X88.9771 Y32.4572
G1 X88.973 Y32.4596
G1 X88.9692 Y32.4625
G1 X88.9657 Y32.4657 Z-3.2997
G1 X88.9625 Y32.4692
G1 X88.9596 Y32.473
G1 X88.9572 Y32.4771
G1 X88.9551 Y32.4814 Z-3.2998
G1 X88.9535 Y32.4859
G1 X88.9524 Y32.4905
G1 X88.9517 Y32.4952
G1 X88.95 Y32.5295 Z-3.3
G1 Y62.4705 Z-3.4489
G1 X88.9517 Y62.5048 Z-3.4491
G1 X88.9524 Y62.5095
G1 X88.9535 Y62.5141 Z-3.4492
G1 X88.9551 Y62.5186
G1 X88.9572 Y62.5229
G1 X88.9596 Y62.527
G1 X88.9625 Y62.5308 Z-3.4493
G1 X88.9657 Y62.5343
G1 X88.9692 Y62.5375
G1 X88.973 Y62.5404
G1 X88.9771 Y62.5428 Z-3.4494
G1 X88.9814 Y62.5449
G1 X88.9859 Y62.5465
G1 X88.9905 Y62.5476
G1 X88.9952 Y62.5483 Z-3.4495
G1 X89.0 Y62.5486
G1 X89.0048 Y62.5483
G1 X89.0095 Y62.5476
G1 X89.0141 Y62.5465
G1 X89.0186 Y62.5449 Z-3.4496
G1 X89.0229 Y62.5428
G1 X89.027 Y62.5404
G1 X89.0308 Y62.5375
G1 X89.0343 Y62.5343 Z-3.4497
G1 X89.0375 Y62.5308
G1 X89.0404 Y62.527
G1 X89.0428 Y62.5229
G1 X89.0449 Y62.5186 Z-3.4498
G1 X89.0465 Y62.5141
G1 X89.0476 Y62.5095
G1 X89.0483 Y62.5048
G1 X89.05 Y62.4705 Z-3.45
G1 Y32.5295 Z-3.5989
G1 X89.0483 Y32.4952 Z-3.5991
G1 X89.0476 Y32.4905
G1 X89.0465 Y32.4859 Z-3.5992
G1 X89.0449 Y32.4814
G1 X89.0428 Y32.4771
G1 X89.0404 Y32.473
G1 X89.0375 Y32.4692 Z-3.5993
G1 X89.0343 Y32.4657
G1 X89.0308 Y32.4625
G1 X89.027 Y32.4596
G1 X89.0229 Y32.4572 Z-3.5994
G1 X89.0186 Y32.4551
G1 X89.0141 Y32.4535
G1 X89.0095 Y32.4524
G1 X89.0048 Y32.4517 Z-3.5995
G1 X89.0 Y32.4514
G1 X88.9952 Y32.4517
G1 X88.9905 Y32.4524
G1 X88.9859 Y32.4535
G1 X88.9814 Y32.4551 Z-3.5996
G1 X88.9771 Y32.4572
G1 X88.973 Y32.4596
G1 X88.9692 Y32.4625
G1 X88.9657 Y32.4657 Z-3.5997
G1 X88.9625 Y32.4692
G1 X88.9596 Y32.473
G1 X88.9572 Y32.4771
G1 X88.9551 Y32.4814 Z-3.5998
G1 X88.9535 Y32.4859
G1 X88.9524 Y32.4905
G1 X88.9517 Y32.4952
G1 X88.95 Y32.5295 Z-3.6
G1 Y62.4705 Z-3.7489
G1 X88.9517 Y62.5048 Z-3.7491
G1 X88.9524 Y62.5095
G1 X88.9535 Y62.5141 Z-3.7492
G1 X88.9551 Y62.5186
G1 X88.9572 Y62.5229
G1 X88.9596 Y62.527
G1 X88.9625 Y62.5308 Z-3.7493
G1 X88.9657 Y62.5343
G1 X88.9692 Y62.5375
G1 X88.973 Y62.5404
G1 X88.9771 Y62.5428 Z-3.7494
G1 X88.9814 Y62.5449
G1 X88.9859 Y62.5465
G1 X88.9905 Y62.5476
G1 X88.9952 Y62.5483 Z-3.7495
G1 X89.0 Y62.5486
G1 X89.0048 Y62.5483
G1 X89.0095 Y62.5476
G1 X89.0141 Y62.5465
G1 X89.0186 Y62.5449 Z-3.7496
G1 X89.0229 Y62.5428
G1 X89.027 Y62.5404
G1 X89.0308 Y62.5375
G1 X89.0343 Y62.5343 Z-3.7497
G1 X89.0375 Y62.5308
G1 X89.0404 Y62.527
G1 X89.0428 Y62.5229
G1 X89.0449 Y62.5186 Z-3.7498
G1 X89.0465 Y62.5141
G1 X89.0476 Y62.5095
G1 X89.0483 Y62.5048
G1 X89.05 Y62.4705 Z-3.75
G1 Y32.5295 Z-3.8989
G1 X89.0483 Y32.4952 Z-3.8991
G1 X89.0476 Y32.4905
G1 X89.0465 Y32.4859 Z-3.8992
G1 X89.0449 Y32.4814
G1 X89.0428 Y32.4771
G1 X89.0404 Y32.473
G1 X89.0375 Y32.4692 Z-3.8993
G1 X89.0343 Y32.4657
G1 X89.0308 Y32.4625
G1 X89.027 Y32.4596
G1 X89.0229 Y32.4572 Z-3.8994
G1 X89.0186 Y32.4551
G1 X89.0141 Y32.4535
G1 X89.0095 Y32.4524
G1 X89.0048 Y32.4517 Z-3.8995
G1 X89.0 Y32.4514
G1 X88.9952 Y32.4517
G1 X88.9905 Y32.4524
G1 X88.9859 Y32.4535
G1 X88.9814 Y32.4551 Z-3.8996
G1 X88.9771 Y32.4572
G1 X88.973 Y32.4596
G1 X88.9692 Y32.4625
G1 X88.9657 Y32.4657 Z-3.8997
G1 X88.9625 Y32.4692
G1 X88.9596 Y32.473
G1 X88.9572 Y32.4771
G1 X88.9551 Y32.4814 Z-3.8998
G1 X88.9535 Y32.4859
G1 X88.9524 Y32.4905
G1 X88.9517 Y32.4952
G1 X88.95 Y32.5295 Z-3.9
G1 Y62.4705 Z-4.0489
G1 X88.9517 Y62.5048 Z-4.0491
G1 X88.9524 Y62.5095
G1 X88.9535 Y62.5141 Z-4.0492
G1 X88.9551 Y62.5186
G1 X88.9572 Y62.5229
G1 X88.9596 Y62.527
G1 X88.9625 Y62.5308 Z-4.0493
G1 X88.9657 Y62.5343
G1 X88.9692 Y62.5375
G1 X88.973 Y62.5404
G1 X88.9771 Y62.5428 Z-4.0494
G1 X88.9814 Y62.5449
G1 X88.9859 Y62.5465
G1 X88.9905 Y62.5476
G1 X88.9952 Y62.5483 Z-4.0495
G1 X89.0 Y62.5486
G1 X89.0048 Y62.5483
G1 X89.0095 Y62.5476
G1 X89.0141 Y62.5465
G1 X89.0186 Y62.5449 Z-4.0496
G1 X89.0229 Y62.5428
G1 X89.027 Y62.5404
G1 X89.0308 Y62.5375
G1 X89.0343 Y62.5343 Z-4.0497
G1 X89.0375 Y62.5308
G1 X89.0404 Y62.527
G1 X89.0428 Y62.5229
G1 X89.0449 Y62.5186 Z-4.0498
G1 X89.0465 Y62.5141
G1 X89.0476 Y62.5095
G1 X89.0483 Y62.5048
G1 X89.05 Y62.4705 Z-4.05
G1 Y32.5295 Z-4.1989
G1 X89.0483 Y32.4952 Z-4.1991
G1 X89.0476 Y32.4905
G1 X89.0465 Y32.4859 Z-4.1992
G1 X89.0449 Y32.4814
G1 X89.0428 Y32.4771
G1 X89.0404 Y32.473
G1 X89.0375 Y32.4692 Z-4.1993
G1 X89.0343 Y32.4657
G1 X89.0308 Y32.4625
G1 X89.027 Y32.4596
G1 X89.0229 Y32.4572 Z-4.1994
G1 X89.0186 Y32.4551
G1 X89.0141 Y32.4535
G1 X89.0095 Y32.4524
G1 X89.0048 Y32.4517 Z-4.1995
G1 X89.0 Y32.4514
G1 X88.9952 Y32.4517
G1 X88.9905 Y32.4524
G1 X88.9859 Y32.4535
G1 X88.9814 Y32.4551 Z-4.1996
G1 X88.9771 Y32.4572
G1 X88.973 Y32.4596
G1 X88.9692 Y32.4625
G1 X88.9657 Y32.4657 Z-4.1997
G1 X88.9625 Y32.4692
G1 X88.9596 Y32.473
G1 X88.9572 Y32.4771
G1 X88.9551 Y32.4814 Z-4.1998
G1 X88.9535 Y32.4859
G1 X88.9524 Y32.4905
G1 X88.9517 Y32.4952
G1 X88.95 Y32.5295 Z-4.2
G1 Y62.4705
G1 X88.9517 Y62.5048
G1 X88.9524 Y62.5095
G1 X88.9535 Y62.5141
G1 X88.9551 Y62.5186
G1 X88.9572 Y62.5229
G1 X88.9596 Y62.527
G1 X88.9625 Y62.5308
G1 X88.9657 Y62.5343
G1 X88.9692 Y62.5375
G1 X88.973 Y62.5404
G1 X88.9771 Y62.5428
G1 X88.9814 Y62.5449
G1 X88.9859 Y62.5465
G1 X88.9905 Y62.5476
G1 X88.9952 Y62.5483
G1 X89.0 Y62.5486
G1 X89.0048 Y62.5483
G1 X89.0095 Y62.5476
G1 X89.0141 Y62.5465
G1 X89.0186 Y62.5449
G1 X89.0229 Y62.5428
G1 X89.027 Y62.5404
G1 X89.0308 Y62.5375
G1 X89.0343 Y62.5343
G1 X89.0375 Y62.5308
G1 X89.0404 Y62.527
G1 X89.0428 Y62.5229
G1 X89.0449 Y62.5186
G1 X89.0465 Y62.5141
G1 X89.0476 Y62.5095
G1 X89.0483 Y62.5048
G1 X89.05 Y62.4705
G1 Y32.5295
G1 X89.0483 Y32.4952
G1 X89.0476 Y32.4905
G1 X89.0465 Y32.4859
G1 X89.0449 Y32.4814
G1 X89.0428 Y32.4771
G1 X89.0404 Y32.473
G1 X89.0375 Y32.4692
G1 X89.0343 Y32.4657
G1 X89.0308 Y32.4625
G1 X89.027 Y32.4596
G1 X89.0229 Y32.4572
G1 X89.0186 Y32.4551
G1 X89.0141 Y32.4535
G1 X89.0095 Y32.4524
G1 X89.0048 Y32.4517
G1 X89.0 Y32.4514
G1 X88.9952 Y32.4517
G1 X88.9905 Y32.4524
G1 X88.9859 Y32.4535
G1 X88.9814 Y32.4551
G1 X88.9771 Y32.4572
G1 X88.973 Y32.4596
G1 X88.9692 Y32.4625
G1 X88.9657 Y32.4657
G1 X88.9625 Y32.4692
G1 X88.9596 Y32.473
G1 X88.9572 Y32.4771
G1 X88.9551 Y32.4814
G1 X88.9535 Y32.4859
G1 X88.9524 Y32.4905
G1 X88.9517 Y32.4952
G1 X88.95 Y32.5295
G0 Z3.0
G0 X104.95
G0 Z1.0
G1 F300.0 Z0.0
G1 F800.0 Y62.4705 Z-0.1489
G1 X104.9517 Y62.5048 Z-0.1491
G1 X104.9524 Y62.5095
G1 X104.9535 Y62.5141 Z-0.1492
G1 X104.9551 Y62.5186
G1 X104.9572 Y62.5229
G1 X104.9596 Y62.527
G1 X104.9625 Y62.5308 Z-0.1493
G1 X104.9657 Y62.5343
G1 X104.9692 Y62.5375
G1 X104.973 Y62.5404
G1 X104.9771 Y62.5428 Z-0.1494
G1 X104.9814 Y62.5449
G1 X104.9859 Y62.5465
G1 X104.9905 Y62.5476
G1 X104.9952 Y62.5483 Z-0.1495
G1 X105.0 Y62.5486
G1 X105.0048 Y62.5483
G1 X105.0095 Y62.5476
G1 X105.0141 Y62.5465
G1 X105.0186 Y62.5449 Z-0.1496
G1 X105.0229 Y62.5428
G1 X105.027 Y62.5404
G1 X105.0308 Y62.5375
G1 X105.0343 Y62.5343 Z-0.1497
G1 X105.0375 Y62.5308
G1 X105.0404 Y62.527
G1 X105.0428 Y62.5229
G1 X105.0449 Y62.5186 Z-0.1498
G1 X105.0465 Y62.5141
G1 X105.0476 Y62.5095
G1 X105.0483 Y62.5048
G1 X105.05 Y62.4705 Z-0.15
G1 Y32.5295 Z-0.2989
G1 X105.0483 Y32.4952 Z-0.2991
G1 X105.0476 Y32.4905
G1 X105.0465 Y32.4859 Z-0.2992
G1 X105.0449 Y32.4814
G1 X105.0428 Y32.4771
G1 X105.0404 Y32.473
G1 X105.0375 Y32.4692 Z-0.2993
G1 X105.0343 Y32.4657
G1 X105.0308 Y32.4625
G1 X105.027 Y32.4596
G1 X105.0229 Y32.4572 Z-0.2994
G1 X105.0186 Y32.4551
G1 X105.0141 Y32.4535
G1 X105.0095 Y32.4524
G1 X105.0048 Y32.4517 Z-0.2995
G1 X105.0 Y32.4514
G1 X104.9952 Y32.4517
G1 X104.9905 Y32.4524
G1 X104.9859 Y32.4535
G1 X104.9814 Y32.4551 Z-0.2996
G1 X104.9771 Y32.4572
G1 X104.973 Y32.4596
G1 X104.9692 Y32.4625
G1 X104.9657 Y32.4657 Z-0.2997
G1 X104.9625 Y32.4692
G1 X104.9596 Y32.473
G1 X104.9572 Y32.4771
G1 X104.9551 Y32.4814 Z-0.2998
G1 X104.9535 Y32.4859
G1 X104.9524 Y32.4905
G1 X104.9517 Y32.4952
G1 X104.95 Y32.5295 Z-0.3
G1 Y62.4705 Z-0.4489
G1 X104.9517 Y62.5048 Z-0.4491
G1 X104.9524 Y62.5095
G1 X104.9535 Y62.5141 Z-0.4492
G1 X104.9551 Y62.5186
G1 X104.9572 Y62.5229
G1 X104.9596 Y62.527
G1 X104.9625 Y62.5308 Z-0.4493
G1 X104.9657 Y62.5343
G1 X104.9692 Y62.5375
G1 X104.973 Y62.5404
G1 X104.9771 Y62.5428 Z-0.4494
G1 X104.9814 Y62.5449
G1 X104.9859 Y62.5465
G1 X104.9905 Y62.5476
G1 X104.9952 Y62.5483 Z-0.4495
G1 X105.0 Y62.5486
G1 X105.0048 Y62.5483
G1 X105.0095 Y62.5476
G1 X105.0141 Y62.5465
G1 X105.0186 Y62.5449 Z-0.4496
G1 X105.0229 Y62.5428
G1 X105.027 Y62.5404
G1 X105.0308 Y62.5375
G1 X105.0343 Y62.5343 Z-0.4497
G1 X105.0375 Y62.5308
G1 X105.0404 Y62.527
G1 X105.0428 Y62.5229
G1 X105.0449 Y62.5186 Z-0.4498
G1 X105.0465 Y62.5141
G1 X105.0476 Y62.5095
G1 X105.0483 Y62.5048
G1 X105.05 Y62.4705 Z-0.45
G1 Y32.5295 Z-0.5989
G1 X105.0483 Y32.4952 Z-0.5991
G1 X105.0476 Y32.4905
G1 X105.0465 Y32.4859 Z-0.5992
G1 X105.0449 Y32.4814
G1 X105.0428 Y32.4771
G1 X105.0404 Y32.473
G1 X105.0375 Y32.4692 Z-0.5993
G1 X105.0343 Y32.4657
G1 X105.0308 Y32.4625
G1 X105.027 Y32.4596
G1 X105.0229 Y32.4572 Z-0.5994
G1 X105.0186 Y32.4551
G1 X105.0141 Y32.4535
G1 X105.0095 Y32.4524
G1 X105.0048 Y32.4517 Z-0.5995
G1 X105.0 Y32.4514
G1 X104.9952 Y32.4517
G1 X104.9905 Y32.4524
G1 X104.9859 Y32.4535
G1 X104.9814 Y32.4551 Z-0.5996
G1 X104.9771 Y32.4572
G1 X104.973 Y32.4596
G1 X104.9692 Y32.4625
G1 X104.9657 Y32.4657 Z-0.5997
G1 X104.9625 Y32.4692
G1 X104.9596 Y32.473
G1 X104.9572 Y32.4771
G1 X104.9551 Y32.4814 Z-0.5998
G1 X104.9535 Y32.4859
G1 X104.9524 Y32.4905
G1 X104.9517 Y32.4952
G1 X104.95 Y32.5295 Z-0.6
G1 Y62.4705 Z-0.7489
G1 X104.9517 Y62.5048 Z-0.7491
G1 X104.9524 Y62.5095
G1 X104.9535 Y62.5141 Z-0.7492
G1 X104.9551 Y62.5186
G1 X104.9572 Y62.5229
G1 X104.9596 Y62.527
G1 X104.9625 Y62.5308 Z-0.7493
G1 X104.9657 Y62.5343
G1 X104.9692 Y62.5375
G1 X104.973 Y62.5404
G1 X104.9771 Y62.5428 Z-0.7494
G1 X104.9814 Y62.5449
G1 X104.9859 Y62.5465
G1 X104.9905 Y62.5476
G1 X104.9952 Y62.5483 Z-0.7495
G1 X105.0 Y62.5486
G1 X105.0048 Y62.5483
G1 X105.0095 Y62.5476
G1 X105.0141 Y62.5465
G1 X105.0186 Y62.5449 Z-0.7496
G1 X105.0229 Y62.5428
G1 X105.027 Y62.5404
G1 X105.0308 Y62.5375
G1 X105.0343 Y62.5343 Z-0.7497
G1 X105.0375 Y62.5308
G1 X105.0404 Y62.527
G1 X105.0428 Y62.5229
G1 X105.0449 Y62.5186 Z-0.7498
G1 X105.0465 Y62.5141
G1 X105.0476 Y62.5095
G1 X105.0483 Y62.5048
G1 X105.05 Y62.4705 Z-0.75
G1 Y32.5295 Z-0.8989
G1 X105.0483 Y32.4952 Z-0.8991
G1 X105.0476 Y32.4905
G1 X105.0465 Y32.4859 Z-0.8992
G1 X105.0449 Y32.4814
G1 X105.0428 Y32.4771
G1 X105.0404 Y32.473
G1 X105.0375 Y32.4692 Z-0.8993
G1 X105.0343 Y32.4657
G1 X105.0308 Y32.4625
G1 X105.027 Y32.4596
G1 X105.0229 Y32.4572 Z-0.8994
G1 X105.0186 Y32.4551
G1 X105.0141 Y32.4535
G1 X105.0095 Y32.4524
G1 X105.0048 Y32.4517 Z-0.8995
G1 X105.0 Y32.4514
G1 X104.9952 Y32.4517
G1 X104.9905 Y32.4524
G1 X104.9859 Y32.4535
G1 X104.9814 Y32.4551 Z-0.8996
G1 X104.9771 Y32.4572
G1 X104.973 Y32.4596
G1 X104.9692 Y32.4625
G1 X104.9657 Y32.4657 Z-0.8997
G1 X104.9625 Y32.4692
G1 X104.9596 Y32.473
G1 X104.9572 Y32.4771
G1 X104.9551 Y32.4814 Z-0.8998
G1 X104.9535 Y32.4859
G1 X104.9524 Y32.4905
G1 X104.9517 Y32.4952
G1 X104.95 Y32.5295 Z-0.9
G1 Y62.4705 Z-1.0489
G1 X104.9517 Y62.5048 Z-1.0491
G1 X104.9524 Y62.5095
G1 X104.9535 Y62.5141 Z-1.0492
G1 X104.9551 Y62.5186
G1 X104.9572 Y62.5229
G1 X104.9596 Y62.527
G1 X104.9625 Y62.5308 Z-1.0493
G1 X104.9657 Y62.5343
G1 X104.9692 Y62.5375
G1 X104.973 Y62.5404
G1 X104.9771 Y62.5428 Z-1.0494
G1 X104.9814 Y62.5449
G1 X104.9859 Y62.5465
G1 X104.9905 Y62.5476
G1 X104.9952 Y62.5483 Z-1.0495
G1 X105.0 Y62.5486
G1 X105.0048 Y62.5483
G1 X105.0095 Y62.5476
G1 X105.0141 Y62.5465
G1 X105.0186 Y62.5449 Z-1.0496
G1 X105.0229 Y62.5428
G1 X105.027 Y62.5404
G1 X105.0308 Y62.5375
G1 X105.0343 Y62.5343 Z-1.0497
G1 X105.0375 Y62.5308
G1 X105.0404 Y62.527
G1 X105.0428 Y62.5229
G1 X105.0449 Y62.5186 Z-1.0498
G1 X105.0465 Y62.5141
G1 X105.0476 Y62.5095
G1 X105.0483 Y62.5048
G1 X105.05 Y62.4705 Z-1.05
G1 Y32.5295 Z-1.1989
G1 X105.0483 Y32.4952 Z-1.1991
G1 X105.0476 Y32.4905
G1 X105.0465 Y32.4859 Z-1.1992
G1 X105.0449 Y32.4814
G1 X105.0428 Y32.4771
G1 X105.0404 Y32.473
G1 X105.0375 Y32.4692 Z-1.1993
G1 X105.0343 Y32.4657
G1 X105.0308 Y32.4625
G1 X105.027 Y32.4596
G1 X105.0229 Y32.4572 Z-1.1994
G1 X105.0186 Y32.4551
G1 X105.0141 Y32.4535
G1 X105.0095 Y32.4524
G1 X105.0048 Y32.4517 Z-1.1995
G1 X105.0 Y32.4514
G1 X104.9952 Y32.4517
G1 X104.9905 Y32.4524
G1 X104.9859 Y32.4535
G1 X104.9814 Y32.4551 Z-1.1996
G1 X104.9771 Y32.4572
G1 X104.973 Y32.4596
G1 X104.9692 Y32.4625
G1 X104.9657 Y32.4657 Z-1.1997
G1 X104.9625 Y32.4692
G1 X104.9596 Y32.473
G1 X104.9572 Y32.4771
G1 X104.9551 Y32.4814 Z-1.1998
G1 X104.9535 Y32.4859
G1 X104.9524 Y32.4905
G1 X104.9517 Y32.4952
G1 X104.95 Y32.5295 Z-1.2
G1 Y62.4705 Z-1.3489
G1 X104.9517 Y62.5048 Z-1.3491
G1 X104.9524 Y62.5095
G1 X104.9535 Y62.5141 Z-1.3492
G1 X104.9551 Y62.5186
G1 X104.9572 Y62.5229
G1 X104.9596 Y62.527
G1 X104.9625 Y62.5308 Z-1.3493
G1 X104.9657 Y62.5343
G1 X104.9692 Y62.5375
G1 X104.973 Y62.5404
G1 X104.9771 Y62.5428 Z-1.3494
G1 X104.9814 Y62.5449
G1 X104.9859 Y62.5465
G1 X104.9905 Y62.5476
G1 X104.9952 Y62.5483 Z-1.3495
G1 X105.0 Y62.5486
G1 X105.0048 Y62.5483
G1 X105.0095 Y62.5476
G1 X105.0141 Y62.5465
G1 X105.0186 Y62.5449 Z-1.3496
G1 X105.0229 Y62.5428
G1 X105.027 Y62.5404
G1 X105.0308 Y62.5375
G1 X105.0343 Y62.5343 Z-1.3497
G1 X105.0375 Y62.5308
G1 X105.0404 Y62.527
G1 X105.0428 Y62.5229
G1 X105.0449 Y62.5186 Z-1.3498
G1 X105.0465 Y62.5141
G1 X105.0476 Y62.5095
G1 X105.0483 Y62.5048
G1 X105.05 Y62.4705 Z-1.35
G1 Y32.5295 Z-1.4989
G1 X105.0483 Y32.4952 Z-1.4991
G1 X105.0476 Y32.4905
G1 X105.0465 Y32.4859 Z-1.4992
G1 X105.0449 Y32.4814
G1 X105.0428 Y32.4771
G1 X105.0404 Y32.473
G1 X105.0375 Y32.4692 Z-1.4993
G1 X105.0343 Y32.4657
G1 X105.0308 Y32.4625
G1 X105.027 Y32.4596
G1 X105.0229 Y32.4572 Z-1.4994
G1 X105.0186 Y32.4551
G1 X105.0141 Y32.4535
