( Made using CamBam - http://www.cambam.co.uk )
( ssc_plexi_ConnectorMatrix 2/21/2021 7:18:22 PM )
( T2 : 2.0 )
( CUTVIEWER )
( FROM/0,0,5 )
( Select dummy tool to avoid warnings )
( TOOL/MILL,1,0,20.0,0 )
( STOCK/BLOCK,50.0,35.0,4.0,0.0,0.0,4.0 )
G21 G90 G91.1 G64 G40
G0 Z3.0
( T2 : 2.0 )
( Tool Taper coming soon )
( TOOL/MILL,2.0,0.0,0.0,0 )
T2 M6
( attachHoles )
G17
M3 S1000
G0 X6.5058 Y6.3376
G0 Z1.0
G1 F300.0 Z0.0
G1 F800.0 X6.4896 Y6.3472 Z-0.003
G1 X6.474 Y6.3578 Z-0.006
G1 X6.4592 Y6.3693 Z-0.009
G1 X6.445 Y6.3817 Z-0.012
G1 X6.4317 Y6.395 Z-0.015
G1 X6.4193 Y6.4091 Z-0.018
G1 X6.4078 Y6.424 Z-0.021
G1 X6.3972 Y6.4396 Z-0.024
G1 X6.3876 Y6.4558 Z-0.027
G1 X6.3791 Y6.4725 Z-0.03
G1 X6.3716 Y6.4898 Z-0.033
G1 X6.3652 Y6.5075 Z-0.036
G1 X6.36 Y6.5255 Z-0.039
G1 X6.3559 Y6.5439 Z-0.042
G1 X6.353 Y6.5625 Z-0.045
G1 X6.3512 Y6.5812 Z-0.048
G1 X6.3506 Y6.6 Z-0.051
G1 X6.3512 Y6.6188 Z-0.054
G1 X6.353 Y6.6375 Z-0.057
G1 X6.3559 Y6.6561 Z-0.06
G1 X6.36 Y6.6745 Z-0.063
G1 X6.3652 Y6.6925 Z-0.066
G1 X6.3716 Y6.7102 Z-0.069
G1 X6.3791 Y6.7275 Z-0.072
G1 X6.3876 Y6.7442 Z-0.075
G1 X6.3972 Y6.7604 Z-0.078
G1 X6.4078 Y6.776 Z-0.081
G1 X6.4193 Y6.7909 Z-0.084
G1 X6.4317 Y6.805 Z-0.087
G1 X6.445 Y6.8183 Z-0.09
G1 X6.4591 Y6.8307 Z-0.093
G1 X6.474 Y6.8422 Z-0.096
G1 X6.4896 Y6.8528 Z-0.099
G1 X6.5058 Y6.8624 Z-0.102
G1 X6.5225 Y6.8709 Z-0.105
G1 X6.5398 Y6.8784 Z-0.108
G1 X6.5575 Y6.8848 Z-0.111
G1 X6.5755 Y6.89 Z-0.114
G1 X6.5939 Y6.8941 Z-0.117
G1 X6.6125 Y6.897 Z-0.12
G1 X6.6312 Y6.8988 Z-0.123
G1 X6.65 Y6.8994 Z-0.126
G1 X6.6688 Y6.8988 Z-0.129
G1 X6.6875 Y6.897 Z-0.132
G1 X6.7061 Y6.8941 Z-0.135
G1 X6.7245 Y6.89 Z-0.138
G1 X6.7425 Y6.8848 Z-0.141
G1 X6.7602 Y6.8784 Z-0.144
G1 X6.7775 Y6.8709 Z-0.147
G1 X6.7942 Y6.8624 Z-0.15
G1 X6.8104 Y6.8528 Z-0.153
G1 X6.826 Y6.8422 Z-0.156
G1 X6.8408 Y6.8307 Z-0.159
G1 X6.855 Y6.8183 Z-0.162
G1 X6.8683 Y6.805 Z-0.165
G1 X6.8807 Y6.7908 Z-0.168
G1 X6.8922 Y6.776 Z-0.171
G1 X6.9028 Y6.7604 Z-0.174
G1 X6.9124 Y6.7442 Z-0.177
G1 X6.9209 Y6.7275 Z-0.18
G1 X6.9284 Y6.7102 Z-0.183
G1 X6.9348 Y6.6925 Z-0.186
G1 X6.94 Y6.6745 Z-0.189
G1 X6.9441 Y6.6561 Z-0.192
G1 X6.947 Y6.6375 Z-0.195
G1 X6.9488 Y6.6188 Z-0.198
G1 X6.9494 Y6.6 Z-0.201
G1 X6.9488 Y6.5812 Z-0.204
G1 X6.947 Y6.5625 Z-0.207
G1 X6.9441 Y6.5439 Z-0.21
G1 X6.94 Y6.5255 Z-0.213
G1 X6.9348 Y6.5075 Z-0.216
G1 X6.9284 Y6.4898 Z-0.219
G1 X6.9209 Y6.4725 Z-0.222
G1 X6.9124 Y6.4558 Z-0.225
G1 X6.9028 Y6.4396 Z-0.228
G1 X6.8922 Y6.424 Z-0.231
G1 X6.8807 Y6.4092 Z-0.234
G1 X6.8683 Y6.395 Z-0.237
G1 X6.855 Y6.3817 Z-0.24
G1 X6.8408 Y6.3693 Z-0.243
G1 X6.826 Y6.3578 Z-0.246
G1 X6.8104 Y6.3472 Z-0.249
G1 X6.7942 Y6.3376 Z-0.252
G1 X6.7775 Y6.3291 Z-0.255
G1 X6.7602 Y6.3216 Z-0.258
G1 X6.7425 Y6.3152 Z-0.261
G1 X6.7245 Y6.31 Z-0.264
G1 X6.7061 Y6.3059 Z-0.267
G1 X6.6875 Y6.303 Z-0.27
G1 X6.6688 Y6.3012 Z-0.273
G1 X6.65 Y6.3006 Z-0.276
G1 X6.6312 Y6.3012 Z-0.279
G1 X6.6125 Y6.303 Z-0.282
G1 X6.5939 Y6.3059 Z-0.285
G1 X6.5755 Y6.31 Z-0.288
G1 X6.5575 Y6.3152 Z-0.291
G1 X6.5398 Y6.3216 Z-0.294
G1 X6.5225 Y6.3291 Z-0.297
G1 X6.5058 Y6.3376 Z-0.3
G1 X6.4896 Y6.3472 Z-0.303
G1 X6.474 Y6.3578 Z-0.306
G1 X6.4592 Y6.3693 Z-0.309
G1 X6.445 Y6.3817 Z-0.312
G1 X6.4317 Y6.395 Z-0.315
G1 X6.4193 Y6.4091 Z-0.318
G1 X6.4078 Y6.424 Z-0.321
G1 X6.3972 Y6.4396 Z-0.324
G1 X6.3876 Y6.4558 Z-0.327
G1 X6.3791 Y6.4725 Z-0.33
G1 X6.3716 Y6.4898 Z-0.333
G1 X6.3652 Y6.5075 Z-0.336
G1 X6.36 Y6.5255 Z-0.339
G1 X6.3559 Y6.5439 Z-0.342
G1 X6.353 Y6.5625 Z-0.345
G1 X6.3512 Y6.5812 Z-0.348
G1 X6.3506 Y6.6 Z-0.351
G1 X6.3512 Y6.6188 Z-0.354
G1 X6.353 Y6.6375 Z-0.357
G1 X6.3559 Y6.6561 Z-0.36
G1 X6.36 Y6.6745 Z-0.363
G1 X6.3652 Y6.6925 Z-0.366
G1 X6.3716 Y6.7102 Z-0.369
G1 X6.3791 Y6.7275 Z-0.372
G1 X6.3876 Y6.7442 Z-0.375
G1 X6.3972 Y6.7604 Z-0.378
G1 X6.4078 Y6.776 Z-0.381
G1 X6.4193 Y6.7909 Z-0.384
G1 X6.4317 Y6.805 Z-0.387
G1 X6.445 Y6.8183 Z-0.39
G1 X6.4591 Y6.8307 Z-0.393
G1 X6.474 Y6.8422 Z-0.396
G1 X6.4896 Y6.8528 Z-0.399
G1 X6.5058 Y6.8624 Z-0.402
G1 X6.5225 Y6.8709 Z-0.405
G1 X6.5398 Y6.8784 Z-0.408
G1 X6.5575 Y6.8848 Z-0.411
G1 X6.5755 Y6.89 Z-0.414
G1 X6.5939 Y6.8941 Z-0.417
G1 X6.6125 Y6.897 Z-0.42
G1 X6.6312 Y6.8988 Z-0.423
G1 X6.65 Y6.8994 Z-0.426
G1 X6.6688 Y6.8988 Z-0.429
G1 X6.6875 Y6.897 Z-0.432
G1 X6.7061 Y6.8941 Z-0.435
G1 X6.7245 Y6.89 Z-0.438
G1 X6.7425 Y6.8848 Z-0.441
G1 X6.7602 Y6.8784 Z-0.444
G1 X6.7775 Y6.8709 Z-0.447
G1 X6.7942 Y6.8624 Z-0.45
G1 X6.8104 Y6.8528 Z-0.453
G1 X6.826 Y6.8422 Z-0.456
G1 X6.8408 Y6.8307 Z-0.459
G1 X6.855 Y6.8183 Z-0.462
G1 X6.8683 Y6.805 Z-0.465
G1 X6.8807 Y6.7908 Z-0.468
G1 X6.8922 Y6.776 Z-0.471
G1 X6.9028 Y6.7604 Z-0.474
G1 X6.9124 Y6.7442 Z-0.477
G1 X6.9209 Y6.7275 Z-0.48
G1 X6.9284 Y6.7102 Z-0.483
G1 X6.9348 Y6.6925 Z-0.486
G1 X6.94 Y6.6745 Z-0.489
G1 X6.9441 Y6.6561 Z-0.492
G1 X6.947 Y6.6375 Z-0.495
G1 X6.9488 Y6.6188 Z-0.498
G1 X6.9494 Y6.6 Z-0.501
G1 X6.9488 Y6.5812 Z-0.504
G1 X6.947 Y6.5625 Z-0.507
G1 X6.9441 Y6.5439 Z-0.51
G1 X6.94 Y6.5255 Z-0.513
G1 X6.9348 Y6.5075 Z-0.516
G1 X6.9284 Y6.4898 Z-0.519
G1 X6.9209 Y6.4725 Z-0.522
G1 X6.9124 Y6.4558 Z-0.525
G1 X6.9028 Y6.4396 Z-0.528
G1 X6.8922 Y6.424 Z-0.531
G1 X6.8807 Y6.4092 Z-0.534
G1 X6.8683 Y6.395 Z-0.537
G1 X6.855 Y6.3817 Z-0.54
G1 X6.8408 Y6.3693 Z-0.543
G1 X6.826 Y6.3578 Z-0.546
G1 X6.8104 Y6.3472 Z-0.549
G1 X6.7942 Y6.3376 Z-0.552
G1 X6.7775 Y6.3291 Z-0.555
G1 X6.7602 Y6.3216 Z-0.558
G1 X6.7425 Y6.3152 Z-0.561
G1 X6.7245 Y6.31 Z-0.564
G1 X6.7061 Y6.3059 Z-0.567
G1 X6.6875 Y6.303 Z-0.57
G1 X6.6688 Y6.3012 Z-0.573
G1 X6.65 Y6.3006 Z-0.576
G1 X6.6312 Y6.3012 Z-0.579
G1 X6.6125 Y6.303 Z-0.582
G1 X6.5939 Y6.3059 Z-0.585
G1 X6.5755 Y6.31 Z-0.588
G1 X6.5575 Y6.3152 Z-0.591
G1 X6.5398 Y6.3216 Z-0.594
G1 X6.5225 Y6.3291 Z-0.597
G1 X6.5058 Y6.3376 Z-0.6
G1 X6.4896 Y6.3472 Z-0.603
G1 X6.474 Y6.3578 Z-0.606
G1 X6.4592 Y6.3693 Z-0.609
G1 X6.445 Y6.3817 Z-0.612
G1 X6.4317 Y6.395 Z-0.615
G1 X6.4193 Y6.4091 Z-0.618
G1 X6.4078 Y6.424 Z-0.621
G1 X6.3972 Y6.4396 Z-0.624
G1 X6.3876 Y6.4558 Z-0.627
G1 X6.3791 Y6.4725 Z-0.63
G1 X6.3716 Y6.4898 Z-0.633
G1 X6.3652 Y6.5075 Z-0.636
G1 X6.36 Y6.5255 Z-0.639
G1 X6.3559 Y6.5439 Z-0.642
G1 X6.353 Y6.5625 Z-0.645
G1 X6.3512 Y6.5812 Z-0.648
G1 X6.3506 Y6.6 Z-0.651
G1 X6.3512 Y6.6188 Z-0.654
G1 X6.353 Y6.6375 Z-0.657
G1 X6.3559 Y6.6561 Z-0.66
G1 X6.36 Y6.6745 Z-0.663
G1 X6.3652 Y6.6925 Z-0.666
G1 X6.3716 Y6.7102 Z-0.669
G1 X6.3791 Y6.7275 Z-0.672
G1 X6.3876 Y6.7442 Z-0.675
G1 X6.3972 Y6.7604 Z-0.678
G1 X6.4078 Y6.776 Z-0.681
G1 X6.4193 Y6.7909 Z-0.684
G1 X6.4317 Y6.805 Z-0.687
G1 X6.445 Y6.8183 Z-0.69
G1 X6.4591 Y6.8307 Z-0.693
G1 X6.474 Y6.8422 Z-0.696
G1 X6.4896 Y6.8528 Z-0.699
G1 X6.5058 Y6.8624 Z-0.702
G1 X6.5225 Y6.8709 Z-0.705
G1 X6.5398 Y6.8784 Z-0.708
G1 X6.5575 Y6.8848 Z-0.711
G1 X6.5755 Y6.89 Z-0.714
G1 X6.5939 Y6.8941 Z-0.717
G1 X6.6125 Y6.897 Z-0.72
G1 X6.6312 Y6.8988 Z-0.723
G1 X6.65 Y6.8994 Z-0.726
G1 X6.6688 Y6.8988 Z-0.729
G1 X6.6875 Y6.897 Z-0.732
G1 X6.7061 Y6.8941 Z-0.735
G1 X6.7245 Y6.89 Z-0.738
G1 X6.7425 Y6.8848 Z-0.741
G1 X6.7602 Y6.8784 Z-0.744
G1 X6.7775 Y6.8709 Z-0.747
G1 X6.7942 Y6.8624 Z-0.75
G1 X6.8104 Y6.8528 Z-0.753
G1 X6.826 Y6.8422 Z-0.756
G1 X6.8408 Y6.8307 Z-0.759
G1 X6.855 Y6.8183 Z-0.762
G1 X6.8683 Y6.805 Z-0.765
G1 X6.8807 Y6.7908 Z-0.768
G1 X6.8922 Y6.776 Z-0.771
G1 X6.9028 Y6.7604 Z-0.774
G1 X6.9124 Y6.7442 Z-0.777
G1 X6.9209 Y6.7275 Z-0.78
G1 X6.9284 Y6.7102 Z-0.783
G1 X6.9348 Y6.6925 Z-0.786
G1 X6.94 Y6.6745 Z-0.789
G1 X6.9441 Y6.6561 Z-0.792
G1 X6.947 Y6.6375 Z-0.795
G1 X6.9488 Y6.6188 Z-0.798
G1 X6.9494 Y6.6 Z-0.801
G1 X6.9488 Y6.5812 Z-0.804
G1 X6.947 Y6.5625 Z-0.807
G1 X6.9441 Y6.5439 Z-0.81
G1 X6.94 Y6.5255 Z-0.813
G1 X6.9348 Y6.5075 Z-0.816
G1 X6.9284 Y6.4898 Z-0.819
G1 X6.9209 Y6.4725 Z-0.822
G1 X6.9124 Y6.4558 Z-0.825
G1 X6.9028 Y6.4396 Z-0.828
G1 X6.8922 Y6.424 Z-0.831
G1 X6.8807 Y6.4092 Z-0.834
G1 X6.8683 Y6.395 Z-0.837
G1 X6.855 Y6.3817 Z-0.84
G1 X6.8408 Y6.3693 Z-0.843
G1 X6.826 Y6.3578 Z-0.846
G1 X6.8104 Y6.3472 Z-0.849
G1 X6.7942 Y6.3376 Z-0.852
G1 X6.7775 Y6.3291 Z-0.855
G1 X6.7602 Y6.3216 Z-0.858
G1 X6.7425 Y6.3152 Z-0.861
G1 X6.7245 Y6.31 Z-0.864
G1 X6.7061 Y6.3059 Z-0.867
G1 X6.6875 Y6.303 Z-0.87
G1 X6.6688 Y6.3012 Z-0.873
G1 X6.65 Y6.3006 Z-0.876
G1 X6.6312 Y6.3012 Z-0.879
G1 X6.6125 Y6.303 Z-0.882
G1 X6.5939 Y6.3059 Z-0.885
G1 X6.5755 Y6.31 Z-0.888
G1 X6.5575 Y6.3152 Z-0.891
G1 X6.5398 Y6.3216 Z-0.894
G1 X6.5225 Y6.3291 Z-0.897
G1 X6.5058 Y6.3376 Z-0.9
G1 X6.4896 Y6.3472 Z-0.903
G1 X6.474 Y6.3578 Z-0.906
G1 X6.4592 Y6.3693 Z-0.909
G1 X6.445 Y6.3817 Z-0.912
G1 X6.4317 Y6.395 Z-0.915
G1 X6.4193 Y6.4091 Z-0.918
G1 X6.4078 Y6.424 Z-0.921
G1 X6.3972 Y6.4396 Z-0.924
G1 X6.3876 Y6.4558 Z-0.927
G1 X6.3791 Y6.4725 Z-0.93
G1 X6.3716 Y6.4898 Z-0.933
G1 X6.3652 Y6.5075 Z-0.936
G1 X6.36 Y6.5255 Z-0.939
G1 X6.3559 Y6.5439 Z-0.942
G1 X6.353 Y6.5625 Z-0.945
G1 X6.3512 Y6.5812 Z-0.948
G1 X6.3506 Y6.6 Z-0.951
G1 X6.3512 Y6.6188 Z-0.954
G1 X6.353 Y6.6375 Z-0.957
G1 X6.3559 Y6.6561 Z-0.96
G1 X6.36 Y6.6745 Z-0.963
G1 X6.3652 Y6.6925 Z-0.966
G1 X6.3716 Y6.7102 Z-0.969
G1 X6.3791 Y6.7275 Z-0.972
G1 X6.3876 Y6.7442 Z-0.975
G1 X6.3972 Y6.7604 Z-0.978
G1 X6.4078 Y6.776 Z-0.981
G1 X6.4193 Y6.7909 Z-0.984
G1 X6.4317 Y6.805 Z-0.987
G1 X6.445 Y6.8183 Z-0.99
G1 X6.4591 Y6.8307 Z-0.993
G1 X6.474 Y6.8422 Z-0.996
G1 X6.4896 Y6.8528 Z-0.999
G1 X6.5058 Y6.8624 Z-1.002
G1 X6.5225 Y6.8709 Z-1.005
G1 X6.5398 Y6.8784 Z-1.008
G1 X6.5575 Y6.8848 Z-1.011
G1 X6.5755 Y6.89 Z-1.014
G1 X6.5939 Y6.8941 Z-1.017
G1 X6.6125 Y6.897 Z-1.02
G1 X6.6312 Y6.8988 Z-1.023
G1 X6.65 Y6.8994 Z-1.026
G1 X6.6688 Y6.8988 Z-1.029
G1 X6.6875 Y6.897 Z-1.032
G1 X6.7061 Y6.8941 Z-1.035
G1 X6.7245 Y6.89 Z-1.038
G1 X6.7425 Y6.8848 Z-1.041
G1 X6.7602 Y6.8784 Z-1.044
G1 X6.7775 Y6.8709 Z-1.047
G1 X6.7942 Y6.8624 Z-1.05
G1 X6.8104 Y6.8528 Z-1.053
G1 X6.826 Y6.8422 Z-1.056
G1 X6.8408 Y6.8307 Z-1.059
G1 X6.855 Y6.8183 Z-1.062
G1 X6.8683 Y6.805 Z-1.065
G1 X6.8807 Y6.7908 Z-1.068
G1 X6.8922 Y6.776 Z-1.071
G1 X6.9028 Y6.7604 Z-1.074
G1 X6.9124 Y6.7442 Z-1.077
G1 X6.9209 Y6.7275 Z-1.08
G1 X6.9284 Y6.7102 Z-1.083
G1 X6.9348 Y6.6925 Z-1.086
G1 X6.94 Y6.6745 Z-1.089
G1 X6.9441 Y6.6561 Z-1.092
G1 X6.947 Y6.6375 Z-1.095
G1 X6.9488 Y6.6188 Z-1.098
G1 X6.9494 Y6.6 Z-1.101
G1 X6.9488 Y6.5812 Z-1.104
G1 X6.947 Y6.5625 Z-1.107
G1 X6.9441 Y6.5439 Z-1.11
G1 X6.94 Y6.5255 Z-1.113
G1 X6.9348 Y6.5075 Z-1.116
G1 X6.9284 Y6.4898 Z-1.119
G1 X6.9209 Y6.4725 Z-1.122
G1 X6.9124 Y6.4558 Z-1.125
G1 X6.9028 Y6.4396 Z-1.128
G1 X6.8922 Y6.424 Z-1.131
G1 X6.8807 Y6.4092 Z-1.134
G1 X6.8683 Y6.395 Z-1.137
G1 X6.855 Y6.3817 Z-1.14
G1 X6.8408 Y6.3693 Z-1.143
G1 X6.826 Y6.3578 Z-1.146
G1 X6.8104 Y6.3472 Z-1.149
G1 X6.7942 Y6.3376 Z-1.152
G1 X6.7775 Y6.3291 Z-1.155
G1 X6.7602 Y6.3216 Z-1.158
G1 X6.7425 Y6.3152 Z-1.161
G1 X6.7245 Y6.31 Z-1.164
G1 X6.7061 Y6.3059 Z-1.167
G1 X6.6875 Y6.303 Z-1.17
G1 X6.6688 Y6.3012 Z-1.173
G1 X6.65 Y6.3006 Z-1.176
G1 X6.6312 Y6.3012 Z-1.179
G1 X6.6125 Y6.303 Z-1.182
G1 X6.5939 Y6.3059 Z-1.185
G1 X6.5755 Y6.31 Z-1.188
G1 X6.5575 Y6.3152 Z-1.191
G1 X6.5398 Y6.3216 Z-1.194
G1 X6.5225 Y6.3291 Z-1.197
G1 X6.5058 Y6.3376 Z-1.2
G1 X6.4896 Y6.3472 Z-1.203
G1 X6.474 Y6.3578 Z-1.206
G1 X6.4592 Y6.3693 Z-1.209
G1 X6.445 Y6.3817 Z-1.212
G1 X6.4317 Y6.395 Z-1.215
G1 X6.4193 Y6.4091 Z-1.218
G1 X6.4078 Y6.424 Z-1.221
G1 X6.3972 Y6.4396 Z-1.224
G1 X6.3876 Y6.4558 Z-1.227
G1 X6.3791 Y6.4725 Z-1.23
G1 X6.3716 Y6.4898 Z-1.233
G1 X6.3652 Y6.5075 Z-1.236
G1 X6.36 Y6.5255 Z-1.239
G1 X6.3559 Y6.5439 Z-1.242
G1 X6.353 Y6.5625 Z-1.245
G1 X6.3512 Y6.5812 Z-1.248
G1 X6.3506 Y6.6 Z-1.251
G1 X6.3512 Y6.6188 Z-1.254
G1 X6.353 Y6.6375 Z-1.257
G1 X6.3559 Y6.6561 Z-1.26
G1 X6.36 Y6.6745 Z-1.263
G1 X6.3652 Y6.6925 Z-1.266
G1 X6.3716 Y6.7102 Z-1.269
G1 X6.3791 Y6.7275 Z-1.272
G1 X6.3876 Y6.7442 Z-1.275
G1 X6.3972 Y6.7604 Z-1.278
G1 X6.4078 Y6.776 Z-1.281
G1 X6.4193 Y6.7909 Z-1.284
G1 X6.4317 Y6.805 Z-1.287
G1 X6.445 Y6.8183 Z-1.29
G1 X6.4591 Y6.8307 Z-1.293
G1 X6.474 Y6.8422 Z-1.296
G1 X6.4896 Y6.8528 Z-1.299
G1 X6.5058 Y6.8624 Z-1.302
G1 X6.5225 Y6.8709 Z-1.305
G1 X6.5398 Y6.8784 Z-1.308
G1 X6.5575 Y6.8848 Z-1.311
G1 X6.5755 Y6.89 Z-1.314
G1 X6.5939 Y6.8941 Z-1.317
G1 X6.6125 Y6.897 Z-1.32
G1 X6.6312 Y6.8988 Z-1.323
G1 X6.65 Y6.8994 Z-1.326
G1 X6.6688 Y6.8988 Z-1.329
G1 X6.6875 Y6.897 Z-1.332
G1 X6.7061 Y6.8941 Z-1.335
G1 X6.7245 Y6.89 Z-1.338
G1 X6.7425 Y6.8848 Z-1.341
G1 X6.7602 Y6.8784 Z-1.344
G1 X6.7775 Y6.8709 Z-1.347
G1 X6.7942 Y6.8624 Z-1.35
G1 X6.8104 Y6.8528 Z-1.353
G1 X6.826 Y6.8422 Z-1.356
G1 X6.8408 Y6.8307 Z-1.359
G1 X6.855 Y6.8183 Z-1.362
G1 X6.8683 Y6.805 Z-1.365
G1 X6.8807 Y6.7908 Z-1.368
G1 X6.8922 Y6.776 Z-1.371
G1 X6.9028 Y6.7604 Z-1.374
G1 X6.9124 Y6.7442 Z-1.377
G1 X6.9209 Y6.7275 Z-1.38
G1 X6.9284 Y6.7102 Z-1.383
G1 X6.9348 Y6.6925 Z-1.386
G1 X6.94 Y6.6745 Z-1.389
G1 X6.9441 Y6.6561 Z-1.392
G1 X6.947 Y6.6375 Z-1.395
G1 X6.9488 Y6.6188 Z-1.398
G1 X6.9494 Y6.6 Z-1.401
G1 X6.9488 Y6.5812 Z-1.404
G1 X6.947 Y6.5625 Z-1.407
G1 X6.9441 Y6.5439 Z-1.41
G1 X6.94 Y6.5255 Z-1.413
G1 X6.9348 Y6.5075 Z-1.416
G1 X6.9284 Y6.4898 Z-1.419
G1 X6.9209 Y6.4725 Z-1.422
G1 X6.9124 Y6.4558 Z-1.425
G1 X6.9028 Y6.4396 Z-1.428
G1 X6.8922 Y6.424 Z-1.431
G1 X6.8807 Y6.4092 Z-1.434
G1 X6.8683 Y6.395 Z-1.437
G1 X6.855 Y6.3817 Z-1.44
G1 X6.8408 Y6.3693 Z-1.443
G1 X6.826 Y6.3578 Z-1.446
G1 X6.8104 Y6.3472 Z-1.449
G1 X6.7942 Y6.3376 Z-1.452
G1 X6.7775 Y6.3291 Z-1.455
G1 X6.7602 Y6.3216 Z-1.458
G1 X6.7425 Y6.3152 Z-1.461
G1 X6.7245 Y6.31 Z-1.464
G1 X6.7061 Y6.3059 Z-1.467
G1 X6.6875 Y6.303 Z-1.47
G1 X6.6688 Y6.3012 Z-1.473
G1 X6.65 Y6.3006 Z-1.476
G1 X6.6312 Y6.3012 Z-1.479
G1 X6.6125 Y6.303 Z-1.482
G1 X6.5939 Y6.3059 Z-1.485
G1 X6.5755 Y6.31 Z-1.488
G1 X6.5575 Y6.3152 Z-1.491
G1 X6.5398 Y6.3216 Z-1.494
G1 X6.5225 Y6.3291 Z-1.497
G1 X6.5058 Y6.3376 Z-1.5
G1 X6.4896 Y6.3472 Z-1.503
G1 X6.474 Y6.3578 Z-1.506
G1 X6.4592 Y6.3693 Z-1.509
G1 X6.445 Y6.3817 Z-1.512
G1 X6.4317 Y6.395 Z-1.515
G1 X6.4193 Y6.4091 Z-1.518
G1 X6.4078 Y6.424 Z-1.521
G1 X6.3972 Y6.4396 Z-1.524
G1 X6.3876 Y6.4558 Z-1.527
G1 X6.3791 Y6.4725 Z-1.53
G1 X6.3716 Y6.4898 Z-1.533
G1 X6.3652 Y6.5075 Z-1.536
G1 X6.36 Y6.5255 Z-1.539
G1 X6.3559 Y6.5439 Z-1.542
G1 X6.353 Y6.5625 Z-1.545
G1 X6.3512 Y6.5812 Z-1.548
G1 X6.3506 Y6.6 Z-1.551
G1 X6.3512 Y6.6188 Z-1.554
G1 X6.353 Y6.6375 Z-1.557
G1 X6.3559 Y6.6561 Z-1.56
G1 X6.36 Y6.6745 Z-1.563
G1 X6.3652 Y6.6925 Z-1.566
G1 X6.3716 Y6.7102 Z-1.569
G1 X6.3791 Y6.7275 Z-1.572
G1 X6.3876 Y6.7442 Z-1.575
G1 X6.3972 Y6.7604 Z-1.578
G1 X6.4078 Y6.776 Z-1.581
G1 X6.4193 Y6.7909 Z-1.584
G1 X6.4317 Y6.805 Z-1.587
G1 X6.445 Y6.8183 Z-1.59
G1 X6.4591 Y6.8307 Z-1.593
G1 X6.474 Y6.8422 Z-1.596
G1 X6.4896 Y6.8528 Z-1.599
G1 X6.5058 Y6.8624 Z-1.602
G1 X6.5225 Y6.8709 Z-1.605
G1 X6.5398 Y6.8784 Z-1.608
G1 X6.5575 Y6.8848 Z-1.611
G1 X6.5755 Y6.89 Z-1.614
G1 X6.5939 Y6.8941 Z-1.617
G1 X6.6125 Y6.897 Z-1.62
G1 X6.6312 Y6.8988 Z-1.623
G1 X6.65 Y6.8994 Z-1.626
G1 X6.6688 Y6.8988 Z-1.629
G1 X6.6875 Y6.897 Z-1.632
G1 X6.7061 Y6.8941 Z-1.635
G1 X6.7245 Y6.89 Z-1.638
G1 X6.7425 Y6.8848 Z-1.641
G1 X6.7602 Y6.8784 Z-1.644
G1 X6.7775 Y6.8709 Z-1.647
G1 X6.7942 Y6.8624 Z-1.65
G1 X6.8104 Y6.8528 Z-1.653
G1 X6.826 Y6.8422 Z-1.656
G1 X6.8408 Y6.8307 Z-1.659
G1 X6.855 Y6.8183 Z-1.662
G1 X6.8683 Y6.805 Z-1.665
G1 X6.8807 Y6.7908 Z-1.668
G1 X6.8922 Y6.776 Z-1.671
G1 X6.9028 Y6.7604 Z-1.674
G1 X6.9124 Y6.7442 Z-1.677
G1 X6.9209 Y6.7275 Z-1.68
G1 X6.9284 Y6.7102 Z-1.683
G1 X6.9348 Y6.6925 Z-1.686
G1 X6.94 Y6.6745 Z-1.689
G1 X6.9441 Y6.6561 Z-1.692
G1 X6.947 Y6.6375 Z-1.695
G1 X6.9488 Y6.6188 Z-1.698
G1 X6.9494 Y6.6 Z-1.701
G1 X6.9488 Y6.5812 Z-1.704
G1 X6.947 Y6.5625 Z-1.707
G1 X6.9441 Y6.5439 Z-1.71
G1 X6.94 Y6.5255 Z-1.713
G1 X6.9348 Y6.5075 Z-1.716
G1 X6.9284 Y6.4898 Z-1.719
G1 X6.9209 Y6.4725 Z-1.722
G1 X6.9124 Y6.4558 Z-1.725
G1 X6.9028 Y6.4396 Z-1.728
G1 X6.8922 Y6.424 Z-1.731
G1 X6.8807 Y6.4092 Z-1.734
G1 X6.8683 Y6.395 Z-1.737
G1 X6.855 Y6.3817 Z-1.74
G1 X6.8408 Y6.3693 Z-1.743
G1 X6.826 Y6.3578 Z-1.746
G1 X6.8104 Y6.3472 Z-1.749
G1 X6.7942 Y6.3376 Z-1.752
G1 X6.7775 Y6.3291 Z-1.755
G1 X6.7602 Y6.3216 Z-1.758
G1 X6.7425 Y6.3152 Z-1.761
G1 X6.7245 Y6.31 Z-1.764
G1 X6.7061 Y6.3059 Z-1.767
G1 X6.6875 Y6.303 Z-1.77
G1 X6.6688 Y6.3012 Z-1.773
G1 X6.65 Y6.3006 Z-1.776
G1 X6.6312 Y6.3012 Z-1.779
G1 X6.6125 Y6.303 Z-1.782
G1 X6.5939 Y6.3059 Z-1.785
G1 X6.5755 Y6.31 Z-1.788
G1 X6.5575 Y6.3152 Z-1.791
G1 X6.5398 Y6.3216 Z-1.794
G1 X6.5225 Y6.3291 Z-1.797
G1 X6.5058 Y6.3376 Z-1.8
G1 X6.4896 Y6.3472 Z-1.803
G1 X6.474 Y6.3578 Z-1.806
G1 X6.4592 Y6.3693 Z-1.809
G1 X6.445 Y6.3817 Z-1.812
G1 X6.4317 Y6.395 Z-1.815
G1 X6.4193 Y6.4091 Z-1.818
G1 X6.4078 Y6.424 Z-1.821
G1 X6.3972 Y6.4396 Z-1.824
G1 X6.3876 Y6.4558 Z-1.827
G1 X6.3791 Y6.4725 Z-1.83
G1 X6.3716 Y6.4898 Z-1.833
G1 X6.3652 Y6.5075 Z-1.836
G1 X6.36 Y6.5255 Z-1.839
G1 X6.3559 Y6.5439 Z-1.842
G1 X6.353 Y6.5625 Z-1.845
G1 X6.3512 Y6.5812 Z-1.848
G1 X6.3506 Y6.6 Z-1.851
G1 X6.3512 Y6.6188 Z-1.854
G1 X6.353 Y6.6375 Z-1.857
G1 X6.3559 Y6.6561 Z-1.86
G1 X6.36 Y6.6745 Z-1.863
G1 X6.3652 Y6.6925 Z-1.866
G1 X6.3716 Y6.7102 Z-1.869
G1 X6.3791 Y6.7275 Z-1.872
G1 X6.3876 Y6.7442 Z-1.875
G1 X6.3972 Y6.7604 Z-1.878
G1 X6.4078 Y6.776 Z-1.881
G1 X6.4193 Y6.7909 Z-1.884
G1 X6.4317 Y6.805 Z-1.887
G1 X6.445 Y6.8183 Z-1.89
G1 X6.4591 Y6.8307 Z-1.893
G1 X6.474 Y6.8422 Z-1.896
G1 X6.4896 Y6.8528 Z-1.899
G1 X6.5058 Y6.8624 Z-1.902
G1 X6.5225 Y6.8709 Z-1.905
G1 X6.5398 Y6.8784 Z-1.908
G1 X6.5575 Y6.8848 Z-1.911
G1 X6.5755 Y6.89 Z-1.914
G1 X6.5939 Y6.8941 Z-1.917
G1 X6.6125 Y6.897 Z-1.92
G1 X6.6312 Y6.8988 Z-1.923
G1 X6.65 Y6.8994 Z-1.926
G1 X6.6688 Y6.8988 Z-1.929
G1 X6.6875 Y6.897 Z-1.932
G1 X6.7061 Y6.8941 Z-1.935
G1 X6.7245 Y6.89 Z-1.938
G1 X6.7425 Y6.8848 Z-1.941
G1 X6.7602 Y6.8784 Z-1.944
G1 X6.7775 Y6.8709 Z-1.947
G1 X6.7942 Y6.8624 Z-1.95
G1 X6.8104 Y6.8528 Z-1.953
G1 X6.826 Y6.8422 Z-1.956
G1 X6.8408 Y6.8307 Z-1.959
G1 X6.855 Y6.8183 Z-1.962
G1 X6.8683 Y6.805 Z-1.965
G1 X6.8807 Y6.7908 Z-1.968
G1 X6.8922 Y6.776 Z-1.971
G1 X6.9028 Y6.7604 Z-1.974
G1 X6.9124 Y6.7442 Z-1.977
G1 X6.9209 Y6.7275 Z-1.98
G1 X6.9284 Y6.7102 Z-1.983
G1 X6.9348 Y6.6925 Z-1.986
G1 X6.94 Y6.6745 Z-1.989
G1 X6.9441 Y6.6561 Z-1.992
G1 X6.947 Y6.6375 Z-1.995
G1 X6.9488 Y6.6188 Z-1.998
G1 X6.9494 Y6.6 Z-2.001
G1 X6.9488 Y6.5812 Z-2.004
G1 X6.947 Y6.5625 Z-2.007
G1 X6.9441 Y6.5439 Z-2.01
G1 X6.94 Y6.5255 Z-2.013
G1 X6.9348 Y6.5075 Z-2.016
G1 X6.9284 Y6.4898 Z-2.019
G1 X6.9209 Y6.4725 Z-2.022
G1 X6.9124 Y6.4558 Z-2.025
G1 X6.9028 Y6.4396 Z-2.028
G1 X6.8922 Y6.424 Z-2.031
G1 X6.8807 Y6.4092 Z-2.034
G1 X6.8683 Y6.395 Z-2.037
G1 X6.855 Y6.3817 Z-2.04
G1 X6.8408 Y6.3693 Z-2.043
G1 X6.826 Y6.3578 Z-2.046
G1 X6.8104 Y6.3472 Z-2.049
G1 X6.7942 Y6.3376 Z-2.052
G1 X6.7775 Y6.3291 Z-2.055
G1 X6.7602 Y6.3216 Z-2.058
G1 X6.7425 Y6.3152 Z-2.061
G1 X6.7245 Y6.31 Z-2.064
G1 X6.7061 Y6.3059 Z-2.067
G1 X6.6875 Y6.303 Z-2.07
G1 X6.6688 Y6.3012 Z-2.073
G1 X6.65 Y6.3006 Z-2.076
G1 X6.6312 Y6.3012 Z-2.079
G1 X6.6125 Y6.303 Z-2.082
G1 X6.5939 Y6.3059 Z-2.085
G1 X6.5755 Y6.31 Z-2.088
G1 X6.5575 Y6.3152 Z-2.091
G1 X6.5398 Y6.3216 Z-2.094
G1 X6.5225 Y6.3291 Z-2.097
G1 X6.5058 Y6.3376 Z-2.1
G1 X6.4896 Y6.3472 Z-2.103
G1 X6.474 Y6.3578 Z-2.106
G1 X6.4592 Y6.3693 Z-2.109
G1 X6.445 Y6.3817 Z-2.112
G1 X6.4317 Y6.395 Z-2.115
G1 X6.4193 Y6.4091 Z-2.118
G1 X6.4078 Y6.424 Z-2.121
G1 X6.3972 Y6.4396 Z-2.124
G1 X6.3876 Y6.4558 Z-2.127
G1 X6.3791 Y6.4725 Z-2.13
G1 X6.3716 Y6.4898 Z-2.133
G1 X6.3652 Y6.5075 Z-2.136
G1 X6.36 Y6.5255 Z-2.139
G1 X6.3559 Y6.5439 Z-2.142
G1 X6.353 Y6.5625 Z-2.145
G1 X6.3512 Y6.5812 Z-2.148
G1 X6.3506 Y6.6 Z-2.151
G1 X6.3512 Y6.6188 Z-2.154
G1 X6.353 Y6.6375 Z-2.157
G1 X6.3559 Y6.6561 Z-2.16
G1 X6.36 Y6.6745 Z-2.163
G1 X6.3652 Y6.6925 Z-2.166
G1 X6.3716 Y6.7102 Z-2.169
G1 X6.3791 Y6.7275 Z-2.172
G1 X6.3876 Y6.7442 Z-2.175
G1 X6.3972 Y6.7604 Z-2.178
G1 X6.4078 Y6.776 Z-2.181
G1 X6.4193 Y6.7909 Z-2.184
G1 X6.4317 Y6.805 Z-2.187
G1 X6.445 Y6.8183 Z-2.19
G1 X6.4591 Y6.8307 Z-2.193
G1 X6.474 Y6.8422 Z-2.196
G1 X6.4896 Y6.8528 Z-2.199
G1 X6.5058 Y6.8624 Z-2.202
G1 X6.5225 Y6.8709 Z-2.205
G1 X6.5398 Y6.8784 Z-2.208
G1 X6.5575 Y6.8848 Z-2.211
G1 X6.5755 Y6.89 Z-2.214
G1 X6.5939 Y6.8941 Z-2.217
G1 X6.6125 Y6.897 Z-2.22
G1 X6.6312 Y6.8988 Z-2.223
G1 X6.65 Y6.8994 Z-2.226
G1 X6.6688 Y6.8988 Z-2.229
G1 X6.6875 Y6.897 Z-2.232
G1 X6.7061 Y6.8941 Z-2.235
G1 X6.7245 Y6.89 Z-2.238
G1 X6.7425 Y6.8848 Z-2.241
G1 X6.7602 Y6.8784 Z-2.244
G1 X6.7775 Y6.8709 Z-2.247
G1 X6.7942 Y6.8624 Z-2.25
G1 X6.8104 Y6.8528 Z-2.253
G1 X6.826 Y6.8422 Z-2.256
G1 X6.8408 Y6.8307 Z-2.259
G1 X6.855 Y6.8183 Z-2.262
G1 X6.8683 Y6.805 Z-2.265
G1 X6.8807 Y6.7908 Z-2.268
G1 X6.8922 Y6.776 Z-2.271
G1 X6.9028 Y6.7604 Z-2.274
G1 X6.9124 Y6.7442 Z-2.277
G1 X6.9209 Y6.7275 Z-2.28
G1 X6.9284 Y6.7102 Z-2.283
G1 X6.9348 Y6.6925 Z-2.286
G1 X6.94 Y6.6745 Z-2.289
G1 X6.9441 Y6.6561 Z-2.292
G1 X6.947 Y6.6375 Z-2.295
G1 X6.9488 Y6.6188 Z-2.298
G1 X6.9494 Y6.6 Z-2.301
G1 X6.9488 Y6.5812 Z-2.304
G1 X6.947 Y6.5625 Z-2.307
G1 X6.9441 Y6.5439 Z-2.31
G1 X6.94 Y6.5255 Z-2.313
G1 X6.9348 Y6.5075 Z-2.316
G1 X6.9284 Y6.4898 Z-2.319
G1 X6.9209 Y6.4725 Z-2.322
G1 X6.9124 Y6.4558 Z-2.325
G1 X6.9028 Y6.4396 Z-2.328
G1 X6.8922 Y6.424 Z-2.331
G1 X6.8807 Y6.4092 Z-2.334
G1 X6.8683 Y6.395 Z-2.337
G1 X6.855 Y6.3817 Z-2.34
G1 X6.8408 Y6.3693 Z-2.343
G1 X6.826 Y6.3578 Z-2.346
G1 X6.8104 Y6.3472 Z-2.349
G1 X6.7942 Y6.3376 Z-2.352
G1 X6.7775 Y6.3291 Z-2.355
G1 X6.7602 Y6.3216 Z-2.358
G1 X6.7425 Y6.3152 Z-2.361
G1 X6.7245 Y6.31 Z-2.364
G1 X6.7061 Y6.3059 Z-2.367
G1 X6.6875 Y6.303 Z-2.37
G1 X6.6688 Y6.3012 Z-2.373
G1 X6.65 Y6.3006 Z-2.376
G1 X6.6312 Y6.3012 Z-2.379
G1 X6.6125 Y6.303 Z-2.382
G1 X6.5939 Y6.3059 Z-2.385
G1 X6.5755 Y6.31 Z-2.388
G1 X6.5575 Y6.3152 Z-2.391
G1 X6.5398 Y6.3216 Z-2.394
G1 X6.5225 Y6.3291 Z-2.397
G1 X6.5058 Y6.3376 Z-2.4
G1 X6.4896 Y6.3472 Z-2.403
G1 X6.474 Y6.3578 Z-2.406
G1 X6.4592 Y6.3693 Z-2.409
G1 X6.445 Y6.3817 Z-2.412
G1 X6.4317 Y6.395 Z-2.415
G1 X6.4193 Y6.4091 Z-2.418
G1 X6.4078 Y6.424 Z-2.421
G1 X6.3972 Y6.4396 Z-2.424
G1 X6.3876 Y6.4558 Z-2.427
G1 X6.3791 Y6.4725 Z-2.43
G1 X6.3716 Y6.4898 Z-2.433
G1 X6.3652 Y6.5075 Z-2.436
G1 X6.36 Y6.5255 Z-2.439
G1 X6.3559 Y6.5439 Z-2.442
G1 X6.353 Y6.5625 Z-2.445
G1 X6.3512 Y6.5812 Z-2.448
G1 X6.3506 Y6.6 Z-2.451
G1 X6.3512 Y6.6188 Z-2.454
G1 X6.353 Y6.6375 Z-2.457
G1 X6.3559 Y6.6561 Z-2.46
G1 X6.36 Y6.6745 Z-2.463
G1 X6.3652 Y6.6925 Z-2.466
G1 X6.3716 Y6.7102 Z-2.469
G1 X6.3791 Y6.7275 Z-2.472
G1 X6.3876 Y6.7442 Z-2.475
G1 X6.3972 Y6.7604 Z-2.478
G1 X6.4078 Y6.776 Z-2.481
G1 X6.4193 Y6.7909 Z-2.484
G1 X6.4317 Y6.805 Z-2.487
G1 X6.445 Y6.8183 Z-2.49
G1 X6.4591 Y6.8307 Z-2.493
G1 X6.474 Y6.8422 Z-2.496
G1 X6.4896 Y6.8528 Z-2.499
G1 X6.5058 Y6.8624 Z-2.502
G1 X6.5225 Y6.8709 Z-2.505
G1 X6.5398 Y6.8784 Z-2.508
G1 X6.5575 Y6.8848 Z-2.511
G1 X6.5755 Y6.89 Z-2.514
G1 X6.5939 Y6.8941 Z-2.517
G1 X6.6125 Y6.897 Z-2.52
G1 X6.6312 Y6.8988 Z-2.523
G1 X6.65 Y6.8994 Z-2.526
G1 X6.6688 Y6.8988 Z-2.529
G1 X6.6875 Y6.897 Z-2.532
G1 X6.7061 Y6.8941 Z-2.535
G1 X6.7245 Y6.89 Z-2.538
G1 X6.7425 Y6.8848 Z-2.541
G1 X6.7602 Y6.8784 Z-2.544
G1 X6.7775 Y6.8709 Z-2.547
G1 X6.7942 Y6.8624 Z-2.55
G1 X6.8104 Y6.8528 Z-2.553
G1 X6.826 Y6.8422 Z-2.556
G1 X6.8408 Y6.8307 Z-2.559
G1 X6.855 Y6.8183 Z-2.562
G1 X6.8683 Y6.805 Z-2.565
G1 X6.8807 Y6.7908 Z-2.568
G1 X6.8922 Y6.776 Z-2.571
G1 X6.9028 Y6.7604 Z-2.574
G1 X6.9124 Y6.7442 Z-2.577
G1 X6.9209 Y6.7275 Z-2.58
G1 X6.9284 Y6.7102 Z-2.583
G1 X6.9348 Y6.6925 Z-2.586
G1 X6.94 Y6.6745 Z-2.589
G1 X6.9441 Y6.6561 Z-2.592
G1 X6.947 Y6.6375 Z-2.595
G1 X6.9488 Y6.6188 Z-2.598
G1 X6.9494 Y6.6 Z-2.601
G1 X6.9488 Y6.5812 Z-2.604
G1 X6.947 Y6.5625 Z-2.607
G1 X6.9441 Y6.5439 Z-2.61
G1 X6.94 Y6.5255 Z-2.613
G1 X6.9348 Y6.5075 Z-2.616
G1 X6.9284 Y6.4898 Z-2.619
G1 X6.9209 Y6.4725 Z-2.622
G1 X6.9124 Y6.4558 Z-2.625
G1 X6.9028 Y6.4396 Z-2.628
G1 X6.8922 Y6.424 Z-2.631
G1 X6.8807 Y6.4092 Z-2.634
G1 X6.8683 Y6.395 Z-2.637
G1 X6.855 Y6.3817 Z-2.64
G1 X6.8408 Y6.3693 Z-2.643
G1 X6.826 Y6.3578 Z-2.646
G1 X6.8104 Y6.3472 Z-2.649
G1 X6.7942 Y6.3376 Z-2.652
G1 X6.7775 Y6.3291 Z-2.655
G1 X6.7602 Y6.3216 Z-2.658
G1 X6.7425 Y6.3152 Z-2.661
G1 X6.7245 Y6.31 Z-2.664
G1 X6.7061 Y6.3059 Z-2.667
G1 X6.6875 Y6.303 Z-2.67
G1 X6.6688 Y6.3012 Z-2.673
G1 X6.65 Y6.3006 Z-2.676
G1 X6.6312 Y6.3012 Z-2.679
G1 X6.6125 Y6.303 Z-2.682
G1 X6.5939 Y6.3059 Z-2.685
G1 X6.5755 Y6.31 Z-2.688
G1 X6.5575 Y6.3152 Z-2.691
G1 X6.5398 Y6.3216 Z-2.694
G1 X6.5225 Y6.3291 Z-2.697
G1 X6.5058 Y6.3376 Z-2.7
G1 X6.4896 Y6.3472 Z-2.703
G1 X6.474 Y6.3578 Z-2.706
G1 X6.4592 Y6.3693 Z-2.709
G1 X6.445 Y6.3817 Z-2.712
G1 X6.4317 Y6.395 Z-2.715
G1 X6.4193 Y6.4091 Z-2.718
G1 X6.4078 Y6.424 Z-2.721
G1 X6.3972 Y6.4396 Z-2.724
G1 X6.3876 Y6.4558 Z-2.727
G1 X6.3791 Y6.4725 Z-2.73
G1 X6.3716 Y6.4898 Z-2.733
G1 X6.3652 Y6.5075 Z-2.736
G1 X6.36 Y6.5255 Z-2.739
G1 X6.3559 Y6.5439 Z-2.742
G1 X6.353 Y6.5625 Z-2.745
G1 X6.3512 Y6.5812 Z-2.748
G1 X6.3506 Y6.6 Z-2.751
G1 X6.3512 Y6.6188 Z-2.754
G1 X6.353 Y6.6375 Z-2.757
G1 X6.3559 Y6.6561 Z-2.76
G1 X6.36 Y6.6745 Z-2.763
G1 X6.3652 Y6.6925 Z-2.766
G1 X6.3716 Y6.7102 Z-2.769
G1 X6.3791 Y6.7275 Z-2.772
G1 X6.3876 Y6.7442 Z-2.775
G1 X6.3972 Y6.7604 Z-2.778
G1 X6.4078 Y6.776 Z-2.781
G1 X6.4193 Y6.7909 Z-2.784
G1 X6.4317 Y6.805 Z-2.787
G1 X6.445 Y6.8183 Z-2.79
G1 X6.4591 Y6.8307 Z-2.793
G1 X6.474 Y6.8422 Z-2.796
G1 X6.4896 Y6.8528 Z-2.799
G1 X6.5058 Y6.8624 Z-2.802
G1 X6.5225 Y6.8709 Z-2.805
G1 X6.5398 Y6.8784 Z-2.808
G1 X6.5575 Y6.8848 Z-2.811
G1 X6.5755 Y6.89 Z-2.814
G1 X6.5939 Y6.8941 Z-2.817
G1 X6.6125 Y6.897 Z-2.82
G1 X6.6312 Y6.8988 Z-2.823
G1 X6.65 Y6.8994 Z-2.826
G1 X6.6688 Y6.8988 Z-2.829
G1 X6.6875 Y6.897 Z-2.832
G1 X6.7061 Y6.8941 Z-2.835
G1 X6.7245 Y6.89 Z-2.838
G1 X6.7425 Y6.8848 Z-2.841
G1 X6.7602 Y6.8784 Z-2.844
G1 X6.7775 Y6.8709 Z-2.847
G1 X6.7942 Y6.8624 Z-2.85
G1 X6.8104 Y6.8528 Z-2.853
G1 X6.826 Y6.8422 Z-2.856
G1 X6.8408 Y6.8307 Z-2.859
G1 X6.855 Y6.8183 Z-2.862
G1 X6.8683 Y6.805 Z-2.865
G1 X6.8807 Y6.7908 Z-2.868
G1 X6.8922 Y6.776 Z-2.871
G1 X6.9028 Y6.7604 Z-2.874
G1 X6.9124 Y6.7442 Z-2.877
G1 X6.9209 Y6.7275 Z-2.88
G1 X6.9284 Y6.7102 Z-2.883
G1 X6.9348 Y6.6925 Z-2.886
G1 X6.94 Y6.6745 Z-2.889
G1 X6.9441 Y6.6561 Z-2.892
G1 X6.947 Y6.6375 Z-2.895
G1 X6.9488 Y6.6188 Z-2.898
G1 X6.9494 Y6.6 Z-2.901
G1 X6.9488 Y6.5812 Z-2.904
G1 X6.947 Y6.5625 Z-2.907
G1 X6.9441 Y6.5439 Z-2.91
G1 X6.94 Y6.5255 Z-2.913
G1 X6.9348 Y6.5075 Z-2.916
G1 X6.9284 Y6.4898 Z-2.919
G1 X6.9209 Y6.4725 Z-2.922
G1 X6.9124 Y6.4558 Z-2.925
G1 X6.9028 Y6.4396 Z-2.928
G1 X6.8922 Y6.424 Z-2.931
G1 X6.8807 Y6.4092 Z-2.934
G1 X6.8683 Y6.395 Z-2.937
G1 X6.855 Y6.3817 Z-2.94
G1 X6.8408 Y6.3693 Z-2.943
G1 X6.826 Y6.3578 Z-2.946
G1 X6.8104 Y6.3472 Z-2.949
G1 X6.7942 Y6.3376 Z-2.952
G1 X6.7775 Y6.3291 Z-2.955
G1 X6.7602 Y6.3216 Z-2.958
G1 X6.7425 Y6.3152 Z-2.961
G1 X6.7245 Y6.31 Z-2.964
G1 X6.7061 Y6.3059 Z-2.967
G1 X6.6875 Y6.303 Z-2.97
G1 X6.6688 Y6.3012 Z-2.973
G1 X6.65 Y6.3006 Z-2.976
G1 X6.6312 Y6.3012 Z-2.979
G1 X6.6125 Y6.303 Z-2.982
G1 X6.5939 Y6.3059 Z-2.985
G1 X6.5755 Y6.31 Z-2.988
G1 X6.5575 Y6.3152 Z-2.991
G1 X6.5398 Y6.3216 Z-2.994
G1 X6.5225 Y6.3291 Z-2.997
G1 X6.5058 Y6.3376 Z-3.0
G1 X6.4896 Y6.3472 Z-3.003
G1 X6.474 Y6.3578 Z-3.006
G1 X6.4592 Y6.3693 Z-3.009
G1 X6.445 Y6.3817 Z-3.012
G1 X6.4317 Y6.395 Z-3.015
G1 X6.4193 Y6.4091 Z-3.018
G1 X6.4078 Y6.424 Z-3.021
G1 X6.3972 Y6.4396 Z-3.024
G1 X6.3876 Y6.4558 Z-3.027
G1 X6.3791 Y6.4725 Z-3.03
G1 X6.3716 Y6.4898 Z-3.033
G1 X6.3652 Y6.5075 Z-3.036
G1 X6.36 Y6.5255 Z-3.039
G1 X6.3559 Y6.5439 Z-3.042
G1 X6.353 Y6.5625 Z-3.045
G1 X6.3512 Y6.5812 Z-3.048
G1 X6.3506 Y6.6 Z-3.051
G1 X6.3512 Y6.6188 Z-3.054
G1 X6.353 Y6.6375 Z-3.057
G1 X6.3559 Y6.6561 Z-3.06
G1 X6.36 Y6.6745 Z-3.063
G1 X6.3652 Y6.6925 Z-3.066
G1 X6.3716 Y6.7102 Z-3.069
G1 X6.3791 Y6.7275 Z-3.072
G1 X6.3876 Y6.7442 Z-3.075
G1 X6.3972 Y6.7604 Z-3.078
G1 X6.4078 Y6.776 Z-3.081
G1 X6.4193 Y6.7909 Z-3.084
G1 X6.4317 Y6.805 Z-3.087
G1 X6.445 Y6.8183 Z-3.09
G1 X6.4591 Y6.8307 Z-3.093
G1 X6.474 Y6.8422 Z-3.096
G1 X6.4896 Y6.8528 Z-3.099
G1 X6.5058 Y6.8624 Z-3.102
G1 X6.5225 Y6.8709 Z-3.105
G1 X6.5398 Y6.8784 Z-3.108
G1 X6.5575 Y6.8848 Z-3.111
G1 X6.5755 Y6.89 Z-3.114
G1 X6.5939 Y6.8941 Z-3.117
G1 X6.6125 Y6.897 Z-3.12
G1 X6.6312 Y6.8988 Z-3.123
G1 X6.65 Y6.8994 Z-3.126
G1 X6.6688 Y6.8988 Z-3.129
G1 X6.6875 Y6.897 Z-3.132
G1 X6.7061 Y6.8941 Z-3.135
G1 X6.7245 Y6.89 Z-3.138
G1 X6.7425 Y6.8848 Z-3.141
G1 X6.7602 Y6.8784 Z-3.144
G1 X6.7775 Y6.8709 Z-3.147
G1 X6.7942 Y6.8624 Z-3.15
G1 X6.8104 Y6.8528 Z-3.153
G1 X6.826 Y6.8422 Z-3.156
G1 X6.8408 Y6.8307 Z-3.159
G1 X6.855 Y6.8183 Z-3.162
G1 X6.8683 Y6.805 Z-3.165
G1 X6.8807 Y6.7908 Z-3.168
G1 X6.8922 Y6.776 Z-3.171
G1 X6.9028 Y6.7604 Z-3.174
G1 X6.9124 Y6.7442 Z-3.177
G1 X6.9209 Y6.7275 Z-3.18
G1 X6.9284 Y6.7102 Z-3.183
G1 X6.9348 Y6.6925 Z-3.186
G1 X6.94 Y6.6745 Z-3.189
G1 X6.9441 Y6.6561 Z-3.192
G1 X6.947 Y6.6375 Z-3.195
G1 X6.9488 Y6.6188 Z-3.198
G1 X6.9494 Y6.6 Z-3.201
G1 X6.9488 Y6.5812 Z-3.204
G1 X6.947 Y6.5625 Z-3.207
G1 X6.9441 Y6.5439 Z-3.21
G1 X6.94 Y6.5255 Z-3.213
G1 X6.9348 Y6.5075 Z-3.216
G1 X6.9284 Y6.4898 Z-3.219
G1 X6.9209 Y6.4725 Z-3.222
G1 X6.9124 Y6.4558 Z-3.225
G1 X6.9028 Y6.4396 Z-3.228
G1 X6.8922 Y6.424 Z-3.231
G1 X6.8807 Y6.4092 Z-3.234
G1 X6.8683 Y6.395 Z-3.237
G1 X6.855 Y6.3817 Z-3.24
G1 X6.8408 Y6.3693 Z-3.243
G1 X6.826 Y6.3578 Z-3.246
G1 X6.8104 Y6.3472 Z-3.249
G1 X6.7942 Y6.3376 Z-3.252
G1 X6.7775 Y6.3291 Z-3.255
G1 X6.7602 Y6.3216 Z-3.258
G1 X6.7425 Y6.3152 Z-3.261
G1 X6.7245 Y6.31 Z-3.264
G1 X6.7061 Y6.3059 Z-3.267
G1 X6.6875 Y6.303 Z-3.27
G1 X6.6688 Y6.3012 Z-3.273
G1 X6.65 Y6.3006 Z-3.276
G1 X6.6312 Y6.3012 Z-3.279
G1 X6.6125 Y6.303 Z-3.282
G1 X6.5939 Y6.3059 Z-3.285
G1 X6.5755 Y6.31 Z-3.288
G1 X6.5575 Y6.3152 Z-3.291
G1 X6.5398 Y6.3216 Z-3.294
G1 X6.5225 Y6.3291 Z-3.297
G1 X6.5058 Y6.3376 Z-3.3
G1 X6.4896 Y6.3472 Z-3.303
G1 X6.474 Y6.3578 Z-3.306
G1 X6.4592 Y6.3693 Z-3.309
G1 X6.445 Y6.3817 Z-3.312
G1 X6.4317 Y6.395 Z-3.315
G1 X6.4193 Y6.4091 Z-3.318
G1 X6.4078 Y6.424 Z-3.321
G1 X6.3972 Y6.4396 Z-3.324
G1 X6.3876 Y6.4558 Z-3.327
G1 X6.3791 Y6.4725 Z-3.33
G1 X6.3716 Y6.4898 Z-3.333
G1 X6.3652 Y6.5075 Z-3.336
G1 X6.36 Y6.5255 Z-3.339
G1 X6.3559 Y6.5439 Z-3.342
G1 X6.353 Y6.5625 Z-3.345
G1 X6.3512 Y6.5812 Z-3.348
G1 X6.3506 Y6.6 Z-3.351
G1 X6.3512 Y6.6188 Z-3.354
G1 X6.353 Y6.6375 Z-3.357
G1 X6.3559 Y6.6561 Z-3.36
G1 X6.36 Y6.6745 Z-3.363
G1 X6.3652 Y6.6925 Z-3.366
G1 X6.3716 Y6.7102 Z-3.369
G1 X6.3791 Y6.7275 Z-3.372
G1 X6.3876 Y6.7442 Z-3.375
G1 X6.3972 Y6.7604 Z-3.378
G1 X6.4078 Y6.776 Z-3.381
G1 X6.4193 Y6.7909 Z-3.384
G1 X6.4317 Y6.805 Z-3.387
G1 X6.445 Y6.8183 Z-3.39
G1 X6.4591 Y6.8307 Z-3.393
G1 X6.474 Y6.8422 Z-3.396
G1 X6.4896 Y6.8528 Z-3.399
G1 X6.5058 Y6.8624 Z-3.402
G1 X6.5225 Y6.8709 Z-3.405
G1 X6.5398 Y6.8784 Z-3.408
G1 X6.5575 Y6.8848 Z-3.411
G1 X6.5755 Y6.89 Z-3.414
G1 X6.5939 Y6.8941 Z-3.417
G1 X6.6125 Y6.897 Z-3.42
G1 X6.6312 Y6.8988 Z-3.423
G1 X6.65 Y6.8994 Z-3.426
G1 X6.6688 Y6.8988 Z-3.429
G1 X6.6875 Y6.897 Z-3.432
G1 X6.7061 Y6.8941 Z-3.435
G1 X6.7245 Y6.89 Z-3.438
G1 X6.7425 Y6.8848 Z-3.441
G1 X6.7602 Y6.8784 Z-3.444
G1 X6.7775 Y6.8709 Z-3.447
G1 X6.7942 Y6.8624 Z-3.45
G1 X6.8104 Y6.8528 Z-3.453
G1 X6.826 Y6.8422 Z-3.456
G1 X6.8408 Y6.8307 Z-3.459
G1 X6.855 Y6.8183 Z-3.462
G1 X6.8683 Y6.805 Z-3.465
G1 X6.8807 Y6.7908 Z-3.468
G1 X6.8922 Y6.776 Z-3.471
G1 X6.9028 Y6.7604 Z-3.474
G1 X6.9124 Y6.7442 Z-3.477
G1 X6.9209 Y6.7275 Z-3.48
G1 X6.9284 Y6.7102 Z-3.483
G1 X6.9348 Y6.6925 Z-3.486
G1 X6.94 Y6.6745 Z-3.489
G1 X6.9441 Y6.6561 Z-3.492
G1 X6.947 Y6.6375 Z-3.495
G1 X6.9488 Y6.6188 Z-3.498
G1 X6.9494 Y6.6 Z-3.501
G1 X6.9488 Y6.5812 Z-3.504
G1 X6.947 Y6.5625 Z-3.507
G1 X6.9441 Y6.5439 Z-3.51
G1 X6.94 Y6.5255 Z-3.513
G1 X6.9348 Y6.5075 Z-3.516
G1 X6.9284 Y6.4898 Z-3.519
G1 X6.9209 Y6.4725 Z-3.522
G1 X6.9124 Y6.4558 Z-3.525
G1 X6.9028 Y6.4396 Z-3.528
G1 X6.8922 Y6.424 Z-3.531
G1 X6.8807 Y6.4092 Z-3.534
G1 X6.8683 Y6.395 Z-3.537
G1 X6.855 Y6.3817 Z-3.54
G1 X6.8408 Y6.3693 Z-3.543
G1 X6.826 Y6.3578 Z-3.546
G1 X6.8104 Y6.3472 Z-3.549
G1 X6.7942 Y6.3376 Z-3.552
G1 X6.7775 Y6.3291 Z-3.555
G1 X6.7602 Y6.3216 Z-3.558
G1 X6.7425 Y6.3152 Z-3.561
G1 X6.7245 Y6.31 Z-3.564
G1 X6.7061 Y6.3059 Z-3.567
G1 X6.6875 Y6.303 Z-3.57
G1 X6.6688 Y6.3012 Z-3.573
G1 X6.65 Y6.3006 Z-3.576
G1 X6.6312 Y6.3012 Z-3.579
G1 X6.6125 Y6.303 Z-3.582
G1 X6.5939 Y6.3059 Z-3.585
G1 X6.5755 Y6.31 Z-3.588
G1 X6.5575 Y6.3152 Z-3.591
G1 X6.5398 Y6.3216 Z-3.594
G1 X6.5225 Y6.3291 Z-3.597
G1 X6.5058 Y6.3376 Z-3.6
G1 X6.4896 Y6.3472 Z-3.603
G1 X6.474 Y6.3578 Z-3.606
G1 X6.4592 Y6.3693 Z-3.609
G1 X6.445 Y6.3817 Z-3.612
G1 X6.4317 Y6.395 Z-3.615
G1 X6.4193 Y6.4091 Z-3.618
G1 X6.4078 Y6.424 Z-3.621
G1 X6.3972 Y6.4396 Z-3.624
G1 X6.3876 Y6.4558 Z-3.627
G1 X6.3791 Y6.4725 Z-3.63
G1 X6.3716 Y6.4898 Z-3.633
G1 X6.3652 Y6.5075 Z-3.636
G1 X6.36 Y6.5255 Z-3.639
G1 X6.3559 Y6.5439 Z-3.642
G1 X6.353 Y6.5625 Z-3.645
G1 X6.3512 Y6.5812 Z-3.648
G1 X6.3506 Y6.6 Z-3.651
G1 X6.3512 Y6.6188 Z-3.654
G1 X6.353 Y6.6375 Z-3.657
G1 X6.3559 Y6.6561 Z-3.66
G1 X6.36 Y6.6745 Z-3.663
G1 X6.3652 Y6.6925 Z-3.666
G1 X6.3716 Y6.7102 Z-3.669
G1 X6.3791 Y6.7275 Z-3.672
G1 X6.3876 Y6.7442 Z-3.675
G1 X6.3972 Y6.7604 Z-3.678
G1 X6.4078 Y6.776 Z-3.681
G1 X6.4193 Y6.7909 Z-3.684
G1 X6.4317 Y6.805 Z-3.687
G1 X6.445 Y6.8183 Z-3.69
G1 X6.4591 Y6.8307 Z-3.693
G1 X6.474 Y6.8422 Z-3.696
G1 X6.4896 Y6.8528 Z-3.699
G1 X6.5058 Y6.8624 Z-3.702
G1 X6.5225 Y6.8709 Z-3.705
G1 X6.5398 Y6.8784 Z-3.708
G1 X6.5575 Y6.8848 Z-3.711
G1 X6.5755 Y6.89 Z-3.714
G1 X6.5939 Y6.8941 Z-3.717
G1 X6.6125 Y6.897 Z-3.72
G1 X6.6312 Y6.8988 Z-3.723
G1 X6.65 Y6.8994 Z-3.726
G1 X6.6688 Y6.8988 Z-3.729
G1 X6.6875 Y6.897 Z-3.732
G1 X6.7061 Y6.8941 Z-3.735
G1 X6.7245 Y6.89 Z-3.738
G1 X6.7425 Y6.8848 Z-3.741
G1 X6.7602 Y6.8784 Z-3.744
G1 X6.7775 Y6.8709 Z-3.747
G1 X6.7942 Y6.8624 Z-3.75
G1 X6.8104 Y6.8528 Z-3.753
G1 X6.826 Y6.8422 Z-3.756
G1 X6.8408 Y6.8307 Z-3.759
G1 X6.855 Y6.8183 Z-3.762
G1 X6.8683 Y6.805 Z-3.765
G1 X6.8807 Y6.7908 Z-3.768
G1 X6.8922 Y6.776 Z-3.771
G1 X6.9028 Y6.7604 Z-3.774
G1 X6.9124 Y6.7442 Z-3.777
G1 X6.9209 Y6.7275 Z-3.78
G1 X6.9284 Y6.7102 Z-3.783
G1 X6.9348 Y6.6925 Z-3.786
G1 X6.94 Y6.6745 Z-3.789
G1 X6.9441 Y6.6561 Z-3.792
G1 X6.947 Y6.6375 Z-3.795
G1 X6.9488 Y6.6188 Z-3.798
G1 X6.9494 Y6.6 Z-3.801
G1 X6.9488 Y6.5812 Z-3.804
G1 X6.947 Y6.5625 Z-3.807
G1 X6.9441 Y6.5439 Z-3.81
G1 X6.94 Y6.5255 Z-3.813
G1 X6.9348 Y6.5075 Z-3.816
G1 X6.9284 Y6.4898 Z-3.819
G1 X6.9209 Y6.4725 Z-3.822
G1 X6.9124 Y6.4558 Z-3.825
G1 X6.9028 Y6.4396 Z-3.828
G1 X6.8922 Y6.424 Z-3.831
G1 X6.8807 Y6.4092 Z-3.834
G1 X6.8683 Y6.395 Z-3.837
G1 X6.855 Y6.3817 Z-3.84
G1 X6.8408 Y6.3693 Z-3.843
G1 X6.826 Y6.3578 Z-3.846
G1 X6.8104 Y6.3472 Z-3.849
G1 X6.7942 Y6.3376 Z-3.852
G1 X6.7775 Y6.3291 Z-3.855
G1 X6.7602 Y6.3216 Z-3.858
G1 X6.7425 Y6.3152 Z-3.861
G1 X6.7245 Y6.31 Z-3.864
G1 X6.7061 Y6.3059 Z-3.867
G1 X6.6875 Y6.303 Z-3.87
G1 X6.6688 Y6.3012 Z-3.873
G1 X6.65 Y6.3006 Z-3.876
G1 X6.6312 Y6.3012 Z-3.879
G1 X6.6125 Y6.303 Z-3.882
G1 X6.5939 Y6.3059 Z-3.885
G1 X6.5755 Y6.31 Z-3.888
G1 X6.5575 Y6.3152 Z-3.891
G1 X6.5398 Y6.3216 Z-3.894
G1 X6.5225 Y6.3291 Z-3.897
G1 X6.5058 Y6.3376 Z-3.9
G1 X6.4896 Y6.3472 Z-3.903
G1 X6.474 Y6.3578 Z-3.906
G1 X6.4592 Y6.3693 Z-3.909
G1 X6.445 Y6.3817 Z-3.912
G1 X6.4317 Y6.395 Z-3.915
G1 X6.4193 Y6.4091 Z-3.918
G1 X6.4078 Y6.424 Z-3.921
G1 X6.3972 Y6.4396 Z-3.924
G1 X6.3876 Y6.4558 Z-3.927
G1 X6.3791 Y6.4725 Z-3.93
G1 X6.3716 Y6.4898 Z-3.933
G1 X6.3652 Y6.5075 Z-3.936
G1 X6.36 Y6.5255 Z-3.939
G1 X6.3559 Y6.5439 Z-3.942
G1 X6.353 Y6.5625 Z-3.945
G1 X6.3512 Y6.5812 Z-3.948
G1 X6.3506 Y6.6 Z-3.951
G1 X6.3512 Y6.6188 Z-3.954
G1 X6.353 Y6.6375 Z-3.957
G1 X6.3559 Y6.6561 Z-3.96
G1 X6.36 Y6.6745 Z-3.963
G1 X6.3652 Y6.6925 Z-3.966
G1 X6.3716 Y6.7102 Z-3.969
G1 X6.3791 Y6.7275 Z-3.972
G1 X6.3876 Y6.7442 Z-3.975
G1 X6.3972 Y6.7604 Z-3.978
G1 X6.4078 Y6.776 Z-3.981
G1 X6.4193 Y6.7909 Z-3.984
G1 X6.4317 Y6.805 Z-3.987
G1 X6.445 Y6.8183 Z-3.99
G1 X6.4591 Y6.8307 Z-3.993
G1 X6.474 Y6.8422 Z-3.996
G1 X6.4896 Y6.8528 Z-3.999
G1 X6.5058 Y6.8624 Z-4.002
G1 X6.5225 Y6.8709 Z-4.005
G1 X6.5398 Y6.8784 Z-4.008
G1 X6.5575 Y6.8848 Z-4.011
G1 X6.5755 Y6.89 Z-4.014
G1 X6.5939 Y6.8941 Z-4.017
G1 X6.6125 Y6.897 Z-4.02
G1 X6.6312 Y6.8988 Z-4.023
G1 X6.65 Y6.8994 Z-4.026
G1 X6.6688 Y6.8988 Z-4.029
G1 X6.6875 Y6.897 Z-4.032
G1 X6.7061 Y6.8941 Z-4.035
G1 X6.7245 Y6.89 Z-4.038
G1 X6.7425 Y6.8848 Z-4.041
G1 X6.7602 Y6.8784 Z-4.044
G1 X6.7775 Y6.8709 Z-4.047
G1 X6.7942 Y6.8624 Z-4.05
G1 X6.8104 Y6.8528 Z-4.053
G1 X6.826 Y6.8422 Z-4.056
G1 X6.8408 Y6.8307 Z-4.059
G1 X6.855 Y6.8183 Z-4.062
G1 X6.8683 Y6.805 Z-4.065
G1 X6.8807 Y6.7908 Z-4.068
G1 X6.8922 Y6.776 Z-4.071
G1 X6.9028 Y6.7604 Z-4.074
G1 X6.9124 Y6.7442 Z-4.077
G1 X6.9209 Y6.7275 Z-4.08
G1 X6.9284 Y6.7102 Z-4.083
G1 X6.9348 Y6.6925 Z-4.086
G1 X6.94 Y6.6745 Z-4.089
G1 X6.9441 Y6.6561 Z-4.092
G1 X6.947 Y6.6375 Z-4.095
G1 X6.9488 Y6.6188 Z-4.098
G1 X6.9494 Y6.6 Z-4.101
G1 X6.9488 Y6.5812 Z-4.104
G1 X6.947 Y6.5625 Z-4.107
G1 X6.9441 Y6.5439 Z-4.11
G1 X6.94 Y6.5255 Z-4.113
G1 X6.9348 Y6.5075 Z-4.116
G1 X6.9284 Y6.4898 Z-4.119
G1 X6.9209 Y6.4725 Z-4.122
G1 X6.9124 Y6.4558 Z-4.125
G1 X6.9028 Y6.4396 Z-4.128
G1 X6.8922 Y6.424 Z-4.131
G1 X6.8807 Y6.4092 Z-4.134
G1 X6.8683 Y6.395 Z-4.137
G1 X6.855 Y6.3817 Z-4.14
G1 X6.8408 Y6.3693 Z-4.143
G1 X6.826 Y6.3578 Z-4.146
G1 X6.8104 Y6.3472 Z-4.149
G1 X6.7942 Y6.3376 Z-4.152
G1 X6.7775 Y6.3291 Z-4.155
G1 X6.7602 Y6.3216 Z-4.158
G1 X6.7425 Y6.3152 Z-4.161
G1 X6.7245 Y6.31 Z-4.164
G1 X6.7061 Y6.3059 Z-4.167
G1 X6.6875 Y6.303 Z-4.17
G1 X6.6688 Y6.3012 Z-4.173
G1 X6.65 Y6.3006 Z-4.176
G1 X6.6312 Y6.3012 Z-4.179
G1 X6.6125 Y6.303 Z-4.182
G1 X6.5939 Y6.3059 Z-4.185
G1 X6.5755 Y6.31 Z-4.188
G1 X6.5575 Y6.3152 Z-4.191
G1 X6.5398 Y6.3216 Z-4.194
G1 X6.5225 Y6.3291 Z-4.197
G1 X6.5058 Y6.3376 Z-4.2
G1 X6.4896 Y6.3472
G1 X6.474 Y6.3578
G1 X6.4592 Y6.3693
G1 X6.445 Y6.3817
G1 X6.4317 Y6.395
G1 X6.4193 Y6.4091
G1 X6.4078 Y6.424
G1 X6.3972 Y6.4396
G1 X6.3876 Y6.4558
G1 X6.3791 Y6.4725
G1 X6.3716 Y6.4898
G1 X6.3652 Y6.5075
G1 X6.36 Y6.5255
G1 X6.3559 Y6.5439
G1 X6.353 Y6.5625
G1 X6.3512 Y6.5812
G1 X6.3506 Y6.6
G1 X6.3512 Y6.6188
G1 X6.353 Y6.6375
G1 X6.3559 Y6.6561
G1 X6.36 Y6.6745
G1 X6.3652 Y6.6925
G1 X6.3716 Y6.7102
G1 X6.3791 Y6.7275
G1 X6.3876 Y6.7442
G1 X6.3972 Y6.7604
G1 X6.4078 Y6.776
G1 X6.4193 Y6.7909
G1 X6.4317 Y6.805
G1 X6.445 Y6.8183
G1 X6.4591 Y6.8307
G1 X6.474 Y6.8422
G1 X6.4896 Y6.8528
G1 X6.5058 Y6.8624
G1 X6.5225 Y6.8709
G1 X6.5398 Y6.8784
G1 X6.5575 Y6.8848
G1 X6.5755 Y6.89
G1 X6.5939 Y6.8941
G1 X6.6125 Y6.897
G1 X6.6312 Y6.8988
G1 X6.65 Y6.8994
G1 X6.6688 Y6.8988
G1 X6.6875 Y6.897
G1 X6.7061 Y6.8941
G1 X6.7245 Y6.89
G1 X6.7425 Y6.8848
G1 X6.7602 Y6.8784
G1 X6.7775 Y6.8709
G1 X6.7942 Y6.8624
G1 X6.8104 Y6.8528
G1 X6.826 Y6.8422
G1 X6.8408 Y6.8307
G1 X6.855 Y6.8183
G1 X6.8683 Y6.805
G1 X6.8807 Y6.7908
G1 X6.8922 Y6.776
G1 X6.9028 Y6.7604
G1 X6.9124 Y6.7442
G1 X6.9209 Y6.7275
G1 X6.9284 Y6.7102
G1 X6.9348 Y6.6925
G1 X6.94 Y6.6745
G1 X6.9441 Y6.6561
G1 X6.947 Y6.6375
G1 X6.9488 Y6.6188
G1 X6.9494 Y6.6
G1 X6.9488 Y6.5812
G1 X6.947 Y6.5625
G1 X6.9441 Y6.5439
G1 X6.94 Y6.5255
G1 X6.9348 Y6.5075
G1 X6.9284 Y6.4898
G1 X6.9209 Y6.4725
G1 X6.9124 Y6.4558
G1 X6.9028 Y6.4396
G1 X6.8922 Y6.424
G1 X6.8807 Y6.4092
G1 X6.8683 Y6.395
G1 X6.855 Y6.3817
G1 X6.8408 Y6.3693
G1 X6.826 Y6.3578
G1 X6.8104 Y6.3472
G1 X6.7942 Y6.3376
G1 X6.7775 Y6.3291
G1 X6.7602 Y6.3216
G1 X6.7425 Y6.3152
G1 X6.7245 Y6.31
G1 X6.7061 Y6.3059
G1 X6.6875 Y6.303
G1 X6.6688 Y6.3012
G1 X6.65 Y6.3006
G1 X6.6312 Y6.3012
G1 X6.6125 Y6.303
G1 X6.5939 Y6.3059
G1 X6.5755 Y6.31
G1 X6.5575 Y6.3152
G1 X6.5398 Y6.3216
G1 X6.5225 Y6.3291
G1 X6.5058 Y6.3376
G0 Z3.0
G0 X18.3506 Y6.6
G0 Z1.0
G1 F300.0 Z0.0
G1 F800.0 X18.3512 Y6.6188 Z-0.003
G1 X18.353 Y6.6375 Z-0.006
G1 X18.3559 Y6.6561 Z-0.009
G1 X18.36 Y6.6745 Z-0.012
G1 X18.3652 Y6.6925 Z-0.015
G1 X18.3716 Y6.7102 Z-0.018
G1 X18.3791 Y6.7275 Z-0.021
G1 X18.3876 Y6.7442 Z-0.024
G1 X18.3972 Y6.7604 Z-0.027
G1 X18.4078 Y6.776 Z-0.03
G1 X18.4193 Y6.7909 Z-0.033
G1 X18.4317 Y6.805 Z-0.036
G1 X18.445 Y6.8183 Z-0.039
G1 X18.4591 Y6.8307 Z-0.042
G1 X18.474 Y6.8422 Z-0.045
G1 X18.4896 Y6.8528 Z-0.048
G1 X18.5058 Y6.8624 Z-0.051
G1 X18.5225 Y6.8709 Z-0.054
G1 X18.5398 Y6.8784 Z-0.057
G1 X18.5575 Y6.8848 Z-0.06
G1 X18.5755 Y6.89 Z-0.063
G1 X18.5939 Y6.8941 Z-0.066
G1 X18.6125 Y6.897 Z-0.069
G1 X18.6312 Y6.8988 Z-0.072
G1 X18.65 Y6.8994 Z-0.075
G1 X18.6688 Y6.8988 Z-0.078
G1 X18.6875 Y6.897 Z-0.081
G1 X18.7061 Y6.8941 Z-0.084
G1 X18.7245 Y6.89 Z-0.087
G1 X18.7425 Y6.8848 Z-0.09
G1 X18.7602 Y6.8784 Z-0.093
G1 X18.7775 Y6.8709 Z-0.096
G1 X18.7942 Y6.8624 Z-0.099
G1 X18.8104 Y6.8528 Z-0.102
G1 X18.826 Y6.8422 Z-0.105
G1 X18.8408 Y6.8307 Z-0.108
G1 X18.855 Y6.8183 Z-0.111
G1 X18.8683 Y6.805 Z-0.114
G1 X18.8807 Y6.7908 Z-0.117
G1 X18.8922 Y6.776 Z-0.12
G1 X18.9028 Y6.7604 Z-0.123
G1 X18.9124 Y6.7442 Z-0.126
G1 X18.9209 Y6.7275 Z-0.129
G1 X18.9284 Y6.7102 Z-0.132
G1 X18.9348 Y6.6925 Z-0.135
G1 X18.94 Y6.6745 Z-0.138
G1 X18.9441 Y6.6561 Z-0.141
G1 X18.947 Y6.6375 Z-0.144
G1 X18.9488 Y6.6188 Z-0.147
G1 X18.9494 Y6.6 Z-0.15
G1 X18.9488 Y6.5812 Z-0.153
G1 X18.947 Y6.5625 Z-0.156
G1 X18.9441 Y6.5439 Z-0.159
G1 X18.94 Y6.5255 Z-0.162
G1 X18.9348 Y6.5075 Z-0.165
G1 X18.9284 Y6.4898 Z-0.168
G1 X18.9209 Y6.4725 Z-0.171
G1 X18.9124 Y6.4558 Z-0.174
G1 X18.9028 Y6.4396 Z-0.177
G1 X18.8922 Y6.424 Z-0.18
G1 X18.8807 Y6.4092 Z-0.183
G1 X18.8683 Y6.395 Z-0.186
G1 X18.855 Y6.3817 Z-0.189
G1 X18.8408 Y6.3693 Z-0.192
G1 X18.826 Y6.3578 Z-0.195
G1 X18.8104 Y6.3472 Z-0.198
G1 X18.7942 Y6.3376 Z-0.201
G1 X18.7775 Y6.3291 Z-0.204
G1 X18.7602 Y6.3216 Z-0.207
G1 X18.7425 Y6.3152 Z-0.21
G1 X18.7245 Y6.31 Z-0.213
G1 X18.7061 Y6.3059 Z-0.216
G1 X18.6875 Y6.303 Z-0.219
G1 X18.6688 Y6.3012 Z-0.222
G1 X18.65 Y6.3006 Z-0.225
G1 X18.6312 Y6.3012 Z-0.228
G1 X18.6125 Y6.303 Z-0.231
G1 X18.5939 Y6.3059 Z-0.234
G1 X18.5755 Y6.31 Z-0.237
G1 X18.5575 Y6.3152 Z-0.24
G1 X18.5398 Y6.3216 Z-0.243
G1 X18.5225 Y6.3291 Z-0.246
G1 X18.5058 Y6.3376 Z-0.249
G1 X18.4896 Y6.3472 Z-0.252
G1 X18.474 Y6.3578 Z-0.255
G1 X18.4592 Y6.3693 Z-0.258
G1 X18.445 Y6.3817 Z-0.261
G1 X18.4317 Y6.395 Z-0.264
G1 X18.4193 Y6.4092 Z-0.267
G1 X18.4078 Y6.424 Z-0.27
G1 X18.3972 Y6.4396 Z-0.273
G1 X18.3876 Y6.4558 Z-0.276
G1 X18.3791 Y6.4725 Z-0.279
G1 X18.3716 Y6.4898 Z-0.282
G1 X18.3652 Y6.5075 Z-0.285
G1 X18.36 Y6.5255 Z-0.288
G1 X18.3559 Y6.5439 Z-0.291
G1 X18.353 Y6.5625 Z-0.294
G1 X18.3512 Y6.5812 Z-0.297
G1 X18.3506 Y6.6 Z-0.3
G1 X18.3512 Y6.6188 Z-0.303
G1 X18.353 Y6.6375 Z-0.306
G1 X18.3559 Y6.6561 Z-0.309
G1 X18.36 Y6.6745 Z-0.312
G1 X18.3652 Y6.6925 Z-0.315
G1 X18.3716 Y6.7102 Z-0.318
G1 X18.3791 Y6.7275 Z-0.321
G1 X18.3876 Y6.7442 Z-0.324
G1 X18.3972 Y6.7604 Z-0.327
G1 X18.4078 Y6.776 Z-0.33
G1 X18.4193 Y6.7909 Z-0.333
G1 X18.4317 Y6.805 Z-0.336
G1 X18.445 Y6.8183 Z-0.339
G1 X18.4591 Y6.8307 Z-0.342
G1 X18.474 Y6.8422 Z-0.345
G1 X18.4896 Y6.8528 Z-0.348
G1 X18.5058 Y6.8624 Z-0.351
G1 X18.5225 Y6.8709 Z-0.354
G1 X18.5398 Y6.8784 Z-0.357
G1 X18.5575 Y6.8848 Z-0.36
G1 X18.5755 Y6.89 Z-0.363
G1 X18.5939 Y6.8941 Z-0.366
G1 X18.6125 Y6.897 Z-0.369
G1 X18.6312 Y6.8988 Z-0.372
G1 X18.65 Y6.8994 Z-0.375
G1 X18.6688 Y6.8988 Z-0.378
G1 X18.6875 Y6.897 Z-0.381
G1 X18.7061 Y6.8941 Z-0.384
G1 X18.7245 Y6.89 Z-0.387
G1 X18.7425 Y6.8848 Z-0.39
G1 X18.7602 Y6.8784 Z-0.393
G1 X18.7775 Y6.8709 Z-0.396
G1 X18.7942 Y6.8624 Z-0.399
G1 X18.8104 Y6.8528 Z-0.402
G1 X18.826 Y6.8422 Z-0.405
G1 X18.8408 Y6.8307 Z-0.408
G1 X18.855 Y6.8183 Z-0.411
G1 X18.8683 Y6.805 Z-0.414
G1 X18.8807 Y6.7908 Z-0.417
G1 X18.8922 Y6.776 Z-0.42
G1 X18.9028 Y6.7604 Z-0.423
G1 X18.9124 Y6.7442 Z-0.426
G1 X18.9209 Y6.7275 Z-0.429
G1 X18.9284 Y6.7102 Z-0.432
G1 X18.9348 Y6.6925 Z-0.435
G1 X18.94 Y6.6745 Z-0.438
G1 X18.9441 Y6.6561 Z-0.441
G1 X18.947 Y6.6375 Z-0.444
G1 X18.9488 Y6.6188 Z-0.447
G1 X18.9494 Y6.6 Z-0.45
G1 X18.9488 Y6.5812 Z-0.453
G1 X18.947 Y6.5625 Z-0.456
G1 X18.9441 Y6.5439 Z-0.459
G1 X18.94 Y6.5255 Z-0.462
G1 X18.9348 Y6.5075 Z-0.465
G1 X18.9284 Y6.4898 Z-0.468
G1 X18.9209 Y6.4725 Z-0.471
G1 X18.9124 Y6.4558 Z-0.474
G1 X18.9028 Y6.4396 Z-0.477
G1 X18.8922 Y6.424 Z-0.48
G1 X18.8807 Y6.4092 Z-0.483
G1 X18.8683 Y6.395 Z-0.486
G1 X18.855 Y6.3817 Z-0.489
G1 X18.8408 Y6.3693 Z-0.492
G1 X18.826 Y6.3578 Z-0.495
G1 X18.8104 Y6.3472 Z-0.498
G1 X18.7942 Y6.3376 Z-0.501
G1 X18.7775 Y6.3291 Z-0.504
G1 X18.7602 Y6.3216 Z-0.507
G1 X18.7425 Y6.3152 Z-0.51
G1 X18.7245 Y6.31 Z-0.513
G1 X18.7061 Y6.3059 Z-0.516
G1 X18.6875 Y6.303 Z-0.519
G1 X18.6688 Y6.3012 Z-0.522
G1 X18.65 Y6.3006 Z-0.525
G1 X18.6312 Y6.3012 Z-0.528
G1 X18.6125 Y6.303 Z-0.531
G1 X18.5939 Y6.3059 Z-0.534
G1 X18.5755 Y6.31 Z-0.537
G1 X18.5575 Y6.3152 Z-0.54
G1 X18.5398 Y6.3216 Z-0.543
G1 X18.5225 Y6.3291 Z-0.546
G1 X18.5058 Y6.3376 Z-0.549
G1 X18.4896 Y6.3472 Z-0.552
G1 X18.474 Y6.3578 Z-0.555
G1 X18.4592 Y6.3693 Z-0.558
G1 X18.445 Y6.3817 Z-0.561
G1 X18.4317 Y6.395 Z-0.564
G1 X18.4193 Y6.4092 Z-0.567
G1 X18.4078 Y6.424 Z-0.57
G1 X18.3972 Y6.4396 Z-0.573
G1 X18.3876 Y6.4558 Z-0.576
G1 X18.3791 Y6.4725 Z-0.579
G1 X18.3716 Y6.4898 Z-0.582
G1 X18.3652 Y6.5075 Z-0.585
G1 X18.36 Y6.5255 Z-0.588
G1 X18.3559 Y6.5439 Z-0.591
G1 X18.353 Y6.5625 Z-0.594
G1 X18.3512 Y6.5812 Z-0.597
G1 X18.3506 Y6.6 Z-0.6
G1 X18.3512 Y6.6188 Z-0.603
G1 X18.353 Y6.6375 Z-0.606
G1 X18.3559 Y6.6561 Z-0.609
G1 X18.36 Y6.6745 Z-0.612
G1 X18.3652 Y6.6925 Z-0.615
G1 X18.3716 Y6.7102 Z-0.618
G1 X18.3791 Y6.7275 Z-0.621
G1 X18.3876 Y6.7442 Z-0.624
G1 X18.3972 Y6.7604 Z-0.627
G1 X18.4078 Y6.776 Z-0.63
G1 X18.4193 Y6.7909 Z-0.633
G1 X18.4317 Y6.805 Z-0.636
G1 X18.445 Y6.8183 Z-0.639
G1 X18.4591 Y6.8307 Z-0.642
G1 X18.474 Y6.8422 Z-0.645
G1 X18.4896 Y6.8528 Z-0.648
G1 X18.5058 Y6.8624 Z-0.651
G1 X18.5225 Y6.8709 Z-0.654
G1 X18.5398 Y6.8784 Z-0.657
G1 X18.5575 Y6.8848 Z-0.66
G1 X18.5755 Y6.89 Z-0.663
G1 X18.5939 Y6.8941 Z-0.666
G1 X18.6125 Y6.897 Z-0.669
G1 X18.6312 Y6.8988 Z-0.672
G1 X18.65 Y6.8994 Z-0.675
G1 X18.6688 Y6.8988 Z-0.678
G1 X18.6875 Y6.897 Z-0.681
G1 X18.7061 Y6.8941 Z-0.684
G1 X18.7245 Y6.89 Z-0.687
G1 X18.7425 Y6.8848 Z-0.69
G1 X18.7602 Y6.8784 Z-0.693
G1 X18.7775 Y6.8709 Z-0.696
G1 X18.7942 Y6.8624 Z-0.699
G1 X18.8104 Y6.8528 Z-0.702
G1 X18.826 Y6.8422 Z-0.705
G1 X18.8408 Y6.8307 Z-0.708
G1 X18.855 Y6.8183 Z-0.711
G1 X18.8683 Y6.805 Z-0.714
G1 X18.8807 Y6.7908 Z-0.717
G1 X18.8922 Y6.776 Z-0.72
G1 X18.9028 Y6.7604 Z-0.723
G1 X18.9124 Y6.7442 Z-0.726
G1 X18.9209 Y6.7275 Z-0.729
G1 X18.9284 Y6.7102 Z-0.732
G1 X18.9348 Y6.6925 Z-0.735
G1 X18.94 Y6.6745 Z-0.738
G1 X18.9441 Y6.6561 Z-0.741
G1 X18.947 Y6.6375 Z-0.744
G1 X18.9488 Y6.6188 Z-0.747
G1 X18.9494 Y6.6 Z-0.75
G1 X18.9488 Y6.5812 Z-0.753
G1 X18.947 Y6.5625 Z-0.756
G1 X18.9441 Y6.5439 Z-0.759
G1 X18.94 Y6.5255 Z-0.762
G1 X18.9348 Y6.5075 Z-0.765
G1 X18.9284 Y6.4898 Z-0.768
G1 X18.9209 Y6.4725 Z-0.771
G1 X18.9124 Y6.4558 Z-0.774
G1 X18.9028 Y6.4396 Z-0.777
G1 X18.8922 Y6.424 Z-0.78
G1 X18.8807 Y6.4092 Z-0.783
G1 X18.8683 Y6.395 Z-0.786
G1 X18.855 Y6.3817 Z-0.789
G1 X18.8408 Y6.3693 Z-0.792
G1 X18.826 Y6.3578 Z-0.795
G1 X18.8104 Y6.3472 Z-0.798
G1 X18.7942 Y6.3376 Z-0.801
G1 X18.7775 Y6.3291 Z-0.804
G1 X18.7602 Y6.3216 Z-0.807
G1 X18.7425 Y6.3152 Z-0.81
G1 X18.7245 Y6.31 Z-0.813
G1 X18.7061 Y6.3059 Z-0.816
G1 X18.6875 Y6.303 Z-0.819
G1 X18.6688 Y6.3012 Z-0.822
G1 X18.65 Y6.3006 Z-0.825
G1 X18.6312 Y6.3012 Z-0.828
G1 X18.6125 Y6.303 Z-0.831
G1 X18.5939 Y6.3059 Z-0.834
G1 X18.5755 Y6.31 Z-0.837
G1 X18.5575 Y6.3152 Z-0.84
G1 X18.5398 Y6.3216 Z-0.843
G1 X18.5225 Y6.3291 Z-0.846
G1 X18.5058 Y6.3376 Z-0.849
G1 X18.4896 Y6.3472 Z-0.852
G1 X18.474 Y6.3578 Z-0.855
G1 X18.4592 Y6.3693 Z-0.858
G1 X18.445 Y6.3817 Z-0.861
G1 X18.4317 Y6.395 Z-0.864
G1 X18.4193 Y6.4092 Z-0.867
G1 X18.4078 Y6.424 Z-0.87
G1 X18.3972 Y6.4396 Z-0.873
G1 X18.3876 Y6.4558 Z-0.876
G1 X18.3791 Y6.4725 Z-0.879
G1 X18.3716 Y6.4898 Z-0.882
G1 X18.3652 Y6.5075 Z-0.885
G1 X18.36 Y6.5255 Z-0.888
G1 X18.3559 Y6.5439 Z-0.891
G1 X18.353 Y6.5625 Z-0.894
G1 X18.3512 Y6.5812 Z-0.897
G1 X18.3506 Y6.6 Z-0.9
G1 X18.3512 Y6.6188 Z-0.903
G1 X18.353 Y6.6375 Z-0.906
G1 X18.3559 Y6.6561 Z-0.909
G1 X18.36 Y6.6745 Z-0.912
G1 X18.3652 Y6.6925 Z-0.915
G1 X18.3716 Y6.7102 Z-0.918
G1 X18.3791 Y6.7275 Z-0.921
G1 X18.3876 Y6.7442 Z-0.924
G1 X18.3972 Y6.7604 Z-0.927
G1 X18.4078 Y6.776 Z-0.93
G1 X18.4193 Y6.7909 Z-0.933
G1 X18.4317 Y6.805 Z-0.936
G1 X18.445 Y6.8183 Z-0.939
G1 X18.4591 Y6.8307 Z-0.942
G1 X18.474 Y6.8422 Z-0.945
G1 X18.4896 Y6.8528 Z-0.948
G1 X18.5058 Y6.8624 Z-0.951
G1 X18.5225 Y6.8709 Z-0.954
G1 X18.5398 Y6.8784 Z-0.957
G1 X18.5575 Y6.8848 Z-0.96
G1 X18.5755 Y6.89 Z-0.963
G1 X18.5939 Y6.8941 Z-0.966
G1 X18.6125 Y6.897 Z-0.969
G1 X18.6312 Y6.8988 Z-0.972
G1 X18.65 Y6.8994 Z-0.975
G1 X18.6688 Y6.8988 Z-0.978
G1 X18.6875 Y6.897 Z-0.981
G1 X18.7061 Y6.8941 Z-0.984
G1 X18.7245 Y6.89 Z-0.987
G1 X18.7425 Y6.8848 Z-0.99
G1 X18.7602 Y6.8784 Z-0.993
G1 X18.7775 Y6.8709 Z-0.996
G1 X18.7942 Y6.8624 Z-0.999
G1 X18.8104 Y6.8528 Z-1.002
G1 X18.826 Y6.8422 Z-1.005
G1 X18.8408 Y6.8307 Z-1.008
G1 X18.855 Y6.8183 Z-1.011
G1 X18.8683 Y6.805 Z-1.014
G1 X18.8807 Y6.7908 Z-1.017
G1 X18.8922 Y6.776 Z-1.02
G1 X18.9028 Y6.7604 Z-1.023
G1 X18.9124 Y6.7442 Z-1.026
G1 X18.9209 Y6.7275 Z-1.029
G1 X18.9284 Y6.7102 Z-1.032
G1 X18.9348 Y6.6925 Z-1.035
G1 X18.94 Y6.6745 Z-1.038
G1 X18.9441 Y6.6561 Z-1.041
G1 X18.947 Y6.6375 Z-1.044
G1 X18.9488 Y6.6188 Z-1.047
G1 X18.9494 Y6.6 Z-1.05
G1 X18.9488 Y6.5812 Z-1.053
G1 X18.947 Y6.5625 Z-1.056
G1 X18.9441 Y6.5439 Z-1.059
G1 X18.94 Y6.5255 Z-1.062
G1 X18.9348 Y6.5075 Z-1.065
G1 X18.9284 Y6.4898 Z-1.068
G1 X18.9209 Y6.4725 Z-1.071
G1 X18.9124 Y6.4558 Z-1.074
G1 X18.9028 Y6.4396 Z-1.077
G1 X18.8922 Y6.424 Z-1.08
G1 X18.8807 Y6.4092 Z-1.083
G1 X18.8683 Y6.395 Z-1.086
G1 X18.855 Y6.3817 Z-1.089
G1 X18.8408 Y6.3693 Z-1.092
G1 X18.826 Y6.3578 Z-1.095
G1 X18.8104 Y6.3472 Z-1.098
G1 X18.7942 Y6.3376 Z-1.101
G1 X18.7775 Y6.3291 Z-1.104
G1 X18.7602 Y6.3216 Z-1.107
G1 X18.7425 Y6.3152 Z-1.11
G1 X18.7245 Y6.31 Z-1.113
G1 X18.7061 Y6.3059 Z-1.116
G1 X18.6875 Y6.303 Z-1.119
G1 X18.6688 Y6.3012 Z-1.122
G1 X18.65 Y6.3006 Z-1.125
G1 X18.6312 Y6.3012 Z-1.128
G1 X18.6125 Y6.303 Z-1.131
G1 X18.5939 Y6.3059 Z-1.134
G1 X18.5755 Y6.31 Z-1.137
G1 X18.5575 Y6.3152 Z-1.14
G1 X18.5398 Y6.3216 Z-1.143
G1 X18.5225 Y6.3291 Z-1.146
G1 X18.5058 Y6.3376 Z-1.149
G1 X18.4896 Y6.3472 Z-1.152
G1 X18.474 Y6.3578 Z-1.155
G1 X18.4592 Y6.3693 Z-1.158
G1 X18.445 Y6.3817 Z-1.161
G1 X18.4317 Y6.395 Z-1.164
G1 X18.4193 Y6.4092 Z-1.167
G1 X18.4078 Y6.424 Z-1.17
G1 X18.3972 Y6.4396 Z-1.173
G1 X18.3876 Y6.4558 Z-1.176
G1 X18.3791 Y6.4725 Z-1.179
G1 X18.3716 Y6.4898 Z-1.182
G1 X18.3652 Y6.5075 Z-1.185
G1 X18.36 Y6.5255 Z-1.188
G1 X18.3559 Y6.5439 Z-1.191
G1 X18.353 Y6.5625 Z-1.194
G1 X18.3512 Y6.5812 Z-1.197
G1 X18.3506 Y6.6 Z-1.2
G1 X18.3512 Y6.6188 Z-1.203
G1 X18.353 Y6.6375 Z-1.206
G1 X18.3559 Y6.6561 Z-1.209
G1 X18.36 Y6.6745 Z-1.212
G1 X18.3652 Y6.6925 Z-1.215
G1 X18.3716 Y6.7102 Z-1.218
G1 X18.3791 Y6.7275 Z-1.221
G1 X18.3876 Y6.7442 Z-1.224
G1 X18.3972 Y6.7604 Z-1.227
G1 X18.4078 Y6.776 Z-1.23
G1 X18.4193 Y6.7909 Z-1.233
G1 X18.4317 Y6.805 Z-1.236
G1 X18.445 Y6.8183 Z-1.239
G1 X18.4591 Y6.8307 Z-1.242
G1 X18.474 Y6.8422 Z-1.245
G1 X18.4896 Y6.8528 Z-1.248
G1 X18.5058 Y6.8624 Z-1.251
G1 X18.5225 Y6.8709 Z-1.254
G1 X18.5398 Y6.8784 Z-1.257
G1 X18.5575 Y6.8848 Z-1.26
G1 X18.5755 Y6.89 Z-1.263
G1 X18.5939 Y6.8941 Z-1.266
G1 X18.6125 Y6.897 Z-1.269
G1 X18.6312 Y6.8988 Z-1.272
G1 X18.65 Y6.8994 Z-1.275
G1 X18.6688 Y6.8988 Z-1.278
G1 X18.6875 Y6.897 Z-1.281
G1 X18.7061 Y6.8941 Z-1.284
G1 X18.7245 Y6.89 Z-1.287
G1 X18.7425 Y6.8848 Z-1.29
G1 X18.7602 Y6.8784 Z-1.293
G1 X18.7775 Y6.8709 Z-1.296
G1 X18.7942 Y6.8624 Z-1.299
G1 X18.8104 Y6.8528 Z-1.302
G1 X18.826 Y6.8422 Z-1.305
G1 X18.8408 Y6.8307 Z-1.308
G1 X18.855 Y6.8183 Z-1.311
G1 X18.8683 Y6.805 Z-1.314
G1 X18.8807 Y6.7908 Z-1.317
G1 X18.8922 Y6.776 Z-1.32
G1 X18.9028 Y6.7604 Z-1.323
G1 X18.9124 Y6.7442 Z-1.326
G1 X18.9209 Y6.7275 Z-1.329
G1 X18.9284 Y6.7102 Z-1.332
G1 X18.9348 Y6.6925 Z-1.335
G1 X18.94 Y6.6745 Z-1.338
G1 X18.9441 Y6.6561 Z-1.341
G1 X18.947 Y6.6375 Z-1.344
G1 X18.9488 Y6.6188 Z-1.347
G1 X18.9494 Y6.6 Z-1.35
G1 X18.9488 Y6.5812 Z-1.353
G1 X18.947 Y6.5625 Z-1.356
G1 X18.9441 Y6.5439 Z-1.359
G1 X18.94 Y6.5255 Z-1.362
G1 X18.9348 Y6.5075 Z-1.365
G1 X18.9284 Y6.4898 Z-1.368
G1 X18.9209 Y6.4725 Z-1.371
G1 X18.9124 Y6.4558 Z-1.374
G1 X18.9028 Y6.4396 Z-1.377
G1 X18.8922 Y6.424 Z-1.38
G1 X18.8807 Y6.4092 Z-1.383
G1 X18.8683 Y6.395 Z-1.386
G1 X18.855 Y6.3817 Z-1.389
G1 X18.8408 Y6.3693 Z-1.392
G1 X18.826 Y6.3578 Z-1.395
G1 X18.8104 Y6.3472 Z-1.398
G1 X18.7942 Y6.3376 Z-1.401
G1 X18.7775 Y6.3291 Z-1.404
G1 X18.7602 Y6.3216 Z-1.407
G1 X18.7425 Y6.3152 Z-1.41
G1 X18.7245 Y6.31 Z-1.413
G1 X18.7061 Y6.3059 Z-1.416
G1 X18.6875 Y6.303 Z-1.419
G1 X18.6688 Y6.3012 Z-1.422
G1 X18.65 Y6.3006 Z-1.425
G1 X18.6312 Y6.3012 Z-1.428
G1 X18.6125 Y6.303 Z-1.431
G1 X18.5939 Y6.3059 Z-1.434
G1 X18.5755 Y6.31 Z-1.437
G1 X18.5575 Y6.3152 Z-1.44
G1 X18.5398 Y6.3216 Z-1.443
G1 X18.5225 Y6.3291 Z-1.446
G1 X18.5058 Y6.3376 Z-1.449
G1 X18.4896 Y6.3472 Z-1.452
G1 X18.474 Y6.3578 Z-1.455
G1 X18.4592 Y6.3693 Z-1.458
G1 X18.445 Y6.3817 Z-1.461
G1 X18.4317 Y6.395 Z-1.464
G1 X18.4193 Y6.4092 Z-1.467
G1 X18.4078 Y6.424 Z-1.47
G1 X18.3972 Y6.4396 Z-1.473
G1 X18.3876 Y6.4558 Z-1.476
G1 X18.3791 Y6.4725 Z-1.479
G1 X18.3716 Y6.4898 Z-1.482
G1 X18.3652 Y6.5075 Z-1.485
G1 X18.36 Y6.5255 Z-1.488
G1 X18.3559 Y6.5439 Z-1.491
G1 X18.353 Y6.5625 Z-1.494
G1 X18.3512 Y6.5812 Z-1.497
G1 X18.3506 Y6.6 Z-1.5
G1 X18.3512 Y6.6188 Z-1.503
G1 X18.353 Y6.6375 Z-1.506
G1 X18.3559 Y6.6561 Z-1.509
G1 X18.36 Y6.6745 Z-1.512
G1 X18.3652 Y6.6925 Z-1.515
G1 X18.3716 Y6.7102 Z-1.518
G1 X18.3791 Y6.7275 Z-1.521
G1 X18.3876 Y6.7442 Z-1.524
G1 X18.3972 Y6.7604 Z-1.527
G1 X18.4078 Y6.776 Z-1.53
G1 X18.4193 Y6.7909 Z-1.533
G1 X18.4317 Y6.805 Z-1.536
G1 X18.445 Y6.8183 Z-1.539
G1 X18.4591 Y6.8307 Z-1.542
G1 X18.474 Y6.8422 Z-1.545
G1 X18.4896 Y6.8528 Z-1.548
G1 X18.5058 Y6.8624 Z-1.551
G1 X18.5225 Y6.8709 Z-1.554
G1 X18.5398 Y6.8784 Z-1.557
G1 X18.5575 Y6.8848 Z-1.56
G1 X18.5755 Y6.89 Z-1.563
G1 X18.5939 Y6.8941 Z-1.566
G1 X18.6125 Y6.897 Z-1.569
G1 X18.6312 Y6.8988 Z-1.572
G1 X18.65 Y6.8994 Z-1.575
G1 X18.6688 Y6.8988 Z-1.578
G1 X18.6875 Y6.897 Z-1.581
G1 X18.7061 Y6.8941 Z-1.584
G1 X18.7245 Y6.89 Z-1.587
G1 X18.7425 Y6.8848 Z-1.59
G1 X18.7602 Y6.8784 Z-1.593
G1 X18.7775 Y6.8709 Z-1.596
G1 X18.7942 Y6.8624 Z-1.599
G1 X18.8104 Y6.8528 Z-1.602
G1 X18.826 Y6.8422 Z-1.605
G1 X18.8408 Y6.8307 Z-1.608
G1 X18.855 Y6.8183 Z-1.611
G1 X18.8683 Y6.805 Z-1.614
G1 X18.8807 Y6.7908 Z-1.617
G1 X18.8922 Y6.776 Z-1.62
G1 X18.9028 Y6.7604 Z-1.623
G1 X18.9124 Y6.7442 Z-1.626
G1 X18.9209 Y6.7275 Z-1.629
G1 X18.9284 Y6.7102 Z-1.632
G1 X18.9348 Y6.6925 Z-1.635
G1 X18.94 Y6.6745 Z-1.638
G1 X18.9441 Y6.6561 Z-1.641
G1 X18.947 Y6.6375 Z-1.644
G1 X18.9488 Y6.6188 Z-1.647
G1 X18.9494 Y6.6 Z-1.65
G1 X18.9488 Y6.5812 Z-1.653
G1 X18.947 Y6.5625 Z-1.656
G1 X18.9441 Y6.5439 Z-1.659
G1 X18.94 Y6.5255 Z-1.662
G1 X18.9348 Y6.5075 Z-1.665
G1 X18.9284 Y6.4898 Z-1.668
G1 X18.9209 Y6.4725 Z-1.671
G1 X18.9124 Y6.4558 Z-1.674
G1 X18.9028 Y6.4396 Z-1.677
G1 X18.8922 Y6.424 Z-1.68
G1 X18.8807 Y6.4092 Z-1.683
G1 X18.8683 Y6.395 Z-1.686
G1 X18.855 Y6.3817 Z-1.689
G1 X18.8408 Y6.3693 Z-1.692
G1 X18.826 Y6.3578 Z-1.695
G1 X18.8104 Y6.3472 Z-1.698
G1 X18.7942 Y6.3376 Z-1.701
G1 X18.7775 Y6.3291 Z-1.704
G1 X18.7602 Y6.3216 Z-1.707
G1 X18.7425 Y6.3152 Z-1.71
G1 X18.7245 Y6.31 Z-1.713
G1 X18.7061 Y6.3059 Z-1.716
G1 X18.6875 Y6.303 Z-1.719
G1 X18.6688 Y6.3012 Z-1.722
G1 X18.65 Y6.3006 Z-1.725
G1 X18.6312 Y6.3012 Z-1.728
G1 X18.6125 Y6.303 Z-1.731
G1 X18.5939 Y6.3059 Z-1.734
G1 X18.5755 Y6.31 Z-1.737
G1 X18.5575 Y6.3152 Z-1.74
G1 X18.5398 Y6.3216 Z-1.743
G1 X18.5225 Y6.3291 Z-1.746
G1 X18.5058 Y6.3376 Z-1.749
G1 X18.4896 Y6.3472 Z-1.752
G1 X18.474 Y6.3578 Z-1.755
G1 X18.4592 Y6.3693 Z-1.758
G1 X18.445 Y6.3817 Z-1.761
G1 X18.4317 Y6.395 Z-1.764
G1 X18.4193 Y6.4092 Z-1.767
G1 X18.4078 Y6.424 Z-1.77
G1 X18.3972 Y6.4396 Z-1.773
G1 X18.3876 Y6.4558 Z-1.776
G1 X18.3791 Y6.4725 Z-1.779
G1 X18.3716 Y6.4898 Z-1.782
G1 X18.3652 Y6.5075 Z-1.785
G1 X18.36 Y6.5255 Z-1.788
G1 X18.3559 Y6.5439 Z-1.791
G1 X18.353 Y6.5625 Z-1.794
G1 X18.3512 Y6.5812 Z-1.797
G1 X18.3506 Y6.6 Z-1.8
G1 X18.3512 Y6.6188 Z-1.803
G1 X18.353 Y6.6375 Z-1.806
G1 X18.3559 Y6.6561 Z-1.809
G1 X18.36 Y6.6745 Z-1.812
G1 X18.3652 Y6.6925 Z-1.815
G1 X18.3716 Y6.7102 Z-1.818
G1 X18.3791 Y6.7275 Z-1.821
G1 X18.3876 Y6.7442 Z-1.824
G1 X18.3972 Y6.7604 Z-1.827
G1 X18.4078 Y6.776 Z-1.83
G1 X18.4193 Y6.7909 Z-1.833
G1 X18.4317 Y6.805 Z-1.836
G1 X18.445 Y6.8183 Z-1.839
G1 X18.4591 Y6.8307 Z-1.842
G1 X18.474 Y6.8422 Z-1.845
G1 X18.4896 Y6.8528 Z-1.848
G1 X18.5058 Y6.8624 Z-1.851
G1 X18.5225 Y6.8709 Z-1.854
G1 X18.5398 Y6.8784 Z-1.857
G1 X18.5575 Y6.8848 Z-1.86
G1 X18.5755 Y6.89 Z-1.863
G1 X18.5939 Y6.8941 Z-1.866
G1 X18.6125 Y6.897 Z-1.869
G1 X18.6312 Y6.8988 Z-1.872
G1 X18.65 Y6.8994 Z-1.875
G1 X18.6688 Y6.8988 Z-1.878
G1 X18.6875 Y6.897 Z-1.881
G1 X18.7061 Y6.8941 Z-1.884
G1 X18.7245 Y6.89 Z-1.887
G1 X18.7425 Y6.8848 Z-1.89
G1 X18.7602 Y6.8784 Z-1.893
G1 X18.7775 Y6.8709 Z-1.896
G1 X18.7942 Y6.8624 Z-1.899
G1 X18.8104 Y6.8528 Z-1.902
G1 X18.826 Y6.8422 Z-1.905
G1 X18.8408 Y6.8307 Z-1.908
G1 X18.855 Y6.8183 Z-1.911
G1 X18.8683 Y6.805 Z-1.914
G1 X18.8807 Y6.7908 Z-1.917
G1 X18.8922 Y6.776 Z-1.92
G1 X18.9028 Y6.7604 Z-1.923
G1 X18.9124 Y6.7442 Z-1.926
G1 X18.9209 Y6.7275 Z-1.929
G1 X18.9284 Y6.7102 Z-1.932
G1 X18.9348 Y6.6925 Z-1.935
G1 X18.94 Y6.6745 Z-1.938
G1 X18.9441 Y6.6561 Z-1.941
G1 X18.947 Y6.6375 Z-1.944
G1 X18.9488 Y6.6188 Z-1.947
G1 X18.9494 Y6.6 Z-1.95
G1 X18.9488 Y6.5812 Z-1.953
G1 X18.947 Y6.5625 Z-1.956
G1 X18.9441 Y6.5439 Z-1.959
G1 X18.94 Y6.5255 Z-1.962
G1 X18.9348 Y6.5075 Z-1.965
G1 X18.9284 Y6.4898 Z-1.968
G1 X18.9209 Y6.4725 Z-1.971
G1 X18.9124 Y6.4558 Z-1.974
G1 X18.9028 Y6.4396 Z-1.977
G1 X18.8922 Y6.424 Z-1.98
G1 X18.8807 Y6.4092 Z-1.983
G1 X18.8683 Y6.395 Z-1.986
G1 X18.855 Y6.3817 Z-1.989
G1 X18.8408 Y6.3693 Z-1.992
G1 X18.826 Y6.3578 Z-1.995
G1 X18.8104 Y6.3472 Z-1.998
G1 X18.7942 Y6.3376 Z-2.001
G1 X18.7775 Y6.3291 Z-2.004
G1 X18.7602 Y6.3216 Z-2.007
G1 X18.7425 Y6.3152 Z-2.01
G1 X18.7245 Y6.31 Z-2.013
G1 X18.7061 Y6.3059 Z-2.016
G1 X18.6875 Y6.303 Z-2.019
G1 X18.6688 Y6.3012 Z-2.022
G1 X18.65 Y6.3006 Z-2.025
G1 X18.6312 Y6.3012 Z-2.028
G1 X18.6125 Y6.303 Z-2.031
G1 X18.5939 Y6.3059 Z-2.034
G1 X18.5755 Y6.31 Z-2.037
G1 X18.5575 Y6.3152 Z-2.04
G1 X18.5398 Y6.3216 Z-2.043
G1 X18.5225 Y6.3291 Z-2.046
G1 X18.5058 Y6.3376 Z-2.049
G1 X18.4896 Y6.3472 Z-2.052
G1 X18.474 Y6.3578 Z-2.055
G1 X18.4592 Y6.3693 Z-2.058
G1 X18.445 Y6.3817 Z-2.061
G1 X18.4317 Y6.395 Z-2.064
G1 X18.4193 Y6.4092 Z-2.067
G1 X18.4078 Y6.424 Z-2.07
G1 X18.3972 Y6.4396 Z-2.073
G1 X18.3876 Y6.4558 Z-2.076
G1 X18.3791 Y6.4725 Z-2.079
G1 X18.3716 Y6.4898 Z-2.082
G1 X18.3652 Y6.5075 Z-2.085
G1 X18.36 Y6.5255 Z-2.088
G1 X18.3559 Y6.5439 Z-2.091
G1 X18.353 Y6.5625 Z-2.094
G1 X18.3512 Y6.5812 Z-2.097
G1 X18.3506 Y6.6 Z-2.1
G1 X18.3512 Y6.6188 Z-2.103
G1 X18.353 Y6.6375 Z-2.106
G1 X18.3559 Y6.6561 Z-2.109
G1 X18.36 Y6.6745 Z-2.112
G1 X18.3652 Y6.6925 Z-2.115
G1 X18.3716 Y6.7102 Z-2.118
G1 X18.3791 Y6.7275 Z-2.121
G1 X18.3876 Y6.7442 Z-2.124
G1 X18.3972 Y6.7604 Z-2.127
G1 X18.4078 Y6.776 Z-2.13
G1 X18.4193 Y6.7909 Z-2.133
G1 X18.4317 Y6.805 Z-2.136
G1 X18.445 Y6.8183 Z-2.139
G1 X18.4591 Y6.8307 Z-2.142
G1 X18.474 Y6.8422 Z-2.145
G1 X18.4896 Y6.8528 Z-2.148
G1 X18.5058 Y6.8624 Z-2.151
G1 X18.5225 Y6.8709 Z-2.154
G1 X18.5398 Y6.8784 Z-2.157
G1 X18.5575 Y6.8848 Z-2.16
G1 X18.5755 Y6.89 Z-2.163
G1 X18.5939 Y6.8941 Z-2.166
G1 X18.6125 Y6.897 Z-2.169
G1 X18.6312 Y6.8988 Z-2.172
G1 X18.65 Y6.8994 Z-2.175
G1 X18.6688 Y6.8988 Z-2.178
G1 X18.6875 Y6.897 Z-2.181
G1 X18.7061 Y6.8941 Z-2.184
G1 X18.7245 Y6.89 Z-2.187
G1 X18.7425 Y6.8848 Z-2.19
G1 X18.7602 Y6.8784 Z-2.193
G1 X18.7775 Y6.8709 Z-2.196
G1 X18.7942 Y6.8624 Z-2.199
G1 X18.8104 Y6.8528 Z-2.202
G1 X18.826 Y6.8422 Z-2.205
G1 X18.8408 Y6.8307 Z-2.208
G1 X18.855 Y6.8183 Z-2.211
G1 X18.8683 Y6.805 Z-2.214
G1 X18.8807 Y6.7908 Z-2.217
G1 X18.8922 Y6.776 Z-2.22
G1 X18.9028 Y6.7604 Z-2.223
G1 X18.9124 Y6.7442 Z-2.226
G1 X18.9209 Y6.7275 Z-2.229
G1 X18.9284 Y6.7102 Z-2.232
G1 X18.9348 Y6.6925 Z-2.235
G1 X18.94 Y6.6745 Z-2.238
G1 X18.9441 Y6.6561 Z-2.241
G1 X18.947 Y6.6375 Z-2.244
G1 X18.9488 Y6.6188 Z-2.247
G1 X18.9494 Y6.6 Z-2.25
G1 X18.9488 Y6.5812 Z-2.253
G1 X18.947 Y6.5625 Z-2.256
G1 X18.9441 Y6.5439 Z-2.259
G1 X18.94 Y6.5255 Z-2.262
G1 X18.9348 Y6.5075 Z-2.265
G1 X18.9284 Y6.4898 Z-2.268
G1 X18.9209 Y6.4725 Z-2.271
G1 X18.9124 Y6.4558 Z-2.274
G1 X18.9028 Y6.4396 Z-2.277
G1 X18.8922 Y6.424 Z-2.28
G1 X18.8807 Y6.4092 Z-2.283
G1 X18.8683 Y6.395 Z-2.286
G1 X18.855 Y6.3817 Z-2.289
G1 X18.8408 Y6.3693 Z-2.292
G1 X18.826 Y6.3578 Z-2.295
G1 X18.8104 Y6.3472 Z-2.298
G1 X18.7942 Y6.3376 Z-2.301
G1 X18.7775 Y6.3291 Z-2.304
G1 X18.7602 Y6.3216 Z-2.307
G1 X18.7425 Y6.3152 Z-2.31
G1 X18.7245 Y6.31 Z-2.313
G1 X18.7061 Y6.3059 Z-2.316
G1 X18.6875 Y6.303 Z-2.319
G1 X18.6688 Y6.3012 Z-2.322
G1 X18.65 Y6.3006 Z-2.325
G1 X18.6312 Y6.3012 Z-2.328
G1 X18.6125 Y6.303 Z-2.331
G1 X18.5939 Y6.3059 Z-2.334
G1 X18.5755 Y6.31 Z-2.337
G1 X18.5575 Y6.3152 Z-2.34
G1 X18.5398 Y6.3216 Z-2.343
G1 X18.5225 Y6.3291 Z-2.346
G1 X18.5058 Y6.3376 Z-2.349
G1 X18.4896 Y6.3472 Z-2.352
G1 X18.474 Y6.3578 Z-2.355
G1 X18.4592 Y6.3693 Z-2.358
G1 X18.445 Y6.3817 Z-2.361
G1 X18.4317 Y6.395 Z-2.364
G1 X18.4193 Y6.4092 Z-2.367
G1 X18.4078 Y6.424 Z-2.37
G1 X18.3972 Y6.4396 Z-2.373
G1 X18.3876 Y6.4558 Z-2.376
G1 X18.3791 Y6.4725 Z-2.379
G1 X18.3716 Y6.4898 Z-2.382
G1 X18.3652 Y6.5075 Z-2.385
G1 X18.36 Y6.5255 Z-2.388
G1 X18.3559 Y6.5439 Z-2.391
G1 X18.353 Y6.5625 Z-2.394
G1 X18.3512 Y6.5812 Z-2.397
G1 X18.3506 Y6.6 Z-2.4
G1 X18.3512 Y6.6188 Z-2.403
G1 X18.353 Y6.6375 Z-2.406
G1 X18.3559 Y6.6561 Z-2.409
G1 X18.36 Y6.6745 Z-2.412
G1 X18.3652 Y6.6925 Z-2.415
G1 X18.3716 Y6.7102 Z-2.418
G1 X18.3791 Y6.7275 Z-2.421
G1 X18.3876 Y6.7442 Z-2.424
G1 X18.3972 Y6.7604 Z-2.427
G1 X18.4078 Y6.776 Z-2.43
G1 X18.4193 Y6.7909 Z-2.433
G1 X18.4317 Y6.805 Z-2.436
G1 X18.445 Y6.8183 Z-2.439
G1 X18.4591 Y6.8307 Z-2.442
G1 X18.474 Y6.8422 Z-2.445
G1 X18.4896 Y6.8528 Z-2.448
G1 X18.5058 Y6.8624 Z-2.451
G1 X18.5225 Y6.8709 Z-2.454
G1 X18.5398 Y6.8784 Z-2.457
G1 X18.5575 Y6.8848 Z-2.46
G1 X18.5755 Y6.89 Z-2.463
G1 X18.5939 Y6.8941 Z-2.466
G1 X18.6125 Y6.897 Z-2.469
G1 X18.6312 Y6.8988 Z-2.472
G1 X18.65 Y6.8994 Z-2.475
G1 X18.6688 Y6.8988 Z-2.478
G1 X18.6875 Y6.897 Z-2.481
G1 X18.7061 Y6.8941 Z-2.484
G1 X18.7245 Y6.89 Z-2.487
G1 X18.7425 Y6.8848 Z-2.49
G1 X18.7602 Y6.8784 Z-2.493
G1 X18.7775 Y6.8709 Z-2.496
G1 X18.7942 Y6.8624 Z-2.499
G1 X18.8104 Y6.8528 Z-2.502
G1 X18.826 Y6.8422 Z-2.505
G1 X18.8408 Y6.8307 Z-2.508
G1 X18.855 Y6.8183 Z-2.511
G1 X18.8683 Y6.805 Z-2.514
G1 X18.8807 Y6.7908 Z-2.517
G1 X18.8922 Y6.776 Z-2.52
G1 X18.9028 Y6.7604 Z-2.523
G1 X18.9124 Y6.7442 Z-2.526
G1 X18.9209 Y6.7275 Z-2.529
G1 X18.9284 Y6.7102 Z-2.532
G1 X18.9348 Y6.6925 Z-2.535
G1 X18.94 Y6.6745 Z-2.538
G1 X18.9441 Y6.6561 Z-2.541
G1 X18.947 Y6.6375 Z-2.544
G1 X18.9488 Y6.6188 Z-2.547
G1 X18.9494 Y6.6 Z-2.55
G1 X18.9488 Y6.5812 Z-2.553
G1 X18.947 Y6.5625 Z-2.556
G1 X18.9441 Y6.5439 Z-2.559
G1 X18.94 Y6.5255 Z-2.562
G1 X18.9348 Y6.5075 Z-2.565
G1 X18.9284 Y6.4898 Z-2.568
G1 X18.9209 Y6.4725 Z-2.571
G1 X18.9124 Y6.4558 Z-2.574
G1 X18.9028 Y6.4396 Z-2.577
G1 X18.8922 Y6.424 Z-2.58
G1 X18.8807 Y6.4092 Z-2.583
G1 X18.8683 Y6.395 Z-2.586
G1 X18.855 Y6.3817 Z-2.589
G1 X18.8408 Y6.3693 Z-2.592
G1 X18.826 Y6.3578 Z-2.595
G1 X18.8104 Y6.3472 Z-2.598
G1 X18.7942 Y6.3376 Z-2.601
G1 X18.7775 Y6.3291 Z-2.604
G1 X18.7602 Y6.3216 Z-2.607
G1 X18.7425 Y6.3152 Z-2.61
G1 X18.7245 Y6.31 Z-2.613
G1 X18.7061 Y6.3059 Z-2.616
G1 X18.6875 Y6.303 Z-2.619
G1 X18.6688 Y6.3012 Z-2.622
G1 X18.65 Y6.3006 Z-2.625
G1 X18.6312 Y6.3012 Z-2.628
G1 X18.6125 Y6.303 Z-2.631
G1 X18.5939 Y6.3059 Z-2.634
G1 X18.5755 Y6.31 Z-2.637
G1 X18.5575 Y6.3152 Z-2.64
G1 X18.5398 Y6.3216 Z-2.643
G1 X18.5225 Y6.3291 Z-2.646
G1 X18.5058 Y6.3376 Z-2.649
G1 X18.4896 Y6.3472 Z-2.652
G1 X18.474 Y6.3578 Z-2.655
G1 X18.4592 Y6.3693 Z-2.658
G1 X18.445 Y6.3817 Z-2.661
G1 X18.4317 Y6.395 Z-2.664
G1 X18.4193 Y6.4092 Z-2.667
G1 X18.4078 Y6.424 Z-2.67
G1 X18.3972 Y6.4396 Z-2.673
G1 X18.3876 Y6.4558 Z-2.676
G1 X18.3791 Y6.4725 Z-2.679
G1 X18.3716 Y6.4898 Z-2.682
G1 X18.3652 Y6.5075 Z-2.685
G1 X18.36 Y6.5255 Z-2.688
G1 X18.3559 Y6.5439 Z-2.691
G1 X18.353 Y6.5625 Z-2.694
G1 X18.3512 Y6.5812 Z-2.697
G1 X18.3506 Y6.6 Z-2.7
G1 X18.3512 Y6.6188 Z-2.703
G1 X18.353 Y6.6375 Z-2.706
G1 X18.3559 Y6.6561 Z-2.709
G1 X18.36 Y6.6745 Z-2.712
G1 X18.3652 Y6.6925 Z-2.715
G1 X18.3716 Y6.7102 Z-2.718
G1 X18.3791 Y6.7275 Z-2.721
G1 X18.3876 Y6.7442 Z-2.724
G1 X18.3972 Y6.7604 Z-2.727
G1 X18.4078 Y6.776 Z-2.73
G1 X18.4193 Y6.7909 Z-2.733
G1 X18.4317 Y6.805 Z-2.736
G1 X18.445 Y6.8183 Z-2.739
G1 X18.4591 Y6.8307 Z-2.742
G1 X18.474 Y6.8422 Z-2.745
G1 X18.4896 Y6.8528 Z-2.748
G1 X18.5058 Y6.8624 Z-2.751
G1 X18.5225 Y6.8709 Z-2.754
G1 X18.5398 Y6.8784 Z-2.757
G1 X18.5575 Y6.8848 Z-2.76
G1 X18.5755 Y6.89 Z-2.763
G1 X18.5939 Y6.8941 Z-2.766
G1 X18.6125 Y6.897 Z-2.769
G1 X18.6312 Y6.8988 Z-2.772
G1 X18.65 Y6.8994 Z-2.775
G1 X18.6688 Y6.8988 Z-2.778
G1 X18.6875 Y6.897 Z-2.781
G1 X18.7061 Y6.8941 Z-2.784
G1 X18.7245 Y6.89 Z-2.787
G1 X18.7425 Y6.8848 Z-2.79
G1 X18.7602 Y6.8784 Z-2.793
G1 X18.7775 Y6.8709 Z-2.796
G1 X18.7942 Y6.8624 Z-2.799
G1 X18.8104 Y6.8528 Z-2.802
G1 X18.826 Y6.8422 Z-2.805
G1 X18.8408 Y6.8307 Z-2.808
G1 X18.855 Y6.8183 Z-2.811
G1 X18.8683 Y6.805 Z-2.814
G1 X18.8807 Y6.7908 Z-2.817
G1 X18.8922 Y6.776 Z-2.82
G1 X18.9028 Y6.7604 Z-2.823
G1 X18.9124 Y6.7442 Z-2.826
G1 X18.9209 Y6.7275 Z-2.829
G1 X18.9284 Y6.7102 Z-2.832
G1 X18.9348 Y6.6925 Z-2.835
G1 X18.94 Y6.6745 Z-2.838
G1 X18.9441 Y6.6561 Z-2.841
G1 X18.947 Y6.6375 Z-2.844
G1 X18.9488 Y6.6188 Z-2.847
G1 X18.9494 Y6.6 Z-2.85
G1 X18.9488 Y6.5812 Z-2.853
G1 X18.947 Y6.5625 Z-2.856
G1 X18.9441 Y6.5439 Z-2.859
G1 X18.94 Y6.5255 Z-2.862
G1 X18.9348 Y6.5075 Z-2.865
G1 X18.9284 Y6.4898 Z-2.868
G1 X18.9209 Y6.4725 Z-2.871
G1 X18.9124 Y6.4558 Z-2.874
G1 X18.9028 Y6.4396 Z-2.877
G1 X18.8922 Y6.424 Z-2.88
G1 X18.8807 Y6.4092 Z-2.883
G1 X18.8683 Y6.395 Z-2.886
G1 X18.855 Y6.3817 Z-2.889
G1 X18.8408 Y6.3693 Z-2.892
G1 X18.826 Y6.3578 Z-2.895
G1 X18.8104 Y6.3472 Z-2.898
G1 X18.7942 Y6.3376 Z-2.901
G1 X18.7775 Y6.3291 Z-2.904
G1 X18.7602 Y6.3216 Z-2.907
G1 X18.7425 Y6.3152 Z-2.91
G1 X18.7245 Y6.31 Z-2.913
G1 X18.7061 Y6.3059 Z-2.916
G1 X18.6875 Y6.303 Z-2.919
G1 X18.6688 Y6.3012 Z-2.922
G1 X18.65 Y6.3006 Z-2.925
G1 X18.6312 Y6.3012 Z-2.928
G1 X18.6125 Y6.303 Z-2.931
G1 X18.5939 Y6.3059 Z-2.934
G1 X18.5755 Y6.31 Z-2.937
G1 X18.5575 Y6.3152 Z-2.94
G1 X18.5398 Y6.3216 Z-2.943
G1 X18.5225 Y6.3291 Z-2.946
G1 X18.5058 Y6.3376 Z-2.949
G1 X18.4896 Y6.3472 Z-2.952
G1 X18.474 Y6.3578 Z-2.955
G1 X18.4592 Y6.3693 Z-2.958
G1 X18.445 Y6.3817 Z-2.961
G1 X18.4317 Y6.395 Z-2.964
G1 X18.4193 Y6.4092 Z-2.967
G1 X18.4078 Y6.424 Z-2.97
G1 X18.3972 Y6.4396 Z-2.973
G1 X18.3876 Y6.4558 Z-2.976
G1 X18.3791 Y6.4725 Z-2.979
G1 X18.3716 Y6.4898 Z-2.982
G1 X18.3652 Y6.5075 Z-2.985
G1 X18.36 Y6.5255 Z-2.988
G1 X18.3559 Y6.5439 Z-2.991
G1 X18.353 Y6.5625 Z-2.994
G1 X18.3512 Y6.5812 Z-2.997
G1 X18.3506 Y6.6 Z-3.0
G1 X18.3512 Y6.6188 Z-3.003
G1 X18.353 Y6.6375 Z-3.006
G1 X18.3559 Y6.6561 Z-3.009
G1 X18.36 Y6.6745 Z-3.012
G1 X18.3652 Y6.6925 Z-3.015
G1 X18.3716 Y6.7102 Z-3.018
G1 X18.3791 Y6.7275 Z-3.021
G1 X18.3876 Y6.7442 Z-3.024
G1 X18.3972 Y6.7604 Z-3.027
G1 X18.4078 Y6.776 Z-3.03
G1 X18.4193 Y6.7909 Z-3.033
G1 X18.4317 Y6.805 Z-3.036
G1 X18.445 Y6.8183 Z-3.039
G1 X18.4591 Y6.8307 Z-3.042
G1 X18.474 Y6.8422 Z-3.045
G1 X18.4896 Y6.8528 Z-3.048
G1 X18.5058 Y6.8624 Z-3.051
G1 X18.5225 Y6.8709 Z-3.054
G1 X18.5398 Y6.8784 Z-3.057
G1 X18.5575 Y6.8848 Z-3.06
G1 X18.5755 Y6.89 Z-3.063
G1 X18.5939 Y6.8941 Z-3.066
G1 X18.6125 Y6.897 Z-3.069
G1 X18.6312 Y6.8988 Z-3.072
G1 X18.65 Y6.8994 Z-3.075
G1 X18.6688 Y6.8988 Z-3.078
G1 X18.6875 Y6.897 Z-3.081
G1 X18.7061 Y6.8941 Z-3.084
G1 X18.7245 Y6.89 Z-3.087
G1 X18.7425 Y6.8848 Z-3.09
G1 X18.7602 Y6.8784 Z-3.093
G1 X18.7775 Y6.8709 Z-3.096
G1 X18.7942 Y6.8624 Z-3.099
G1 X18.8104 Y6.8528 Z-3.102
G1 X18.826 Y6.8422 Z-3.105
G1 X18.8408 Y6.8307 Z-3.108
G1 X18.855 Y6.8183 Z-3.111
G1 X18.8683 Y6.805 Z-3.114
G1 X18.8807 Y6.7908 Z-3.117
G1 X18.8922 Y6.776 Z-3.12
G1 X18.9028 Y6.7604 Z-3.123
G1 X18.9124 Y6.7442 Z-3.126
G1 X18.9209 Y6.7275 Z-3.129
G1 X18.9284 Y6.7102 Z-3.132
G1 X18.9348 Y6.6925 Z-3.135
G1 X18.94 Y6.6745 Z-3.138
G1 X18.9441 Y6.6561 Z-3.141
G1 X18.947 Y6.6375 Z-3.144
G1 X18.9488 Y6.6188 Z-3.147
G1 X18.9494 Y6.6 Z-3.15
G1 X18.9488 Y6.5812 Z-3.153
G1 X18.947 Y6.5625 Z-3.156
G1 X18.9441 Y6.5439 Z-3.159
G1 X18.94 Y6.5255 Z-3.162
G1 X18.9348 Y6.5075 Z-3.165
G1 X18.9284 Y6.4898 Z-3.168
G1 X18.9209 Y6.4725 Z-3.171
G1 X18.9124 Y6.4558 Z-3.174
G1 X18.9028 Y6.4396 Z-3.177
G1 X18.8922 Y6.424 Z-3.18
G1 X18.8807 Y6.4092 Z-3.183
G1 X18.8683 Y6.395 Z-3.186
G1 X18.855 Y6.3817 Z-3.189
G1 X18.8408 Y6.3693 Z-3.192
G1 X18.826 Y6.3578 Z-3.195
G1 X18.8104 Y6.3472 Z-3.198
G1 X18.7942 Y6.3376 Z-3.201
G1 X18.7775 Y6.3291 Z-3.204
G1 X18.7602 Y6.3216 Z-3.207
G1 X18.7425 Y6.3152 Z-3.21
G1 X18.7245 Y6.31 Z-3.213
G1 X18.7061 Y6.3059 Z-3.216
G1 X18.6875 Y6.303 Z-3.219
G1 X18.6688 Y6.3012 Z-3.222
G1 X18.65 Y6.3006 Z-3.225
G1 X18.6312 Y6.3012 Z-3.228
G1 X18.6125 Y6.303 Z-3.231
G1 X18.5939 Y6.3059 Z-3.234
G1 X18.5755 Y6.31 Z-3.237
G1 X18.5575 Y6.3152 Z-3.24
G1 X18.5398 Y6.3216 Z-3.243
G1 X18.5225 Y6.3291 Z-3.246
G1 X18.5058 Y6.3376 Z-3.249
G1 X18.4896 Y6.3472 Z-3.252
G1 X18.474 Y6.3578 Z-3.255
G1 X18.4592 Y6.3693 Z-3.258
G1 X18.445 Y6.3817 Z-3.261
G1 X18.4317 Y6.395 Z-3.264
G1 X18.4193 Y6.4092 Z-3.267
G1 X18.4078 Y6.424 Z-3.27
G1 X18.3972 Y6.4396 Z-3.273
G1 X18.3876 Y6.4558 Z-3.276
G1 X18.3791 Y6.4725 Z-3.279
G1 X18.3716 Y6.4898 Z-3.282
G1 X18.3652 Y6.5075 Z-3.285
G1 X18.36 Y6.5255 Z-3.288
G1 X18.3559 Y6.5439 Z-3.291
G1 X18.353 Y6.5625 Z-3.294
G1 X18.3512 Y6.5812 Z-3.297
G1 X18.3506 Y6.6 Z-3.3
G1 X18.3512 Y6.6188 Z-3.303
G1 X18.353 Y6.6375 Z-3.306
G1 X18.3559 Y6.6561 Z-3.309
G1 X18.36 Y6.6745 Z-3.312
G1 X18.3652 Y6.6925 Z-3.315
G1 X18.3716 Y6.7102 Z-3.318
G1 X18.3791 Y6.7275 Z-3.321
G1 X18.3876 Y6.7442 Z-3.324
G1 X18.3972 Y6.7604 Z-3.327
G1 X18.4078 Y6.776 Z-3.33
G1 X18.4193 Y6.7909 Z-3.333
G1 X18.4317 Y6.805 Z-3.336
G1 X18.445 Y6.8183 Z-3.339
G1 X18.4591 Y6.8307 Z-3.342
G1 X18.474 Y6.8422 Z-3.345
G1 X18.4896 Y6.8528 Z-3.348
G1 X18.5058 Y6.8624 Z-3.351
G1 X18.5225 Y6.8709 Z-3.354
G1 X18.5398 Y6.8784 Z-3.357
G1 X18.5575 Y6.8848 Z-3.36
G1 X18.5755 Y6.89 Z-3.363
G1 X18.5939 Y6.8941 Z-3.366
G1 X18.6125 Y6.897 Z-3.369
G1 X18.6312 Y6.8988 Z-3.372
G1 X18.65 Y6.8994 Z-3.375
G1 X18.6688 Y6.8988 Z-3.378
G1 X18.6875 Y6.897 Z-3.381
G1 X18.7061 Y6.8941 Z-3.384
G1 X18.7245 Y6.89 Z-3.387
G1 X18.7425 Y6.8848 Z-3.39
G1 X18.7602 Y6.8784 Z-3.393
G1 X18.7775 Y6.8709 Z-3.396
G1 X18.7942 Y6.8624 Z-3.399
G1 X18.8104 Y6.8528 Z-3.402
G1 X18.826 Y6.8422 Z-3.405
G1 X18.8408 Y6.8307 Z-3.408
G1 X18.855 Y6.8183 Z-3.411
G1 X18.8683 Y6.805 Z-3.414
G1 X18.8807 Y6.7908 Z-3.417
G1 X18.8922 Y6.776 Z-3.42
G1 X18.9028 Y6.7604 Z-3.423
G1 X18.9124 Y6.7442 Z-3.426
G1 X18.9209 Y6.7275 Z-3.429
G1 X18.9284 Y6.7102 Z-3.432
G1 X18.9348 Y6.6925 Z-3.435
G1 X18.94 Y6.6745 Z-3.438
G1 X18.9441 Y6.6561 Z-3.441
G1 X18.947 Y6.6375 Z-3.444
G1 X18.9488 Y6.6188 Z-3.447
G1 X18.9494 Y6.6 Z-3.45
G1 X18.9488 Y6.5812 Z-3.453
G1 X18.947 Y6.5625 Z-3.456
G1 X18.9441 Y6.5439 Z-3.459
G1 X18.94 Y6.5255 Z-3.462
G1 X18.9348 Y6.5075 Z-3.465
G1 X18.9284 Y6.4898 Z-3.468
G1 X18.9209 Y6.4725 Z-3.471
G1 X18.9124 Y6.4558 Z-3.474
G1 X18.9028 Y6.4396 Z-3.477
G1 X18.8922 Y6.424 Z-3.48
G1 X18.8807 Y6.4092 Z-3.483
G1 X18.8683 Y6.395 Z-3.486
G1 X18.855 Y6.3817 Z-3.489
G1 X18.8408 Y6.3693 Z-3.492
G1 X18.826 Y6.3578 Z-3.495
G1 X18.8104 Y6.3472 Z-3.498
G1 X18.7942 Y6.3376 Z-3.501
G1 X18.7775 Y6.3291 Z-3.504
G1 X18.7602 Y6.3216 Z-3.507
G1 X18.7425 Y6.3152 Z-3.51
G1 X18.7245 Y6.31 Z-3.513
G1 X18.7061 Y6.3059 Z-3.516
G1 X18.6875 Y6.303 Z-3.519
G1 X18.6688 Y6.3012 Z-3.522
G1 X18.65 Y6.3006 Z-3.525
G1 X18.6312 Y6.3012 Z-3.528
G1 X18.6125 Y6.303 Z-3.531
G1 X18.5939 Y6.3059 Z-3.534
G1 X18.5755 Y6.31 Z-3.537
G1 X18.5575 Y6.3152 Z-3.54
G1 X18.5398 Y6.3216 Z-3.543
G1 X18.5225 Y6.3291 Z-3.546
G1 X18.5058 Y6.3376 Z-3.549
G1 X18.4896 Y6.3472 Z-3.552
G1 X18.474 Y6.3578 Z-3.555
G1 X18.4592 Y6.3693 Z-3.558
G1 X18.445 Y6.3817 Z-3.561
G1 X18.4317 Y6.395 Z-3.564
G1 X18.4193 Y6.4092 Z-3.567
G1 X18.4078 Y6.424 Z-3.57
G1 X18.3972 Y6.4396 Z-3.573
G1 X18.3876 Y6.4558 Z-3.576
G1 X18.3791 Y6.4725 Z-3.579
G1 X18.3716 Y6.4898 Z-3.582
G1 X18.3652 Y6.5075 Z-3.585
G1 X18.36 Y6.5255 Z-3.588
G1 X18.3559 Y6.5439 Z-3.591
G1 X18.353 Y6.5625 Z-3.594
G1 X18.3512 Y6.5812 Z-3.597
G1 X18.3506 Y6.6 Z-3.6
G1 X18.3512 Y6.6188 Z-3.603
G1 X18.353 Y6.6375 Z-3.606
G1 X18.3559 Y6.6561 Z-3.609
G1 X18.36 Y6.6745 Z-3.612
G1 X18.3652 Y6.6925 Z-3.615
G1 X18.3716 Y6.7102 Z-3.618
G1 X18.3791 Y6.7275 Z-3.621
G1 X18.3876 Y6.7442 Z-3.624
G1 X18.3972 Y6.7604 Z-3.627
G1 X18.4078 Y6.776 Z-3.63
G1 X18.4193 Y6.7909 Z-3.633
G1 X18.4317 Y6.805 Z-3.636
G1 X18.445 Y6.8183 Z-3.639
G1 X18.4591 Y6.8307 Z-3.642
G1 X18.474 Y6.8422 Z-3.645
G1 X18.4896 Y6.8528 Z-3.648
G1 X18.5058 Y6.8624 Z-3.651
G1 X18.5225 Y6.8709 Z-3.654
G1 X18.5398 Y6.8784 Z-3.657
G1 X18.5575 Y6.8848 Z-3.66
G1 X18.5755 Y6.89 Z-3.663
G1 X18.5939 Y6.8941 Z-3.666
G1 X18.6125 Y6.897 Z-3.669
G1 X18.6312 Y6.8988 Z-3.672
G1 X18.65 Y6.8994 Z-3.675
G1 X18.6688 Y6.8988 Z-3.678
G1 X18.6875 Y6.897 Z-3.681
G1 X18.7061 Y6.8941 Z-3.684
G1 X18.7245 Y6.89 Z-3.687
G1 X18.7425 Y6.8848 Z-3.69
G1 X18.7602 Y6.8784 Z-3.693
G1 X18.7775 Y6.8709 Z-3.696
G1 X18.7942 Y6.8624 Z-3.699
G1 X18.8104 Y6.8528 Z-3.702
G1 X18.826 Y6.8422 Z-3.705
G1 X18.8408 Y6.8307 Z-3.708
G1 X18.855 Y6.8183 Z-3.711
G1 X18.8683 Y6.805 Z-3.714
G1 X18.8807 Y6.7908 Z-3.717
G1 X18.8922 Y6.776 Z-3.72
G1 X18.9028 Y6.7604 Z-3.723
G1 X18.9124 Y6.7442 Z-3.726
G1 X18.9209 Y6.7275 Z-3.729
G1 X18.9284 Y6.7102 Z-3.732
G1 X18.9348 Y6.6925 Z-3.735
G1 X18.94 Y6.6745 Z-3.738
G1 X18.9441 Y6.6561 Z-3.741
G1 X18.947 Y6.6375 Z-3.744
G1 X18.9488 Y6.6188 Z-3.747
G1 X18.9494 Y6.6 Z-3.75
G1 X18.9488 Y6.5812 Z-3.753
G1 X18.947 Y6.5625 Z-3.756
G1 X18.9441 Y6.5439 Z-3.759
G1 X18.94 Y6.5255 Z-3.762
G1 X18.9348 Y6.5075 Z-3.765
G1 X18.9284 Y6.4898 Z-3.768
G1 X18.9209 Y6.4725 Z-3.771
G1 X18.9124 Y6.4558 Z-3.774
G1 X18.9028 Y6.4396 Z-3.777
G1 X18.8922 Y6.424 Z-3.78
G1 X18.8807 Y6.4092 Z-3.783
G1 X18.8683 Y6.395 Z-3.786
G1 X18.855 Y6.3817 Z-3.789
G1 X18.8408 Y6.3693 Z-3.792
G1 X18.826 Y6.3578 Z-3.795
G1 X18.8104 Y6.3472 Z-3.798
G1 X18.7942 Y6.3376 Z-3.801
G1 X18.7775 Y6.3291 Z-3.804
G1 X18.7602 Y6.3216 Z-3.807
G1 X18.7425 Y6.3152 Z-3.81
G1 X18.7245 Y6.31 Z-3.813
G1 X18.7061 Y6.3059 Z-3.816
G1 X18.6875 Y6.303 Z-3.819
G1 X18.6688 Y6.3012 Z-3.822
G1 X18.65 Y6.3006 Z-3.825
G1 X18.6312 Y6.3012 Z-3.828
G1 X18.6125 Y6.303 Z-3.831
G1 X18.5939 Y6.3059 Z-3.834
G1 X18.5755 Y6.31 Z-3.837
G1 X18.5575 Y6.3152 Z-3.84
G1 X18.5398 Y6.3216 Z-3.843
G1 X18.5225 Y6.3291 Z-3.846
G1 X18.5058 Y6.3376 Z-3.849
G1 X18.4896 Y6.3472 Z-3.852
G1 X18.474 Y6.3578 Z-3.855
G1 X18.4592 Y6.3693 Z-3.858
G1 X18.445 Y6.3817 Z-3.861
G1 X18.4317 Y6.395 Z-3.864
G1 X18.4193 Y6.4092 Z-3.867
G1 X18.4078 Y6.424 Z-3.87
G1 X18.3972 Y6.4396 Z-3.873
G1 X18.3876 Y6.4558 Z-3.876
G1 X18.3791 Y6.4725 Z-3.879
G1 X18.3716 Y6.4898 Z-3.882
G1 X18.3652 Y6.5075 Z-3.885
G1 X18.36 Y6.5255 Z-3.888
G1 X18.3559 Y6.5439 Z-3.891
G1 X18.353 Y6.5625 Z-3.894
G1 X18.3512 Y6.5812 Z-3.897
G1 X18.3506 Y6.6 Z-3.9
G1 X18.3512 Y6.6188 Z-3.903
G1 X18.353 Y6.6375 Z-3.906
G1 X18.3559 Y6.6561 Z-3.909
G1 X18.36 Y6.6745 Z-3.912
G1 X18.3652 Y6.6925 Z-3.915
G1 X18.3716 Y6.7102 Z-3.918
G1 X18.3791 Y6.7275 Z-3.921
G1 X18.3876 Y6.7442 Z-3.924
G1 X18.3972 Y6.7604 Z-3.927
G1 X18.4078 Y6.776 Z-3.93
G1 X18.4193 Y6.7909 Z-3.933
G1 X18.4317 Y6.805 Z-3.936
G1 X18.445 Y6.8183 Z-3.939
G1 X18.4591 Y6.8307 Z-3.942
G1 X18.474 Y6.8422 Z-3.945
G1 X18.4896 Y6.8528 Z-3.948
G1 X18.5058 Y6.8624 Z-3.951
G1 X18.5225 Y6.8709 Z-3.954
G1 X18.5398 Y6.8784 Z-3.957
G1 X18.5575 Y6.8848 Z-3.96
G1 X18.5755 Y6.89 Z-3.963
G1 X18.5939 Y6.8941 Z-3.966
G1 X18.6125 Y6.897 Z-3.969
G1 X18.6312 Y6.8988 Z-3.972
G1 X18.65 Y6.8994 Z-3.975
G1 X18.6688 Y6.8988 Z-3.978
G1 X18.6875 Y6.897 Z-3.981
G1 X18.7061 Y6.8941 Z-3.984
G1 X18.7245 Y6.89 Z-3.987
G1 X18.7425 Y6.8848 Z-3.99
G1 X18.7602 Y6.8784 Z-3.993
G1 X18.7775 Y6.8709 Z-3.996
G1 X18.7942 Y6.8624 Z-3.999
G1 X18.8104 Y6.8528 Z-4.002
G1 X18.826 Y6.8422 Z-4.005
G1 X18.8408 Y6.8307 Z-4.008
G1 X18.855 Y6.8183 Z-4.011
G1 X18.8683 Y6.805 Z-4.014
G1 X18.8807 Y6.7908 Z-4.017
G1 X18.8922 Y6.776 Z-4.02
G1 X18.9028 Y6.7604 Z-4.023
G1 X18.9124 Y6.7442 Z-4.026
G1 X18.9209 Y6.7275 Z-4.029
G1 X18.9284 Y6.7102 Z-4.032
G1 X18.9348 Y6.6925 Z-4.035
G1 X18.94 Y6.6745 Z-4.038
G1 X18.9441 Y6.6561 Z-4.041
G1 X18.947 Y6.6375 Z-4.044
G1 X18.9488 Y6.6188 Z-4.047
G1 X18.9494 Y6.6 Z-4.05
G1 X18.9488 Y6.5812 Z-4.053
G1 X18.947 Y6.5625 Z-4.056
G1 X18.9441 Y6.5439 Z-4.059
G1 X18.94 Y6.5255 Z-4.062
G1 X18.9348 Y6.5075 Z-4.065
G1 X18.9284 Y6.4898 Z-4.068
G1 X18.9209 Y6.4725 Z-4.071
G1 X18.9124 Y6.4558 Z-4.074
G1 X18.9028 Y6.4396 Z-4.077
G1 X18.8922 Y6.424 Z-4.08
G1 X18.8807 Y6.4092 Z-4.083
G1 X18.8683 Y6.395 Z-4.086
G1 X18.855 Y6.3817 Z-4.089
G1 X18.8408 Y6.3693 Z-4.092
G1 X18.826 Y6.3578 Z-4.095
G1 X18.8104 Y6.3472 Z-4.098
G1 X18.7942 Y6.3376 Z-4.101
G1 X18.7775 Y6.3291 Z-4.104
G1 X18.7602 Y6.3216 Z-4.107
G1 X18.7425 Y6.3152 Z-4.11
G1 X18.7245 Y6.31 Z-4.113
G1 X18.7061 Y6.3059 Z-4.116
G1 X18.6875 Y6.303 Z-4.119
G1 X18.6688 Y6.3012 Z-4.122
G1 X18.65 Y6.3006 Z-4.125
G1 X18.6312 Y6.3012 Z-4.128
G1 X18.6125 Y6.303 Z-4.131
G1 X18.5939 Y6.3059 Z-4.134
G1 X18.5755 Y6.31 Z-4.137
G1 X18.5575 Y6.3152 Z-4.14
G1 X18.5398 Y6.3216 Z-4.143
G1 X18.5225 Y6.3291 Z-4.146
G1 X18.5058 Y6.3376 Z-4.149
G1 X18.4896 Y6.3472 Z-4.152
G1 X18.474 Y6.3578 Z-4.155
G1 X18.4592 Y6.3693 Z-4.158
G1 X18.445 Y6.3817 Z-4.161
G1 X18.4317 Y6.395 Z-4.164
G1 X18.4193 Y6.4092 Z-4.167
G1 X18.4078 Y6.424 Z-4.17
G1 X18.3972 Y6.4396 Z-4.173
G1 X18.3876 Y6.4558 Z-4.176
G1 X18.3791 Y6.4725 Z-4.179
G1 X18.3716 Y6.4898 Z-4.182
G1 X18.3652 Y6.5075 Z-4.185
G1 X18.36 Y6.5255 Z-4.188
G1 X18.3559 Y6.5439 Z-4.191
G1 X18.353 Y6.5625 Z-4.194
G1 X18.3512 Y6.5812 Z-4.197
G1 X18.3506 Y6.6 Z-4.2
G1 X18.3512 Y6.6188
G1 X18.353 Y6.6375
G1 X18.3559 Y6.6561
G1 X18.36 Y6.6745
G1 X18.3652 Y6.6925
G1 X18.3716 Y6.7102
G1 X18.3791 Y6.7275
G1 X18.3876 Y6.7442
G1 X18.3972 Y6.7604
G1 X18.4078 Y6.776
G1 X18.4193 Y6.7909
G1 X18.4317 Y6.805
G1 X18.445 Y6.8183
G1 X18.4591 Y6.8307
G1 X18.474 Y6.8422
G1 X18.4896 Y6.8528
G1 X18.5058 Y6.8624
G1 X18.5225 Y6.8709
G1 X18.5398 Y6.8784
G1 X18.5575 Y6.8848
G1 X18.5755 Y6.89
G1 X18.5939 Y6.8941
G1 X18.6125 Y6.897
G1 X18.6312 Y6.8988
G1 X18.65 Y6.8994
G1 X18.6688 Y6.8988
G1 X18.6875 Y6.897
G1 X18.7061 Y6.8941
G1 X18.7245 Y6.89
G1 X18.7425 Y6.8848
G1 X18.7602 Y6.8784
G1 X18.7775 Y6.8709
G1 X18.7942 Y6.8624
G1 X18.8104 Y6.8528
G1 X18.826 Y6.8422
G1 X18.8408 Y6.8307
G1 X18.855 Y6.8183
G1 X18.8683 Y6.805
G1 X18.8807 Y6.7908
G1 X18.8922 Y6.776
G1 X18.9028 Y6.7604
G1 X18.9124 Y6.7442
G1 X18.9209 Y6.7275
G1 X18.9284 Y6.7102
G1 X18.9348 Y6.6925
G1 X18.94 Y6.6745
G1 X18.9441 Y6.6561
G1 X18.947 Y6.6375
G1 X18.9488 Y6.6188
G1 X18.9494 Y6.6
G1 X18.9488 Y6.5812
G1 X18.947 Y6.5625
G1 X18.9441 Y6.5439
G1 X18.94 Y6.5255
G1 X18.9348 Y6.5075
G1 X18.9284 Y6.4898
G1 X18.9209 Y6.4725
G1 X18.9124 Y6.4558
G1 X18.9028 Y6.4396
G1 X18.8922 Y6.424
G1 X18.8807 Y6.4092
G1 X18.8683 Y6.395
G1 X18.855 Y6.3817
G1 X18.8408 Y6.3693
G1 X18.826 Y6.3578
G1 X18.8104 Y6.3472
G1 X18.7942 Y6.3376
G1 X18.7775 Y6.3291
G1 X18.7602 Y6.3216
G1 X18.7425 Y6.3152
G1 X18.7245 Y6.31
G1 X18.7061 Y6.3059
G1 X18.6875 Y6.303
G1 X18.6688 Y6.3012
G1 X18.65 Y6.3006
G1 X18.6312 Y6.3012
G1 X18.6125 Y6.303
G1 X18.5939 Y6.3059
G1 X18.5755 Y6.31
G1 X18.5575 Y6.3152
G1 X18.5398 Y6.3216
G1 X18.5225 Y6.3291
G1 X18.5058 Y6.3376
G1 X18.4896 Y6.3472
G1 X18.474 Y6.3578
G1 X18.4592 Y6.3693
G1 X18.445 Y6.3817
G1 X18.4317 Y6.395
G1 X18.4193 Y6.4092
G1 X18.4078 Y6.424
G1 X18.3972 Y6.4396
G1 X18.3876 Y6.4558
G1 X18.3791 Y6.4725
G1 X18.3716 Y6.4898
G1 X18.3652 Y6.5075
G1 X18.36 Y6.5255
G1 X18.3559 Y6.5439
G1 X18.353 Y6.5625
G1 X18.3512 Y6.5812
G1 X18.3506 Y6.6
G0 Z3.0
G0 X30.3506
G0 Z1.0
G1 F300.0 Z0.0
G1 F800.0 X30.3512 Y6.6188 Z-0.003
G1 X30.353 Y6.6375 Z-0.006
G1 X30.3559 Y6.6561 Z-0.009
G1 X30.36 Y6.6745 Z-0.012
G1 X30.3652 Y6.6925 Z-0.015
G1 X30.3716 Y6.7102 Z-0.018
G1 X30.3791 Y6.7275 Z-0.021
G1 X30.3876 Y6.7442 Z-0.024
G1 X30.3972 Y6.7604 Z-0.027
G1 X30.4078 Y6.776 Z-0.03
G1 X30.4193 Y6.7909 Z-0.033
G1 X30.4317 Y6.805 Z-0.036
G1 X30.445 Y6.8183 Z-0.039
G1 X30.4591 Y6.8307 Z-0.042
G1 X30.474 Y6.8422 Z-0.045
G1 X30.4896 Y6.8528 Z-0.048
G1 X30.5058 Y6.8624 Z-0.051
G1 X30.5225 Y6.8709 Z-0.054
G1 X30.5398 Y6.8784 Z-0.057
G1 X30.5575 Y6.8848 Z-0.06
G1 X30.5755 Y6.89 Z-0.063
G1 X30.5939 Y6.8941 Z-0.066
G1 X30.6125 Y6.897 Z-0.069
G1 X30.6312 Y6.8988 Z-0.072
G1 X30.65 Y6.8994 Z-0.075
G1 X30.6688 Y6.8988 Z-0.078
G1 X30.6875 Y6.897 Z-0.081
G1 X30.7061 Y6.8941 Z-0.084
G1 X30.7245 Y6.89 Z-0.087
G1 X30.7425 Y6.8848 Z-0.09
G1 X30.7602 Y6.8784 Z-0.093
G1 X30.7775 Y6.8709 Z-0.096
G1 X30.7942 Y6.8624 Z-0.099
G1 X30.8104 Y6.8528 Z-0.102
G1 X30.826 Y6.8422 Z-0.105
G1 X30.8408 Y6.8307 Z-0.108
G1 X30.855 Y6.8183 Z-0.111
G1 X30.8683 Y6.805 Z-0.114
G1 X30.8807 Y6.7908 Z-0.117
G1 X30.8922 Y6.776 Z-0.12
G1 X30.9028 Y6.7604 Z-0.123
G1 X30.9124 Y6.7442 Z-0.126
G1 X30.9209 Y6.7275 Z-0.129
G1 X30.9284 Y6.7102 Z-0.132
G1 X30.9348 Y6.6925 Z-0.135
G1 X30.94 Y6.6745 Z-0.138
G1 X30.9441 Y6.6561 Z-0.141
G1 X30.947 Y6.6375 Z-0.144
G1 X30.9488 Y6.6188 Z-0.147
G1 X30.9494 Y6.6 Z-0.15
G1 X30.9488 Y6.5812 Z-0.153
G1 X30.947 Y6.5625 Z-0.156
G1 X30.9441 Y6.5439 Z-0.159
G1 X30.94 Y6.5255 Z-0.162
G1 X30.9348 Y6.5075 Z-0.165
G1 X30.9284 Y6.4898 Z-0.168
G1 X30.9209 Y6.4725 Z-0.171
G1 X30.9124 Y6.4558 Z-0.174
G1 X30.9028 Y6.4396 Z-0.177
G1 X30.8922 Y6.424 Z-0.18
G1 X30.8807 Y6.4092 Z-0.183
G1 X30.8683 Y6.395 Z-0.186
G1 X30.855 Y6.3817 Z-0.189
G1 X30.8408 Y6.3693 Z-0.192
G1 X30.826 Y6.3578 Z-0.195
G1 X30.8104 Y6.3472 Z-0.198
G1 X30.7942 Y6.3376 Z-0.201
G1 X30.7775 Y6.3291 Z-0.204
G1 X30.7602 Y6.3216 Z-0.207
G1 X30.7425 Y6.3152 Z-0.21
G1 X30.7245 Y6.31 Z-0.213
G1 X30.7061 Y6.3059 Z-0.216
G1 X30.6875 Y6.303 Z-0.219
G1 X30.6688 Y6.3012 Z-0.222
G1 X30.65 Y6.3006 Z-0.225
G1 X30.6312 Y6.3012 Z-0.228
G1 X30.6125 Y6.303 Z-0.231
G1 X30.5939 Y6.3059 Z-0.234
G1 X30.5755 Y6.31 Z-0.237
G1 X30.5575 Y6.3152 Z-0.24
G1 X30.5398 Y6.3216 Z-0.243
G1 X30.5225 Y6.3291 Z-0.246
G1 X30.5058 Y6.3376 Z-0.249
G1 X30.4896 Y6.3472 Z-0.252
G1 X30.474 Y6.3578 Z-0.255
G1 X30.4592 Y6.3693 Z-0.258
G1 X30.445 Y6.3817 Z-0.261
G1 X30.4317 Y6.395 Z-0.264
G1 X30.4193 Y6.4092 Z-0.267
G1 X30.4078 Y6.424 Z-0.27
G1 X30.3972 Y6.4396 Z-0.273
G1 X30.3876 Y6.4558 Z-0.276
G1 X30.3791 Y6.4725 Z-0.279
G1 X30.3716 Y6.4898 Z-0.282
G1 X30.3652 Y6.5075 Z-0.285
G1 X30.36 Y6.5255 Z-0.288
G1 X30.3559 Y6.5439 Z-0.291
G1 X30.353 Y6.5625 Z-0.294
G1 X30.3512 Y6.5812 Z-0.297
G1 X30.3506 Y6.6 Z-0.3
G1 X30.3512 Y6.6188 Z-0.303
G1 X30.353 Y6.6375 Z-0.306
G1 X30.3559 Y6.6561 Z-0.309
G1 X30.36 Y6.6745 Z-0.312
G1 X30.3652 Y6.6925 Z-0.315
G1 X30.3716 Y6.7102 Z-0.318
G1 X30.3791 Y6.7275 Z-0.321
G1 X30.3876 Y6.7442 Z-0.324
G1 X30.3972 Y6.7604 Z-0.327
G1 X30.4078 Y6.776 Z-0.33
G1 X30.4193 Y6.7909 Z-0.333
G1 X30.4317 Y6.805 Z-0.336
G1 X30.445 Y6.8183 Z-0.339
G1 X30.4591 Y6.8307 Z-0.342
G1 X30.474 Y6.8422 Z-0.345
G1 X30.4896 Y6.8528 Z-0.348
G1 X30.5058 Y6.8624 Z-0.351
G1 X30.5225 Y6.8709 Z-0.354
G1 X30.5398 Y6.8784 Z-0.357
G1 X30.5575 Y6.8848 Z-0.36
G1 X30.5755 Y6.89 Z-0.363
G1 X30.5939 Y6.8941 Z-0.366
G1 X30.6125 Y6.897 Z-0.369
G1 X30.6312 Y6.8988 Z-0.372
G1 X30.65 Y6.8994 Z-0.375
G1 X30.6688 Y6.8988 Z-0.378
G1 X30.6875 Y6.897 Z-0.381
G1 X30.7061 Y6.8941 Z-0.384
G1 X30.7245 Y6.89 Z-0.387
G1 X30.7425 Y6.8848 Z-0.39
G1 X30.7602 Y6.8784 Z-0.393
G1 X30.7775 Y6.8709 Z-0.396
G1 X30.7942 Y6.8624 Z-0.399
G1 X30.8104 Y6.8528 Z-0.402
G1 X30.826 Y6.8422 Z-0.405
G1 X30.8408 Y6.8307 Z-0.408
G1 X30.855 Y6.8183 Z-0.411
G1 X30.8683 Y6.805 Z-0.414
G1 X30.8807 Y6.7908 Z-0.417
G1 X30.8922 Y6.776 Z-0.42
G1 X30.9028 Y6.7604 Z-0.423
G1 X30.9124 Y6.7442 Z-0.426
G1 X30.9209 Y6.7275 Z-0.429
G1 X30.9284 Y6.7102 Z-0.432
G1 X30.9348 Y6.6925 Z-0.435
G1 X30.94 Y6.6745 Z-0.438
G1 X30.9441 Y6.6561 Z-0.441
G1 X30.947 Y6.6375 Z-0.444
G1 X30.9488 Y6.6188 Z-0.447
G1 X30.9494 Y6.6 Z-0.45
G1 X30.9488 Y6.5812 Z-0.453
G1 X30.947 Y6.5625 Z-0.456
G1 X30.9441 Y6.5439 Z-0.459
G1 X30.94 Y6.5255 Z-0.462
G1 X30.9348 Y6.5075 Z-0.465
G1 X30.9284 Y6.4898 Z-0.468
G1 X30.9209 Y6.4725 Z-0.471
G1 X30.9124 Y6.4558 Z-0.474
G1 X30.9028 Y6.4396 Z-0.477
G1 X30.8922 Y6.424 Z-0.48
G1 X30.8807 Y6.4092 Z-0.483
G1 X30.8683 Y6.395 Z-0.486
G1 X30.855 Y6.3817 Z-0.489
G1 X30.8408 Y6.3693 Z-0.492
G1 X30.826 Y6.3578 Z-0.495
G1 X30.8104 Y6.3472 Z-0.498
G1 X30.7942 Y6.3376 Z-0.501
G1 X30.7775 Y6.3291 Z-0.504
G1 X30.7602 Y6.3216 Z-0.507
G1 X30.7425 Y6.3152 Z-0.51
G1 X30.7245 Y6.31 Z-0.513
G1 X30.7061 Y6.3059 Z-0.516
G1 X30.6875 Y6.303 Z-0.519
G1 X30.6688 Y6.3012 Z-0.522
G1 X30.65 Y6.3006 Z-0.525
G1 X30.6312 Y6.3012 Z-0.528
G1 X30.6125 Y6.303 Z-0.531
G1 X30.5939 Y6.3059 Z-0.534
G1 X30.5755 Y6.31 Z-0.537
G1 X30.5575 Y6.3152 Z-0.54
G1 X30.5398 Y6.3216 Z-0.543
G1 X30.5225 Y6.3291 Z-0.546
G1 X30.5058 Y6.3376 Z-0.549
G1 X30.4896 Y6.3472 Z-0.552
G1 X30.474 Y6.3578 Z-0.555
G1 X30.4592 Y6.3693 Z-0.558
G1 X30.445 Y6.3817 Z-0.561
G1 X30.4317 Y6.395 Z-0.564
G1 X30.4193 Y6.4092 Z-0.567
G1 X30.4078 Y6.424 Z-0.57
G1 X30.3972 Y6.4396 Z-0.573
G1 X30.3876 Y6.4558 Z-0.576
G1 X30.3791 Y6.4725 Z-0.579
G1 X30.3716 Y6.4898 Z-0.582
G1 X30.3652 Y6.5075 Z-0.585
G1 X30.36 Y6.5255 Z-0.588
G1 X30.3559 Y6.5439 Z-0.591
G1 X30.353 Y6.5625 Z-0.594
G1 X30.3512 Y6.5812 Z-0.597
G1 X30.3506 Y6.6 Z-0.6
G1 X30.3512 Y6.6188 Z-0.603
G1 X30.353 Y6.6375 Z-0.606
G1 X30.3559 Y6.6561 Z-0.609
G1 X30.36 Y6.6745 Z-0.612
G1 X30.3652 Y6.6925 Z-0.615
G1 X30.3716 Y6.7102 Z-0.618
G1 X30.3791 Y6.7275 Z-0.621
G1 X30.3876 Y6.7442 Z-0.624
G1 X30.3972 Y6.7604 Z-0.627
G1 X30.4078 Y6.776 Z-0.63
G1 X30.4193 Y6.7909 Z-0.633
G1 X30.4317 Y6.805 Z-0.636
G1 X30.445 Y6.8183 Z-0.639
G1 X30.4591 Y6.8307 Z-0.642
G1 X30.474 Y6.8422 Z-0.645
G1 X30.4896 Y6.8528 Z-0.648
G1 X30.5058 Y6.8624 Z-0.651
G1 X30.5225 Y6.8709 Z-0.654
G1 X30.5398 Y6.8784 Z-0.657
G1 X30.5575 Y6.8848 Z-0.66
G1 X30.5755 Y6.89 Z-0.663
G1 X30.5939 Y6.8941 Z-0.666
G1 X30.6125 Y6.897 Z-0.669
G1 X30.6312 Y6.8988 Z-0.672
G1 X30.65 Y6.8994 Z-0.675
G1 X30.6688 Y6.8988 Z-0.678
G1 X30.6875 Y6.897 Z-0.681
G1 X30.7061 Y6.8941 Z-0.684
G1 X30.7245 Y6.89 Z-0.687
G1 X30.7425 Y6.8848 Z-0.69
G1 X30.7602 Y6.8784 Z-0.693
G1 X30.7775 Y6.8709 Z-0.696
G1 X30.7942 Y6.8624 Z-0.699
G1 X30.8104 Y6.8528 Z-0.702
G1 X30.826 Y6.8422 Z-0.705
G1 X30.8408 Y6.8307 Z-0.708
G1 X30.855 Y6.8183 Z-0.711
G1 X30.8683 Y6.805 Z-0.714
G1 X30.8807 Y6.7908 Z-0.717
G1 X30.8922 Y6.776 Z-0.72
G1 X30.9028 Y6.7604 Z-0.723
G1 X30.9124 Y6.7442 Z-0.726
G1 X30.9209 Y6.7275 Z-0.729
G1 X30.9284 Y6.7102 Z-0.732
G1 X30.9348 Y6.6925 Z-0.735
G1 X30.94 Y6.6745 Z-0.738
G1 X30.9441 Y6.6561 Z-0.741
G1 X30.947 Y6.6375 Z-0.744
G1 X30.9488 Y6.6188 Z-0.747
G1 X30.9494 Y6.6 Z-0.75
G1 X30.9488 Y6.5812 Z-0.753
G1 X30.947 Y6.5625 Z-0.756
G1 X30.9441 Y6.5439 Z-0.759
G1 X30.94 Y6.5255 Z-0.762
G1 X30.9348 Y6.5075 Z-0.765
G1 X30.9284 Y6.4898 Z-0.768
G1 X30.9209 Y6.4725 Z-0.771
G1 X30.9124 Y6.4558 Z-0.774
G1 X30.9028 Y6.4396 Z-0.777
G1 X30.8922 Y6.424 Z-0.78
G1 X30.8807 Y6.4092 Z-0.783
G1 X30.8683 Y6.395 Z-0.786
G1 X30.855 Y6.3817 Z-0.789
G1 X30.8408 Y6.3693 Z-0.792
G1 X30.826 Y6.3578 Z-0.795
G1 X30.8104 Y6.3472 Z-0.798
G1 X30.7942 Y6.3376 Z-0.801
G1 X30.7775 Y6.3291 Z-0.804
G1 X30.7602 Y6.3216 Z-0.807
G1 X30.7425 Y6.3152 Z-0.81
G1 X30.7245 Y6.31 Z-0.813
G1 X30.7061 Y6.3059 Z-0.816
G1 X30.6875 Y6.303 Z-0.819
G1 X30.6688 Y6.3012 Z-0.822
G1 X30.65 Y6.3006 Z-0.825
G1 X30.6312 Y6.3012 Z-0.828
G1 X30.6125 Y6.303 Z-0.831
G1 X30.5939 Y6.3059 Z-0.834
G1 X30.5755 Y6.31 Z-0.837
G1 X30.5575 Y6.3152 Z-0.84
G1 X30.5398 Y6.3216 Z-0.843
G1 X30.5225 Y6.3291 Z-0.846
G1 X30.5058 Y6.3376 Z-0.849
G1 X30.4896 Y6.3472 Z-0.852
G1 X30.474 Y6.3578 Z-0.855
G1 X30.4592 Y6.3693 Z-0.858
G1 X30.445 Y6.3817 Z-0.861
G1 X30.4317 Y6.395 Z-0.864
G1 X30.4193 Y6.4092 Z-0.867
G1 X30.4078 Y6.424 Z-0.87
G1 X30.3972 Y6.4396 Z-0.873
G1 X30.3876 Y6.4558 Z-0.876
G1 X30.3791 Y6.4725 Z-0.879
G1 X30.3716 Y6.4898 Z-0.882
G1 X30.3652 Y6.5075 Z-0.885
G1 X30.36 Y6.5255 Z-0.888
G1 X30.3559 Y6.5439 Z-0.891
G1 X30.353 Y6.5625 Z-0.894
G1 X30.3512 Y6.5812 Z-0.897
G1 X30.3506 Y6.6 Z-0.9
G1 X30.3512 Y6.6188 Z-0.903
G1 X30.353 Y6.6375 Z-0.906
G1 X30.3559 Y6.6561 Z-0.909
G1 X30.36 Y6.6745 Z-0.912
G1 X30.3652 Y6.6925 Z-0.915
G1 X30.3716 Y6.7102 Z-0.918
G1 X30.3791 Y6.7275 Z-0.921
G1 X30.3876 Y6.7442 Z-0.924
G1 X30.3972 Y6.7604 Z-0.927
G1 X30.4078 Y6.776 Z-0.93
G1 X30.4193 Y6.7909 Z-0.933
G1 X30.4317 Y6.805 Z-0.936
G1 X30.445 Y6.8183 Z-0.939
G1 X30.4591 Y6.8307 Z-0.942
G1 X30.474 Y6.8422 Z-0.945
G1 X30.4896 Y6.8528 Z-0.948
G1 X30.5058 Y6.8624 Z-0.951
G1 X30.5225 Y6.8709 Z-0.954
G1 X30.5398 Y6.8784 Z-0.957
G1 X30.5575 Y6.8848 Z-0.96
G1 X30.5755 Y6.89 Z-0.963
G1 X30.5939 Y6.8941 Z-0.966
G1 X30.6125 Y6.897 Z-0.969
G1 X30.6312 Y6.8988 Z-0.972
G1 X30.65 Y6.8994 Z-0.975
G1 X30.6688 Y6.8988 Z-0.978
G1 X30.6875 Y6.897 Z-0.981
G1 X30.7061 Y6.8941 Z-0.984
G1 X30.7245 Y6.89 Z-0.987
G1 X30.7425 Y6.8848 Z-0.99
G1 X30.7602 Y6.8784 Z-0.993
G1 X30.7775 Y6.8709 Z-0.996
G1 X30.7942 Y6.8624 Z-0.999
G1 X30.8104 Y6.8528 Z-1.002
G1 X30.826 Y6.8422 Z-1.005
G1 X30.8408 Y6.8307 Z-1.008
G1 X30.855 Y6.8183 Z-1.011
G1 X30.8683 Y6.805 Z-1.014
G1 X30.8807 Y6.7908 Z-1.017
G1 X30.8922 Y6.776 Z-1.02
G1 X30.9028 Y6.7604 Z-1.023
G1 X30.9124 Y6.7442 Z-1.026
G1 X30.9209 Y6.7275 Z-1.029
G1 X30.9284 Y6.7102 Z-1.032
G1 X30.9348 Y6.6925 Z-1.035
G1 X30.94 Y6.6745 Z-1.038
G1 X30.9441 Y6.6561 Z-1.041
G1 X30.947 Y6.6375 Z-1.044
G1 X30.9488 Y6.6188 Z-1.047
G1 X30.9494 Y6.6 Z-1.05
G1 X30.9488 Y6.5812 Z-1.053
G1 X30.947 Y6.5625 Z-1.056
G1 X30.9441 Y6.5439 Z-1.059
G1 X30.94 Y6.5255 Z-1.062
G1 X30.9348 Y6.5075 Z-1.065
G1 X30.9284 Y6.4898 Z-1.068
G1 X30.9209 Y6.4725 Z-1.071
G1 X30.9124 Y6.4558 Z-1.074
G1 X30.9028 Y6.4396 Z-1.077
G1 X30.8922 Y6.424 Z-1.08
G1 X30.8807 Y6.4092 Z-1.083
G1 X30.8683 Y6.395 Z-1.086
G1 X30.855 Y6.3817 Z-1.089
G1 X30.8408 Y6.3693 Z-1.092
G1 X30.826 Y6.3578 Z-1.095
G1 X30.8104 Y6.3472 Z-1.098
G1 X30.7942 Y6.3376 Z-1.101
G1 X30.7775 Y6.3291 Z-1.104
G1 X30.7602 Y6.3216 Z-1.107
G1 X30.7425 Y6.3152 Z-1.11
G1 X30.7245 Y6.31 Z-1.113
G1 X30.7061 Y6.3059 Z-1.116
G1 X30.6875 Y6.303 Z-1.119
G1 X30.6688 Y6.3012 Z-1.122
G1 X30.65 Y6.3006 Z-1.125
G1 X30.6312 Y6.3012 Z-1.128
G1 X30.6125 Y6.303 Z-1.131
G1 X30.5939 Y6.3059 Z-1.134
G1 X30.5755 Y6.31 Z-1.137
G1 X30.5575 Y6.3152 Z-1.14
G1 X30.5398 Y6.3216 Z-1.143
G1 X30.5225 Y6.3291 Z-1.146
G1 X30.5058 Y6.3376 Z-1.149
G1 X30.4896 Y6.3472 Z-1.152
G1 X30.474 Y6.3578 Z-1.155
G1 X30.4592 Y6.3693 Z-1.158
G1 X30.445 Y6.3817 Z-1.161
G1 X30.4317 Y6.395 Z-1.164
G1 X30.4193 Y6.4092 Z-1.167
G1 X30.4078 Y6.424 Z-1.17
G1 X30.3972 Y6.4396 Z-1.173
G1 X30.3876 Y6.4558 Z-1.176
G1 X30.3791 Y6.4725 Z-1.179
G1 X30.3716 Y6.4898 Z-1.182
G1 X30.3652 Y6.5075 Z-1.185
G1 X30.36 Y6.5255 Z-1.188
G1 X30.3559 Y6.5439 Z-1.191
G1 X30.353 Y6.5625 Z-1.194
G1 X30.3512 Y6.5812 Z-1.197
G1 X30.3506 Y6.6 Z-1.2
G1 X30.3512 Y6.6188 Z-1.203
G1 X30.353 Y6.6375 Z-1.206
G1 X30.3559 Y6.6561 Z-1.209
G1 X30.36 Y6.6745 Z-1.212
G1 X30.3652 Y6.6925 Z-1.215
G1 X30.3716 Y6.7102 Z-1.218
G1 X30.3791 Y6.7275 Z-1.221
G1 X30.3876 Y6.7442 Z-1.224
G1 X30.3972 Y6.7604 Z-1.227
G1 X30.4078 Y6.776 Z-1.23
G1 X30.4193 Y6.7909 Z-1.233
G1 X30.4317 Y6.805 Z-1.236
G1 X30.445 Y6.8183 Z-1.239
G1 X30.4591 Y6.8307 Z-1.242
G1 X30.474 Y6.8422 Z-1.245
G1 X30.4896 Y6.8528 Z-1.248
G1 X30.5058 Y6.8624 Z-1.251
G1 X30.5225 Y6.8709 Z-1.254
G1 X30.5398 Y6.8784 Z-1.257
G1 X30.5575 Y6.8848 Z-1.26
G1 X30.5755 Y6.89 Z-1.263
G1 X30.5939 Y6.8941 Z-1.266
G1 X30.6125 Y6.897 Z-1.269
G1 X30.6312 Y6.8988 Z-1.272
G1 X30.65 Y6.8994 Z-1.275
G1 X30.6688 Y6.8988 Z-1.278
G1 X30.6875 Y6.897 Z-1.281
G1 X30.7061 Y6.8941 Z-1.284
G1 X30.7245 Y6.89 Z-1.287
G1 X30.7425 Y6.8848 Z-1.29
G1 X30.7602 Y6.8784 Z-1.293
G1 X30.7775 Y6.8709 Z-1.296
G1 X30.7942 Y6.8624 Z-1.299
G1 X30.8104 Y6.8528 Z-1.302
G1 X30.826 Y6.8422 Z-1.305
G1 X30.8408 Y6.8307 Z-1.308
G1 X30.855 Y6.8183 Z-1.311
G1 X30.8683 Y6.805 Z-1.314
G1 X30.8807 Y6.7908 Z-1.317
G1 X30.8922 Y6.776 Z-1.32
G1 X30.9028 Y6.7604 Z-1.323
G1 X30.9124 Y6.7442 Z-1.326
G1 X30.9209 Y6.7275 Z-1.329
G1 X30.9284 Y6.7102 Z-1.332
G1 X30.9348 Y6.6925 Z-1.335
G1 X30.94 Y6.6745 Z-1.338
G1 X30.9441 Y6.6561 Z-1.341
G1 X30.947 Y6.6375 Z-1.344
G1 X30.9488 Y6.6188 Z-1.347
G1 X30.9494 Y6.6 Z-1.35
G1 X30.9488 Y6.5812 Z-1.353
G1 X30.947 Y6.5625 Z-1.356
G1 X30.9441 Y6.5439 Z-1.359
G1 X30.94 Y6.5255 Z-1.362
G1 X30.9348 Y6.5075 Z-1.365
G1 X30.9284 Y6.4898 Z-1.368
G1 X30.9209 Y6.4725 Z-1.371
G1 X30.9124 Y6.4558 Z-1.374
G1 X30.9028 Y6.4396 Z-1.377
G1 X30.8922 Y6.424 Z-1.38
G1 X30.8807 Y6.4092 Z-1.383
G1 X30.8683 Y6.395 Z-1.386
G1 X30.855 Y6.3817 Z-1.389
G1 X30.8408 Y6.3693 Z-1.392
G1 X30.826 Y6.3578 Z-1.395
G1 X30.8104 Y6.3472 Z-1.398
G1 X30.7942 Y6.3376 Z-1.401
G1 X30.7775 Y6.3291 Z-1.404
G1 X30.7602 Y6.3216 Z-1.407
G1 X30.7425 Y6.3152 Z-1.41
G1 X30.7245 Y6.31 Z-1.413
G1 X30.7061 Y6.3059 Z-1.416
G1 X30.6875 Y6.303 Z-1.419
G1 X30.6688 Y6.3012 Z-1.422
G1 X30.65 Y6.3006 Z-1.425
G1 X30.6312 Y6.3012 Z-1.428
G1 X30.6125 Y6.303 Z-1.431
G1 X30.5939 Y6.3059 Z-1.434
G1 X30.5755 Y6.31 Z-1.437
G1 X30.5575 Y6.3152 Z-1.44
G1 X30.5398 Y6.3216 Z-1.443
G1 X30.5225 Y6.3291 Z-1.446
G1 X30.5058 Y6.3376 Z-1.449
G1 X30.4896 Y6.3472 Z-1.452
G1 X30.474 Y6.3578 Z-1.455
G1 X30.4592 Y6.3693 Z-1.458
G1 X30.445 Y6.3817 Z-1.461
G1 X30.4317 Y6.395 Z-1.464
G1 X30.4193 Y6.4092 Z-1.467
G1 X30.4078 Y6.424 Z-1.47
G1 X30.3972 Y6.4396 Z-1.473
G1 X30.3876 Y6.4558 Z-1.476
G1 X30.3791 Y6.4725 Z-1.479
G1 X30.3716 Y6.4898 Z-1.482
G1 X30.3652 Y6.5075 Z-1.485
G1 X30.36 Y6.5255 Z-1.488
G1 X30.3559 Y6.5439 Z-1.491
G1 X30.353 Y6.5625 Z-1.494
G1 X30.3512 Y6.5812 Z-1.497
G1 X30.3506 Y6.6 Z-1.5
G1 X30.3512 Y6.6188 Z-1.503
G1 X30.353 Y6.6375 Z-1.506
G1 X30.3559 Y6.6561 Z-1.509
G1 X30.36 Y6.6745 Z-1.512
G1 X30.3652 Y6.6925 Z-1.515
G1 X30.3716 Y6.7102 Z-1.518
G1 X30.3791 Y6.7275 Z-1.521
G1 X30.3876 Y6.7442 Z-1.524
G1 X30.3972 Y6.7604 Z-1.527
G1 X30.4078 Y6.776 Z-1.53
G1 X30.4193 Y6.7909 Z-1.533
G1 X30.4317 Y6.805 Z-1.536
G1 X30.445 Y6.8183 Z-1.539
G1 X30.4591 Y6.8307 Z-1.542
G1 X30.474 Y6.8422 Z-1.545
G1 X30.4896 Y6.8528 Z-1.548
G1 X30.5058 Y6.8624 Z-1.551
G1 X30.5225 Y6.8709 Z-1.554
G1 X30.5398 Y6.8784 Z-1.557
G1 X30.5575 Y6.8848 Z-1.56
G1 X30.5755 Y6.89 Z-1.563
G1 X30.5939 Y6.8941 Z-1.566
G1 X30.6125 Y6.897 Z-1.569
G1 X30.6312 Y6.8988 Z-1.572
G1 X30.65 Y6.8994 Z-1.575
G1 X30.6688 Y6.8988 Z-1.578
G1 X30.6875 Y6.897 Z-1.581
G1 X30.7061 Y6.8941 Z-1.584
G1 X30.7245 Y6.89 Z-1.587
G1 X30.7425 Y6.8848 Z-1.59
G1 X30.7602 Y6.8784 Z-1.593
G1 X30.7775 Y6.8709 Z-1.596
G1 X30.7942 Y6.8624 Z-1.599
G1 X30.8104 Y6.8528 Z-1.602
G1 X30.826 Y6.8422 Z-1.605
G1 X30.8408 Y6.8307 Z-1.608
G1 X30.855 Y6.8183 Z-1.611
G1 X30.8683 Y6.805 Z-1.614
G1 X30.8807 Y6.7908 Z-1.617
G1 X30.8922 Y6.776 Z-1.62
G1 X30.9028 Y6.7604 Z-1.623
G1 X30.9124 Y6.7442 Z-1.626
G1 X30.9209 Y6.7275 Z-1.629
G1 X30.9284 Y6.7102 Z-1.632
G1 X30.9348 Y6.6925 Z-1.635
G1 X30.94 Y6.6745 Z-1.638
G1 X30.9441 Y6.6561 Z-1.641
G1 X30.947 Y6.6375 Z-1.644
G1 X30.9488 Y6.6188 Z-1.647
G1 X30.9494 Y6.6 Z-1.65
G1 X30.9488 Y6.5812 Z-1.653
G1 X30.947 Y6.5625 Z-1.656
G1 X30.9441 Y6.5439 Z-1.659
G1 X30.94 Y6.5255 Z-1.662
G1 X30.9348 Y6.5075 Z-1.665
G1 X30.9284 Y6.4898 Z-1.668
G1 X30.9209 Y6.4725 Z-1.671
G1 X30.9124 Y6.4558 Z-1.674
G1 X30.9028 Y6.4396 Z-1.677
G1 X30.8922 Y6.424 Z-1.68
G1 X30.8807 Y6.4092 Z-1.683
G1 X30.8683 Y6.395 Z-1.686
G1 X30.855 Y6.3817 Z-1.689
G1 X30.8408 Y6.3693 Z-1.692
G1 X30.826 Y6.3578 Z-1.695
G1 X30.8104 Y6.3472 Z-1.698
G1 X30.7942 Y6.3376 Z-1.701
G1 X30.7775 Y6.3291 Z-1.704
G1 X30.7602 Y6.3216 Z-1.707
G1 X30.7425 Y6.3152 Z-1.71
G1 X30.7245 Y6.31 Z-1.713
G1 X30.7061 Y6.3059 Z-1.716
G1 X30.6875 Y6.303 Z-1.719
G1 X30.6688 Y6.3012 Z-1.722
G1 X30.65 Y6.3006 Z-1.725
G1 X30.6312 Y6.3012 Z-1.728
G1 X30.6125 Y6.303 Z-1.731
G1 X30.5939 Y6.3059 Z-1.734
G1 X30.5755 Y6.31 Z-1.737
G1 X30.5575 Y6.3152 Z-1.74
G1 X30.5398 Y6.3216 Z-1.743
G1 X30.5225 Y6.3291 Z-1.746
G1 X30.5058 Y6.3376 Z-1.749
G1 X30.4896 Y6.3472 Z-1.752
G1 X30.474 Y6.3578 Z-1.755
G1 X30.4592 Y6.3693 Z-1.758
G1 X30.445 Y6.3817 Z-1.761
G1 X30.4317 Y6.395 Z-1.764
G1 X30.4193 Y6.4092 Z-1.767
G1 X30.4078 Y6.424 Z-1.77
G1 X30.3972 Y6.4396 Z-1.773
G1 X30.3876 Y6.4558 Z-1.776
G1 X30.3791 Y6.4725 Z-1.779
G1 X30.3716 Y6.4898 Z-1.782
G1 X30.3652 Y6.5075 Z-1.785
G1 X30.36 Y6.5255 Z-1.788
G1 X30.3559 Y6.5439 Z-1.791
G1 X30.353 Y6.5625 Z-1.794
G1 X30.3512 Y6.5812 Z-1.797
G1 X30.3506 Y6.6 Z-1.8
G1 X30.3512 Y6.6188 Z-1.803
G1 X30.353 Y6.6375 Z-1.806
G1 X30.3559 Y6.6561 Z-1.809
G1 X30.36 Y6.6745 Z-1.812
G1 X30.3652 Y6.6925 Z-1.815
G1 X30.3716 Y6.7102 Z-1.818
G1 X30.3791 Y6.7275 Z-1.821
G1 X30.3876 Y6.7442 Z-1.824
G1 X30.3972 Y6.7604 Z-1.827
G1 X30.4078 Y6.776 Z-1.83
G1 X30.4193 Y6.7909 Z-1.833
G1 X30.4317 Y6.805 Z-1.836
G1 X30.445 Y6.8183 Z-1.839
G1 X30.4591 Y6.8307 Z-1.842
G1 X30.474 Y6.8422 Z-1.845
G1 X30.4896 Y6.8528 Z-1.848
G1 X30.5058 Y6.8624 Z-1.851
G1 X30.5225 Y6.8709 Z-1.854
G1 X30.5398 Y6.8784 Z-1.857
G1 X30.5575 Y6.8848 Z-1.86
G1 X30.5755 Y6.89 Z-1.863
G1 X30.5939 Y6.8941 Z-1.866
G1 X30.6125 Y6.897 Z-1.869
G1 X30.6312 Y6.8988 Z-1.872
G1 X30.65 Y6.8994 Z-1.875
G1 X30.6688 Y6.8988 Z-1.878
G1 X30.6875 Y6.897 Z-1.881
G1 X30.7061 Y6.8941 Z-1.884
G1 X30.7245 Y6.89 Z-1.887
G1 X30.7425 Y6.8848 Z-1.89
G1 X30.7602 Y6.8784 Z-1.893
G1 X30.7775 Y6.8709 Z-1.896
G1 X30.7942 Y6.8624 Z-1.899
G1 X30.8104 Y6.8528 Z-1.902
G1 X30.826 Y6.8422 Z-1.905
G1 X30.8408 Y6.8307 Z-1.908
G1 X30.855 Y6.8183 Z-1.911
G1 X30.8683 Y6.805 Z-1.914
G1 X30.8807 Y6.7908 Z-1.917
G1 X30.8922 Y6.776 Z-1.92
G1 X30.9028 Y6.7604 Z-1.923
G1 X30.9124 Y6.7442 Z-1.926
G1 X30.9209 Y6.7275 Z-1.929
G1 X30.9284 Y6.7102 Z-1.932
G1 X30.9348 Y6.6925 Z-1.935
G1 X30.94 Y6.6745 Z-1.938
G1 X30.9441 Y6.6561 Z-1.941
G1 X30.947 Y6.6375 Z-1.944
G1 X30.9488 Y6.6188 Z-1.947
G1 X30.9494 Y6.6 Z-1.95
G1 X30.9488 Y6.5812 Z-1.953
G1 X30.947 Y6.5625 Z-1.956
G1 X30.9441 Y6.5439 Z-1.959
G1 X30.94 Y6.5255 Z-1.962
G1 X30.9348 Y6.5075 Z-1.965
G1 X30.9284 Y6.4898 Z-1.968
G1 X30.9209 Y6.4725 Z-1.971
G1 X30.9124 Y6.4558 Z-1.974
G1 X30.9028 Y6.4396 Z-1.977
G1 X30.8922 Y6.424 Z-1.98
G1 X30.8807 Y6.4092 Z-1.983
G1 X30.8683 Y6.395 Z-1.986
G1 X30.855 Y6.3817 Z-1.989
G1 X30.8408 Y6.3693 Z-1.992
G1 X30.826 Y6.3578 Z-1.995
G1 X30.8104 Y6.3472 Z-1.998
G1 X30.7942 Y6.3376 Z-2.001
G1 X30.7775 Y6.3291 Z-2.004
G1 X30.7602 Y6.3216 Z-2.007
G1 X30.7425 Y6.3152 Z-2.01
G1 X30.7245 Y6.31 Z-2.013
G1 X30.7061 Y6.3059 Z-2.016
G1 X30.6875 Y6.303 Z-2.019
G1 X30.6688 Y6.3012 Z-2.022
G1 X30.65 Y6.3006 Z-2.025
G1 X30.6312 Y6.3012 Z-2.028
G1 X30.6125 Y6.303 Z-2.031
G1 X30.5939 Y6.3059 Z-2.034
G1 X30.5755 Y6.31 Z-2.037
G1 X30.5575 Y6.3152 Z-2.04
G1 X30.5398 Y6.3216 Z-2.043
G1 X30.5225 Y6.3291 Z-2.046
G1 X30.5058 Y6.3376 Z-2.049
G1 X30.4896 Y6.3472 Z-2.052
G1 X30.474 Y6.3578 Z-2.055
G1 X30.4592 Y6.3693 Z-2.058
G1 X30.445 Y6.3817 Z-2.061
G1 X30.4317 Y6.395 Z-2.064
G1 X30.4193 Y6.4092 Z-2.067
G1 X30.4078 Y6.424 Z-2.07
G1 X30.3972 Y6.4396 Z-2.073
G1 X30.3876 Y6.4558 Z-2.076
G1 X30.3791 Y6.4725 Z-2.079
G1 X30.3716 Y6.4898 Z-2.082
G1 X30.3652 Y6.5075 Z-2.085
G1 X30.36 Y6.5255 Z-2.088
G1 X30.3559 Y6.5439 Z-2.091
G1 X30.353 Y6.5625 Z-2.094
G1 X30.3512 Y6.5812 Z-2.097
G1 X30.3506 Y6.6 Z-2.1
G1 X30.3512 Y6.6188 Z-2.103
G1 X30.353 Y6.6375 Z-2.106
G1 X30.3559 Y6.6561 Z-2.109
G1 X30.36 Y6.6745 Z-2.112
G1 X30.3652 Y6.6925 Z-2.115
G1 X30.3716 Y6.7102 Z-2.118
G1 X30.3791 Y6.7275 Z-2.121
G1 X30.3876 Y6.7442 Z-2.124
G1 X30.3972 Y6.7604 Z-2.127
G1 X30.4078 Y6.776 Z-2.13
G1 X30.4193 Y6.7909 Z-2.133
G1 X30.4317 Y6.805 Z-2.136
G1 X30.445 Y6.8183 Z-2.139
G1 X30.4591 Y6.8307 Z-2.142
G1 X30.474 Y6.8422 Z-2.145
G1 X30.4896 Y6.8528 Z-2.148
G1 X30.5058 Y6.8624 Z-2.151
G1 X30.5225 Y6.8709 Z-2.154
G1 X30.5398 Y6.8784 Z-2.157
G1 X30.5575 Y6.8848 Z-2.16
G1 X30.5755 Y6.89 Z-2.163
G1 X30.5939 Y6.8941 Z-2.166
G1 X30.6125 Y6.897 Z-2.169
G1 X30.6312 Y6.8988 Z-2.172
G1 X30.65 Y6.8994 Z-2.175
G1 X30.6688 Y6.8988 Z-2.178
G1 X30.6875 Y6.897 Z-2.181
G1 X30.7061 Y6.8941 Z-2.184
G1 X30.7245 Y6.89 Z-2.187
G1 X30.7425 Y6.8848 Z-2.19
G1 X30.7602 Y6.8784 Z-2.193
G1 X30.7775 Y6.8709 Z-2.196
G1 X30.7942 Y6.8624 Z-2.199
G1 X30.8104 Y6.8528 Z-2.202
G1 X30.826 Y6.8422 Z-2.205
G1 X30.8408 Y6.8307 Z-2.208
G1 X30.855 Y6.8183 Z-2.211
G1 X30.8683 Y6.805 Z-2.214
G1 X30.8807 Y6.7908 Z-2.217
G1 X30.8922 Y6.776 Z-2.22
G1 X30.9028 Y6.7604 Z-2.223
G1 X30.9124 Y6.7442 Z-2.226
G1 X30.9209 Y6.7275 Z-2.229
