( Made using CamBam - http://www.cambam.co.uk )
( ssc_plexi_Right_Panel 2/21/2021 6:55:12 PM )
( T2 : 2.0 )
( CUTVIEWER )
( FROM/0,0,5 )
( Select dummy tool to avoid warnings )
( TOOL/MILL,1,0,20.0,0 )
( STOCK/BLOCK,85.0,95.0,4.0,0.0,0.0,4.0 )
G21 G90 G91.1 G64 G40
G0 Z3.0
( T2 : 2.0 )
( Tool Taper coming soon )
( TOOL/MILL,2.0,0.0,0.0,0 )
T2 M6
( Drill1 )
G17
M3 S1000
G0 X33.4636 Y27.0985
G0 Z3.0
G0 X33.7136 Y27.0985
G0 Z1.0
G1 F300.0 Z0.0
G2 F800.0 X33.3386 Y26.882 Z-0.1 I-0.25 J0.0
G2 Y27.315 Z-0.2 I0.125 J0.2165
G2 X33.7136 Y27.0985 Z-0.3 I0.125 J-0.2165
G2 X33.3386 Y26.882 Z-0.4 I-0.25 J0.0
G2 Y27.315 Z-0.5 I0.125 J0.2165
G2 X33.7136 Y27.0985 Z-0.6 I0.125 J-0.2165
G2 X33.3386 Y26.882 Z-0.7 I-0.25 J0.0
G2 Y27.315 Z-0.8 I0.125 J0.2165
G2 X33.7136 Y27.0985 Z-0.9 I0.125 J-0.2165
G2 X33.3386 Y26.882 Z-1.0 I-0.25 J0.0
G2 Y27.315 Z-1.1 I0.125 J0.2165
G2 X33.7136 Y27.0985 Z-1.2 I0.125 J-0.2165
G2 X33.3386 Y26.882 Z-1.3 I-0.25 J0.0
G2 Y27.315 Z-1.4 I0.125 J0.2165
G2 X33.7136 Y27.0985 Z-1.5 I0.125 J-0.2165
G2 X33.3386 Y26.882 Z-1.6 I-0.25 J0.0
G2 Y27.315 Z-1.7 I0.125 J0.2165
G2 X33.7136 Y27.0985 Z-1.8 I0.125 J-0.2165
G2 X33.3386 Y26.882 Z-1.9 I-0.25 J0.0
G2 Y27.315 Z-2.0 I0.125 J0.2165
G2 X33.7136 Y27.0985 Z-2.1 I0.125 J-0.2165
G2 X33.3386 Y26.882 Z-2.2 I-0.25 J0.0
G2 Y27.315 Z-2.3 I0.125 J0.2165
G2 X33.7136 Y27.0985 Z-2.4 I0.125 J-0.2165
G2 X33.3386 Y26.882 Z-2.5 I-0.25 J0.0
G2 Y27.315 Z-2.6 I0.125 J0.2165
G2 X33.7136 Y27.0985 Z-2.7 I0.125 J-0.2165
G2 X33.3386 Y26.882 Z-2.8 I-0.25 J0.0
G2 Y27.315 Z-2.9 I0.125 J0.2165
G2 X33.7136 Y27.0985 Z-3.0 I0.125 J-0.2165
G2 X33.3386 Y26.882 Z-3.1 I-0.25 J0.0
G2 Y27.315 Z-3.2 I0.125 J0.2165
G2 X33.7136 Y27.0985 Z-3.3 I0.125 J-0.2165
G2 X33.3386 Y26.882 Z-3.4 I-0.25 J0.0
G2 Y27.315 Z-3.5 I0.125 J0.2165
G2 X33.7136 Y27.0985 Z-3.6 I0.125 J-0.2165
G2 X33.3386 Y26.882 Z-3.7 I-0.25 J0.0
G2 Y27.315 Z-3.8 I0.125 J0.2165
G2 X33.7136 Y27.0985 Z-3.9 I0.125 J-0.2165
G2 X33.3386 Y26.882 Z-4.0 I-0.25 J0.0
G2 Y27.315 Z-4.1 I0.125 J0.2165
G2 X33.7136 Y27.0985 Z-4.2 I0.125 J-0.2165
G2 X33.3386 Y26.882 I-0.25 J0.0
G2 Y27.315 I0.125 J0.2165
G2 X33.7136 Y27.0985 I0.125 J-0.2165
G0 Z3.0
G0 X32.1829 Y23.403
G0 Z1.0
G1 F300.0 Z0.0
G2 F800.0 X31.8079 Y23.1865 Z-0.1 I-0.25 J0.0
G2 Y23.6195 Z-0.2 I0.125 J0.2165
G2 X32.1829 Y23.403 Z-0.3 I0.125 J-0.2165
G2 X31.8079 Y23.1865 Z-0.4 I-0.25 J0.0
G2 Y23.6195 Z-0.5 I0.125 J0.2165
G2 X32.1829 Y23.403 Z-0.6 I0.125 J-0.2165
G2 X31.8079 Y23.1865 Z-0.7 I-0.25 J0.0
G2 Y23.6195 Z-0.8 I0.125 J0.2165
G2 X32.1829 Y23.403 Z-0.9 I0.125 J-0.2165
G2 X31.8079 Y23.1865 Z-1.0 I-0.25 J0.0
G2 Y23.6195 Z-1.1 I0.125 J0.2165
G2 X32.1829 Y23.403 Z-1.2 I0.125 J-0.2165
G2 X31.8079 Y23.1865 Z-1.3 I-0.25 J0.0
G2 Y23.6195 Z-1.4 I0.125 J0.2165
G2 X32.1829 Y23.403 Z-1.5 I0.125 J-0.2165
G2 X31.8079 Y23.1865 Z-1.6 I-0.25 J0.0
G2 Y23.6195 Z-1.7 I0.125 J0.2165
G2 X32.1829 Y23.403 Z-1.8 I0.125 J-0.2165
G2 X31.8079 Y23.1865 Z-1.9 I-0.25 J0.0
G2 Y23.6195 Z-2.0 I0.125 J0.2165
G2 X32.1829 Y23.403 Z-2.1 I0.125 J-0.2165
G2 X31.8079 Y23.1865 Z-2.2 I-0.25 J0.0
G2 Y23.6195 Z-2.3 I0.125 J0.2165
G2 X32.1829 Y23.403 Z-2.4 I0.125 J-0.2165
G2 X31.8079 Y23.1865 Z-2.5 I-0.25 J0.0
G2 Y23.6195 Z-2.6 I0.125 J0.2165
G2 X32.1829 Y23.403 Z-2.7 I0.125 J-0.2165
G2 X31.8079 Y23.1865 Z-2.8 I-0.25 J0.0
G2 Y23.6195 Z-2.9 I0.125 J0.2165
G2 X32.1829 Y23.403 Z-3.0 I0.125 J-0.2165
G2 X31.8079 Y23.1865 Z-3.1 I-0.25 J0.0
G2 Y23.6195 Z-3.2 I0.125 J0.2165
G2 X32.1829 Y23.403 Z-3.3 I0.125 J-0.2165
G2 X31.8079 Y23.1865 Z-3.4 I-0.25 J0.0
G2 Y23.6195 Z-3.5 I0.125 J0.2165
G2 X32.1829 Y23.403 Z-3.6 I0.125 J-0.2165
G2 X31.8079 Y23.1865 Z-3.7 I-0.25 J0.0
G2 Y23.6195 Z-3.8 I0.125 J0.2165
G2 X32.1829 Y23.403 Z-3.9 I0.125 J-0.2165
G2 X31.8079 Y23.1865 Z-4.0 I-0.25 J0.0
G2 Y23.6195 Z-4.1 I0.125 J0.2165
G2 X32.1829 Y23.403 Z-4.2 I0.125 J-0.2165
G2 X31.8079 Y23.1865 I-0.25 J0.0
G2 Y23.6195 I0.125 J0.2165
G2 X32.1829 Y23.403 I0.125 J-0.2165
G0 Z3.0
G0 X30.6522 Y19.7075
G0 Z1.0
G1 F300.0 Z0.0
G2 F800.0 X30.2772 Y19.491 Z-0.1 I-0.25 J0.0
G2 Y19.924 Z-0.2 I0.125 J0.2165
G2 X30.6522 Y19.7075 Z-0.3 I0.125 J-0.2165
G2 X30.2772 Y19.491 Z-0.4 I-0.25 J0.0
G2 Y19.924 Z-0.5 I0.125 J0.2165
G2 X30.6522 Y19.7075 Z-0.6 I0.125 J-0.2165
G2 X30.2772 Y19.491 Z-0.7 I-0.25 J0.0
G2 Y19.924 Z-0.8 I0.125 J0.2165
G2 X30.6522 Y19.7075 Z-0.9 I0.125 J-0.2165
G2 X30.2772 Y19.491 Z-1.0 I-0.25 J0.0
G2 Y19.924 Z-1.1 I0.125 J0.2165
G2 X30.6522 Y19.7075 Z-1.2 I0.125 J-0.2165
G2 X30.2772 Y19.491 Z-1.3 I-0.25 J0.0
G2 Y19.924 Z-1.4 I0.125 J0.2165
G2 X30.6522 Y19.7075 Z-1.5 I0.125 J-0.2165
G2 X30.2772 Y19.491 Z-1.6 I-0.25 J0.0
G2 Y19.924 Z-1.7 I0.125 J0.2165
G2 X30.6522 Y19.7075 Z-1.8 I0.125 J-0.2165
G2 X30.2772 Y19.491 Z-1.9 I-0.25 J0.0
G2 Y19.924 Z-2.0 I0.125 J0.2165
G2 X30.6522 Y19.7075 Z-2.1 I0.125 J-0.2165
G2 X30.2772 Y19.491 Z-2.2 I-0.25 J0.0
G2 Y19.924 Z-2.3 I0.125 J0.2165
G2 X30.6522 Y19.7075 Z-2.4 I0.125 J-0.2165
G2 X30.2772 Y19.491 Z-2.5 I-0.25 J0.0
G2 Y19.924 Z-2.6 I0.125 J0.2165
G2 X30.6522 Y19.7075 Z-2.7 I0.125 J-0.2165
G2 X30.2772 Y19.491 Z-2.8 I-0.25 J0.0
G2 Y19.924 Z-2.9 I0.125 J0.2165
G2 X30.6522 Y19.7075 Z-3.0 I0.125 J-0.2165
G2 X30.2772 Y19.491 Z-3.1 I-0.25 J0.0
G2 Y19.924 Z-3.2 I0.125 J0.2165
G2 X30.6522 Y19.7075 Z-3.3 I0.125 J-0.2165
G2 X30.2772 Y19.491 Z-3.4 I-0.25 J0.0
G2 Y19.924 Z-3.5 I0.125 J0.2165
G2 X30.6522 Y19.7075 Z-3.6 I0.125 J-0.2165
G2 X30.2772 Y19.491 Z-3.7 I-0.25 J0.0
G2 Y19.924 Z-3.8 I0.125 J0.2165
G2 X30.6522 Y19.7075 Z-3.9 I0.125 J-0.2165
G2 X30.2772 Y19.491 Z-4.0 I-0.25 J0.0
G2 Y19.924 Z-4.1 I0.125 J0.2165
G2 X30.6522 Y19.7075 Z-4.2 I0.125 J-0.2165
G2 X30.2772 Y19.491 I-0.25 J0.0
G2 Y19.924 I0.125 J0.2165
G2 X30.6522 Y19.7075 I0.125 J-0.2165
G0 Z3.0
G0 X24.0723 Y28.8223
G0 Z1.0
G1 F300.0 Z0.0
G2 F800.0 X23.6973 Y28.6058 Z-0.1 I-0.25 J0.0
G2 Y29.0388 Z-0.2 I0.125 J0.2165
G2 X24.0723 Y28.8223 Z-0.3 I0.125 J-0.2165
G2 X23.6973 Y28.6058 Z-0.4 I-0.25 J0.0
G2 Y29.0388 Z-0.5 I0.125 J0.2165
G2 X24.0723 Y28.8223 Z-0.6 I0.125 J-0.2165
G2 X23.6973 Y28.6058 Z-0.7 I-0.25 J0.0
G2 Y29.0388 Z-0.8 I0.125 J0.2165
G2 X24.0723 Y28.8223 Z-0.9 I0.125 J-0.2165
G2 X23.6973 Y28.6058 Z-1.0 I-0.25 J0.0
G2 Y29.0388 Z-1.1 I0.125 J0.2165
G2 X24.0723 Y28.8223 Z-1.2 I0.125 J-0.2165
G2 X23.6973 Y28.6058 Z-1.3 I-0.25 J0.0
G2 Y29.0388 Z-1.4 I0.125 J0.2165
G2 X24.0723 Y28.8223 Z-1.5 I0.125 J-0.2165
G2 X23.6973 Y28.6058 Z-1.6 I-0.25 J0.0
G2 Y29.0388 Z-1.7 I0.125 J0.2165
G2 X24.0723 Y28.8223 Z-1.8 I0.125 J-0.2165
G2 X23.6973 Y28.6058 Z-1.9 I-0.25 J0.0
G2 Y29.0388 Z-2.0 I0.125 J0.2165
G2 X24.0723 Y28.8223 Z-2.1 I0.125 J-0.2165
G2 X23.6973 Y28.6058 Z-2.2 I-0.25 J0.0
G2 Y29.0388 Z-2.3 I0.125 J0.2165
G2 X24.0723 Y28.8223 Z-2.4 I0.125 J-0.2165
G2 X23.6973 Y28.6058 Z-2.5 I-0.25 J0.0
G2 Y29.0388 Z-2.6 I0.125 J0.2165
G2 X24.0723 Y28.8223 Z-2.7 I0.125 J-0.2165
G2 X23.6973 Y28.6058 Z-2.8 I-0.25 J0.0
G2 Y29.0388 Z-2.9 I0.125 J0.2165
G2 X24.0723 Y28.8223 Z-3.0 I0.125 J-0.2165
G2 X23.6973 Y28.6058 Z-3.1 I-0.25 J0.0
G2 Y29.0388 Z-3.2 I0.125 J0.2165
G2 X24.0723 Y28.8223 Z-3.3 I0.125 J-0.2165
G2 X23.6973 Y28.6058 Z-3.4 I-0.25 J0.0
G2 Y29.0388 Z-3.5 I0.125 J0.2165
G2 X24.0723 Y28.8223 Z-3.6 I0.125 J-0.2165
G2 X23.6973 Y28.6058 Z-3.7 I-0.25 J0.0
G2 Y29.0388 Z-3.8 I0.125 J0.2165
G2 X24.0723 Y28.8223 Z-3.9 I0.125 J-0.2165
G2 X23.6973 Y28.6058 Z-4.0 I-0.25 J0.0
G2 Y29.0388 Z-4.1 I0.125 J0.2165
G2 X24.0723 Y28.8223 Z-4.2 I0.125 J-0.2165
G2 X23.6973 Y28.6058 I-0.25 J0.0
G2 Y29.0388 I0.125 J0.2165
G2 X24.0723 Y28.8223 I0.125 J-0.2165
G0 Z3.0
G0 X21.2439 Y25.9939
G0 Z1.0
G1 F300.0 Z0.0
G2 F800.0 X20.8689 Y25.7774 Z-0.1 I-0.25 J0.0
G2 Y26.2104 Z-0.2 I0.125 J0.2165
G2 X21.2439 Y25.9939 Z-0.3 I0.125 J-0.2165
G2 X20.8689 Y25.7774 Z-0.4 I-0.25 J0.0
G2 Y26.2104 Z-0.5 I0.125 J0.2165
G2 X21.2439 Y25.9939 Z-0.6 I0.125 J-0.2165
G2 X20.8689 Y25.7774 Z-0.7 I-0.25 J0.0
G2 Y26.2104 Z-0.8 I0.125 J0.2165
G2 X21.2439 Y25.9939 Z-0.9 I0.125 J-0.2165
G2 X20.8689 Y25.7774 Z-1.0 I-0.25 J0.0
G2 Y26.2104 Z-1.1 I0.125 J0.2165
G2 X21.2439 Y25.9939 Z-1.2 I0.125 J-0.2165
G2 X20.8689 Y25.7774 Z-1.3 I-0.25 J0.0
G2 Y26.2104 Z-1.4 I0.125 J0.2165
G2 X21.2439 Y25.9939 Z-1.5 I0.125 J-0.2165
G2 X20.8689 Y25.7774 Z-1.6 I-0.25 J0.0
G2 Y26.2104 Z-1.7 I0.125 J0.2165
G2 X21.2439 Y25.9939 Z-1.8 I0.125 J-0.2165
G2 X20.8689 Y25.7774 Z-1.9 I-0.25 J0.0
G2 Y26.2104 Z-2.0 I0.125 J0.2165
G2 X21.2439 Y25.9939 Z-2.1 I0.125 J-0.2165
G2 X20.8689 Y25.7774 Z-2.2 I-0.25 J0.0
G2 Y26.2104 Z-2.3 I0.125 J0.2165
G2 X21.2439 Y25.9939 Z-2.4 I0.125 J-0.2165
G2 X20.8689 Y25.7774 Z-2.5 I-0.25 J0.0
G2 Y26.2104 Z-2.6 I0.125 J0.2165
G2 X21.2439 Y25.9939 Z-2.7 I0.125 J-0.2165
G2 X20.8689 Y25.7774 Z-2.8 I-0.25 J0.0
G2 Y26.2104 Z-2.9 I0.125 J0.2165
G2 X21.2439 Y25.9939 Z-3.0 I0.125 J-0.2165
G2 X20.8689 Y25.7774 Z-3.1 I-0.25 J0.0
G2 Y26.2104 Z-3.2 I0.125 J0.2165
G2 X21.2439 Y25.9939 Z-3.3 I0.125 J-0.2165
G2 X20.8689 Y25.7774 Z-3.4 I-0.25 J0.0
G2 Y26.2104 Z-3.5 I0.125 J0.2165
G2 X21.2439 Y25.9939 Z-3.6 I0.125 J-0.2165
G2 X20.8689 Y25.7774 Z-3.7 I-0.25 J0.0
G2 Y26.2104 Z-3.8 I0.125 J0.2165
G2 X21.2439 Y25.9939 Z-3.9 I0.125 J-0.2165
G2 X20.8689 Y25.7774 Z-4.0 I-0.25 J0.0
G2 Y26.2104 Z-4.1 I0.125 J0.2165
G2 X21.2439 Y25.9939 Z-4.2 I0.125 J-0.2165
G2 X20.8689 Y25.7774 I-0.25 J0.0
G2 Y26.2104 I0.125 J0.2165
G2 X21.2439 Y25.9939 I0.125 J-0.2165
G0 Z3.0
G0 X26.9008 Y31.6508
G0 Z1.0
G1 F300.0 Z0.0
G2 F800.0 X26.5258 Y31.4343 Z-0.1 I-0.25 J0.0
G2 Y31.8673 Z-0.2 I0.125 J0.2165
G2 X26.9008 Y31.6508 Z-0.3 I0.125 J-0.2165
G2 X26.5258 Y31.4343 Z-0.4 I-0.25 J0.0
G2 Y31.8673 Z-0.5 I0.125 J0.2165
G2 X26.9008 Y31.6508 Z-0.6 I0.125 J-0.2165
G2 X26.5258 Y31.4343 Z-0.7 I-0.25 J0.0
G2 Y31.8673 Z-0.8 I0.125 J0.2165
G2 X26.9008 Y31.6508 Z-0.9 I0.125 J-0.2165
G2 X26.5258 Y31.4343 Z-1.0 I-0.25 J0.0
G2 Y31.8673 Z-1.1 I0.125 J0.2165
G2 X26.9008 Y31.6508 Z-1.2 I0.125 J-0.2165
G2 X26.5258 Y31.4343 Z-1.3 I-0.25 J0.0
G2 Y31.8673 Z-1.4 I0.125 J0.2165
G2 X26.9008 Y31.6508 Z-1.5 I0.125 J-0.2165
G2 X26.5258 Y31.4343 Z-1.6 I-0.25 J0.0
G2 Y31.8673 Z-1.7 I0.125 J0.2165
G2 X26.9008 Y31.6508 Z-1.8 I0.125 J-0.2165
G2 X26.5258 Y31.4343 Z-1.9 I-0.25 J0.0
G2 Y31.8673 Z-2.0 I0.125 J0.2165
G2 X26.9008 Y31.6508 Z-2.1 I0.125 J-0.2165
G2 X26.5258 Y31.4343 Z-2.2 I-0.25 J0.0
G2 Y31.8673 Z-2.3 I0.125 J0.2165
G2 X26.9008 Y31.6508 Z-2.4 I0.125 J-0.2165
G2 X26.5258 Y31.4343 Z-2.5 I-0.25 J0.0
G2 Y31.8673 Z-2.6 I0.125 J0.2165
G2 X26.9008 Y31.6508 Z-2.7 I0.125 J-0.2165
G2 X26.5258 Y31.4343 Z-2.8 I-0.25 J0.0
G2 Y31.8673 Z-2.9 I0.125 J0.2165
G2 X26.9008 Y31.6508 Z-3.0 I0.125 J-0.2165
G2 X26.5258 Y31.4343 Z-3.1 I-0.25 J0.0
G2 Y31.8673 Z-3.2 I0.125 J0.2165
G2 X26.9008 Y31.6508 Z-3.3 I0.125 J-0.2165
G2 X26.5258 Y31.4343 Z-3.4 I-0.25 J0.0
G2 Y31.8673 Z-3.5 I0.125 J0.2165
G2 X26.9008 Y31.6508 Z-3.6 I0.125 J-0.2165
G2 X26.5258 Y31.4343 Z-3.7 I-0.25 J0.0
G2 Y31.8673 Z-3.8 I0.125 J0.2165
G2 X26.9008 Y31.6508 Z-3.9 I0.125 J-0.2165
G2 X26.5258 Y31.4343 Z-4.0 I-0.25 J0.0
G2 Y31.8673 Z-4.1 I0.125 J0.2165
G2 X26.9008 Y31.6508 Z-4.2 I0.125 J-0.2165
G2 X26.5258 Y31.4343 I-0.25 J0.0
G2 Y31.8673 I0.125 J0.2165
G2 X26.9008 Y31.6508 I0.125 J-0.2165
G0 Z3.0
G0 X29.7292 Y34.4792
G0 Z1.0
G1 F300.0 Z0.0
G2 F800.0 X29.3542 Y34.2627 Z-0.1 I-0.25 J0.0
G2 Y34.6957 Z-0.2 I0.125 J0.2165
G2 X29.7292 Y34.4792 Z-0.3 I0.125 J-0.2165
G2 X29.3542 Y34.2627 Z-0.4 I-0.25 J0.0
G2 Y34.6957 Z-0.5 I0.125 J0.2165
G2 X29.7292 Y34.4792 Z-0.6 I0.125 J-0.2165
G2 X29.3542 Y34.2627 Z-0.7 I-0.25 J0.0
G2 Y34.6957 Z-0.8 I0.125 J0.2165
G2 X29.7292 Y34.4792 Z-0.9 I0.125 J-0.2165
G2 X29.3542 Y34.2627 Z-1.0 I-0.25 J0.0
G2 Y34.6957 Z-1.1 I0.125 J0.2165
G2 X29.7292 Y34.4792 Z-1.2 I0.125 J-0.2165
G2 X29.3542 Y34.2627 Z-1.3 I-0.25 J0.0
G2 Y34.6957 Z-1.4 I0.125 J0.2165
G2 X29.7292 Y34.4792 Z-1.5 I0.125 J-0.2165
G2 X29.3542 Y34.2627 Z-1.6 I-0.25 J0.0
G2 Y34.6957 Z-1.7 I0.125 J0.2165
G2 X29.7292 Y34.4792 Z-1.8 I0.125 J-0.2165
G2 X29.3542 Y34.2627 Z-1.9 I-0.25 J0.0
G2 Y34.6957 Z-2.0 I0.125 J0.2165
G2 X29.7292 Y34.4792 Z-2.1 I0.125 J-0.2165
G2 X29.3542 Y34.2627 Z-2.2 I-0.25 J0.0
G2 Y34.6957 Z-2.3 I0.125 J0.2165
G2 X29.7292 Y34.4792 Z-2.4 I0.125 J-0.2165
G2 X29.3542 Y34.2627 Z-2.5 I-0.25 J0.0
G2 Y34.6957 Z-2.6 I0.125 J0.2165
G2 X29.7292 Y34.4792 Z-2.7 I0.125 J-0.2165
G2 X29.3542 Y34.2627 Z-2.8 I-0.25 J0.0
G2 Y34.6957 Z-2.9 I0.125 J0.2165
G2 X29.7292 Y34.4792 Z-3.0 I0.125 J-0.2165
G2 X29.3542 Y34.2627 Z-3.1 I-0.25 J0.0
G2 Y34.6957 Z-3.2 I0.125 J0.2165
G2 X29.7292 Y34.4792 Z-3.3 I0.125 J-0.2165
G2 X29.3542 Y34.2627 Z-3.4 I-0.25 J0.0
G2 Y34.6957 Z-3.5 I0.125 J0.2165
G2 X29.7292 Y34.4792 Z-3.6 I0.125 J-0.2165
G2 X29.3542 Y34.2627 Z-3.7 I-0.25 J0.0
G2 Y34.6957 Z-3.8 I0.125 J0.2165
G2 X29.7292 Y34.4792 Z-3.9 I0.125 J-0.2165
G2 X29.3542 Y34.2627 Z-4.0 I-0.25 J0.0
G2 Y34.6957 Z-4.1 I0.125 J0.2165
G2 X29.7292 Y34.4792 Z-4.2 I0.125 J-0.2165
G2 X29.3542 Y34.2627 I-0.25 J0.0
G2 Y34.6957 I0.125 J0.2165
G2 X29.7292 Y34.4792 I0.125 J-0.2165
G0 Z3.0
G0 X32.5576 Y37.3076
G0 Z1.0
G1 F300.0 Z0.0
G2 F800.0 X32.1826 Y37.0911 Z-0.1 I-0.25 J0.0
G2 Y37.5241 Z-0.2 I0.125 J0.2165
G2 X32.5576 Y37.3076 Z-0.3 I0.125 J-0.2165
G2 X32.1826 Y37.0911 Z-0.4 I-0.25 J0.0
G2 Y37.5241 Z-0.5 I0.125 J0.2165
G2 X32.5576 Y37.3076 Z-0.6 I0.125 J-0.2165
G2 X32.1826 Y37.0911 Z-0.7 I-0.25 J0.0
G2 Y37.5241 Z-0.8 I0.125 J0.2165
G2 X32.5576 Y37.3076 Z-0.9 I0.125 J-0.2165
G2 X32.1826 Y37.0911 Z-1.0 I-0.25 J0.0
G2 Y37.5241 Z-1.1 I0.125 J0.2165
G2 X32.5576 Y37.3076 Z-1.2 I0.125 J-0.2165
G2 X32.1826 Y37.0911 Z-1.3 I-0.25 J0.0
G2 Y37.5241 Z-1.4 I0.125 J0.2165
G2 X32.5576 Y37.3076 Z-1.5 I0.125 J-0.2165
G2 X32.1826 Y37.0911 Z-1.6 I-0.25 J0.0
G2 Y37.5241 Z-1.7 I0.125 J0.2165
G2 X32.5576 Y37.3076 Z-1.8 I0.125 J-0.2165
G2 X32.1826 Y37.0911 Z-1.9 I-0.25 J0.0
G2 Y37.5241 Z-2.0 I0.125 J0.2165
G2 X32.5576 Y37.3076 Z-2.1 I0.125 J-0.2165
G2 X32.1826 Y37.0911 Z-2.2 I-0.25 J0.0
G2 Y37.5241 Z-2.3 I0.125 J0.2165
G2 X32.5576 Y37.3076 Z-2.4 I0.125 J-0.2165
G2 X32.1826 Y37.0911 Z-2.5 I-0.25 J0.0
G2 Y37.5241 Z-2.6 I0.125 J0.2165
G2 X32.5576 Y37.3076 Z-2.7 I0.125 J-0.2165
G2 X32.1826 Y37.0911 Z-2.8 I-0.25 J0.0
G2 Y37.5241 Z-2.9 I0.125 J0.2165
G2 X32.5576 Y37.3076 Z-3.0 I0.125 J-0.2165
G2 X32.1826 Y37.0911 Z-3.1 I-0.25 J0.0
G2 Y37.5241 Z-3.2 I0.125 J0.2165
G2 X32.5576 Y37.3076 Z-3.3 I0.125 J-0.2165
G2 X32.1826 Y37.0911 Z-3.4 I-0.25 J0.0
G2 Y37.5241 Z-3.5 I0.125 J0.2165
G2 X32.5576 Y37.3076 Z-3.6 I0.125 J-0.2165
G2 X32.1826 Y37.0911 Z-3.7 I-0.25 J0.0
G2 Y37.5241 Z-3.8 I0.125 J0.2165
G2 X32.5576 Y37.3076 Z-3.9 I0.125 J-0.2165
G2 X32.1826 Y37.0911 Z-4.0 I-0.25 J0.0
G2 Y37.5241 Z-4.1 I0.125 J0.2165
G2 X32.5576 Y37.3076 Z-4.2 I0.125 J-0.2165
G2 X32.1826 Y37.0911 I-0.25 J0.0
G2 Y37.5241 I0.125 J0.2165
G2 X32.5576 Y37.3076 I0.125 J-0.2165
G0 Z3.0
G0 X29.7396 Y41.5251
G0 Z1.0
G1 F300.0 Z0.0
G2 F800.0 X29.3646 Y41.3086 Z-0.1 I-0.25 J0.0
G2 Y41.7416 Z-0.2 I0.125 J0.2165
G2 X29.7396 Y41.5251 Z-0.3 I0.125 J-0.2165
G2 X29.3646 Y41.3086 Z-0.4 I-0.25 J0.0
G2 Y41.7416 Z-0.5 I0.125 J0.2165
G2 X29.7396 Y41.5251 Z-0.6 I0.125 J-0.2165
G2 X29.3646 Y41.3086 Z-0.7 I-0.25 J0.0
G2 Y41.7416 Z-0.8 I0.125 J0.2165
G2 X29.7396 Y41.5251 Z-0.9 I0.125 J-0.2165
G2 X29.3646 Y41.3086 Z-1.0 I-0.25 J0.0
G2 Y41.7416 Z-1.1 I0.125 J0.2165
G2 X29.7396 Y41.5251 Z-1.2 I0.125 J-0.2165
G2 X29.3646 Y41.3086 Z-1.3 I-0.25 J0.0
G2 Y41.7416 Z-1.4 I0.125 J0.2165
G2 X29.7396 Y41.5251 Z-1.5 I0.125 J-0.2165
G2 X29.3646 Y41.3086 Z-1.6 I-0.25 J0.0
G2 Y41.7416 Z-1.7 I0.125 J0.2165
G2 X29.7396 Y41.5251 Z-1.8 I0.125 J-0.2165
G2 X29.3646 Y41.3086 Z-1.9 I-0.25 J0.0
G2 Y41.7416 Z-2.0 I0.125 J0.2165
G2 X29.7396 Y41.5251 Z-2.1 I0.125 J-0.2165
G2 X29.3646 Y41.3086 Z-2.2 I-0.25 J0.0
G2 Y41.7416 Z-2.3 I0.125 J0.2165
G2 X29.7396 Y41.5251 Z-2.4 I0.125 J-0.2165
G2 X29.3646 Y41.3086 Z-2.5 I-0.25 J0.0
G2 Y41.7416 Z-2.6 I0.125 J0.2165
G2 X29.7396 Y41.5251 Z-2.7 I0.125 J-0.2165
G2 X29.3646 Y41.3086 Z-2.8 I-0.25 J0.0
G2 Y41.7416 Z-2.9 I0.125 J0.2165
G2 X29.7396 Y41.5251 Z-3.0 I0.125 J-0.2165
G2 X29.3646 Y41.3086 Z-3.1 I-0.25 J0.0
G2 Y41.7416 Z-3.2 I0.125 J0.2165
G2 X29.7396 Y41.5251 Z-3.3 I0.125 J-0.2165
G2 X29.3646 Y41.3086 Z-3.4 I-0.25 J0.0
G2 Y41.7416 Z-3.5 I0.125 J0.2165
G2 X29.7396 Y41.5251 Z-3.6 I0.125 J-0.2165
G2 X29.3646 Y41.3086 Z-3.7 I-0.25 J0.0
G2 Y41.7416 Z-3.8 I0.125 J0.2165
G2 X29.7396 Y41.5251 Z-3.9 I0.125 J-0.2165
G2 X29.3646 Y41.3086 Z-4.0 I-0.25 J0.0
G2 Y41.7416 Z-4.1 I0.125 J0.2165
G2 X29.7396 Y41.5251 Z-4.2 I0.125 J-0.2165
G2 X29.3646 Y41.3086 I-0.25 J0.0
G2 Y41.7416 I0.125 J0.2165
G2 X29.7396 Y41.5251 I0.125 J-0.2165
G0 Z3.0
G0 X26.044 Y39.9944
G0 Z1.0
G1 F300.0 Z0.0
G2 F800.0 X25.669 Y39.7779 Z-0.1 I-0.25 J0.0
G2 Y40.2109 Z-0.2 I0.125 J0.2165
G2 X26.044 Y39.9944 Z-0.3 I0.125 J-0.2165
G2 X25.669 Y39.7779 Z-0.4 I-0.25 J0.0
G2 Y40.2109 Z-0.5 I0.125 J0.2165
G2 X26.044 Y39.9944 Z-0.6 I0.125 J-0.2165
G2 X25.669 Y39.7779 Z-0.7 I-0.25 J0.0
G2 Y40.2109 Z-0.8 I0.125 J0.2165
G2 X26.044 Y39.9944 Z-0.9 I0.125 J-0.2165
G2 X25.669 Y39.7779 Z-1.0 I-0.25 J0.0
G2 Y40.2109 Z-1.1 I0.125 J0.2165
G2 X26.044 Y39.9944 Z-1.2 I0.125 J-0.2165
G2 X25.669 Y39.7779 Z-1.3 I-0.25 J0.0
G2 Y40.2109 Z-1.4 I0.125 J0.2165
G2 X26.044 Y39.9944 Z-1.5 I0.125 J-0.2165
G2 X25.669 Y39.7779 Z-1.6 I-0.25 J0.0
G2 Y40.2109 Z-1.7 I0.125 J0.2165
G2 X26.044 Y39.9944 Z-1.8 I0.125 J-0.2165
G2 X25.669 Y39.7779 Z-1.9 I-0.25 J0.0
G2 Y40.2109 Z-2.0 I0.125 J0.2165
G2 X26.044 Y39.9944 Z-2.1 I0.125 J-0.2165
G2 X25.669 Y39.7779 Z-2.2 I-0.25 J0.0
G2 Y40.2109 Z-2.3 I0.125 J0.2165
G2 X26.044 Y39.9944 Z-2.4 I0.125 J-0.2165
G2 X25.669 Y39.7779 Z-2.5 I-0.25 J0.0
G2 Y40.2109 Z-2.6 I0.125 J0.2165
G2 X26.044 Y39.9944 Z-2.7 I0.125 J-0.2165
G2 X25.669 Y39.7779 Z-2.8 I-0.25 J0.0
G2 Y40.2109 Z-2.9 I0.125 J0.2165
G2 X26.044 Y39.9944 Z-3.0 I0.125 J-0.2165
G2 X25.669 Y39.7779 Z-3.1 I-0.25 J0.0
G2 Y40.2109 Z-3.2 I0.125 J0.2165
G2 X26.044 Y39.9944 Z-3.3 I0.125 J-0.2165
G2 X25.669 Y39.7779 Z-3.4 I-0.25 J0.0
G2 Y40.2109 Z-3.5 I0.125 J0.2165
G2 X26.044 Y39.9944 Z-3.6 I0.125 J-0.2165
G2 X25.669 Y39.7779 Z-3.7 I-0.25 J0.0
G2 Y40.2109 Z-3.8 I0.125 J0.2165
G2 X26.044 Y39.9944 Z-3.9 I0.125 J-0.2165
G2 X25.669 Y39.7779 Z-4.0 I-0.25 J0.0
G2 Y40.2109 Z-4.1 I0.125 J0.2165
G2 X26.044 Y39.9944 Z-4.2 I0.125 J-0.2165
G2 X25.669 Y39.7779 I-0.25 J0.0
G2 Y40.2109 I0.125 J0.2165
G2 X26.044 Y39.9944 I0.125 J-0.2165
G0 Z3.0
G0 X22.3485 Y38.4636
G0 Z1.0
G1 F300.0 Z0.0
G2 F800.0 X21.9735 Y38.2471 Z-0.1 I-0.25 J0.0
G2 Y38.6802 Z-0.2 I0.125 J0.2165
G2 X22.3485 Y38.4636 Z-0.3 I0.125 J-0.2165
G2 X21.9735 Y38.2471 Z-0.4 I-0.25 J0.0
G2 Y38.6802 Z-0.5 I0.125 J0.2165
G2 X22.3485 Y38.4636 Z-0.6 I0.125 J-0.2165
G2 X21.9735 Y38.2471 Z-0.7 I-0.25 J0.0
G2 Y38.6802 Z-0.8 I0.125 J0.2165
G2 X22.3485 Y38.4636 Z-0.9 I0.125 J-0.2165
G2 X21.9735 Y38.2471 Z-1.0 I-0.25 J0.0
G2 Y38.6802 Z-1.1 I0.125 J0.2165
G2 X22.3485 Y38.4636 Z-1.2 I0.125 J-0.2165
G2 X21.9735 Y38.2471 Z-1.3 I-0.25 J0.0
G2 Y38.6802 Z-1.4 I0.125 J0.2165
G2 X22.3485 Y38.4636 Z-1.5 I0.125 J-0.2165
G2 X21.9735 Y38.2471 Z-1.6 I-0.25 J0.0
G2 Y38.6802 Z-1.7 I0.125 J0.2165
G2 X22.3485 Y38.4636 Z-1.8 I0.125 J-0.2165
G2 X21.9735 Y38.2471 Z-1.9 I-0.25 J0.0
G2 Y38.6802 Z-2.0 I0.125 J0.2165
G2 X22.3485 Y38.4636 Z-2.1 I0.125 J-0.2165
G2 X21.9735 Y38.2471 Z-2.2 I-0.25 J0.0
G2 Y38.6802 Z-2.3 I0.125 J0.2165
G2 X22.3485 Y38.4636 Z-2.4 I0.125 J-0.2165
G2 X21.9735 Y38.2471 Z-2.5 I-0.25 J0.0
G2 Y38.6802 Z-2.6 I0.125 J0.2165
G2 X22.3485 Y38.4636 Z-2.7 I0.125 J-0.2165
G2 X21.9735 Y38.2471 Z-2.8 I-0.25 J0.0
G2 Y38.6802 Z-2.9 I0.125 J0.2165
G2 X22.3485 Y38.4636 Z-3.0 I0.125 J-0.2165
G2 X21.9735 Y38.2471 Z-3.1 I-0.25 J0.0
G2 Y38.6802 Z-3.2 I0.125 J0.2165
G2 X22.3485 Y38.4636 Z-3.3 I0.125 J-0.2165
G2 X21.9735 Y38.2471 Z-3.4 I-0.25 J0.0
G2 Y38.6802 Z-3.5 I0.125 J0.2165
G2 X22.3485 Y38.4636 Z-3.6 I0.125 J-0.2165
G2 X21.9735 Y38.2471 Z-3.7 I-0.25 J0.0
G2 Y38.6802 Z-3.8 I0.125 J0.2165
G2 X22.3485 Y38.4636 Z-3.9 I0.125 J-0.2165
G2 X21.9735 Y38.2471 Z-4.0 I-0.25 J0.0
G2 Y38.6802 Z-4.1 I0.125 J0.2165
G2 X22.3485 Y38.4636 Z-4.2 I0.125 J-0.2165
G2 X21.9735 Y38.2471 I-0.25 J0.0
G2 Y38.6802 I0.125 J0.2165
G2 X22.3485 Y38.4636 I0.125 J-0.2165
G0 Z3.0
G0 X18.653 Y36.9329
G0 Z1.0
G1 F300.0 Z0.0
G2 F800.0 X18.278 Y36.7164 Z-0.1 I-0.25 J0.0
G2 Y37.1494 Z-0.2 I0.125 J0.2165
G2 X18.653 Y36.9329 Z-0.3 I0.125 J-0.2165
G2 X18.278 Y36.7164 Z-0.4 I-0.25 J0.0
G2 Y37.1494 Z-0.5 I0.125 J0.2165
G2 X18.653 Y36.9329 Z-0.6 I0.125 J-0.2165
G2 X18.278 Y36.7164 Z-0.7 I-0.25 J0.0
G2 Y37.1494 Z-0.8 I0.125 J0.2165
G2 X18.653 Y36.9329 Z-0.9 I0.125 J-0.2165
G2 X18.278 Y36.7164 Z-1.0 I-0.25 J0.0
G2 Y37.1494 Z-1.1 I0.125 J0.2165
G2 X18.653 Y36.9329 Z-1.2 I0.125 J-0.2165
G2 X18.278 Y36.7164 Z-1.3 I-0.25 J0.0
G2 Y37.1494 Z-1.4 I0.125 J0.2165
G2 X18.653 Y36.9329 Z-1.5 I0.125 J-0.2165
G2 X18.278 Y36.7164 Z-1.6 I-0.25 J0.0
G2 Y37.1494 Z-1.7 I0.125 J0.2165
G2 X18.653 Y36.9329 Z-1.8 I0.125 J-0.2165
G2 X18.278 Y36.7164 Z-1.9 I-0.25 J0.0
G2 Y37.1494 Z-2.0 I0.125 J0.2165
G2 X18.653 Y36.9329 Z-2.1 I0.125 J-0.2165
G2 X18.278 Y36.7164 Z-2.2 I-0.25 J0.0
G2 Y37.1494 Z-2.3 I0.125 J0.2165
G2 X18.653 Y36.9329 Z-2.4 I0.125 J-0.2165
G2 X18.278 Y36.7164 Z-2.5 I-0.25 J0.0
G2 Y37.1494 Z-2.6 I0.125 J0.2165
G2 X18.653 Y36.9329 Z-2.7 I0.125 J-0.2165
G2 X18.278 Y36.7164 Z-2.8 I-0.25 J0.0
G2 Y37.1494 Z-2.9 I0.125 J0.2165
G2 X18.653 Y36.9329 Z-3.0 I0.125 J-0.2165
G2 X18.278 Y36.7164 Z-3.1 I-0.25 J0.0
G2 Y37.1494 Z-3.2 I0.125 J0.2165
G2 X18.653 Y36.9329 Z-3.3 I0.125 J-0.2165
G2 X18.278 Y36.7164 Z-3.4 I-0.25 J0.0
G2 Y37.1494 Z-3.5 I0.125 J0.2165
G2 X18.653 Y36.9329 Z-3.6 I0.125 J-0.2165
G2 X18.278 Y36.7164 Z-3.7 I-0.25 J0.0
G2 Y37.1494 Z-3.8 I0.125 J0.2165
G2 X18.653 Y36.9329 Z-3.9 I0.125 J-0.2165
G2 X18.278 Y36.7164 Z-4.0 I-0.25 J0.0
G2 Y37.1494 Z-4.1 I0.125 J0.2165
G2 X18.653 Y36.9329 Z-4.2 I0.125 J-0.2165
G2 X18.278 Y36.7164 I-0.25 J0.0
G2 Y37.1494 I0.125 J0.2165
G2 X18.653 Y36.9329 I0.125 J-0.2165
G0 Z3.0
G0 X14.9575 Y35.4022
G0 Z1.0
G1 F300.0 Z0.0
G2 F800.0 X14.5825 Y35.1857 Z-0.1 I-0.25 J0.0
G2 Y35.6187 Z-0.2 I0.125 J0.2165
G2 X14.9575 Y35.4022 Z-0.3 I0.125 J-0.2165
G2 X14.5825 Y35.1857 Z-0.4 I-0.25 J0.0
G2 Y35.6187 Z-0.5 I0.125 J0.2165
G2 X14.9575 Y35.4022 Z-0.6 I0.125 J-0.2165
G2 X14.5825 Y35.1857 Z-0.7 I-0.25 J0.0
G2 Y35.6187 Z-0.8 I0.125 J0.2165
G2 X14.9575 Y35.4022 Z-0.9 I0.125 J-0.2165
G2 X14.5825 Y35.1857 Z-1.0 I-0.25 J0.0
G2 Y35.6187 Z-1.1 I0.125 J0.2165
G2 X14.9575 Y35.4022 Z-1.2 I0.125 J-0.2165
G2 X14.5825 Y35.1857 Z-1.3 I-0.25 J0.0
G2 Y35.6187 Z-1.4 I0.125 J0.2165
G2 X14.9575 Y35.4022 Z-1.5 I0.125 J-0.2165
G2 X14.5825 Y35.1857 Z-1.6 I-0.25 J0.0
G2 Y35.6187 Z-1.7 I0.125 J0.2165
G2 X14.9575 Y35.4022 Z-1.8 I0.125 J-0.2165
G2 X14.5825 Y35.1857 Z-1.9 I-0.25 J0.0
G2 Y35.6187 Z-2.0 I0.125 J0.2165
G2 X14.9575 Y35.4022 Z-2.1 I0.125 J-0.2165
G2 X14.5825 Y35.1857 Z-2.2 I-0.25 J0.0
G2 Y35.6187 Z-2.3 I0.125 J0.2165
G2 X14.9575 Y35.4022 Z-2.4 I0.125 J-0.2165
G2 X14.5825 Y35.1857 Z-2.5 I-0.25 J0.0
G2 Y35.6187 Z-2.6 I0.125 J0.2165
G2 X14.9575 Y35.4022 Z-2.7 I0.125 J-0.2165
G2 X14.5825 Y35.1857 Z-2.8 I-0.25 J0.0
G2 Y35.6187 Z-2.9 I0.125 J0.2165
G2 X14.9575 Y35.4022 Z-3.0 I0.125 J-0.2165
G2 X14.5825 Y35.1857 Z-3.1 I-0.25 J0.0
G2 Y35.6187 Z-3.2 I0.125 J0.2165
G2 X14.9575 Y35.4022 Z-3.3 I0.125 J-0.2165
G2 X14.5825 Y35.1857 Z-3.4 I-0.25 J0.0
G2 Y35.6187 Z-3.5 I0.125 J0.2165
G2 X14.9575 Y35.4022 Z-3.6 I0.125 J-0.2165
G2 X14.5825 Y35.1857 Z-3.7 I-0.25 J0.0
G2 Y35.6187 Z-3.8 I0.125 J0.2165
G2 X14.9575 Y35.4022 Z-3.9 I0.125 J-0.2165
G2 X14.5825 Y35.1857 Z-4.0 I-0.25 J0.0
G2 Y35.6187 Z-4.1 I0.125 J0.2165
G2 X14.9575 Y35.4022 Z-4.2 I0.125 J-0.2165
G2 X14.5825 Y35.1857 I-0.25 J0.0
G2 Y35.6187 I0.125 J0.2165
G2 X14.9575 Y35.4022 I0.125 J-0.2165
G0 Z3.0
G0 X16.75 Y46.5
G0 Z1.0
G1 F300.0 Z0.0
G2 F800.0 X16.375 Y46.2835 Z-0.1 I-0.25 J0.0
G2 Y46.7165 Z-0.2 I0.125 J0.2165
G2 X16.75 Y46.5 Z-0.3 I0.125 J-0.2165
G2 X16.375 Y46.2835 Z-0.4 I-0.25 J0.0
G2 Y46.7165 Z-0.5 I0.125 J0.2165
G2 X16.75 Y46.5 Z-0.6 I0.125 J-0.2165
G2 X16.375 Y46.2835 Z-0.7 I-0.25 J0.0
G2 Y46.7165 Z-0.8 I0.125 J0.2165
G2 X16.75 Y46.5 Z-0.9 I0.125 J-0.2165
G2 X16.375 Y46.2835 Z-1.0 I-0.25 J0.0
G2 Y46.7165 Z-1.1 I0.125 J0.2165
G2 X16.75 Y46.5 Z-1.2 I0.125 J-0.2165
G2 X16.375 Y46.2835 Z-1.3 I-0.25 J0.0
G2 Y46.7165 Z-1.4 I0.125 J0.2165
G2 X16.75 Y46.5 Z-1.5 I0.125 J-0.2165
G2 X16.375 Y46.2835 Z-1.6 I-0.25 J0.0
G2 Y46.7165 Z-1.7 I0.125 J0.2165
G2 X16.75 Y46.5 Z-1.8 I0.125 J-0.2165
G2 X16.375 Y46.2835 Z-1.9 I-0.25 J0.0
G2 Y46.7165 Z-2.0 I0.125 J0.2165
G2 X16.75 Y46.5 Z-2.1 I0.125 J-0.2165
G2 X16.375 Y46.2835 Z-2.2 I-0.25 J0.0
G2 Y46.7165 Z-2.3 I0.125 J0.2165
G2 X16.75 Y46.5 Z-2.4 I0.125 J-0.2165
G2 X16.375 Y46.2835 Z-2.5 I-0.25 J0.0
G2 Y46.7165 Z-2.6 I0.125 J0.2165
G2 X16.75 Y46.5 Z-2.7 I0.125 J-0.2165
G2 X16.375 Y46.2835 Z-2.8 I-0.25 J0.0
G2 Y46.7165 Z-2.9 I0.125 J0.2165
G2 X16.75 Y46.5 Z-3.0 I0.125 J-0.2165
G2 X16.375 Y46.2835 Z-3.1 I-0.25 J0.0
G2 Y46.7165 Z-3.2 I0.125 J0.2165
G2 X16.75 Y46.5 Z-3.3 I0.125 J-0.2165
G2 X16.375 Y46.2835 Z-3.4 I-0.25 J0.0
G2 Y46.7165 Z-3.5 I0.125 J0.2165
G2 X16.75 Y46.5 Z-3.6 I0.125 J-0.2165
G2 X16.375 Y46.2835 Z-3.7 I-0.25 J0.0
G2 Y46.7165 Z-3.8 I0.125 J0.2165
G2 X16.75 Y46.5 Z-3.9 I0.125 J-0.2165
G2 X16.375 Y46.2835 Z-4.0 I-0.25 J0.0
G2 Y46.7165 Z-4.1 I0.125 J0.2165
G2 X16.75 Y46.5 Z-4.2 I0.125 J-0.2165
G2 X16.375 Y46.2835 I-0.25 J0.0
G2 Y46.7165 I0.125 J0.2165
G2 X16.75 Y46.5 I0.125 J-0.2165
G0 Z3.0
G0 X20.75
G0 Z1.0
G1 F300.0 Z0.0
G2 F800.0 X20.375 Y46.2835 Z-0.1 I-0.25 J0.0
G2 Y46.7165 Z-0.2 I0.125 J0.2165
G2 X20.75 Y46.5 Z-0.3 I0.125 J-0.2165
G2 X20.375 Y46.2835 Z-0.4 I-0.25 J0.0
G2 Y46.7165 Z-0.5 I0.125 J0.2165
G2 X20.75 Y46.5 Z-0.6 I0.125 J-0.2165
G2 X20.375 Y46.2835 Z-0.7 I-0.25 J0.0
G2 Y46.7165 Z-0.8 I0.125 J0.2165
G2 X20.75 Y46.5 Z-0.9 I0.125 J-0.2165
G2 X20.375 Y46.2835 Z-1.0 I-0.25 J0.0
G2 Y46.7165 Z-1.1 I0.125 J0.2165
G2 X20.75 Y46.5 Z-1.2 I0.125 J-0.2165
G2 X20.375 Y46.2835 Z-1.3 I-0.25 J0.0
G2 Y46.7165 Z-1.4 I0.125 J0.2165
G2 X20.75 Y46.5 Z-1.5 I0.125 J-0.2165
G2 X20.375 Y46.2835 Z-1.6 I-0.25 J0.0
G2 Y46.7165 Z-1.7 I0.125 J0.2165
G2 X20.75 Y46.5 Z-1.8 I0.125 J-0.2165
G2 X20.375 Y46.2835 Z-1.9 I-0.25 J0.0
G2 Y46.7165 Z-2.0 I0.125 J0.2165
G2 X20.75 Y46.5 Z-2.1 I0.125 J-0.2165
G2 X20.375 Y46.2835 Z-2.2 I-0.25 J0.0
G2 Y46.7165 Z-2.3 I0.125 J0.2165
G2 X20.75 Y46.5 Z-2.4 I0.125 J-0.2165
G2 X20.375 Y46.2835 Z-2.5 I-0.25 J0.0
G2 Y46.7165 Z-2.6 I0.125 J0.2165
G2 X20.75 Y46.5 Z-2.7 I0.125 J-0.2165
G2 X20.375 Y46.2835 Z-2.8 I-0.25 J0.0
G2 Y46.7165 Z-2.9 I0.125 J0.2165
G2 X20.75 Y46.5 Z-3.0 I0.125 J-0.2165
G2 X20.375 Y46.2835 Z-3.1 I-0.25 J0.0
G2 Y46.7165 Z-3.2 I0.125 J0.2165
G2 X20.75 Y46.5 Z-3.3 I0.125 J-0.2165
G2 X20.375 Y46.2835 Z-3.4 I-0.25 J0.0
G2 Y46.7165 Z-3.5 I0.125 J0.2165
G2 X20.75 Y46.5 Z-3.6 I0.125 J-0.2165
G2 X20.375 Y46.2835 Z-3.7 I-0.25 J0.0
G2 Y46.7165 Z-3.8 I0.125 J0.2165
G2 X20.75 Y46.5 Z-3.9 I0.125 J-0.2165
G2 X20.375 Y46.2835 Z-4.0 I-0.25 J0.0
G2 Y46.7165 Z-4.1 I0.125 J0.2165
G2 X20.75 Y46.5 Z-4.2 I0.125 J-0.2165
G2 X20.375 Y46.2835 I-0.25 J0.0
G2 Y46.7165 I0.125 J0.2165
G2 X20.75 Y46.5 I0.125 J-0.2165
G0 Z3.0
G0 X24.75
G0 Z1.0
G1 F300.0 Z0.0
G2 F800.0 X24.375 Y46.2835 Z-0.1 I-0.25 J0.0
G2 Y46.7165 Z-0.2 I0.125 J0.2165
G2 X24.75 Y46.5 Z-0.3 I0.125 J-0.2165
G2 X24.375 Y46.2835 Z-0.4 I-0.25 J0.0
G2 Y46.7165 Z-0.5 I0.125 J0.2165
G2 X24.75 Y46.5 Z-0.6 I0.125 J-0.2165
G2 X24.375 Y46.2835 Z-0.7 I-0.25 J0.0
G2 Y46.7165 Z-0.8 I0.125 J0.2165
G2 X24.75 Y46.5 Z-0.9 I0.125 J-0.2165
G2 X24.375 Y46.2835 Z-1.0 I-0.25 J0.0
G2 Y46.7165 Z-1.1 I0.125 J0.2165
G2 X24.75 Y46.5 Z-1.2 I0.125 J-0.2165
G2 X24.375 Y46.2835 Z-1.3 I-0.25 J0.0
G2 Y46.7165 Z-1.4 I0.125 J0.2165
G2 X24.75 Y46.5 Z-1.5 I0.125 J-0.2165
G2 X24.375 Y46.2835 Z-1.6 I-0.25 J0.0
G2 Y46.7165 Z-1.7 I0.125 J0.2165
G2 X24.75 Y46.5 Z-1.8 I0.125 J-0.2165
G2 X24.375 Y46.2835 Z-1.9 I-0.25 J0.0
G2 Y46.7165 Z-2.0 I0.125 J0.2165
G2 X24.75 Y46.5 Z-2.1 I0.125 J-0.2165
G2 X24.375 Y46.2835 Z-2.2 I-0.25 J0.0
G2 Y46.7165 Z-2.3 I0.125 J0.2165
G2 X24.75 Y46.5 Z-2.4 I0.125 J-0.2165
G2 X24.375 Y46.2835 Z-2.5 I-0.25 J0.0
G2 Y46.7165 Z-2.6 I0.125 J0.2165
G2 X24.75 Y46.5 Z-2.7 I0.125 J-0.2165
G2 X24.375 Y46.2835 Z-2.8 I-0.25 J0.0
G2 Y46.7165 Z-2.9 I0.125 J0.2165
G2 X24.75 Y46.5 Z-3.0 I0.125 J-0.2165
G2 X24.375 Y46.2835 Z-3.1 I-0.25 J0.0
G2 Y46.7165 Z-3.2 I0.125 J0.2165
G2 X24.75 Y46.5 Z-3.3 I0.125 J-0.2165
G2 X24.375 Y46.2835 Z-3.4 I-0.25 J0.0
G2 Y46.7165 Z-3.5 I0.125 J0.2165
G2 X24.75 Y46.5 Z-3.6 I0.125 J-0.2165
G2 X24.375 Y46.2835 Z-3.7 I-0.25 J0.0
G2 Y46.7165 Z-3.8 I0.125 J0.2165
G2 X24.75 Y46.5 Z-3.9 I0.125 J-0.2165
G2 X24.375 Y46.2835 Z-4.0 I-0.25 J0.0
G2 Y46.7165 Z-4.1 I0.125 J0.2165
G2 X24.75 Y46.5 Z-4.2 I0.125 J-0.2165
G2 X24.375 Y46.2835 I-0.25 J0.0
G2 Y46.7165 I0.125 J0.2165
G2 X24.75 Y46.5 I0.125 J-0.2165
G0 Z3.0
G0 X28.75
G0 Z1.0
G1 F300.0 Z0.0
G2 F800.0 X28.375 Y46.2835 Z-0.1 I-0.25 J0.0
G2 Y46.7165 Z-0.2 I0.125 J0.2165
G2 X28.75 Y46.5 Z-0.3 I0.125 J-0.2165
G2 X28.375 Y46.2835 Z-0.4 I-0.25 J0.0
G2 Y46.7165 Z-0.5 I0.125 J0.2165
G2 X28.75 Y46.5 Z-0.6 I0.125 J-0.2165
G2 X28.375 Y46.2835 Z-0.7 I-0.25 J0.0
G2 Y46.7165 Z-0.8 I0.125 J0.2165
G2 X28.75 Y46.5 Z-0.9 I0.125 J-0.2165
G2 X28.375 Y46.2835 Z-1.0 I-0.25 J0.0
G2 Y46.7165 Z-1.1 I0.125 J0.2165
G2 X28.75 Y46.5 Z-1.2 I0.125 J-0.2165
G2 X28.375 Y46.2835 Z-1.3 I-0.25 J0.0
G2 Y46.7165 Z-1.4 I0.125 J0.2165
G2 X28.75 Y46.5 Z-1.5 I0.125 J-0.2165
G2 X28.375 Y46.2835 Z-1.6 I-0.25 J0.0
G2 Y46.7165 Z-1.7 I0.125 J0.2165
G2 X28.75 Y46.5 Z-1.8 I0.125 J-0.2165
G2 X28.375 Y46.2835 Z-1.9 I-0.25 J0.0
G2 Y46.7165 Z-2.0 I0.125 J0.2165
G2 X28.75 Y46.5 Z-2.1 I0.125 J-0.2165
G2 X28.375 Y46.2835 Z-2.2 I-0.25 J0.0
G2 Y46.7165 Z-2.3 I0.125 J0.2165
G2 X28.75 Y46.5 Z-2.4 I0.125 J-0.2165
G2 X28.375 Y46.2835 Z-2.5 I-0.25 J0.0
G2 Y46.7165 Z-2.6 I0.125 J0.2165
G2 X28.75 Y46.5 Z-2.7 I0.125 J-0.2165
G2 X28.375 Y46.2835 Z-2.8 I-0.25 J0.0
G2 Y46.7165 Z-2.9 I0.125 J0.2165
G2 X28.75 Y46.5 Z-3.0 I0.125 J-0.2165
G2 X28.375 Y46.2835 Z-3.1 I-0.25 J0.0
G2 Y46.7165 Z-3.2 I0.125 J0.2165
G2 X28.75 Y46.5 Z-3.3 I0.125 J-0.2165
G2 X28.375 Y46.2835 Z-3.4 I-0.25 J0.0
G2 Y46.7165 Z-3.5 I0.125 J0.2165
G2 X28.75 Y46.5 Z-3.6 I0.125 J-0.2165
G2 X28.375 Y46.2835 Z-3.7 I-0.25 J0.0
G2 Y46.7165 Z-3.8 I0.125 J0.2165
G2 X28.75 Y46.5 Z-3.9 I0.125 J-0.2165
G2 X28.375 Y46.2835 Z-4.0 I-0.25 J0.0
G2 Y46.7165 Z-4.1 I0.125 J0.2165
G2 X28.75 Y46.5 Z-4.2 I0.125 J-0.2165
G2 X28.375 Y46.2835 I-0.25 J0.0
G2 Y46.7165 I0.125 J0.2165
G2 X28.75 Y46.5 I0.125 J-0.2165
G0 Z3.0
G0 X29.7396 Y51.4749
G0 Z1.0
G1 F300.0 Z0.0
G2 F800.0 X29.3646 Y51.2584 Z-0.1 I-0.25 J0.0
G2 Y51.6914 Z-0.2 I0.125 J0.2165
G2 X29.7396 Y51.4749 Z-0.3 I0.125 J-0.2165
G2 X29.3646 Y51.2584 Z-0.4 I-0.25 J0.0
G2 Y51.6914 Z-0.5 I0.125 J0.2165
G2 X29.7396 Y51.4749 Z-0.6 I0.125 J-0.2165
G2 X29.3646 Y51.2584 Z-0.7 I-0.25 J0.0
G2 Y51.6914 Z-0.8 I0.125 J0.2165
G2 X29.7396 Y51.4749 Z-0.9 I0.125 J-0.2165
G2 X29.3646 Y51.2584 Z-1.0 I-0.25 J0.0
G2 Y51.6914 Z-1.1 I0.125 J0.2165
G2 X29.7396 Y51.4749 Z-1.2 I0.125 J-0.2165
G2 X29.3646 Y51.2584 Z-1.3 I-0.25 J0.0
G2 Y51.6914 Z-1.4 I0.125 J0.2165
G2 X29.7396 Y51.4749 Z-1.5 I0.125 J-0.2165
G2 X29.3646 Y51.2584 Z-1.6 I-0.25 J0.0
G2 Y51.6914 Z-1.7 I0.125 J0.2165
G2 X29.7396 Y51.4749 Z-1.8 I0.125 J-0.2165
G2 X29.3646 Y51.2584 Z-1.9 I-0.25 J0.0
G2 Y51.6914 Z-2.0 I0.125 J0.2165
G2 X29.7396 Y51.4749 Z-2.1 I0.125 J-0.2165
G2 X29.3646 Y51.2584 Z-2.2 I-0.25 J0.0
G2 Y51.6914 Z-2.3 I0.125 J0.2165
G2 X29.7396 Y51.4749 Z-2.4 I0.125 J-0.2165
G2 X29.3646 Y51.2584 Z-2.5 I-0.25 J0.0
G2 Y51.6914 Z-2.6 I0.125 J0.2165
G2 X29.7396 Y51.4749 Z-2.7 I0.125 J-0.2165
G2 X29.3646 Y51.2584 Z-2.8 I-0.25 J0.0
G2 Y51.6914 Z-2.9 I0.125 J0.2165
G2 X29.7396 Y51.4749 Z-3.0 I0.125 J-0.2165
G2 X29.3646 Y51.2584 Z-3.1 I-0.25 J0.0
G2 Y51.6914 Z-3.2 I0.125 J0.2165
G2 X29.7396 Y51.4749 Z-3.3 I0.125 J-0.2165
G2 X29.3646 Y51.2584 Z-3.4 I-0.25 J0.0
G2 Y51.6914 Z-3.5 I0.125 J0.2165
G2 X29.7396 Y51.4749 Z-3.6 I0.125 J-0.2165
G2 X29.3646 Y51.2584 Z-3.7 I-0.25 J0.0
G2 Y51.6914 Z-3.8 I0.125 J0.2165
G2 X29.7396 Y51.4749 Z-3.9 I0.125 J-0.2165
G2 X29.3646 Y51.2584 Z-4.0 I-0.25 J0.0
G2 Y51.6914 Z-4.1 I0.125 J0.2165
G2 X29.7396 Y51.4749 Z-4.2 I0.125 J-0.2165
G2 X29.3646 Y51.2584 I-0.25 J0.0
G2 Y51.6914 I0.125 J0.2165
G2 X29.7396 Y51.4749 I0.125 J-0.2165
G0 Z3.0
G0 X26.044 Y53.0056
G0 Z1.0
G1 F300.0 Z0.0
G2 F800.0 X25.669 Y52.7891 Z-0.1 I-0.25 J0.0
G2 Y53.2221 Z-0.2 I0.125 J0.2165
G2 X26.044 Y53.0056 Z-0.3 I0.125 J-0.2165
G2 X25.669 Y52.7891 Z-0.4 I-0.25 J0.0
G2 Y53.2221 Z-0.5 I0.125 J0.2165
G2 X26.044 Y53.0056 Z-0.6 I0.125 J-0.2165
G2 X25.669 Y52.7891 Z-0.7 I-0.25 J0.0
G2 Y53.2221 Z-0.8 I0.125 J0.2165
G2 X26.044 Y53.0056 Z-0.9 I0.125 J-0.2165
G2 X25.669 Y52.7891 Z-1.0 I-0.25 J0.0
G2 Y53.2221 Z-1.1 I0.125 J0.2165
G2 X26.044 Y53.0056 Z-1.2 I0.125 J-0.2165
G2 X25.669 Y52.7891 Z-1.3 I-0.25 J0.0
G2 Y53.2221 Z-1.4 I0.125 J0.2165
G2 X26.044 Y53.0056 Z-1.5 I0.125 J-0.2165
G2 X25.669 Y52.7891 Z-1.6 I-0.25 J0.0
G2 Y53.2221 Z-1.7 I0.125 J0.2165
G2 X26.044 Y53.0056 Z-1.8 I0.125 J-0.2165
G2 X25.669 Y52.7891 Z-1.9 I-0.25 J0.0
G2 Y53.2221 Z-2.0 I0.125 J0.2165
G2 X26.044 Y53.0056 Z-2.1 I0.125 J-0.2165
G2 X25.669 Y52.7891 Z-2.2 I-0.25 J0.0
G2 Y53.2221 Z-2.3 I0.125 J0.2165
G2 X26.044 Y53.0056 Z-2.4 I0.125 J-0.2165
G2 X25.669 Y52.7891 Z-2.5 I-0.25 J0.0
G2 Y53.2221 Z-2.6 I0.125 J0.2165
G2 X26.044 Y53.0056 Z-2.7 I0.125 J-0.2165
G2 X25.669 Y52.7891 Z-2.8 I-0.25 J0.0
G2 Y53.2221 Z-2.9 I0.125 J0.2165
G2 X26.044 Y53.0056 Z-3.0 I0.125 J-0.2165
G2 X25.669 Y52.7891 Z-3.1 I-0.25 J0.0
G2 Y53.2221 Z-3.2 I0.125 J0.2165
G2 X26.044 Y53.0056 Z-3.3 I0.125 J-0.2165
G2 X25.669 Y52.7891 Z-3.4 I-0.25 J0.0
G2 Y53.2221 Z-3.5 I0.125 J0.2165
G2 X26.044 Y53.0056 Z-3.6 I0.125 J-0.2165
G2 X25.669 Y52.7891 Z-3.7 I-0.25 J0.0
G2 Y53.2221 Z-3.8 I0.125 J0.2165
G2 X26.044 Y53.0056 Z-3.9 I0.125 J-0.2165
G2 X25.669 Y52.7891 Z-4.0 I-0.25 J0.0
G2 Y53.2221 Z-4.1 I0.125 J0.2165
G2 X26.044 Y53.0056 Z-4.2 I0.125 J-0.2165
G2 X25.669 Y52.7891 I-0.25 J0.0
G2 Y53.2221 I0.125 J0.2165
G2 X26.044 Y53.0056 I0.125 J-0.2165
G0 Z3.0
G0 X22.3485 Y54.5364
G0 Z1.0
G1 F300.0 Z0.0
G2 F800.0 X21.9735 Y54.3198 Z-0.1 I-0.25 J0.0
G2 Y54.7529 Z-0.2 I0.125 J0.2165
G2 X22.3485 Y54.5364 Z-0.3 I0.125 J-0.2165
G2 X21.9735 Y54.3198 Z-0.4 I-0.25 J0.0
G2 Y54.7529 Z-0.5 I0.125 J0.2165
G2 X22.3485 Y54.5364 Z-0.6 I0.125 J-0.2165
G2 X21.9735 Y54.3198 Z-0.7 I-0.25 J0.0
G2 Y54.7529 Z-0.8 I0.125 J0.2165
G2 X22.3485 Y54.5364 Z-0.9 I0.125 J-0.2165
G2 X21.9735 Y54.3198 Z-1.0 I-0.25 J0.0
G2 Y54.7529 Z-1.1 I0.125 J0.2165
G2 X22.3485 Y54.5364 Z-1.2 I0.125 J-0.2165
G2 X21.9735 Y54.3198 Z-1.3 I-0.25 J0.0
G2 Y54.7529 Z-1.4 I0.125 J0.2165
G2 X22.3485 Y54.5364 Z-1.5 I0.125 J-0.2165
G2 X21.9735 Y54.3198 Z-1.6 I-0.25 J0.0
G2 Y54.7529 Z-1.7 I0.125 J0.2165
G2 X22.3485 Y54.5364 Z-1.8 I0.125 J-0.2165
G2 X21.9735 Y54.3198 Z-1.9 I-0.25 J0.0
G2 Y54.7529 Z-2.0 I0.125 J0.2165
G2 X22.3485 Y54.5364 Z-2.1 I0.125 J-0.2165
G2 X21.9735 Y54.3198 Z-2.2 I-0.25 J0.0
G2 Y54.7529 Z-2.3 I0.125 J0.2165
G2 X22.3485 Y54.5364 Z-2.4 I0.125 J-0.2165
G2 X21.9735 Y54.3198 Z-2.5 I-0.25 J0.0
G2 Y54.7529 Z-2.6 I0.125 J0.2165
G2 X22.3485 Y54.5364 Z-2.7 I0.125 J-0.2165
G2 X21.9735 Y54.3198 Z-2.8 I-0.25 J0.0
G2 Y54.7529 Z-2.9 I0.125 J0.2165
G2 X22.3485 Y54.5364 Z-3.0 I0.125 J-0.2165
G2 X21.9735 Y54.3198 Z-3.1 I-0.25 J0.0
G2 Y54.7529 Z-3.2 I0.125 J0.2165
G2 X22.3485 Y54.5364 Z-3.3 I0.125 J-0.2165
G2 X21.9735 Y54.3198 Z-3.4 I-0.25 J0.0
G2 Y54.7529 Z-3.5 I0.125 J0.2165
G2 X22.3485 Y54.5364 Z-3.6 I0.125 J-0.2165
G2 X21.9735 Y54.3198 Z-3.7 I-0.25 J0.0
G2 Y54.7529 Z-3.8 I0.125 J0.2165
G2 X22.3485 Y54.5364 Z-3.9 I0.125 J-0.2165
G2 X21.9735 Y54.3198 Z-4.0 I-0.25 J0.0
G2 Y54.7529 Z-4.1 I0.125 J0.2165
G2 X22.3485 Y54.5364 Z-4.2 I0.125 J-0.2165
G2 X21.9735 Y54.3198 I-0.25 J0.0
G2 Y54.7529 I0.125 J0.2165
G2 X22.3485 Y54.5364 I0.125 J-0.2165
G0 Z3.0
G0 X18.653 Y56.0671
G0 Z1.0
G1 F300.0 Z0.0
G2 F800.0 X18.278 Y55.8506 Z-0.1 I-0.25 J0.0
G2 Y56.2836 Z-0.2 I0.125 J0.2165
G2 X18.653 Y56.0671 Z-0.3 I0.125 J-0.2165
G2 X18.278 Y55.8506 Z-0.4 I-0.25 J0.0
G2 Y56.2836 Z-0.5 I0.125 J0.2165
G2 X18.653 Y56.0671 Z-0.6 I0.125 J-0.2165
G2 X18.278 Y55.8506 Z-0.7 I-0.25 J0.0
G2 Y56.2836 Z-0.8 I0.125 J0.2165
G2 X18.653 Y56.0671 Z-0.9 I0.125 J-0.2165
G2 X18.278 Y55.8506 Z-1.0 I-0.25 J0.0
G2 Y56.2836 Z-1.1 I0.125 J0.2165
G2 X18.653 Y56.0671 Z-1.2 I0.125 J-0.2165
G2 X18.278 Y55.8506 Z-1.3 I-0.25 J0.0
G2 Y56.2836 Z-1.4 I0.125 J0.2165
G2 X18.653 Y56.0671 Z-1.5 I0.125 J-0.2165
G2 X18.278 Y55.8506 Z-1.6 I-0.25 J0.0
G2 Y56.2836 Z-1.7 I0.125 J0.2165
G2 X18.653 Y56.0671 Z-1.8 I0.125 J-0.2165
G2 X18.278 Y55.8506 Z-1.9 I-0.25 J0.0
G2 Y56.2836 Z-2.0 I0.125 J0.2165
G2 X18.653 Y56.0671 Z-2.1 I0.125 J-0.2165
G2 X18.278 Y55.8506 Z-2.2 I-0.25 J0.0
G2 Y56.2836 Z-2.3 I0.125 J0.2165
G2 X18.653 Y56.0671 Z-2.4 I0.125 J-0.2165
G2 X18.278 Y55.8506 Z-2.5 I-0.25 J0.0
G2 Y56.2836 Z-2.6 I0.125 J0.2165
G2 X18.653 Y56.0671 Z-2.7 I0.125 J-0.2165
G2 X18.278 Y55.8506 Z-2.8 I-0.25 J0.0
G2 Y56.2836 Z-2.9 I0.125 J0.2165
G2 X18.653 Y56.0671 Z-3.0 I0.125 J-0.2165
G2 X18.278 Y55.8506 Z-3.1 I-0.25 J0.0
G2 Y56.2836 Z-3.2 I0.125 J0.2165
G2 X18.653 Y56.0671 Z-3.3 I0.125 J-0.2165
G2 X18.278 Y55.8506 Z-3.4 I-0.25 J0.0
G2 Y56.2836 Z-3.5 I0.125 J0.2165
G2 X18.653 Y56.0671 Z-3.6 I0.125 J-0.2165
G2 X18.278 Y55.8506 Z-3.7 I-0.25 J0.0
G2 Y56.2836 Z-3.8 I0.125 J0.2165
G2 X18.653 Y56.0671 Z-3.9 I0.125 J-0.2165
G2 X18.278 Y55.8506 Z-4.0 I-0.25 J0.0
G2 Y56.2836 Z-4.1 I0.125 J0.2165
G2 X18.653 Y56.0671 Z-4.2 I0.125 J-0.2165
G2 X18.278 Y55.8506 I-0.25 J0.0
G2 Y56.2836 I0.125 J0.2165
G2 X18.653 Y56.0671 I0.125 J-0.2165
G0 Z3.0
G0 X14.9575 Y57.5978
G0 Z1.0
G1 F300.0 Z0.0
G2 F800.0 X14.5825 Y57.3813 Z-0.1 I-0.25 J0.0
G2 Y57.8143 Z-0.2 I0.125 J0.2165
G2 X14.9575 Y57.5978 Z-0.3 I0.125 J-0.2165
G2 X14.5825 Y57.3813 Z-0.4 I-0.25 J0.0
G2 Y57.8143 Z-0.5 I0.125 J0.2165
G2 X14.9575 Y57.5978 Z-0.6 I0.125 J-0.2165
G2 X14.5825 Y57.3813 Z-0.7 I-0.25 J0.0
G2 Y57.8143 Z-0.8 I0.125 J0.2165
G2 X14.9575 Y57.5978 Z-0.9 I0.125 J-0.2165
G2 X14.5825 Y57.3813 Z-1.0 I-0.25 J0.0
G2 Y57.8143 Z-1.1 I0.125 J0.2165
G2 X14.9575 Y57.5978 Z-1.2 I0.125 J-0.2165
G2 X14.5825 Y57.3813 Z-1.3 I-0.25 J0.0
G2 Y57.8143 Z-1.4 I0.125 J0.2165
G2 X14.9575 Y57.5978 Z-1.5 I0.125 J-0.2165
G2 X14.5825 Y57.3813 Z-1.6 I-0.25 J0.0
G2 Y57.8143 Z-1.7 I0.125 J0.2165
G2 X14.9575 Y57.5978 Z-1.8 I0.125 J-0.2165
G2 X14.5825 Y57.3813 Z-1.9 I-0.25 J0.0
G2 Y57.8143 Z-2.0 I0.125 J0.2165
G2 X14.9575 Y57.5978 Z-2.1 I0.125 J-0.2165
G2 X14.5825 Y57.3813 Z-2.2 I-0.25 J0.0
G2 Y57.8143 Z-2.3 I0.125 J0.2165
G2 X14.9575 Y57.5978 Z-2.4 I0.125 J-0.2165
G2 X14.5825 Y57.3813 Z-2.5 I-0.25 J0.0
G2 Y57.8143 Z-2.6 I0.125 J0.2165
G2 X14.9575 Y57.5978 Z-2.7 I0.125 J-0.2165
G2 X14.5825 Y57.3813 Z-2.8 I-0.25 J0.0
G2 Y57.8143 Z-2.9 I0.125 J0.2165
G2 X14.9575 Y57.5978 Z-3.0 I0.125 J-0.2165
G2 X14.5825 Y57.3813 Z-3.1 I-0.25 J0.0
G2 Y57.8143 Z-3.2 I0.125 J0.2165
G2 X14.9575 Y57.5978 Z-3.3 I0.125 J-0.2165
G2 X14.5825 Y57.3813 Z-3.4 I-0.25 J0.0
G2 Y57.8143 Z-3.5 I0.125 J0.2165
G2 X14.9575 Y57.5978 Z-3.6 I0.125 J-0.2165
G2 X14.5825 Y57.3813 Z-3.7 I-0.25 J0.0
G2 Y57.8143 Z-3.8 I0.125 J0.2165
G2 X14.9575 Y57.5978 Z-3.9 I0.125 J-0.2165
G2 X14.5825 Y57.3813 Z-4.0 I-0.25 J0.0
G2 Y57.8143 Z-4.1 I0.125 J0.2165
G2 X14.9575 Y57.5978 Z-4.2 I0.125 J-0.2165
G2 X14.5825 Y57.3813 I-0.25 J0.0
G2 Y57.8143 I0.125 J0.2165
G2 X14.9575 Y57.5978 I0.125 J-0.2165
G0 Z3.0
G0 X24.0723 Y64.1777
G0 Z1.0
G1 F300.0 Z0.0
G2 F800.0 X23.6973 Y63.9612 Z-0.1 I-0.25 J0.0
G2 Y64.3942 Z-0.2 I0.125 J0.2165
G2 X24.0723 Y64.1777 Z-0.3 I0.125 J-0.2165
G2 X23.6973 Y63.9612 Z-0.4 I-0.25 J0.0
G2 Y64.3942 Z-0.5 I0.125 J0.2165
G2 X24.0723 Y64.1777 Z-0.6 I0.125 J-0.2165
G2 X23.6973 Y63.9612 Z-0.7 I-0.25 J0.0
G2 Y64.3942 Z-0.8 I0.125 J0.2165
G2 X24.0723 Y64.1777 Z-0.9 I0.125 J-0.2165
G2 X23.6973 Y63.9612 Z-1.0 I-0.25 J0.0
G2 Y64.3942 Z-1.1 I0.125 J0.2165
G2 X24.0723 Y64.1777 Z-1.2 I0.125 J-0.2165
G2 X23.6973 Y63.9612 Z-1.3 I-0.25 J0.0
G2 Y64.3942 Z-1.4 I0.125 J0.2165
G2 X24.0723 Y64.1777 Z-1.5 I0.125 J-0.2165
G2 X23.6973 Y63.9612 Z-1.6 I-0.25 J0.0
G2 Y64.3942 Z-1.7 I0.125 J0.2165
G2 X24.0723 Y64.1777 Z-1.8 I0.125 J-0.2165
G2 X23.6973 Y63.9612 Z-1.9 I-0.25 J0.0
G2 Y64.3942 Z-2.0 I0.125 J0.2165
G2 X24.0723 Y64.1777 Z-2.1 I0.125 J-0.2165
G2 X23.6973 Y63.9612 Z-2.2 I-0.25 J0.0
G2 Y64.3942 Z-2.3 I0.125 J0.2165
G2 X24.0723 Y64.1777 Z-2.4 I0.125 J-0.2165
G2 X23.6973 Y63.9612 Z-2.5 I-0.25 J0.0
G2 Y64.3942 Z-2.6 I0.125 J0.2165
G2 X24.0723 Y64.1777 Z-2.7 I0.125 J-0.2165
G2 X23.6973 Y63.9612 Z-2.8 I-0.25 J0.0
G2 Y64.3942 Z-2.9 I0.125 J0.2165
G2 X24.0723 Y64.1777 Z-3.0 I0.125 J-0.2165
G2 X23.6973 Y63.9612 Z-3.1 I-0.25 J0.0
G2 Y64.3942 Z-3.2 I0.125 J0.2165
G2 X24.0723 Y64.1777 Z-3.3 I0.125 J-0.2165
G2 X23.6973 Y63.9612 Z-3.4 I-0.25 J0.0
G2 Y64.3942 Z-3.5 I0.125 J0.2165
G2 X24.0723 Y64.1777 Z-3.6 I0.125 J-0.2165
G2 X23.6973 Y63.9612 Z-3.7 I-0.25 J0.0
G2 Y64.3942 Z-3.8 I0.125 J0.2165
G2 X24.0723 Y64.1777 Z-3.9 I0.125 J-0.2165
G2 X23.6973 Y63.9612 Z-4.0 I-0.25 J0.0
G2 Y64.3942 Z-4.1 I0.125 J0.2165
G2 X24.0723 Y64.1777 Z-4.2 I0.125 J-0.2165
G2 X23.6973 Y63.9612 I-0.25 J0.0
G2 Y64.3942 I0.125 J0.2165
G2 X24.0723 Y64.1777 I0.125 J-0.2165
G0 Z3.0
G0 X21.2439 Y67.0061
G0 Z1.0
G1 F300.0 Z0.0
G2 F800.0 X20.8689 Y66.7896 Z-0.1 I-0.25 J0.0
G2 Y67.2226 Z-0.2 I0.125 J0.2165
G2 X21.2439 Y67.0061 Z-0.3 I0.125 J-0.2165
G2 X20.8689 Y66.7896 Z-0.4 I-0.25 J0.0
G2 Y67.2226 Z-0.5 I0.125 J0.2165
G2 X21.2439 Y67.0061 Z-0.6 I0.125 J-0.2165
G2 X20.8689 Y66.7896 Z-0.7 I-0.25 J0.0
G2 Y67.2226 Z-0.8 I0.125 J0.2165
G2 X21.2439 Y67.0061 Z-0.9 I0.125 J-0.2165
G2 X20.8689 Y66.7896 Z-1.0 I-0.25 J0.0
G2 Y67.2226 Z-1.1 I0.125 J0.2165
G2 X21.2439 Y67.0061 Z-1.2 I0.125 J-0.2165
G2 X20.8689 Y66.7896 Z-1.3 I-0.25 J0.0
G2 Y67.2226 Z-1.4 I0.125 J0.2165
G2 X21.2439 Y67.0061 Z-1.5 I0.125 J-0.2165
G2 X20.8689 Y66.7896 Z-1.6 I-0.25 J0.0
G2 Y67.2226 Z-1.7 I0.125 J0.2165
G2 X21.2439 Y67.0061 Z-1.8 I0.125 J-0.2165
G2 X20.8689 Y66.7896 Z-1.9 I-0.25 J0.0
G2 Y67.2226 Z-2.0 I0.125 J0.2165
G2 X21.2439 Y67.0061 Z-2.1 I0.125 J-0.2165
G2 X20.8689 Y66.7896 Z-2.2 I-0.25 J0.0
G2 Y67.2226 Z-2.3 I0.125 J0.2165
G2 X21.2439 Y67.0061 Z-2.4 I0.125 J-0.2165
G2 X20.8689 Y66.7896 Z-2.5 I-0.25 J0.0
G2 Y67.2226 Z-2.6 I0.125 J0.2165
G2 X21.2439 Y67.0061 Z-2.7 I0.125 J-0.2165
G2 X20.8689 Y66.7896 Z-2.8 I-0.25 J0.0
G2 Y67.2226 Z-2.9 I0.125 J0.2165
G2 X21.2439 Y67.0061 Z-3.0 I0.125 J-0.2165
G2 X20.8689 Y66.7896 Z-3.1 I-0.25 J0.0
G2 Y67.2226 Z-3.2 I0.125 J0.2165
G2 X21.2439 Y67.0061 Z-3.3 I0.125 J-0.2165
G2 X20.8689 Y66.7896 Z-3.4 I-0.25 J0.0
G2 Y67.2226 Z-3.5 I0.125 J0.2165
G2 X21.2439 Y67.0061 Z-3.6 I0.125 J-0.2165
G2 X20.8689 Y66.7896 Z-3.7 I-0.25 J0.0
G2 Y67.2226 Z-3.8 I0.125 J0.2165
G2 X21.2439 Y67.0061 Z-3.9 I0.125 J-0.2165
G2 X20.8689 Y66.7896 Z-4.0 I-0.25 J0.0
G2 Y67.2226 Z-4.1 I0.125 J0.2165
G2 X21.2439 Y67.0061 Z-4.2 I0.125 J-0.2165
G2 X20.8689 Y66.7896 I-0.25 J0.0
G2 Y67.2226 I0.125 J0.2165
G2 X21.2439 Y67.0061 I0.125 J-0.2165
G0 Z3.0
G0 X26.9008 Y61.3492
G0 Z1.0
G1 F300.0 Z0.0
G2 F800.0 X26.5258 Y61.1327 Z-0.1 I-0.25 J0.0
G2 Y61.5657 Z-0.2 I0.125 J0.2165
G2 X26.9008 Y61.3492 Z-0.3 I0.125 J-0.2165
G2 X26.5258 Y61.1327 Z-0.4 I-0.25 J0.0
G2 Y61.5657 Z-0.5 I0.125 J0.2165
G2 X26.9008 Y61.3492 Z-0.6 I0.125 J-0.2165
G2 X26.5258 Y61.1327 Z-0.7 I-0.25 J0.0
G2 Y61.5657 Z-0.8 I0.125 J0.2165
G2 X26.9008 Y61.3492 Z-0.9 I0.125 J-0.2165
G2 X26.5258 Y61.1327 Z-1.0 I-0.25 J0.0
G2 Y61.5657 Z-1.1 I0.125 J0.2165
G2 X26.9008 Y61.3492 Z-1.2 I0.125 J-0.2165
G2 X26.5258 Y61.1327 Z-1.3 I-0.25 J0.0
G2 Y61.5657 Z-1.4 I0.125 J0.2165
G2 X26.9008 Y61.3492 Z-1.5 I0.125 J-0.2165
G2 X26.5258 Y61.1327 Z-1.6 I-0.25 J0.0
G2 Y61.5657 Z-1.7 I0.125 J0.2165
G2 X26.9008 Y61.3492 Z-1.8 I0.125 J-0.2165
G2 X26.5258 Y61.1327 Z-1.9 I-0.25 J0.0
G2 Y61.5657 Z-2.0 I0.125 J0.2165
G2 X26.9008 Y61.3492 Z-2.1 I0.125 J-0.2165
G2 X26.5258 Y61.1327 Z-2.2 I-0.25 J0.0
G2 Y61.5657 Z-2.3 I0.125 J0.2165
G2 X26.9008 Y61.3492 Z-2.4 I0.125 J-0.2165
G2 X26.5258 Y61.1327 Z-2.5 I-0.25 J0.0
G2 Y61.5657 Z-2.6 I0.125 J0.2165
G2 X26.9008 Y61.3492 Z-2.7 I0.125 J-0.2165
G2 X26.5258 Y61.1327 Z-2.8 I-0.25 J0.0
G2 Y61.5657 Z-2.9 I0.125 J0.2165
G2 X26.9008 Y61.3492 Z-3.0 I0.125 J-0.2165
G2 X26.5258 Y61.1327 Z-3.1 I-0.25 J0.0
G2 Y61.5657 Z-3.2 I0.125 J0.2165
G2 X26.9008 Y61.3492 Z-3.3 I0.125 J-0.2165
G2 X26.5258 Y61.1327 Z-3.4 I-0.25 J0.0
G2 Y61.5657 Z-3.5 I0.125 J0.2165
G2 X26.9008 Y61.3492 Z-3.6 I0.125 J-0.2165
G2 X26.5258 Y61.1327 Z-3.7 I-0.25 J0.0
G2 Y61.5657 Z-3.8 I0.125 J0.2165
G2 X26.9008 Y61.3492 Z-3.9 I0.125 J-0.2165
G2 X26.5258 Y61.1327 Z-4.0 I-0.25 J0.0
G2 Y61.5657 Z-4.1 I0.125 J0.2165
G2 X26.9008 Y61.3492 Z-4.2 I0.125 J-0.2165
G2 X26.5258 Y61.1327 I-0.25 J0.0
G2 Y61.5657 I0.125 J0.2165
G2 X26.9008 Y61.3492 I0.125 J-0.2165
G0 Z3.0
G0 X29.7292 Y58.5208
G0 Z1.0
G1 F300.0 Z0.0
G2 F800.0 X29.3542 Y58.3043 Z-0.1 I-0.25 J0.0
G2 Y58.7373 Z-0.2 I0.125 J0.2165
G2 X29.7292 Y58.5208 Z-0.3 I0.125 J-0.2165
G2 X29.3542 Y58.3043 Z-0.4 I-0.25 J0.0
G2 Y58.7373 Z-0.5 I0.125 J0.2165
G2 X29.7292 Y58.5208 Z-0.6 I0.125 J-0.2165
G2 X29.3542 Y58.3043 Z-0.7 I-0.25 J0.0
G2 Y58.7373 Z-0.8 I0.125 J0.2165
G2 X29.7292 Y58.5208 Z-0.9 I0.125 J-0.2165
G2 X29.3542 Y58.3043 Z-1.0 I-0.25 J0.0
G2 Y58.7373 Z-1.1 I0.125 J0.2165
G2 X29.7292 Y58.5208 Z-1.2 I0.125 J-0.2165
G2 X29.3542 Y58.3043 Z-1.3 I-0.25 J0.0
G2 Y58.7373 Z-1.4 I0.125 J0.2165
G2 X29.7292 Y58.5208 Z-1.5 I0.125 J-0.2165
G2 X29.3542 Y58.3043 Z-1.6 I-0.25 J0.0
G2 Y58.7373 Z-1.7 I0.125 J0.2165
G2 X29.7292 Y58.5208 Z-1.8 I0.125 J-0.2165
G2 X29.3542 Y58.3043 Z-1.9 I-0.25 J0.0
G2 Y58.7373 Z-2.0 I0.125 J0.2165
G2 X29.7292 Y58.5208 Z-2.1 I0.125 J-0.2165
G2 X29.3542 Y58.3043 Z-2.2 I-0.25 J0.0
G2 Y58.7373 Z-2.3 I0.125 J0.2165
G2 X29.7292 Y58.5208 Z-2.4 I0.125 J-0.2165
G2 X29.3542 Y58.3043 Z-2.5 I-0.25 J0.0
G2 Y58.7373 Z-2.6 I0.125 J0.2165
G2 X29.7292 Y58.5208 Z-2.7 I0.125 J-0.2165
G2 X29.3542 Y58.3043 Z-2.8 I-0.25 J0.0
G2 Y58.7373 Z-2.9 I0.125 J0.2165
G2 X29.7292 Y58.5208 Z-3.0 I0.125 J-0.2165
G2 X29.3542 Y58.3043 Z-3.1 I-0.25 J0.0
G2 Y58.7373 Z-3.2 I0.125 J0.2165
G2 X29.7292 Y58.5208 Z-3.3 I0.125 J-0.2165
G2 X29.3542 Y58.3043 Z-3.4 I-0.25 J0.0
G2 Y58.7373 Z-3.5 I0.125 J0.2165
G2 X29.7292 Y58.5208 Z-3.6 I0.125 J-0.2165
G2 X29.3542 Y58.3043 Z-3.7 I-0.25 J0.0
G2 Y58.7373 Z-3.8 I0.125 J0.2165
G2 X29.7292 Y58.5208 Z-3.9 I0.125 J-0.2165
G2 X29.3542 Y58.3043 Z-4.0 I-0.25 J0.0
G2 Y58.7373 Z-4.1 I0.125 J0.2165
G2 X29.7292 Y58.5208 Z-4.2 I0.125 J-0.2165
G2 X29.3542 Y58.3043 I-0.25 J0.0
G2 Y58.7373 I0.125 J0.2165
G2 X29.7292 Y58.5208 I0.125 J-0.2165
G0 Z3.0
G0 X32.5576 Y55.6924
G0 Z1.0
G1 F300.0 Z0.0
G2 F800.0 X32.1826 Y55.4759 Z-0.1 I-0.25 J0.0
G2 Y55.9089 Z-0.2 I0.125 J0.2165
G2 X32.5576 Y55.6924 Z-0.3 I0.125 J-0.2165
G2 X32.1826 Y55.4759 Z-0.4 I-0.25 J0.0
G2 Y55.9089 Z-0.5 I0.125 J0.2165
G2 X32.5576 Y55.6924 Z-0.6 I0.125 J-0.2165
G2 X32.1826 Y55.4759 Z-0.7 I-0.25 J0.0
G2 Y55.9089 Z-0.8 I0.125 J0.2165
G2 X32.5576 Y55.6924 Z-0.9 I0.125 J-0.2165
G2 X32.1826 Y55.4759 Z-1.0 I-0.25 J0.0
G2 Y55.9089 Z-1.1 I0.125 J0.2165
G2 X32.5576 Y55.6924 Z-1.2 I0.125 J-0.2165
G2 X32.1826 Y55.4759 Z-1.3 I-0.25 J0.0
G2 Y55.9089 Z-1.4 I0.125 J0.2165
G2 X32.5576 Y55.6924 Z-1.5 I0.125 J-0.2165
G2 X32.1826 Y55.4759 Z-1.6 I-0.25 J0.0
G2 Y55.9089 Z-1.7 I0.125 J0.2165
G2 X32.5576 Y55.6924 Z-1.8 I0.125 J-0.2165
G2 X32.1826 Y55.4759 Z-1.9 I-0.25 J0.0
G2 Y55.9089 Z-2.0 I0.125 J0.2165
G2 X32.5576 Y55.6924 Z-2.1 I0.125 J-0.2165
G2 X32.1826 Y55.4759 Z-2.2 I-0.25 J0.0
G2 Y55.9089 Z-2.3 I0.125 J0.2165
G2 X32.5576 Y55.6924 Z-2.4 I0.125 J-0.2165
G2 X32.1826 Y55.4759 Z-2.5 I-0.25 J0.0
G2 Y55.9089 Z-2.6 I0.125 J0.2165
G2 X32.5576 Y55.6924 Z-2.7 I0.125 J-0.2165
G2 X32.1826 Y55.4759 Z-2.8 I-0.25 J0.0
G2 Y55.9089 Z-2.9 I0.125 J0.2165
G2 X32.5576 Y55.6924 Z-3.0 I0.125 J-0.2165
G2 X32.1826 Y55.4759 Z-3.1 I-0.25 J0.0
G2 Y55.9089 Z-3.2 I0.125 J0.2165
G2 X32.5576 Y55.6924 Z-3.3 I0.125 J-0.2165
G2 X32.1826 Y55.4759 Z-3.4 I-0.25 J0.0
G2 Y55.9089 Z-3.5 I0.125 J0.2165
G2 X32.5576 Y55.6924 Z-3.6 I0.125 J-0.2165
G2 X32.1826 Y55.4759 Z-3.7 I-0.25 J0.0
G2 Y55.9089 Z-3.8 I0.125 J0.2165
G2 X32.5576 Y55.6924 Z-3.9 I0.125 J-0.2165
G2 X32.1826 Y55.4759 Z-4.0 I-0.25 J0.0
G2 Y55.9089 Z-4.1 I0.125 J0.2165
G2 X32.5576 Y55.6924 Z-4.2 I0.125 J-0.2165
G2 X32.1826 Y55.4759 I-0.25 J0.0
G2 Y55.9089 I0.125 J0.2165
G2 X32.5576 Y55.6924 I0.125 J-0.2165
G0 Z3.0
G0 X36.7751 Y58.5104
G0 Z1.0
G1 F300.0 Z0.0
G2 F800.0 X36.4001 Y58.2939 Z-0.1 I-0.25 J0.0
G2 Y58.7269 Z-0.2 I0.125 J0.2165
G2 X36.7751 Y58.5104 Z-0.3 I0.125 J-0.2165
G2 X36.4001 Y58.2939 Z-0.4 I-0.25 J0.0
G2 Y58.7269 Z-0.5 I0.125 J0.2165
G2 X36.7751 Y58.5104 Z-0.6 I0.125 J-0.2165
G2 X36.4001 Y58.2939 Z-0.7 I-0.25 J0.0
G2 Y58.7269 Z-0.8 I0.125 J0.2165
G2 X36.7751 Y58.5104 Z-0.9 I0.125 J-0.2165
G2 X36.4001 Y58.2939 Z-1.0 I-0.25 J0.0
G2 Y58.7269 Z-1.1 I0.125 J0.2165
G2 X36.7751 Y58.5104 Z-1.2 I0.125 J-0.2165
G2 X36.4001 Y58.2939 Z-1.3 I-0.25 J0.0
G2 Y58.7269 Z-1.4 I0.125 J0.2165
G2 X36.7751 Y58.5104 Z-1.5 I0.125 J-0.2165
G2 X36.4001 Y58.2939 Z-1.6 I-0.25 J0.0
G2 Y58.7269 Z-1.7 I0.125 J0.2165
G2 X36.7751 Y58.5104 Z-1.8 I0.125 J-0.2165
G2 X36.4001 Y58.2939 Z-1.9 I-0.25 J0.0
G2 Y58.7269 Z-2.0 I0.125 J0.2165
G2 X36.7751 Y58.5104 Z-2.1 I0.125 J-0.2165
G2 X36.4001 Y58.2939 Z-2.2 I-0.25 J0.0
G2 Y58.7269 Z-2.3 I0.125 J0.2165
G2 X36.7751 Y58.5104 Z-2.4 I0.125 J-0.2165
G2 X36.4001 Y58.2939 Z-2.5 I-0.25 J0.0
G2 Y58.7269 Z-2.6 I0.125 J0.2165
G2 X36.7751 Y58.5104 Z-2.7 I0.125 J-0.2165
G2 X36.4001 Y58.2939 Z-2.8 I-0.25 J0.0
G2 Y58.7269 Z-2.9 I0.125 J0.2165
G2 X36.7751 Y58.5104 Z-3.0 I0.125 J-0.2165
G2 X36.4001 Y58.2939 Z-3.1 I-0.25 J0.0
G2 Y58.7269 Z-3.2 I0.125 J0.2165
G2 X36.7751 Y58.5104 Z-3.3 I0.125 J-0.2165
G2 X36.4001 Y58.2939 Z-3.4 I-0.25 J0.0
G2 Y58.7269 Z-3.5 I0.125 J0.2165
G2 X36.7751 Y58.5104 Z-3.6 I0.125 J-0.2165
G2 X36.4001 Y58.2939 Z-3.7 I-0.25 J0.0
G2 Y58.7269 Z-3.8 I0.125 J0.2165
G2 X36.7751 Y58.5104 Z-3.9 I0.125 J-0.2165
G2 X36.4001 Y58.2939 Z-4.0 I-0.25 J0.0
G2 Y58.7269 Z-4.1 I0.125 J0.2165
G2 X36.7751 Y58.5104 Z-4.2 I0.125 J-0.2165
G2 X36.4001 Y58.2939 I-0.25 J0.0
G2 Y58.7269 I0.125 J0.2165
G2 X36.7751 Y58.5104 I0.125 J-0.2165
G0 Z3.0
G0 X35.2444 Y62.206
G0 Z1.0
G1 F300.0 Z0.0
G2 F800.0 X34.8694 Y61.9894 Z-0.1 I-0.25 J0.0
G2 Y62.4225 Z-0.2 I0.125 J0.2165
G2 X35.2444 Y62.206 Z-0.3 I0.125 J-0.2165
G2 X34.8694 Y61.9894 Z-0.4 I-0.25 J0.0
G2 Y62.4225 Z-0.5 I0.125 J0.2165
G2 X35.2444 Y62.206 Z-0.6 I0.125 J-0.2165
G2 X34.8694 Y61.9894 Z-0.7 I-0.25 J0.0
G2 Y62.4225 Z-0.8 I0.125 J0.2165
G2 X35.2444 Y62.206 Z-0.9 I0.125 J-0.2165
G2 X34.8694 Y61.9894 Z-1.0 I-0.25 J0.0
G2 Y62.4225 Z-1.1 I0.125 J0.2165
G2 X35.2444 Y62.206 Z-1.2 I0.125 J-0.2165
G2 X34.8694 Y61.9894 Z-1.3 I-0.25 J0.0
G2 Y62.4225 Z-1.4 I0.125 J0.2165
G2 X35.2444 Y62.206 Z-1.5 I0.125 J-0.2165
G2 X34.8694 Y61.9894 Z-1.6 I-0.25 J0.0
G2 Y62.4225 Z-1.7 I0.125 J0.2165
G2 X35.2444 Y62.206 Z-1.8 I0.125 J-0.2165
G2 X34.8694 Y61.9894 Z-1.9 I-0.25 J0.0
G2 Y62.4225 Z-2.0 I0.125 J0.2165
G2 X35.2444 Y62.206 Z-2.1 I0.125 J-0.2165
G2 X34.8694 Y61.9894 Z-2.2 I-0.25 J0.0
G2 Y62.4225 Z-2.3 I0.125 J0.2165
G2 X35.2444 Y62.206 Z-2.4 I0.125 J-0.2165
G2 X34.8694 Y61.9894 Z-2.5 I-0.25 J0.0
G2 Y62.4225 Z-2.6 I0.125 J0.2165
G2 X35.2444 Y62.206 Z-2.7 I0.125 J-0.2165
G2 X34.8694 Y61.9894 Z-2.8 I-0.25 J0.0
G2 Y62.4225 Z-2.9 I0.125 J0.2165
G2 X35.2444 Y62.206 Z-3.0 I0.125 J-0.2165
G2 X34.8694 Y61.9894 Z-3.1 I-0.25 J0.0
G2 Y62.4225 Z-3.2 I0.125 J0.2165
G2 X35.2444 Y62.206 Z-3.3 I0.125 J-0.2165
G2 X34.8694 Y61.9894 Z-3.4 I-0.25 J0.0
G2 Y62.4225 Z-3.5 I0.125 J0.2165
G2 X35.2444 Y62.206 Z-3.6 I0.125 J-0.2165
G2 X34.8694 Y61.9894 Z-3.7 I-0.25 J0.0
G2 Y62.4225 Z-3.8 I0.125 J0.2165
G2 X35.2444 Y62.206 Z-3.9 I0.125 J-0.2165
G2 X34.8694 Y61.9894 Z-4.0 I-0.25 J0.0
G2 Y62.4225 Z-4.1 I0.125 J0.2165
G2 X35.2444 Y62.206 Z-4.2 I0.125 J-0.2165
G2 X34.8694 Y61.9894 I-0.25 J0.0
G2 Y62.4225 I0.125 J0.2165
G2 X35.2444 Y62.206 I0.125 J-0.2165
G0 Z3.0
G0 X33.7136 Y65.9015
G0 Z1.0
G1 F300.0 Z0.0
G2 F800.0 X33.3386 Y65.685 Z-0.1 I-0.25 J0.0
G2 Y66.118 Z-0.2 I0.125 J0.2165
G2 X33.7136 Y65.9015 Z-0.3 I0.125 J-0.2165
G2 X33.3386 Y65.685 Z-0.4 I-0.25 J0.0
G2 Y66.118 Z-0.5 I0.125 J0.2165
G2 X33.7136 Y65.9015 Z-0.6 I0.125 J-0.2165
G2 X33.3386 Y65.685 Z-0.7 I-0.25 J0.0
G2 Y66.118 Z-0.8 I0.125 J0.2165
G2 X33.7136 Y65.9015 Z-0.9 I0.125 J-0.2165
G2 X33.3386 Y65.685 Z-1.0 I-0.25 J0.0
G2 Y66.118 Z-1.1 I0.125 J0.2165
G2 X33.7136 Y65.9015 Z-1.2 I0.125 J-0.2165
G2 X33.3386 Y65.685 Z-1.3 I-0.25 J0.0
G2 Y66.118 Z-1.4 I0.125 J0.2165
G2 X33.7136 Y65.9015 Z-1.5 I0.125 J-0.2165
G2 X33.3386 Y65.685 Z-1.6 I-0.25 J0.0
G2 Y66.118 Z-1.7 I0.125 J0.2165
G2 X33.7136 Y65.9015 Z-1.8 I0.125 J-0.2165
G2 X33.3386 Y65.685 Z-1.9 I-0.25 J0.0
G2 Y66.118 Z-2.0 I0.125 J0.2165
G2 X33.7136 Y65.9015 Z-2.1 I0.125 J-0.2165
G2 X33.3386 Y65.685 Z-2.2 I-0.25 J0.0
G2 Y66.118 Z-2.3 I0.125 J0.2165
G2 X33.7136 Y65.9015 Z-2.4 I0.125 J-0.2165
G2 X33.3386 Y65.685 Z-2.5 I-0.25 J0.0
G2 Y66.118 Z-2.6 I0.125 J0.2165
G2 X33.7136 Y65.9015 Z-2.7 I0.125 J-0.2165
G2 X33.3386 Y65.685 Z-2.8 I-0.25 J0.0
G2 Y66.118 Z-2.9 I0.125 J0.2165
G2 X33.7136 Y65.9015 Z-3.0 I0.125 J-0.2165
G2 X33.3386 Y65.685 Z-3.1 I-0.25 J0.0
G2 Y66.118 Z-3.2 I0.125 J0.2165
G2 X33.7136 Y65.9015 Z-3.3 I0.125 J-0.2165
G2 X33.3386 Y65.685 Z-3.4 I-0.25 J0.0
G2 Y66.118 Z-3.5 I0.125 J0.2165
G2 X33.7136 Y65.9015 Z-3.6 I0.125 J-0.2165
G2 X33.3386 Y65.685 Z-3.7 I-0.25 J0.0
G2 Y66.118 Z-3.8 I0.125 J0.2165
G2 X33.7136 Y65.9015 Z-3.9 I0.125 J-0.2165
G2 X33.3386 Y65.685 Z-4.0 I-0.25 J0.0
G2 Y66.118 Z-4.1 I0.125 J0.2165
G2 X33.7136 Y65.9015 Z-4.2 I0.125 J-0.2165
G2 X33.3386 Y65.685 I-0.25 J0.0
G2 Y66.118 I0.125 J0.2165
G2 X33.7136 Y65.9015 I0.125 J-0.2165
G0 Z3.0
G0 X32.1829 Y69.597
G0 Z1.0
G1 F300.0 Z0.0
G2 F800.0 X31.8079 Y69.3805 Z-0.1 I-0.25 J0.0
G2 Y69.8135 Z-0.2 I0.125 J0.2165
G2 X32.1829 Y69.597 Z-0.3 I0.125 J-0.2165
G2 X31.8079 Y69.3805 Z-0.4 I-0.25 J0.0
G2 Y69.8135 Z-0.5 I0.125 J0.2165
G2 X32.1829 Y69.597 Z-0.6 I0.125 J-0.2165
G2 X31.8079 Y69.3805 Z-0.7 I-0.25 J0.0
G2 Y69.8135 Z-0.8 I0.125 J0.2165
G2 X32.1829 Y69.597 Z-0.9 I0.125 J-0.2165
G2 X31.8079 Y69.3805 Z-1.0 I-0.25 J0.0
G2 Y69.8135 Z-1.1 I0.125 J0.2165
G2 X32.1829 Y69.597 Z-1.2 I0.125 J-0.2165
G2 X31.8079 Y69.3805 Z-1.3 I-0.25 J0.0
G2 Y69.8135 Z-1.4 I0.125 J0.2165
G2 X32.1829 Y69.597 Z-1.5 I0.125 J-0.2165
G2 X31.8079 Y69.3805 Z-1.6 I-0.25 J0.0
G2 Y69.8135 Z-1.7 I0.125 J0.2165
G2 X32.1829 Y69.597 Z-1.8 I0.125 J-0.2165
G2 X31.8079 Y69.3805 Z-1.9 I-0.25 J0.0
G2 Y69.8135 Z-2.0 I0.125 J0.2165
G2 X32.1829 Y69.597 Z-2.1 I0.125 J-0.2165
G2 X31.8079 Y69.3805 Z-2.2 I-0.25 J0.0
G2 Y69.8135 Z-2.3 I0.125 J0.2165
G2 X32.1829 Y69.597 Z-2.4 I0.125 J-0.2165
G2 X31.8079 Y69.3805 Z-2.5 I-0.25 J0.0
G2 Y69.8135 Z-2.6 I0.125 J0.2165
G2 X32.1829 Y69.597 Z-2.7 I0.125 J-0.2165
G2 X31.8079 Y69.3805 Z-2.8 I-0.25 J0.0
G2 Y69.8135 Z-2.9 I0.125 J0.2165
G2 X32.1829 Y69.597 Z-3.0 I0.125 J-0.2165
G2 X31.8079 Y69.3805 Z-3.1 I-0.25 J0.0
G2 Y69.8135 Z-3.2 I0.125 J0.2165
G2 X32.1829 Y69.597 Z-3.3 I0.125 J-0.2165
G2 X31.8079 Y69.3805 Z-3.4 I-0.25 J0.0
G2 Y69.8135 Z-3.5 I0.125 J0.2165
G2 X32.1829 Y69.597 Z-3.6 I0.125 J-0.2165
G2 X31.8079 Y69.3805 Z-3.7 I-0.25 J0.0
G2 Y69.8135 Z-3.8 I0.125 J0.2165
G2 X32.1829 Y69.597 Z-3.9 I0.125 J-0.2165
G2 X31.8079 Y69.3805 Z-4.0 I-0.25 J0.0
G2 Y69.8135 Z-4.1 I0.125 J0.2165
G2 X32.1829 Y69.597 Z-4.2 I0.125 J-0.2165
G2 X31.8079 Y69.3805 I-0.25 J0.0
G2 Y69.8135 I0.125 J0.2165
G2 X32.1829 Y69.597 I0.125 J-0.2165
G0 Z3.0
G0 X30.6522 Y73.2925
G0 Z1.0
G1 F300.0 Z0.0
G2 F800.0 X30.2772 Y73.076 Z-0.1 I-0.25 J0.0
G2 Y73.509 Z-0.2 I0.125 J0.2165
G2 X30.6522 Y73.2925 Z-0.3 I0.125 J-0.2165
G2 X30.2772 Y73.076 Z-0.4 I-0.25 J0.0
G2 Y73.509 Z-0.5 I0.125 J0.2165
G2 X30.6522 Y73.2925 Z-0.6 I0.125 J-0.2165
G2 X30.2772 Y73.076 Z-0.7 I-0.25 J0.0
G2 Y73.509 Z-0.8 I0.125 J0.2165
G2 X30.6522 Y73.2925 Z-0.9 I0.125 J-0.2165
G2 X30.2772 Y73.076 Z-1.0 I-0.25 J0.0
G2 Y73.509 Z-1.1 I0.125 J0.2165
G2 X30.6522 Y73.2925 Z-1.2 I0.125 J-0.2165
G2 X30.2772 Y73.076 Z-1.3 I-0.25 J0.0
G2 Y73.509 Z-1.4 I0.125 J0.2165
G2 X30.6522 Y73.2925 Z-1.5 I0.125 J-0.2165
G2 X30.2772 Y73.076 Z-1.6 I-0.25 J0.0
G2 Y73.509 Z-1.7 I0.125 J0.2165
G2 X30.6522 Y73.2925 Z-1.8 I0.125 J-0.2165
G2 X30.2772 Y73.076 Z-1.9 I-0.25 J0.0
G2 Y73.509 Z-2.0 I0.125 J0.2165
G2 X30.6522 Y73.2925 Z-2.1 I0.125 J-0.2165
G2 X30.2772 Y73.076 Z-2.2 I-0.25 J0.0
G2 Y73.509 Z-2.3 I0.125 J0.2165
G2 X30.6522 Y73.2925 Z-2.4 I0.125 J-0.2165
G2 X30.2772 Y73.076 Z-2.5 I-0.25 J0.0
G2 Y73.509 Z-2.6 I0.125 J0.2165
G2 X30.6522 Y73.2925 Z-2.7 I0.125 J-0.2165
G2 X30.2772 Y73.076 Z-2.8 I-0.25 J0.0
G2 Y73.509 Z-2.9 I0.125 J0.2165
G2 X30.6522 Y73.2925 Z-3.0 I0.125 J-0.2165
G2 X30.2772 Y73.076 Z-3.1 I-0.25 J0.0
G2 Y73.509 Z-3.2 I0.125 J0.2165
G2 X30.6522 Y73.2925 Z-3.3 I0.125 J-0.2165
G2 X30.2772 Y73.076 Z-3.4 I-0.25 J0.0
G2 Y73.509 Z-3.5 I0.125 J0.2165
G2 X30.6522 Y73.2925 Z-3.6 I0.125 J-0.2165
G2 X30.2772 Y73.076 Z-3.7 I-0.25 J0.0
G2 Y73.509 Z-3.8 I0.125 J0.2165
G2 X30.6522 Y73.2925 Z-3.9 I0.125 J-0.2165
G2 X30.2772 Y73.076 Z-4.0 I-0.25 J0.0
G2 Y73.509 Z-4.1 I0.125 J0.2165
G2 X30.6522 Y73.2925 Z-4.2 I0.125 J-0.2165
G2 X30.2772 Y73.076 I-0.25 J0.0
G2 Y73.509 I0.125 J0.2165
G2 X30.6522 Y73.2925 I0.125 J-0.2165
G0 Z3.0
G0 X41.75 Y71.5
G0 Z1.0
G1 F300.0 Z0.0
G2 F800.0 X41.375 Y71.2835 Z-0.1 I-0.25 J0.0
G2 Y71.7165 Z-0.2 I0.125 J0.2165
G2 X41.75 Y71.5 Z-0.3 I0.125 J-0.2165
G2 X41.375 Y71.2835 Z-0.4 I-0.25 J0.0
G2 Y71.7165 Z-0.5 I0.125 J0.2165
G2 X41.75 Y71.5 Z-0.6 I0.125 J-0.2165
G2 X41.375 Y71.2835 Z-0.7 I-0.25 J0.0
G2 Y71.7165 Z-0.8 I0.125 J0.2165
G2 X41.75 Y71.5 Z-0.9 I0.125 J-0.2165
G2 X41.375 Y71.2835 Z-1.0 I-0.25 J0.0
G2 Y71.7165 Z-1.1 I0.125 J0.2165
G2 X41.75 Y71.5 Z-1.2 I0.125 J-0.2165
G2 X41.375 Y71.2835 Z-1.3 I-0.25 J0.0
G2 Y71.7165 Z-1.4 I0.125 J0.2165
G2 X41.75 Y71.5 Z-1.5 I0.125 J-0.2165
G2 X41.375 Y71.2835 Z-1.6 I-0.25 J0.0
G2 Y71.7165 Z-1.7 I0.125 J0.2165
G2 X41.75 Y71.5 Z-1.8 I0.125 J-0.2165
G2 X41.375 Y71.2835 Z-1.9 I-0.25 J0.0
G2 Y71.7165 Z-2.0 I0.125 J0.2165
G2 X41.75 Y71.5 Z-2.1 I0.125 J-0.2165
G2 X41.375 Y71.2835 Z-2.2 I-0.25 J0.0
G2 Y71.7165 Z-2.3 I0.125 J0.2165
G2 X41.75 Y71.5 Z-2.4 I0.125 J-0.2165
G2 X41.375 Y71.2835 Z-2.5 I-0.25 J0.0
G2 Y71.7165 Z-2.6 I0.125 J0.2165
G2 X41.75 Y71.5 Z-2.7 I0.125 J-0.2165
G2 X41.375 Y71.2835 Z-2.8 I-0.25 J0.0
G2 Y71.7165 Z-2.9 I0.125 J0.2165
G2 X41.75 Y71.5 Z-3.0 I0.125 J-0.2165
G2 X41.375 Y71.2835 Z-3.1 I-0.25 J0.0
G2 Y71.7165 Z-3.2 I0.125 J0.2165
G2 X41.75 Y71.5 Z-3.3 I0.125 J-0.2165
G2 X41.375 Y71.2835 Z-3.4 I-0.25 J0.0
G2 Y71.7165 Z-3.5 I0.125 J0.2165
G2 X41.75 Y71.5 Z-3.6 I0.125 J-0.2165
G2 X41.375 Y71.2835 Z-3.7 I-0.25 J0.0
G2 Y71.7165 Z-3.8 I0.125 J0.2165
G2 X41.75 Y71.5 Z-3.9 I0.125 J-0.2165
G2 X41.375 Y71.2835 Z-4.0 I-0.25 J0.0
G2 Y71.7165 Z-4.1 I0.125 J0.2165
G2 X41.75 Y71.5 Z-4.2 I0.125 J-0.2165
G2 X41.375 Y71.2835 I-0.25 J0.0
G2 Y71.7165 I0.125 J0.2165
G2 X41.75 Y71.5 I0.125 J-0.2165
G0 Z3.0
G0 Y67.5
G0 Z1.0
G1 F300.0 Z0.0
G2 F800.0 X41.375 Y67.2835 Z-0.1 I-0.25 J0.0
G2 Y67.7165 Z-0.2 I0.125 J0.2165
G2 X41.75 Y67.5 Z-0.3 I0.125 J-0.2165
G2 X41.375 Y67.2835 Z-0.4 I-0.25 J0.0
G2 Y67.7165 Z-0.5 I0.125 J0.2165
G2 X41.75 Y67.5 Z-0.6 I0.125 J-0.2165
G2 X41.375 Y67.2835 Z-0.7 I-0.25 J0.0
G2 Y67.7165 Z-0.8 I0.125 J0.2165
G2 X41.75 Y67.5 Z-0.9 I0.125 J-0.2165
G2 X41.375 Y67.2835 Z-1.0 I-0.25 J0.0
G2 Y67.7165 Z-1.1 I0.125 J0.2165
G2 X41.75 Y67.5 Z-1.2 I0.125 J-0.2165
G2 X41.375 Y67.2835 Z-1.3 I-0.25 J0.0
G2 Y67.7165 Z-1.4 I0.125 J0.2165
G2 X41.75 Y67.5 Z-1.5 I0.125 J-0.2165
G2 X41.375 Y67.2835 Z-1.6 I-0.25 J0.0
G2 Y67.7165 Z-1.7 I0.125 J0.2165
G2 X41.75 Y67.5 Z-1.8 I0.125 J-0.2165
G2 X41.375 Y67.2835 Z-1.9 I-0.25 J0.0
G2 Y67.7165 Z-2.0 I0.125 J0.2165
G2 X41.75 Y67.5 Z-2.1 I0.125 J-0.2165
G2 X41.375 Y67.2835 Z-2.2 I-0.25 J0.0
G2 Y67.7165 Z-2.3 I0.125 J0.2165
G2 X41.75 Y67.5 Z-2.4 I0.125 J-0.2165
G2 X41.375 Y67.2835 Z-2.5 I-0.25 J0.0
G2 Y67.7165 Z-2.6 I0.125 J0.2165
G2 X41.75 Y67.5 Z-2.7 I0.125 J-0.2165
G2 X41.375 Y67.2835 Z-2.8 I-0.25 J0.0
G2 Y67.7165 Z-2.9 I0.125 J0.2165
G2 X41.75 Y67.5 Z-3.0 I0.125 J-0.2165
G2 X41.375 Y67.2835 Z-3.1 I-0.25 J0.0
G2 Y67.7165 Z-3.2 I0.125 J0.2165
G2 X41.75 Y67.5 Z-3.3 I0.125 J-0.2165
G2 X41.375 Y67.2835 Z-3.4 I-0.25 J0.0
G2 Y67.7165 Z-3.5 I0.125 J0.2165
G2 X41.75 Y67.5 Z-3.6 I0.125 J-0.2165
G2 X41.375 Y67.2835 Z-3.7 I-0.25 J0.0
G2 Y67.7165 Z-3.8 I0.125 J0.2165
G2 X41.75 Y67.5 Z-3.9 I0.125 J-0.2165
G2 X41.375 Y67.2835 Z-4.0 I-0.25 J0.0
G2 Y67.7165 Z-4.1 I0.125 J0.2165
G2 X41.75 Y67.5 Z-4.2 I0.125 J-0.2165
G2 X41.375 Y67.2835 I-0.25 J0.0
G2 Y67.7165 I0.125 J0.2165
G2 X41.75 Y67.5 I0.125 J-0.2165
G0 Z3.0
G0 Y63.5
G0 Z1.0
G1 F300.0 Z0.0
G2 F800.0 X41.375 Y63.2835 Z-0.1 I-0.25 J0.0
G2 Y63.7165 Z-0.2 I0.125 J0.2165
G2 X41.75 Y63.5 Z-0.3 I0.125 J-0.2165
G2 X41.375 Y63.2835 Z-0.4 I-0.25 J0.0
G2 Y63.7165 Z-0.5 I0.125 J0.2165
G2 X41.75 Y63.5 Z-0.6 I0.125 J-0.2165
G2 X41.375 Y63.2835 Z-0.7 I-0.25 J0.0
G2 Y63.7165 Z-0.8 I0.125 J0.2165
G2 X41.75 Y63.5 Z-0.9 I0.125 J-0.2165
G2 X41.375 Y63.2835 Z-1.0 I-0.25 J0.0
G2 Y63.7165 Z-1.1 I0.125 J0.2165
G2 X41.75 Y63.5 Z-1.2 I0.125 J-0.2165
G2 X41.375 Y63.2835 Z-1.3 I-0.25 J0.0
G2 Y63.7165 Z-1.4 I0.125 J0.2165
G2 X41.75 Y63.5 Z-1.5 I0.125 J-0.2165
G2 X41.375 Y63.2835 Z-1.6 I-0.25 J0.0
G2 Y63.7165 Z-1.7 I0.125 J0.2165
G2 X41.75 Y63.5 Z-1.8 I0.125 J-0.2165
G2 X41.375 Y63.2835 Z-1.9 I-0.25 J0.0
G2 Y63.7165 Z-2.0 I0.125 J0.2165
G2 X41.75 Y63.5 Z-2.1 I0.125 J-0.2165
G2 X41.375 Y63.2835 Z-2.2 I-0.25 J0.0
G2 Y63.7165 Z-2.3 I0.125 J0.2165
G2 X41.75 Y63.5 Z-2.4 I0.125 J-0.2165
G2 X41.375 Y63.2835 Z-2.5 I-0.25 J0.0
G2 Y63.7165 Z-2.6 I0.125 J0.2165
G2 X41.75 Y63.5 Z-2.7 I0.125 J-0.2165
G2 X41.375 Y63.2835 Z-2.8 I-0.25 J0.0
G2 Y63.7165 Z-2.9 I0.125 J0.2165
G2 X41.75 Y63.5 Z-3.0 I0.125 J-0.2165
G2 X41.375 Y63.2835 Z-3.1 I-0.25 J0.0
G2 Y63.7165 Z-3.2 I0.125 J0.2165
G2 X41.75 Y63.5 Z-3.3 I0.125 J-0.2165
G2 X41.375 Y63.2835 Z-3.4 I-0.25 J0.0
G2 Y63.7165 Z-3.5 I0.125 J0.2165
G2 X41.75 Y63.5 Z-3.6 I0.125 J-0.2165
G2 X41.375 Y63.2835 Z-3.7 I-0.25 J0.0
G2 Y63.7165 Z-3.8 I0.125 J0.2165
G2 X41.75 Y63.5 Z-3.9 I0.125 J-0.2165
G2 X41.375 Y63.2835 Z-4.0 I-0.25 J0.0
G2 Y63.7165 Z-4.1 I0.125 J0.2165
G2 X41.75 Y63.5 Z-4.2 I0.125 J-0.2165
G2 X41.375 Y63.2835 I-0.25 J0.0
G2 Y63.7165 I0.125 J0.2165
G2 X41.75 Y63.5 I0.125 J-0.2165
G0 Z3.0
G0 Y59.5
G0 Z1.0
G1 F300.0 Z0.0
G2 F800.0 X41.375 Y59.2835 Z-0.1 I-0.25 J0.0
G2 Y59.7165 Z-0.2 I0.125 J0.2165
G2 X41.75 Y59.5 Z-0.3 I0.125 J-0.2165
G2 X41.375 Y59.2835 Z-0.4 I-0.25 J0.0
G2 Y59.7165 Z-0.5 I0.125 J0.2165
G2 X41.75 Y59.5 Z-0.6 I0.125 J-0.2165
G2 X41.375 Y59.2835 Z-0.7 I-0.25 J0.0
G2 Y59.7165 Z-0.8 I0.125 J0.2165
G2 X41.75 Y59.5 Z-0.9 I0.125 J-0.2165
G2 X41.375 Y59.2835 Z-1.0 I-0.25 J0.0
G2 Y59.7165 Z-1.1 I0.125 J0.2165
G2 X41.75 Y59.5 Z-1.2 I0.125 J-0.2165
G2 X41.375 Y59.2835 Z-1.3 I-0.25 J0.0
G2 Y59.7165 Z-1.4 I0.125 J0.2165
G2 X41.75 Y59.5 Z-1.5 I0.125 J-0.2165
G2 X41.375 Y59.2835 Z-1.6 I-0.25 J0.0
G2 Y59.7165 Z-1.7 I0.125 J0.2165
G2 X41.75 Y59.5 Z-1.8 I0.125 J-0.2165
G2 X41.375 Y59.2835 Z-1.9 I-0.25 J0.0
G2 Y59.7165 Z-2.0 I0.125 J0.2165
G2 X41.75 Y59.5 Z-2.1 I0.125 J-0.2165
G2 X41.375 Y59.2835 Z-2.2 I-0.25 J0.0
G2 Y59.7165 Z-2.3 I0.125 J0.2165
G2 X41.75 Y59.5 Z-2.4 I0.125 J-0.2165
G2 X41.375 Y59.2835 Z-2.5 I-0.25 J0.0
G2 Y59.7165 Z-2.6 I0.125 J0.2165
G2 X41.75 Y59.5 Z-2.7 I0.125 J-0.2165
G2 X41.375 Y59.2835 Z-2.8 I-0.25 J0.0
G2 Y59.7165 Z-2.9 I0.125 J0.2165
G2 X41.75 Y59.5 Z-3.0 I0.125 J-0.2165
G2 X41.375 Y59.2835 Z-3.1 I-0.25 J0.0
G2 Y59.7165 Z-3.2 I0.125 J0.2165
G2 X41.75 Y59.5 Z-3.3 I0.125 J-0.2165
G2 X41.375 Y59.2835 Z-3.4 I-0.25 J0.0
G2 Y59.7165 Z-3.5 I0.125 J0.2165
G2 X41.75 Y59.5 Z-3.6 I0.125 J-0.2165
G2 X41.375 Y59.2835 Z-3.7 I-0.25 J0.0
G2 Y59.7165 Z-3.8 I0.125 J0.2165
G2 X41.75 Y59.5 Z-3.9 I0.125 J-0.2165
G2 X41.375 Y59.2835 Z-4.0 I-0.25 J0.0
G2 Y59.7165 Z-4.1 I0.125 J0.2165
G2 X41.75 Y59.5 Z-4.2 I0.125 J-0.2165
G2 X41.375 Y59.2835 I-0.25 J0.0
G2 Y59.7165 I0.125 J0.2165
G2 X41.75 Y59.5 I0.125 J-0.2165
G0 Z3.0
G0 X46.7249 Y58.5104
G0 Z1.0
G1 F300.0 Z0.0
G2 F800.0 X46.3499 Y58.2939 Z-0.1 I-0.25 J0.0
G2 Y58.7269 Z-0.2 I0.125 J0.2165
G2 X46.7249 Y58.5104 Z-0.3 I0.125 J-0.2165
G2 X46.3499 Y58.2939 Z-0.4 I-0.25 J0.0
G2 Y58.7269 Z-0.5 I0.125 J0.2165
G2 X46.7249 Y58.5104 Z-0.6 I0.125 J-0.2165
G2 X46.3499 Y58.2939 Z-0.7 I-0.25 J0.0
G2 Y58.7269 Z-0.8 I0.125 J0.2165
G2 X46.7249 Y58.5104 Z-0.9 I0.125 J-0.2165
G2 X46.3499 Y58.2939 Z-1.0 I-0.25 J0.0
G2 Y58.7269 Z-1.1 I0.125 J0.2165
G2 X46.7249 Y58.5104 Z-1.2 I0.125 J-0.2165
G2 X46.3499 Y58.2939 Z-1.3 I-0.25 J0.0
G2 Y58.7269 Z-1.4 I0.125 J0.2165
G2 X46.7249 Y58.5104 Z-1.5 I0.125 J-0.2165
G2 X46.3499 Y58.2939 Z-1.6 I-0.25 J0.0
G2 Y58.7269 Z-1.7 I0.125 J0.2165
G2 X46.7249 Y58.5104 Z-1.8 I0.125 J-0.2165
G2 X46.3499 Y58.2939 Z-1.9 I-0.25 J0.0
G2 Y58.7269 Z-2.0 I0.125 J0.2165
G2 X46.7249 Y58.5104 Z-2.1 I0.125 J-0.2165
G2 X46.3499 Y58.2939 Z-2.2 I-0.25 J0.0
G2 Y58.7269 Z-2.3 I0.125 J0.2165
G2 X46.7249 Y58.5104 Z-2.4 I0.125 J-0.2165
G2 X46.3499 Y58.2939 Z-2.5 I-0.25 J0.0
G2 Y58.7269 Z-2.6 I0.125 J0.2165
G2 X46.7249 Y58.5104 Z-2.7 I0.125 J-0.2165
G2 X46.3499 Y58.2939 Z-2.8 I-0.25 J0.0
G2 Y58.7269 Z-2.9 I0.125 J0.2165
G2 X46.7249 Y58.5104 Z-3.0 I0.125 J-0.2165
G2 X46.3499 Y58.2939 Z-3.1 I-0.25 J0.0
G2 Y58.7269 Z-3.2 I0.125 J0.2165
G2 X46.7249 Y58.5104 Z-3.3 I0.125 J-0.2165
G2 X46.3499 Y58.2939 Z-3.4 I-0.25 J0.0
G2 Y58.7269 Z-3.5 I0.125 J0.2165
G2 X46.7249 Y58.5104 Z-3.6 I0.125 J-0.2165
G2 X46.3499 Y58.2939 Z-3.7 I-0.25 J0.0
G2 Y58.7269 Z-3.8 I0.125 J0.2165
G2 X46.7249 Y58.5104 Z-3.9 I0.125 J-0.2165
G2 X46.3499 Y58.2939 Z-4.0 I-0.25 J0.0
G2 Y58.7269 Z-4.1 I0.125 J0.2165
G2 X46.7249 Y58.5104 Z-4.2 I0.125 J-0.2165
G2 X46.3499 Y58.2939 I-0.25 J0.0
G2 Y58.7269 I0.125 J0.2165
G2 X46.7249 Y58.5104 I0.125 J-0.2165
G0 Z3.0
G0 X48.2556 Y62.206
G0 Z1.0
G1 F300.0 Z0.0
G2 F800.0 X47.8806 Y61.9894 Z-0.1 I-0.25 J0.0
G2 Y62.4225 Z-0.2 I0.125 J0.2165
G2 X48.2556 Y62.206 Z-0.3 I0.125 J-0.2165
G2 X47.8806 Y61.9894 Z-0.4 I-0.25 J0.0
G2 Y62.4225 Z-0.5 I0.125 J0.2165
G2 X48.2556 Y62.206 Z-0.6 I0.125 J-0.2165
G2 X47.8806 Y61.9894 Z-0.7 I-0.25 J0.0
G2 Y62.4225 Z-0.8 I0.125 J0.2165
G2 X48.2556 Y62.206 Z-0.9 I0.125 J-0.2165
G2 X47.8806 Y61.9894 Z-1.0 I-0.25 J0.0
G2 Y62.4225 Z-1.1 I0.125 J0.2165
G2 X48.2556 Y62.206 Z-1.2 I0.125 J-0.2165
G2 X47.8806 Y61.9894 Z-1.3 I-0.25 J0.0
G2 Y62.4225 Z-1.4 I0.125 J0.2165
G2 X48.2556 Y62.206 Z-1.5 I0.125 J-0.2165
G2 X47.8806 Y61.9894 Z-1.6 I-0.25 J0.0
G2 Y62.4225 Z-1.7 I0.125 J0.2165
G2 X48.2556 Y62.206 Z-1.8 I0.125 J-0.2165
G2 X47.8806 Y61.9894 Z-1.9 I-0.25 J0.0
G2 Y62.4225 Z-2.0 I0.125 J0.2165
G2 X48.2556 Y62.206 Z-2.1 I0.125 J-0.2165
G2 X47.8806 Y61.9894 Z-2.2 I-0.25 J0.0
G2 Y62.4225 Z-2.3 I0.125 J0.2165
G2 X48.2556 Y62.206 Z-2.4 I0.125 J-0.2165
G2 X47.8806 Y61.9894 Z-2.5 I-0.25 J0.0
G2 Y62.4225 Z-2.6 I0.125 J0.2165
G2 X48.2556 Y62.206 Z-2.7 I0.125 J-0.2165
G2 X47.8806 Y61.9894 Z-2.8 I-0.25 J0.0
G2 Y62.4225 Z-2.9 I0.125 J0.2165
G2 X48.2556 Y62.206 Z-3.0 I0.125 J-0.2165
G2 X47.8806 Y61.9894 Z-3.1 I-0.25 J0.0
G2 Y62.4225 Z-3.2 I0.125 J0.2165
G2 X48.2556 Y62.206 Z-3.3 I0.125 J-0.2165
G2 X47.8806 Y61.9894 Z-3.4 I-0.25 J0.0
G2 Y62.4225 Z-3.5 I0.125 J0.2165
G2 X48.2556 Y62.206 Z-3.6 I0.125 J-0.2165
G2 X47.8806 Y61.9894 Z-3.7 I-0.25 J0.0
G2 Y62.4225 Z-3.8 I0.125 J0.2165
G2 X48.2556 Y62.206 Z-3.9 I0.125 J-0.2165
G2 X47.8806 Y61.9894 Z-4.0 I-0.25 J0.0
G2 Y62.4225 Z-4.1 I0.125 J0.2165
G2 X48.2556 Y62.206 Z-4.2 I0.125 J-0.2165
G2 X47.8806 Y61.9894 I-0.25 J0.0
G2 Y62.4225 I0.125 J0.2165
G2 X48.2556 Y62.206 I0.125 J-0.2165
G0 Z3.0
G0 X49.7864 Y65.9015
G0 Z1.0
G1 F300.0 Z0.0
G2 F800.0 X49.4114 Y65.685 Z-0.1 I-0.25 J0.0
G2 Y66.118 Z-0.2 I0.125 J0.2165
G2 X49.7864 Y65.9015 Z-0.3 I0.125 J-0.2165
G2 X49.4114 Y65.685 Z-0.4 I-0.25 J0.0
G2 Y66.118 Z-0.5 I0.125 J0.2165
G2 X49.7864 Y65.9015 Z-0.6 I0.125 J-0.2165
G2 X49.4114 Y65.685 Z-0.7 I-0.25 J0.0
G2 Y66.118 Z-0.8 I0.125 J0.2165
G2 X49.7864 Y65.9015 Z-0.9 I0.125 J-0.2165
G2 X49.4114 Y65.685 Z-1.0 I-0.25 J0.0
G2 Y66.118 Z-1.1 I0.125 J0.2165
G2 X49.7864 Y65.9015 Z-1.2 I0.125 J-0.2165
G2 X49.4114 Y65.685 Z-1.3 I-0.25 J0.0
G2 Y66.118 Z-1.4 I0.125 J0.2165
G2 X49.7864 Y65.9015 Z-1.5 I0.125 J-0.2165
G2 X49.4114 Y65.685 Z-1.6 I-0.25 J0.0
G2 Y66.118 Z-1.7 I0.125 J0.2165
G2 X49.7864 Y65.9015 Z-1.8 I0.125 J-0.2165
G2 X49.4114 Y65.685 Z-1.9 I-0.25 J0.0
G2 Y66.118 Z-2.0 I0.125 J0.2165
G2 X49.7864 Y65.9015 Z-2.1 I0.125 J-0.2165
G2 X49.4114 Y65.685 Z-2.2 I-0.25 J0.0
G2 Y66.118 Z-2.3 I0.125 J0.2165
G2 X49.7864 Y65.9015 Z-2.4 I0.125 J-0.2165
G2 X49.4114 Y65.685 Z-2.5 I-0.25 J0.0
G2 Y66.118 Z-2.6 I0.125 J0.2165
G2 X49.7864 Y65.9015 Z-2.7 I0.125 J-0.2165
G2 X49.4114 Y65.685 Z-2.8 I-0.25 J0.0
G2 Y66.118 Z-2.9 I0.125 J0.2165
G2 X49.7864 Y65.9015 Z-3.0 I0.125 J-0.2165
G2 X49.4114 Y65.685 Z-3.1 I-0.25 J0.0
G2 Y66.118 Z-3.2 I0.125 J0.2165
G2 X49.7864 Y65.9015 Z-3.3 I0.125 J-0.2165
G2 X49.4114 Y65.685 Z-3.4 I-0.25 J0.0
G2 Y66.118 Z-3.5 I0.125 J0.2165
G2 X49.7864 Y65.9015 Z-3.6 I0.125 J-0.2165
G2 X49.4114 Y65.685 Z-3.7 I-0.25 J0.0
G2 Y66.118 Z-3.8 I0.125 J0.2165
G2 X49.7864 Y65.9015 Z-3.9 I0.125 J-0.2165
G2 X49.4114 Y65.685 Z-4.0 I-0.25 J0.0
G2 Y66.118 Z-4.1 I0.125 J0.2165
G2 X49.7864 Y65.9015 Z-4.2 I0.125 J-0.2165
G2 X49.4114 Y65.685 I-0.25 J0.0
G2 Y66.118 I0.125 J0.2165
G2 X49.7864 Y65.9015 I0.125 J-0.2165
G0 Z3.0
G0 X51.3171 Y69.597
G0 Z1.0
G1 F300.0 Z0.0
G2 F800.0 X50.9421 Y69.3805 Z-0.1 I-0.25 J0.0
G2 Y69.8135 Z-0.2 I0.125 J0.2165
G2 X51.3171 Y69.597 Z-0.3 I0.125 J-0.2165
G2 X50.9421 Y69.3805 Z-0.4 I-0.25 J0.0
G2 Y69.8135 Z-0.5 I0.125 J0.2165
G2 X51.3171 Y69.597 Z-0.6 I0.125 J-0.2165
G2 X50.9421 Y69.3805 Z-0.7 I-0.25 J0.0
G2 Y69.8135 Z-0.8 I0.125 J0.2165
G2 X51.3171 Y69.597 Z-0.9 I0.125 J-0.2165
G2 X50.9421 Y69.3805 Z-1.0 I-0.25 J0.0
G2 Y69.8135 Z-1.1 I0.125 J0.2165
G2 X51.3171 Y69.597 Z-1.2 I0.125 J-0.2165
G2 X50.9421 Y69.3805 Z-1.3 I-0.25 J0.0
G2 Y69.8135 Z-1.4 I0.125 J0.2165
G2 X51.3171 Y69.597 Z-1.5 I0.125 J-0.2165
G2 X50.9421 Y69.3805 Z-1.6 I-0.25 J0.0
G2 Y69.8135 Z-1.7 I0.125 J0.2165
G2 X51.3171 Y69.597 Z-1.8 I0.125 J-0.2165
G2 X50.9421 Y69.3805 Z-1.9 I-0.25 J0.0
G2 Y69.8135 Z-2.0 I0.125 J0.2165
G2 X51.3171 Y69.597 Z-2.1 I0.125 J-0.2165
G2 X50.9421 Y69.3805 Z-2.2 I-0.25 J0.0
G2 Y69.8135 Z-2.3 I0.125 J0.2165
G2 X51.3171 Y69.597 Z-2.4 I0.125 J-0.2165
G2 X50.9421 Y69.3805 Z-2.5 I-0.25 J0.0
G2 Y69.8135 Z-2.6 I0.125 J0.2165
G2 X51.3171 Y69.597 Z-2.7 I0.125 J-0.2165
G2 X50.9421 Y69.3805 Z-2.8 I-0.25 J0.0
G2 Y69.8135 Z-2.9 I0.125 J0.2165
G2 X51.3171 Y69.597 Z-3.0 I0.125 J-0.2165
G2 X50.9421 Y69.3805 Z-3.1 I-0.25 J0.0
G2 Y69.8135 Z-3.2 I0.125 J0.2165
G2 X51.3171 Y69.597 Z-3.3 I0.125 J-0.2165
G2 X50.9421 Y69.3805 Z-3.4 I-0.25 J0.0
G2 Y69.8135 Z-3.5 I0.125 J0.2165
G2 X51.3171 Y69.597 Z-3.6 I0.125 J-0.2165
G2 X50.9421 Y69.3805 Z-3.7 I-0.25 J0.0
G2 Y69.8135 Z-3.8 I0.125 J0.2165
G2 X51.3171 Y69.597 Z-3.9 I0.125 J-0.2165
G2 X50.9421 Y69.3805 Z-4.0 I-0.25 J0.0
G2 Y69.8135 Z-4.1 I0.125 J0.2165
G2 X51.3171 Y69.597 Z-4.2 I0.125 J-0.2165
G2 X50.9421 Y69.3805 I-0.25 J0.0
G2 Y69.8135 I0.125 J0.2165
G2 X51.3171 Y69.597 I0.125 J-0.2165
G0 Z3.0
G0 X52.8478 Y73.2925
G0 Z1.0
G1 F300.0 Z0.0
G2 F800.0 X52.4728 Y73.076 Z-0.1 I-0.25 J0.0
G2 Y73.509 Z-0.2 I0.125 J0.2165
G2 X52.8478 Y73.2925 Z-0.3 I0.125 J-0.2165
G2 X52.4728 Y73.076 Z-0.4 I-0.25 J0.0
G2 Y73.509 Z-0.5 I0.125 J0.2165
G2 X52.8478 Y73.2925 Z-0.6 I0.125 J-0.2165
G2 X52.4728 Y73.076 Z-0.7 I-0.25 J0.0
G2 Y73.509 Z-0.8 I0.125 J0.2165
G2 X52.8478 Y73.2925 Z-0.9 I0.125 J-0.2165
G2 X52.4728 Y73.076 Z-1.0 I-0.25 J0.0
G2 Y73.509 Z-1.1 I0.125 J0.2165
G2 X52.8478 Y73.2925 Z-1.2 I0.125 J-0.2165
G2 X52.4728 Y73.076 Z-1.3 I-0.25 J0.0
G2 Y73.509 Z-1.4 I0.125 J0.2165
G2 X52.8478 Y73.2925 Z-1.5 I0.125 J-0.2165
G2 X52.4728 Y73.076 Z-1.6 I-0.25 J0.0
G2 Y73.509 Z-1.7 I0.125 J0.2165
G2 X52.8478 Y73.2925 Z-1.8 I0.125 J-0.2165
G2 X52.4728 Y73.076 Z-1.9 I-0.25 J0.0
G2 Y73.509 Z-2.0 I0.125 J0.2165
G2 X52.8478 Y73.2925 Z-2.1 I0.125 J-0.2165
G2 X52.4728 Y73.076 Z-2.2 I-0.25 J0.0
G2 Y73.509 Z-2.3 I0.125 J0.2165
G2 X52.8478 Y73.2925 Z-2.4 I0.125 J-0.2165
G2 X52.4728 Y73.076 Z-2.5 I-0.25 J0.0
G2 Y73.509 Z-2.6 I0.125 J0.2165
G2 X52.8478 Y73.2925 Z-2.7 I0.125 J-0.2165
G2 X52.4728 Y73.076 Z-2.8 I-0.25 J0.0
G2 Y73.509 Z-2.9 I0.125 J0.2165
G2 X52.8478 Y73.2925 Z-3.0 I0.125 J-0.2165
G2 X52.4728 Y73.076 Z-3.1 I-0.25 J0.0
G2 Y73.509 Z-3.2 I0.125 J0.2165
G2 X52.8478 Y73.2925 Z-3.3 I0.125 J-0.2165
G2 X52.4728 Y73.076 Z-3.4 I-0.25 J0.0
G2 Y73.509 Z-3.5 I0.125 J0.2165
G2 X52.8478 Y73.2925 Z-3.6 I0.125 J-0.2165
G2 X52.4728 Y73.076 Z-3.7 I-0.25 J0.0
G2 Y73.509 Z-3.8 I0.125 J0.2165
G2 X52.8478 Y73.2925 Z-3.9 I0.125 J-0.2165
G2 X52.4728 Y73.076 Z-4.0 I-0.25 J0.0
G2 Y73.509 Z-4.1 I0.125 J0.2165
G2 X52.8478 Y73.2925 Z-4.2 I0.125 J-0.2165
G2 X52.4728 Y73.076 I-0.25 J0.0
G2 Y73.509 I0.125 J0.2165
G2 X52.8478 Y73.2925 I0.125 J-0.2165
G0 Z3.0
G0 X59.4277 Y64.1777
G0 Z1.0
G1 F300.0 Z0.0
G2 F800.0 X59.0527 Y63.9612 Z-0.1 I-0.25 J0.0
G2 Y64.3942 Z-0.2 I0.125 J0.2165
G2 X59.4277 Y64.1777 Z-0.3 I0.125 J-0.2165
G2 X59.0527 Y63.9612 Z-0.4 I-0.25 J0.0
G2 Y64.3942 Z-0.5 I0.125 J0.2165
G2 X59.4277 Y64.1777 Z-0.6 I0.125 J-0.2165
G2 X59.0527 Y63.9612 Z-0.7 I-0.25 J0.0
G2 Y64.3942 Z-0.8 I0.125 J0.2165
G2 X59.4277 Y64.1777 Z-0.9 I0.125 J-0.2165
G2 X59.0527 Y63.9612 Z-1.0 I-0.25 J0.0
G2 Y64.3942 Z-1.1 I0.125 J0.2165
G2 X59.4277 Y64.1777 Z-1.2 I0.125 J-0.2165
G2 X59.0527 Y63.9612 Z-1.3 I-0.25 J0.0
G2 Y64.3942 Z-1.4 I0.125 J0.2165
G2 X59.4277 Y64.1777 Z-1.5 I0.125 J-0.2165
G2 X59.0527 Y63.9612 Z-1.6 I-0.25 J0.0
G2 Y64.3942 Z-1.7 I0.125 J0.2165
G2 X59.4277 Y64.1777 Z-1.8 I0.125 J-0.2165
G2 X59.0527 Y63.9612 Z-1.9 I-0.25 J0.0
G2 Y64.3942 Z-2.0 I0.125 J0.2165
G2 X59.4277 Y64.1777 Z-2.1 I0.125 J-0.2165
G2 X59.0527 Y63.9612 Z-2.2 I-0.25 J0.0
G2 Y64.3942 Z-2.3 I0.125 J0.2165
G2 X59.4277 Y64.1777 Z-2.4 I0.125 J-0.2165
G2 X59.0527 Y63.9612 Z-2.5 I-0.25 J0.0
G2 Y64.3942 Z-2.6 I0.125 J0.2165
G2 X59.4277 Y64.1777 Z-2.7 I0.125 J-0.2165
G2 X59.0527 Y63.9612 Z-2.8 I-0.25 J0.0
G2 Y64.3942 Z-2.9 I0.125 J0.2165
G2 X59.4277 Y64.1777 Z-3.0 I0.125 J-0.2165
G2 X59.0527 Y63.9612 Z-3.1 I-0.25 J0.0
G2 Y64.3942 Z-3.2 I0.125 J0.2165
G2 X59.4277 Y64.1777 Z-3.3 I0.125 J-0.2165
G2 X59.0527 Y63.9612 Z-3.4 I-0.25 J0.0
G2 Y64.3942 Z-3.5 I0.125 J0.2165
G2 X59.4277 Y64.1777 Z-3.6 I0.125 J-0.2165
G2 X59.0527 Y63.9612 Z-3.7 I-0.25 J0.0
G2 Y64.3942 Z-3.8 I0.125 J0.2165
G2 X59.4277 Y64.1777 Z-3.9 I0.125 J-0.2165
G2 X59.0527 Y63.9612 Z-4.0 I-0.25 J0.0
G2 Y64.3942 Z-4.1 I0.125 J0.2165
G2 X59.4277 Y64.1777 Z-4.2 I0.125 J-0.2165
G2 X59.0527 Y63.9612 I-0.25 J0.0
G2 Y64.3942 I0.125 J0.2165
G2 X59.4277 Y64.1777 I0.125 J-0.2165
G0 Z3.0
G0 X62.2561 Y67.0061
G0 Z1.0
G1 F300.0 Z0.0
G2 F800.0 X61.8811 Y66.7896 Z-0.1 I-0.25 J0.0
G2 Y67.2226 Z-0.2 I0.125 J0.2165
G2 X62.2561 Y67.0061 Z-0.3 I0.125 J-0.2165
G2 X61.8811 Y66.7896 Z-0.4 I-0.25 J0.0
G2 Y67.2226 Z-0.5 I0.125 J0.2165
G2 X62.2561 Y67.0061 Z-0.6 I0.125 J-0.2165
G2 X61.8811 Y66.7896 Z-0.7 I-0.25 J0.0
G2 Y67.2226 Z-0.8 I0.125 J0.2165
G2 X62.2561 Y67.0061 Z-0.9 I0.125 J-0.2165
G2 X61.8811 Y66.7896 Z-1.0 I-0.25 J0.0
G2 Y67.2226 Z-1.1 I0.125 J0.2165
G2 X62.2561 Y67.0061 Z-1.2 I0.125 J-0.2165
G2 X61.8811 Y66.7896 Z-1.3 I-0.25 J0.0
G2 Y67.2226 Z-1.4 I0.125 J0.2165
G2 X62.2561 Y67.0061 Z-1.5 I0.125 J-0.2165
G2 X61.8811 Y66.7896 Z-1.6 I-0.25 J0.0
G2 Y67.2226 Z-1.7 I0.125 J0.2165
G2 X62.2561 Y67.0061 Z-1.8 I0.125 J-0.2165
G2 X61.8811 Y66.7896 Z-1.9 I-0.25 J0.0
G2 Y67.2226 Z-2.0 I0.125 J0.2165
G2 X62.2561 Y67.0061 Z-2.1 I0.125 J-0.2165
G2 X61.8811 Y66.7896 Z-2.2 I-0.25 J0.0
G2 Y67.2226 Z-2.3 I0.125 J0.2165
G2 X62.2561 Y67.0061 Z-2.4 I0.125 J-0.2165
G2 X61.8811 Y66.7896 Z-2.5 I-0.25 J0.0
G2 Y67.2226 Z-2.6 I0.125 J0.2165
G2 X62.2561 Y67.0061 Z-2.7 I0.125 J-0.2165
G2 X61.8811 Y66.7896 Z-2.8 I-0.25 J0.0
G2 Y67.2226 Z-2.9 I0.125 J0.2165
G2 X62.2561 Y67.0061 Z-3.0 I0.125 J-0.2165
G2 X61.8811 Y66.7896 Z-3.1 I-0.25 J0.0
G2 Y67.2226 Z-3.2 I0.125 J0.2165
G2 X62.2561 Y67.0061 Z-3.3 I0.125 J-0.2165
G2 X61.8811 Y66.7896 Z-3.4 I-0.25 J0.0
G2 Y67.2226 Z-3.5 I0.125 J0.2165
G2 X62.2561 Y67.0061 Z-3.6 I0.125 J-0.2165
G2 X61.8811 Y66.7896 Z-3.7 I-0.25 J0.0
G2 Y67.2226 Z-3.8 I0.125 J0.2165
G2 X62.2561 Y67.0061 Z-3.9 I0.125 J-0.2165
G2 X61.8811 Y66.7896 Z-4.0 I-0.25 J0.0
G2 Y67.2226 Z-4.1 I0.125 J0.2165
G2 X62.2561 Y67.0061 Z-4.2 I0.125 J-0.2165
G2 X61.8811 Y66.7896 I-0.25 J0.0
G2 Y67.2226 I0.125 J0.2165
G2 X62.2561 Y67.0061 I0.125 J-0.2165
G0 Z3.0
G0 X56.5992 Y61.3492
G0 Z1.0
G1 F300.0 Z0.0
G2 F800.0 X56.2242 Y61.1327 Z-0.1 I-0.25 J0.0
G2 Y61.5657 Z-0.2 I0.125 J0.2165
G2 X56.5992 Y61.3492 Z-0.3 I0.125 J-0.2165
G2 X56.2242 Y61.1327 Z-0.4 I-0.25 J0.0
G2 Y61.5657 Z-0.5 I0.125 J0.2165
G2 X56.5992 Y61.3492 Z-0.6 I0.125 J-0.2165
G2 X56.2242 Y61.1327 Z-0.7 I-0.25 J0.0
G2 Y61.5657 Z-0.8 I0.125 J0.2165
G2 X56.5992 Y61.3492 Z-0.9 I0.125 J-0.2165
G2 X56.2242 Y61.1327 Z-1.0 I-0.25 J0.0
G2 Y61.5657 Z-1.1 I0.125 J0.2165
G2 X56.5992 Y61.3492 Z-1.2 I0.125 J-0.2165
G2 X56.2242 Y61.1327 Z-1.3 I-0.25 J0.0
G2 Y61.5657 Z-1.4 I0.125 J0.2165
G2 X56.5992 Y61.3492 Z-1.5 I0.125 J-0.2165
G2 X56.2242 Y61.1327 Z-1.6 I-0.25 J0.0
G2 Y61.5657 Z-1.7 I0.125 J0.2165
G2 X56.5992 Y61.3492 Z-1.8 I0.125 J-0.2165
G2 X56.2242 Y61.1327 Z-1.9 I-0.25 J0.0
G2 Y61.5657 Z-2.0 I0.125 J0.2165
G2 X56.5992 Y61.3492 Z-2.1 I0.125 J-0.2165
G2 X56.2242 Y61.1327 Z-2.2 I-0.25 J0.0
G2 Y61.5657 Z-2.3 I0.125 J0.2165
G2 X56.5992 Y61.3492 Z-2.4 I0.125 J-0.2165
G2 X56.2242 Y61.1327 Z-2.5 I-0.25 J0.0
G2 Y61.5657 Z-2.6 I0.125 J0.2165
G2 X56.5992 Y61.3492 Z-2.7 I0.125 J-0.2165
G2 X56.2242 Y61.1327 Z-2.8 I-0.25 J0.0
G2 Y61.5657 Z-2.9 I0.125 J0.2165
G2 X56.5992 Y61.3492 Z-3.0 I0.125 J-0.2165
G2 X56.2242 Y61.1327 Z-3.1 I-0.25 J0.0
G2 Y61.5657 Z-3.2 I0.125 J0.2165
G2 X56.5992 Y61.3492 Z-3.3 I0.125 J-0.2165
G2 X56.2242 Y61.1327 Z-3.4 I-0.25 J0.0
G2 Y61.5657 Z-3.5 I0.125 J0.2165
G2 X56.5992 Y61.3492 Z-3.6 I0.125 J-0.2165
G2 X56.2242 Y61.1327 Z-3.7 I-0.25 J0.0
G2 Y61.5657 Z-3.8 I0.125 J0.2165
G2 X56.5992 Y61.3492 Z-3.9 I0.125 J-0.2165
G2 X56.2242 Y61.1327 Z-4.0 I-0.25 J0.0
G2 Y61.5657 Z-4.1 I0.125 J0.2165
G2 X56.5992 Y61.3492 Z-4.2 I0.125 J-0.2165
G2 X56.2242 Y61.1327 I-0.25 J0.0
G2 Y61.5657 I0.125 J0.2165
G2 X56.5992 Y61.3492 I0.125 J-0.2165
G0 Z3.0
G0 X53.7708 Y58.5208
G0 Z1.0
G1 F300.0 Z0.0
G2 F800.0 X53.3958 Y58.3043 Z-0.1 I-0.25 J0.0
G2 Y58.7373 Z-0.2 I0.125 J0.2165
G2 X53.7708 Y58.5208 Z-0.3 I0.125 J-0.2165
G2 X53.3958 Y58.3043 Z-0.4 I-0.25 J0.0
G2 Y58.7373 Z-0.5 I0.125 J0.2165
G2 X53.7708 Y58.5208 Z-0.6 I0.125 J-0.2165
G2 X53.3958 Y58.3043 Z-0.7 I-0.25 J0.0
G2 Y58.7373 Z-0.8 I0.125 J0.2165
G2 X53.7708 Y58.5208 Z-0.9 I0.125 J-0.2165
G2 X53.3958 Y58.3043 Z-1.0 I-0.25 J0.0
G2 Y58.7373 Z-1.1 I0.125 J0.2165
G2 X53.7708 Y58.5208 Z-1.2 I0.125 J-0.2165
G2 X53.3958 Y58.3043 Z-1.3 I-0.25 J0.0
G2 Y58.7373 Z-1.4 I0.125 J0.2165
G2 X53.7708 Y58.5208 Z-1.5 I0.125 J-0.2165
G2 X53.3958 Y58.3043 Z-1.6 I-0.25 J0.0
G2 Y58.7373 Z-1.7 I0.125 J0.2165
G2 X53.7708 Y58.5208 Z-1.8 I0.125 J-0.2165
G2 X53.3958 Y58.3043 Z-1.9 I-0.25 J0.0
G2 Y58.7373 Z-2.0 I0.125 J0.2165
G2 X53.7708 Y58.5208 Z-2.1 I0.125 J-0.2165
G2 X53.3958 Y58.3043 Z-2.2 I-0.25 J0.0
G2 Y58.7373 Z-2.3 I0.125 J0.2165
G2 X53.7708 Y58.5208 Z-2.4 I0.125 J-0.2165
G2 X53.3958 Y58.3043 Z-2.5 I-0.25 J0.0
G2 Y58.7373 Z-2.6 I0.125 J0.2165
G2 X53.7708 Y58.5208 Z-2.7 I0.125 J-0.2165
G2 X53.3958 Y58.3043 Z-2.8 I-0.25 J0.0
G2 Y58.7373 Z-2.9 I0.125 J0.2165
G2 X53.7708 Y58.5208 Z-3.0 I0.125 J-0.2165
G2 X53.3958 Y58.3043 Z-3.1 I-0.25 J0.0
G2 Y58.7373 Z-3.2 I0.125 J0.2165
G2 X53.7708 Y58.5208 Z-3.3 I0.125 J-0.2165
G2 X53.3958 Y58.3043 Z-3.4 I-0.25 J0.0
G2 Y58.7373 Z-3.5 I0.125 J0.2165
G2 X53.7708 Y58.5208 Z-3.6 I0.125 J-0.2165
G2 X53.3958 Y58.3043 Z-3.7 I-0.25 J0.0
G2 Y58.7373 Z-3.8 I0.125 J0.2165
G2 X53.7708 Y58.5208 Z-3.9 I0.125 J-0.2165
G2 X53.3958 Y58.3043 Z-4.0 I-0.25 J0.0
G2 Y58.7373 Z-4.1 I0.125 J0.2165
G2 X53.7708 Y58.5208 Z-4.2 I0.125 J-0.2165
G2 X53.3958 Y58.3043 I-0.25 J0.0
G2 Y58.7373 I0.125 J0.2165
G2 X53.7708 Y58.5208 I0.125 J-0.2165
G0 Z3.0
G0 X50.9424 Y55.6924
G0 Z1.0
G1 F300.0 Z0.0
G2 F800.0 X50.5674 Y55.4759 Z-0.1 I-0.25 J0.0
G2 Y55.9089 Z-0.2 I0.125 J0.2165
G2 X50.9424 Y55.6924 Z-0.3 I0.125 J-0.2165
G2 X50.5674 Y55.4759 Z-0.4 I-0.25 J0.0
G2 Y55.9089 Z-0.5 I0.125 J0.2165
G2 X50.9424 Y55.6924 Z-0.6 I0.125 J-0.2165
G2 X50.5674 Y55.4759 Z-0.7 I-0.25 J0.0
G2 Y55.9089 Z-0.8 I0.125 J0.2165
G2 X50.9424 Y55.6924 Z-0.9 I0.125 J-0.2165
G2 X50.5674 Y55.4759 Z-1.0 I-0.25 J0.0
G2 Y55.9089 Z-1.1 I0.125 J0.2165
G2 X50.9424 Y55.6924 Z-1.2 I0.125 J-0.2165
G2 X50.5674 Y55.4759 Z-1.3 I-0.25 J0.0
G2 Y55.9089 Z-1.4 I0.125 J0.2165
G2 X50.9424 Y55.6924 Z-1.5 I0.125 J-0.2165
G2 X50.5674 Y55.4759 Z-1.6 I-0.25 J0.0
G2 Y55.9089 Z-1.7 I0.125 J0.2165
G2 X50.9424 Y55.6924 Z-1.8 I0.125 J-0.2165
G2 X50.5674 Y55.4759 Z-1.9 I-0.25 J0.0
G2 Y55.9089 Z-2.0 I0.125 J0.2165
G2 X50.9424 Y55.6924 Z-2.1 I0.125 J-0.2165
G2 X50.5674 Y55.4759 Z-2.2 I-0.25 J0.0
G2 Y55.9089 Z-2.3 I0.125 J0.2165
G2 X50.9424 Y55.6924 Z-2.4 I0.125 J-0.2165
G2 X50.5674 Y55.4759 Z-2.5 I-0.25 J0.0
G2 Y55.9089 Z-2.6 I0.125 J0.2165
G2 X50.9424 Y55.6924 Z-2.7 I0.125 J-0.2165
G2 X50.5674 Y55.4759 Z-2.8 I-0.25 J0.0
G2 Y55.9089 Z-2.9 I0.125 J0.2165
G2 X50.9424 Y55.6924 Z-3.0 I0.125 J-0.2165
G2 X50.5674 Y55.4759 Z-3.1 I-0.25 J0.0
G2 Y55.9089 Z-3.2 I0.125 J0.2165
G2 X50.9424 Y55.6924 Z-3.3 I0.125 J-0.2165
G2 X50.5674 Y55.4759 Z-3.4 I-0.25 J0.0
G2 Y55.9089 Z-3.5 I0.125 J0.2165
G2 X50.9424 Y55.6924 Z-3.6 I0.125 J-0.2165
G2 X50.5674 Y55.4759 Z-3.7 I-0.25 J0.0
G2 Y55.9089 Z-3.8 I0.125 J0.2165
G2 X50.9424 Y55.6924 Z-3.9 I0.125 J-0.2165
G2 X50.5674 Y55.4759 Z-4.0 I-0.25 J0.0
G2 Y55.9089 Z-4.1 I0.125 J0.2165
G2 X50.9424 Y55.6924 Z-4.2 I0.125 J-0.2165
G2 X50.5674 Y55.4759 I-0.25 J0.0
G2 Y55.9089 I0.125 J0.2165
G2 X50.9424 Y55.6924 I0.125 J-0.2165
G0 Z3.0
G0 X53.7604 Y51.4749
G0 Z1.0
G1 F300.0 Z0.0
G2 F800.0 X53.3854 Y51.2584 Z-0.1 I-0.25 J0.0
G2 Y51.6914 Z-0.2 I0.125 J0.2165
G2 X53.7604 Y51.4749 Z-0.3 I0.125 J-0.2165
G2 X53.3854 Y51.2584 Z-0.4 I-0.25 J0.0
G2 Y51.6914 Z-0.5 I0.125 J0.2165
G2 X53.7604 Y51.4749 Z-0.6 I0.125 J-0.2165
G2 X53.3854 Y51.2584 Z-0.7 I-0.25 J0.0
G2 Y51.6914 Z-0.8 I0.125 J0.2165
G2 X53.7604 Y51.4749 Z-0.9 I0.125 J-0.2165
G2 X53.3854 Y51.2584 Z-1.0 I-0.25 J0.0
G2 Y51.6914 Z-1.1 I0.125 J0.2165
G2 X53.7604 Y51.4749 Z-1.2 I0.125 J-0.2165
G2 X53.3854 Y51.2584 Z-1.3 I-0.25 J0.0
G2 Y51.6914 Z-1.4 I0.125 J0.2165
G2 X53.7604 Y51.4749 Z-1.5 I0.125 J-0.2165
G2 X53.3854 Y51.2584 Z-1.6 I-0.25 J0.0
G2 Y51.6914 Z-1.7 I0.125 J0.2165
G2 X53.7604 Y51.4749 Z-1.8 I0.125 J-0.2165
G2 X53.3854 Y51.2584 Z-1.9 I-0.25 J0.0
G2 Y51.6914 Z-2.0 I0.125 J0.2165
G2 X53.7604 Y51.4749 Z-2.1 I0.125 J-0.2165
G2 X53.3854 Y51.2584 Z-2.2 I-0.25 J0.0
G2 Y51.6914 Z-2.3 I0.125 J0.2165
G2 X53.7604 Y51.4749 Z-2.4 I0.125 J-0.2165
G2 X53.3854 Y51.2584 Z-2.5 I-0.25 J0.0
G2 Y51.6914 Z-2.6 I0.125 J0.2165
G2 X53.7604 Y51.4749 Z-2.7 I0.125 J-0.2165
G2 X53.3854 Y51.2584 Z-2.8 I-0.25 J0.0
G2 Y51.6914 Z-2.9 I0.125 J0.2165
G2 X53.7604 Y51.4749 Z-3.0 I0.125 J-0.2165
G2 X53.3854 Y51.2584 Z-3.1 I-0.25 J0.0
G2 Y51.6914 Z-3.2 I0.125 J0.2165
G2 X53.7604 Y51.4749 Z-3.3 I0.125 J-0.2165
G2 X53.3854 Y51.2584 Z-3.4 I-0.25 J0.0
G2 Y51.6914 Z-3.5 I0.125 J0.2165
G2 X53.7604 Y51.4749 Z-3.6 I0.125 J-0.2165
G2 X53.3854 Y51.2584 Z-3.7 I-0.25 J0.0
G2 Y51.6914 Z-3.8 I0.125 J0.2165
G2 X53.7604 Y51.4749 Z-3.9 I0.125 J-0.2165
G2 X53.3854 Y51.2584 Z-4.0 I-0.25 J0.0
G2 Y51.6914 Z-4.1 I0.125 J0.2165
G2 X53.7604 Y51.4749 Z-4.2 I0.125 J-0.2165
G2 X53.3854 Y51.2584 I-0.25 J0.0
G2 Y51.6914 I0.125 J0.2165
G2 X53.7604 Y51.4749 I0.125 J-0.2165
G0 Z3.0
G0 X57.456 Y53.0056
G0 Z1.0
G1 F300.0 Z0.0
G2 F800.0 X57.081 Y52.7891 Z-0.1 I-0.25 J0.0
G2 Y53.2221 Z-0.2 I0.125 J0.2165
G2 X57.456 Y53.0056 Z-0.3 I0.125 J-0.2165
G2 X57.081 Y52.7891 Z-0.4 I-0.25 J0.0
G2 Y53.2221 Z-0.5 I0.125 J0.2165
G2 X57.456 Y53.0056 Z-0.6 I0.125 J-0.2165
G2 X57.081 Y52.7891 Z-0.7 I-0.25 J0.0
G2 Y53.2221 Z-0.8 I0.125 J0.2165
G2 X57.456 Y53.0056 Z-0.9 I0.125 J-0.2165
G2 X57.081 Y52.7891 Z-1.0 I-0.25 J0.0
G2 Y53.2221 Z-1.1 I0.125 J0.2165
G2 X57.456 Y53.0056 Z-1.2 I0.125 J-0.2165
G2 X57.081 Y52.7891 Z-1.3 I-0.25 J0.0
G2 Y53.2221 Z-1.4 I0.125 J0.2165
G2 X57.456 Y53.0056 Z-1.5 I0.125 J-0.2165
G2 X57.081 Y52.7891 Z-1.6 I-0.25 J0.0
G2 Y53.2221 Z-1.7 I0.125 J0.2165
G2 X57.456 Y53.0056 Z-1.8 I0.125 J-0.2165
G2 X57.081 Y52.7891 Z-1.9 I-0.25 J0.0
G2 Y53.2221 Z-2.0 I0.125 J0.2165
G2 X57.456 Y53.0056 Z-2.1 I0.125 J-0.2165
G2 X57.081 Y52.7891 Z-2.2 I-0.25 J0.0
G2 Y53.2221 Z-2.3 I0.125 J0.2165
G2 X57.456 Y53.0056 Z-2.4 I0.125 J-0.2165
G2 X57.081 Y52.7891 Z-2.5 I-0.25 J0.0
G2 Y53.2221 Z-2.6 I0.125 J0.2165
G2 X57.456 Y53.0056 Z-2.7 I0.125 J-0.2165
G2 X57.081 Y52.7891 Z-2.8 I-0.25 J0.0
G2 Y53.2221 Z-2.9 I0.125 J0.2165
G2 X57.456 Y53.0056 Z-3.0 I0.125 J-0.2165
G2 X57.081 Y52.7891 Z-3.1 I-0.25 J0.0
G2 Y53.2221 Z-3.2 I0.125 J0.2165
G2 X57.456 Y53.0056 Z-3.3 I0.125 J-0.2165
G2 X57.081 Y52.7891 Z-3.4 I-0.25 J0.0
G2 Y53.2221 Z-3.5 I0.125 J0.2165
G2 X57.456 Y53.0056 Z-3.6 I0.125 J-0.2165
G2 X57.081 Y52.7891 Z-3.7 I-0.25 J0.0
G2 Y53.2221 Z-3.8 I0.125 J0.2165
G2 X57.456 Y53.0056 Z-3.9 I0.125 J-0.2165
G2 X57.081 Y52.7891 Z-4.0 I-0.25 J0.0
G2 Y53.2221 Z-4.1 I0.125 J0.2165
G2 X57.456 Y53.0056 Z-4.2 I0.125 J-0.2165
G2 X57.081 Y52.7891 I-0.25 J0.0
G2 Y53.2221 I0.125 J0.2165
G2 X57.456 Y53.0056 I0.125 J-0.2165
G0 Z3.0
G0 X61.1515 Y54.5364
G0 Z1.0
G1 F300.0 Z0.0
G2 F800.0 X60.7765 Y54.3198 Z-0.1 I-0.25 J0.0
G2 Y54.7529 Z-0.2 I0.125 J0.2165
G2 X61.1515 Y54.5364 Z-0.3 I0.125 J-0.2165
G2 X60.7765 Y54.3198 Z-0.4 I-0.25 J0.0
G2 Y54.7529 Z-0.5 I0.125 J0.2165
G2 X61.1515 Y54.5364 Z-0.6 I0.125 J-0.2165
G2 X60.7765 Y54.3198 Z-0.7 I-0.25 J0.0
G2 Y54.7529 Z-0.8 I0.125 J0.2165
G2 X61.1515 Y54.5364 Z-0.9 I0.125 J-0.2165
G2 X60.7765 Y54.3198 Z-1.0 I-0.25 J0.0
G2 Y54.7529 Z-1.1 I0.125 J0.2165
G2 X61.1515 Y54.5364 Z-1.2 I0.125 J-0.2165
G2 X60.7765 Y54.3198 Z-1.3 I-0.25 J0.0
G2 Y54.7529 Z-1.4 I0.125 J0.2165
G2 X61.1515 Y54.5364 Z-1.5 I0.125 J-0.2165
G2 X60.7765 Y54.3198 Z-1.6 I-0.25 J0.0
G2 Y54.7529 Z-1.7 I0.125 J0.2165
G2 X61.1515 Y54.5364 Z-1.8 I0.125 J-0.2165
G2 X60.7765 Y54.3198 Z-1.9 I-0.25 J0.0
G2 Y54.7529 Z-2.0 I0.125 J0.2165
G2 X61.1515 Y54.5364 Z-2.1 I0.125 J-0.2165
G2 X60.7765 Y54.3198 Z-2.2 I-0.25 J0.0
G2 Y54.7529 Z-2.3 I0.125 J0.2165
G2 X61.1515 Y54.5364 Z-2.4 I0.125 J-0.2165
G2 X60.7765 Y54.3198 Z-2.5 I-0.25 J0.0
G2 Y54.7529 Z-2.6 I0.125 J0.2165
G2 X61.1515 Y54.5364 Z-2.7 I0.125 J-0.2165
G2 X60.7765 Y54.3198 Z-2.8 I-0.25 J0.0
G2 Y54.7529 Z-2.9 I0.125 J0.2165
G2 X61.1515 Y54.5364 Z-3.0 I0.125 J-0.2165
G2 X60.7765 Y54.3198 Z-3.1 I-0.25 J0.0
G2 Y54.7529 Z-3.2 I0.125 J0.2165
G2 X61.1515 Y54.5364 Z-3.3 I0.125 J-0.2165
G2 X60.7765 Y54.3198 Z-3.4 I-0.25 J0.0
G2 Y54.7529 Z-3.5 I0.125 J0.2165
G2 X61.1515 Y54.5364 Z-3.6 I0.125 J-0.2165
G2 X60.7765 Y54.3198 Z-3.7 I-0.25 J0.0
G2 Y54.7529 Z-3.8 I0.125 J0.2165
G2 X61.1515 Y54.5364 Z-3.9 I0.125 J-0.2165
G2 X60.7765 Y54.3198 Z-4.0 I-0.25 J0.0
G2 Y54.7529 Z-4.1 I0.125 J0.2165
G2 X61.1515 Y54.5364 Z-4.2 I0.125 J-0.2165
G2 X60.7765 Y54.3198 I-0.25 J0.0
G2 Y54.7529 I0.125 J0.2165
G2 X61.1515 Y54.5364 I0.125 J-0.2165
G0 Z3.0
G0 X64.847 Y56.0671
G0 Z1.0
G1 F300.0 Z0.0
G2 F800.0 X64.472 Y55.8506 Z-0.1 I-0.25 J0.0
G2 Y56.2836 Z-0.2 I0.125 J0.2165
G2 X64.847 Y56.0671 Z-0.3 I0.125 J-0.2165
G2 X64.472 Y55.8506 Z-0.4 I-0.25 J0.0
G2 Y56.2836 Z-0.5 I0.125 J0.2165
G2 X64.847 Y56.0671 Z-0.6 I0.125 J-0.2165
G2 X64.472 Y55.8506 Z-0.7 I-0.25 J0.0
G2 Y56.2836 Z-0.8 I0.125 J0.2165
G2 X64.847 Y56.0671 Z-0.9 I0.125 J-0.2165
G2 X64.472 Y55.8506 Z-1.0 I-0.25 J0.0
G2 Y56.2836 Z-1.1 I0.125 J0.2165
G2 X64.847 Y56.0671 Z-1.2 I0.125 J-0.2165
G2 X64.472 Y55.8506 Z-1.3 I-0.25 J0.0
G2 Y56.2836 Z-1.4 I0.125 J0.2165
G2 X64.847 Y56.0671 Z-1.5 I0.125 J-0.2165
G2 X64.472 Y55.8506 Z-1.6 I-0.25 J0.0
G2 Y56.2836 Z-1.7 I0.125 J0.2165
G2 X64.847 Y56.0671 Z-1.8 I0.125 J-0.2165
G2 X64.472 Y55.8506 Z-1.9 I-0.25 J0.0
G2 Y56.2836 Z-2.0 I0.125 J0.2165
G2 X64.847 Y56.0671 Z-2.1 I0.125 J-0.2165
G2 X64.472 Y55.8506 Z-2.2 I-0.25 J0.0
G2 Y56.2836 Z-2.3 I0.125 J0.2165
G2 X64.847 Y56.0671 Z-2.4 I0.125 J-0.2165
G2 X64.472 Y55.8506 Z-2.5 I-0.25 J0.0
G2 Y56.2836 Z-2.6 I0.125 J0.2165
G2 X64.847 Y56.0671 Z-2.7 I0.125 J-0.2165
G2 X64.472 Y55.8506 Z-2.8 I-0.25 J0.0
G2 Y56.2836 Z-2.9 I0.125 J0.2165
G2 X64.847 Y56.0671 Z-3.0 I0.125 J-0.2165
G2 X64.472 Y55.8506 Z-3.1 I-0.25 J0.0
G2 Y56.2836 Z-3.2 I0.125 J0.2165
G2 X64.847 Y56.0671 Z-3.3 I0.125 J-0.2165
G2 X64.472 Y55.8506 Z-3.4 I-0.25 J0.0
G2 Y56.2836 Z-3.5 I0.125 J0.2165
G2 X64.847 Y56.0671 Z-3.6 I0.125 J-0.2165
G2 X64.472 Y55.8506 Z-3.7 I-0.25 J0.0
G2 Y56.2836 Z-3.8 I0.125 J0.2165
G2 X64.847 Y56.0671 Z-3.9 I0.125 J-0.2165
G2 X64.472 Y55.8506 Z-4.0 I-0.25 J0.0
G2 Y56.2836 Z-4.1 I0.125 J0.2165
G2 X64.847 Y56.0671 Z-4.2 I0.125 J-0.2165
G2 X64.472 Y55.8506 I-0.25 J0.0
G2 Y56.2836 I0.125 J0.2165
G2 X64.847 Y56.0671 I0.125 J-0.2165
G0 Z3.0
G0 X68.5425 Y57.5978
G0 Z1.0
G1 F300.0 Z0.0
G2 F800.0 X68.1675 Y57.3813 Z-0.1 I-0.25 J0.0
G2 Y57.8143 Z-0.2 I0.125 J0.2165
G2 X68.5425 Y57.5978 Z-0.3 I0.125 J-0.2165
G2 X68.1675 Y57.3813 Z-0.4 I-0.25 J0.0
G2 Y57.8143 Z-0.5 I0.125 J0.2165
G2 X68.5425 Y57.5978 Z-0.6 I0.125 J-0.2165
G2 X68.1675 Y57.3813 Z-0.7 I-0.25 J0.0
G2 Y57.8143 Z-0.8 I0.125 J0.2165
G2 X68.5425 Y57.5978 Z-0.9 I0.125 J-0.2165
G2 X68.1675 Y57.3813 Z-1.0 I-0.25 J0.0
G2 Y57.8143 Z-1.1 I0.125 J0.2165
G2 X68.5425 Y57.5978 Z-1.2 I0.125 J-0.2165
G2 X68.1675 Y57.3813 Z-1.3 I-0.25 J0.0
G2 Y57.8143 Z-1.4 I0.125 J0.2165
G2 X68.5425 Y57.5978 Z-1.5 I0.125 J-0.2165
G2 X68.1675 Y57.3813 Z-1.6 I-0.25 J0.0
G2 Y57.8143 Z-1.7 I0.125 J0.2165
G2 X68.5425 Y57.5978 Z-1.8 I0.125 J-0.2165
G2 X68.1675 Y57.3813 Z-1.9 I-0.25 J0.0
G2 Y57.8143 Z-2.0 I0.125 J0.2165
G2 X68.5425 Y57.5978 Z-2.1 I0.125 J-0.2165
G2 X68.1675 Y57.3813 Z-2.2 I-0.25 J0.0
G2 Y57.8143 Z-2.3 I0.125 J0.2165
G2 X68.5425 Y57.5978 Z-2.4 I0.125 J-0.2165
G2 X68.1675 Y57.3813 Z-2.5 I-0.25 J0.0
G2 Y57.8143 Z-2.6 I0.125 J0.2165
G2 X68.5425 Y57.5978 Z-2.7 I0.125 J-0.2165
G2 X68.1675 Y57.3813 Z-2.8 I-0.25 J0.0
G2 Y57.8143 Z-2.9 I0.125 J0.2165
G2 X68.5425 Y57.5978 Z-3.0 I0.125 J-0.2165
G2 X68.1675 Y57.3813 Z-3.1 I-0.25 J0.0
G2 Y57.8143 Z-3.2 I0.125 J0.2165
G2 X68.5425 Y57.5978 Z-3.3 I0.125 J-0.2165
G2 X68.1675 Y57.3813 Z-3.4 I-0.25 J0.0
G2 Y57.8143 Z-3.5 I0.125 J0.2165
G2 X68.5425 Y57.5978 Z-3.6 I0.125 J-0.2165
G2 X68.1675 Y57.3813 Z-3.7 I-0.25 J0.0
G2 Y57.8143 Z-3.8 I0.125 J0.2165
G2 X68.5425 Y57.5978 Z-3.9 I0.125 J-0.2165
G2 X68.1675 Y57.3813 Z-4.0 I-0.25 J0.0
G2 Y57.8143 Z-4.1 I0.125 J0.2165
G2 X68.5425 Y57.5978 Z-4.2 I0.125 J-0.2165
G2 X68.1675 Y57.3813 I-0.25 J0.0
G2 Y57.8143 I0.125 J0.2165
G2 X68.5425 Y57.5978 I0.125 J-0.2165
G0 Z3.0
G0 X66.75 Y46.5
G0 Z1.0
G1 F300.0 Z0.0
G2 F800.0 X66.375 Y46.2835 Z-0.1 I-0.25 J0.0
G2 Y46.7165 Z-0.2 I0.125 J0.2165
G2 X66.75 Y46.5 Z-0.3 I0.125 J-0.2165
G2 X66.375 Y46.2835 Z-0.4 I-0.25 J0.0
G2 Y46.7165 Z-0.5 I0.125 J0.2165
G2 X66.75 Y46.5 Z-0.6 I0.125 J-0.2165
G2 X66.375 Y46.2835 Z-0.7 I-0.25 J0.0
G2 Y46.7165 Z-0.8 I0.125 J0.2165
G2 X66.75 Y46.5 Z-0.9 I0.125 J-0.2165
G2 X66.375 Y46.2835 Z-1.0 I-0.25 J0.0
G2 Y46.7165 Z-1.1 I0.125 J0.2165
G2 X66.75 Y46.5 Z-1.2 I0.125 J-0.2165
G2 X66.375 Y46.2835 Z-1.3 I-0.25 J0.0
G2 Y46.7165 Z-1.4 I0.125 J0.2165
G2 X66.75 Y46.5 Z-1.5 I0.125 J-0.2165
G2 X66.375 Y46.2835 Z-1.6 I-0.25 J0.0
G2 Y46.7165 Z-1.7 I0.125 J0.2165
G2 X66.75 Y46.5 Z-1.8 I0.125 J-0.2165
G2 X66.375 Y46.2835 Z-1.9 I-0.25 J0.0
G2 Y46.7165 Z-2.0 I0.125 J0.2165
G2 X66.75 Y46.5 Z-2.1 I0.125 J-0.2165
G2 X66.375 Y46.2835 Z-2.2 I-0.25 J0.0
G2 Y46.7165 Z-2.3 I0.125 J0.2165
G2 X66.75 Y46.5 Z-2.4 I0.125 J-0.2165
G2 X66.375 Y46.2835 Z-2.5 I-0.25 J0.0
G2 Y46.7165 Z-2.6 I0.125 J0.2165
G2 X66.75 Y46.5 Z-2.7 I0.125 J-0.2165
G2 X66.375 Y46.2835 Z-2.8 I-0.25 J0.0
G2 Y46.7165 Z-2.9 I0.125 J0.2165
G2 X66.75 Y46.5 Z-3.0 I0.125 J-0.2165
G2 X66.375 Y46.2835 Z-3.1 I-0.25 J0.0
G2 Y46.7165 Z-3.2 I0.125 J0.2165
G2 X66.75 Y46.5 Z-3.3 I0.125 J-0.2165
G2 X66.375 Y46.2835 Z-3.4 I-0.25 J0.0
G2 Y46.7165 Z-3.5 I0.125 J0.2165
G2 X66.75 Y46.5 Z-3.6 I0.125 J-0.2165
G2 X66.375 Y46.2835 Z-3.7 I-0.25 J0.0
G2 Y46.7165 Z-3.8 I0.125 J0.2165
G2 X66.75 Y46.5 Z-3.9 I0.125 J-0.2165
G2 X66.375 Y46.2835 Z-4.0 I-0.25 J0.0
G2 Y46.7165 Z-4.1 I0.125 J0.2165
G2 X66.75 Y46.5 Z-4.2 I0.125 J-0.2165
G2 X66.375 Y46.2835 I-0.25 J0.0
G2 Y46.7165 I0.125 J0.2165
G2 X66.75 Y46.5 I0.125 J-0.2165
G0 Z3.0
G0 X62.75
G0 Z1.0
G1 F300.0 Z0.0
G2 F800.0 X62.375 Y46.2835 Z-0.1 I-0.25 J0.0
G2 Y46.7165 Z-0.2 I0.125 J0.2165
G2 X62.75 Y46.5 Z-0.3 I0.125 J-0.2165
G2 X62.375 Y46.2835 Z-0.4 I-0.25 J0.0
G2 Y46.7165 Z-0.5 I0.125 J0.2165
G2 X62.75 Y46.5 Z-0.6 I0.125 J-0.2165
G2 X62.375 Y46.2835 Z-0.7 I-0.25 J0.0
G2 Y46.7165 Z-0.8 I0.125 J0.2165
G2 X62.75 Y46.5 Z-0.9 I0.125 J-0.2165
G2 X62.375 Y46.2835 Z-1.0 I-0.25 J0.0
G2 Y46.7165 Z-1.1 I0.125 J0.2165
G2 X62.75 Y46.5 Z-1.2 I0.125 J-0.2165
G2 X62.375 Y46.2835 Z-1.3 I-0.25 J0.0
G2 Y46.7165 Z-1.4 I0.125 J0.2165
G2 X62.75 Y46.5 Z-1.5 I0.125 J-0.2165
G2 X62.375 Y46.2835 Z-1.6 I-0.25 J0.0
G2 Y46.7165 Z-1.7 I0.125 J0.2165
G2 X62.75 Y46.5 Z-1.8 I0.125 J-0.2165
G2 X62.375 Y46.2835 Z-1.9 I-0.25 J0.0
G2 Y46.7165 Z-2.0 I0.125 J0.2165
G2 X62.75 Y46.5 Z-2.1 I0.125 J-0.2165
G2 X62.375 Y46.2835 Z-2.2 I-0.25 J0.0
G2 Y46.7165 Z-2.3 I0.125 J0.2165
G2 X62.75 Y46.5 Z-2.4 I0.125 J-0.2165
G2 X62.375 Y46.2835 Z-2.5 I-0.25 J0.0
G2 Y46.7165 Z-2.6 I0.125 J0.2165
G2 X62.75 Y46.5 Z-2.7 I0.125 J-0.2165
G2 X62.375 Y46.2835 Z-2.8 I-0.25 J0.0
G2 Y46.7165 Z-2.9 I0.125 J0.2165
G2 X62.75 Y46.5 Z-3.0 I0.125 J-0.2165
G2 X62.375 Y46.2835 Z-3.1 I-0.25 J0.0
G2 Y46.7165 Z-3.2 I0.125 J0.2165
G2 X62.75 Y46.5 Z-3.3 I0.125 J-0.2165
G2 X62.375 Y46.2835 Z-3.4 I-0.25 J0.0
G2 Y46.7165 Z-3.5 I0.125 J0.2165
G2 X62.75 Y46.5 Z-3.6 I0.125 J-0.2165
G2 X62.375 Y46.2835 Z-3.7 I-0.25 J0.0
G2 Y46.7165 Z-3.8 I0.125 J0.2165
G2 X62.75 Y46.5 Z-3.9 I0.125 J-0.2165
G2 X62.375 Y46.2835 Z-4.0 I-0.25 J0.0
G2 Y46.7165 Z-4.1 I0.125 J0.2165
G2 X62.75 Y46.5 Z-4.2 I0.125 J-0.2165
G2 X62.375 Y46.2835 I-0.25 J0.0
G2 Y46.7165 I0.125 J0.2165
G2 X62.75 Y46.5 I0.125 J-0.2165
G0 Z3.0
G0 X58.75
G0 Z1.0
G1 F300.0 Z0.0
G2 F800.0 X58.375 Y46.2835 Z-0.1 I-0.25 J0.0
G2 Y46.7165 Z-0.2 I0.125 J0.2165
G2 X58.75 Y46.5 Z-0.3 I0.125 J-0.2165
G2 X58.375 Y46.2835 Z-0.4 I-0.25 J0.0
G2 Y46.7165 Z-0.5 I0.125 J0.2165
G2 X58.75 Y46.5 Z-0.6 I0.125 J-0.2165
G2 X58.375 Y46.2835 Z-0.7 I-0.25 J0.0
G2 Y46.7165 Z-0.8 I0.125 J0.2165
G2 X58.75 Y46.5 Z-0.9 I0.125 J-0.2165
G2 X58.375 Y46.2835 Z-1.0 I-0.25 J0.0
G2 Y46.7165 Z-1.1 I0.125 J0.2165
G2 X58.75 Y46.5 Z-1.2 I0.125 J-0.2165
G2 X58.375 Y46.2835 Z-1.3 I-0.25 J0.0
G2 Y46.7165 Z-1.4 I0.125 J0.2165
G2 X58.75 Y46.5 Z-1.5 I0.125 J-0.2165
G2 X58.375 Y46.2835 Z-1.6 I-0.25 J0.0
G2 Y46.7165 Z-1.7 I0.125 J0.2165
G2 X58.75 Y46.5 Z-1.8 I0.125 J-0.2165
G2 X58.375 Y46.2835 Z-1.9 I-0.25 J0.0
G2 Y46.7165 Z-2.0 I0.125 J0.2165
G2 X58.75 Y46.5 Z-2.1 I0.125 J-0.2165
G2 X58.375 Y46.2835 Z-2.2 I-0.25 J0.0
G2 Y46.7165 Z-2.3 I0.125 J0.2165
G2 X58.75 Y46.5 Z-2.4 I0.125 J-0.2165
G2 X58.375 Y46.2835 Z-2.5 I-0.25 J0.0
G2 Y46.7165 Z-2.6 I0.125 J0.2165
G2 X58.75 Y46.5 Z-2.7 I0.125 J-0.2165
G2 X58.375 Y46.2835 Z-2.8 I-0.25 J0.0
G2 Y46.7165 Z-2.9 I0.125 J0.2165
G2 X58.75 Y46.5 Z-3.0 I0.125 J-0.2165
G2 X58.375 Y46.2835 Z-3.1 I-0.25 J0.0
G2 Y46.7165 Z-3.2 I0.125 J0.2165
G2 X58.75 Y46.5 Z-3.3 I0.125 J-0.2165
G2 X58.375 Y46.2835 Z-3.4 I-0.25 J0.0
G2 Y46.7165 Z-3.5 I0.125 J0.2165
G2 X58.75 Y46.5 Z-3.6 I0.125 J-0.2165
G2 X58.375 Y46.2835 Z-3.7 I-0.25 J0.0
G2 Y46.7165 Z-3.8 I0.125 J0.2165
G2 X58.75 Y46.5 Z-3.9 I0.125 J-0.2165
G2 X58.375 Y46.2835 Z-4.0 I-0.25 J0.0
G2 Y46.7165 Z-4.1 I0.125 J0.2165
G2 X58.75 Y46.5 Z-4.2 I0.125 J-0.2165
G2 X58.375 Y46.2835 I-0.25 J0.0
G2 Y46.7165 I0.125 J0.2165
G2 X58.75 Y46.5 I0.125 J-0.2165
G0 Z3.0
G0 X54.75
G0 Z1.0
G1 F300.0 Z0.0
G2 F800.0 X54.375 Y46.2835 Z-0.1 I-0.25 J0.0
G2 Y46.7165 Z-0.2 I0.125 J0.2165
G2 X54.75 Y46.5 Z-0.3 I0.125 J-0.2165
G2 X54.375 Y46.2835 Z-0.4 I-0.25 J0.0
G2 Y46.7165 Z-0.5 I0.125 J0.2165
G2 X54.75 Y46.5 Z-0.6 I0.125 J-0.2165
G2 X54.375 Y46.2835 Z-0.7 I-0.25 J0.0
G2 Y46.7165 Z-0.8 I0.125 J0.2165
G2 X54.75 Y46.5 Z-0.9 I0.125 J-0.2165
G2 X54.375 Y46.2835 Z-1.0 I-0.25 J0.0
G2 Y46.7165 Z-1.1 I0.125 J0.2165
G2 X54.75 Y46.5 Z-1.2 I0.125 J-0.2165
G2 X54.375 Y46.2835 Z-1.3 I-0.25 J0.0
G2 Y46.7165 Z-1.4 I0.125 J0.2165
G2 X54.75 Y46.5 Z-1.5 I0.125 J-0.2165
G2 X54.375 Y46.2835 Z-1.6 I-0.25 J0.0
G2 Y46.7165 Z-1.7 I0.125 J0.2165
G2 X54.75 Y46.5 Z-1.8 I0.125 J-0.2165
G2 X54.375 Y46.2835 Z-1.9 I-0.25 J0.0
G2 Y46.7165 Z-2.0 I0.125 J0.2165
G2 X54.75 Y46.5 Z-2.1 I0.125 J-0.2165
G2 X54.375 Y46.2835 Z-2.2 I-0.25 J0.0
G2 Y46.7165 Z-2.3 I0.125 J0.2165
G2 X54.75 Y46.5 Z-2.4 I0.125 J-0.2165
G2 X54.375 Y46.2835 Z-2.5 I-0.25 J0.0
G2 Y46.7165 Z-2.6 I0.125 J0.2165
G2 X54.75 Y46.5 Z-2.7 I0.125 J-0.2165
G2 X54.375 Y46.2835 Z-2.8 I-0.25 J0.0
G2 Y46.7165 Z-2.9 I0.125 J0.2165
G2 X54.75 Y46.5 Z-3.0 I0.125 J-0.2165
G2 X54.375 Y46.2835 Z-3.1 I-0.25 J0.0
G2 Y46.7165 Z-3.2 I0.125 J0.2165
G2 X54.75 Y46.5 Z-3.3 I0.125 J-0.2165
G2 X54.375 Y46.2835 Z-3.4 I-0.25 J0.0
G2 Y46.7165 Z-3.5 I0.125 J0.2165
G2 X54.75 Y46.5 Z-3.6 I0.125 J-0.2165
G2 X54.375 Y46.2835 Z-3.7 I-0.25 J0.0
G2 Y46.7165 Z-3.8 I0.125 J0.2165
G2 X54.75 Y46.5 Z-3.9 I0.125 J-0.2165
G2 X54.375 Y46.2835 Z-4.0 I-0.25 J0.0
G2 Y46.7165 Z-4.1 I0.125 J0.2165
G2 X54.75 Y46.5 Z-4.2 I0.125 J-0.2165
G2 X54.375 Y46.2835 I-0.25 J0.0
G2 Y46.7165 I0.125 J0.2165
G2 X54.75 Y46.5 I0.125 J-0.2165
G0 Z3.0
G0 X53.7604 Y41.5251
G0 Z1.0
G1 F300.0 Z0.0
G2 F800.0 X53.3854 Y41.3086 Z-0.1 I-0.25 J0.0
G2 Y41.7416 Z-0.2 I0.125 J0.2165
G2 X53.7604 Y41.5251 Z-0.3 I0.125 J-0.2165
G2 X53.3854 Y41.3086 Z-0.4 I-0.25 J0.0
G2 Y41.7416 Z-0.5 I0.125 J0.2165
G2 X53.7604 Y41.5251 Z-0.6 I0.125 J-0.2165
G2 X53.3854 Y41.3086 Z-0.7 I-0.25 J0.0
G2 Y41.7416 Z-0.8 I0.125 J0.2165
G2 X53.7604 Y41.5251 Z-0.9 I0.125 J-0.2165
G2 X53.3854 Y41.3086 Z-1.0 I-0.25 J0.0
G2 Y41.7416 Z-1.1 I0.125 J0.2165
G2 X53.7604 Y41.5251 Z-1.2 I0.125 J-0.2165
G2 X53.3854 Y41.3086 Z-1.3 I-0.25 J0.0
G2 Y41.7416 Z-1.4 I0.125 J0.2165
G2 X53.7604 Y41.5251 Z-1.5 I0.125 J-0.2165
G2 X53.3854 Y41.3086 Z-1.6 I-0.25 J0.0
G2 Y41.7416 Z-1.7 I0.125 J0.2165
G2 X53.7604 Y41.5251 Z-1.8 I0.125 J-0.2165
G2 X53.3854 Y41.3086 Z-1.9 I-0.25 J0.0
G2 Y41.7416 Z-2.0 I0.125 J0.2165
G2 X53.7604 Y41.5251 Z-2.1 I0.125 J-0.2165
G2 X53.3854 Y41.3086 Z-2.2 I-0.25 J0.0
G2 Y41.7416 Z-2.3 I0.125 J0.2165
G2 X53.7604 Y41.5251 Z-2.4 I0.125 J-0.2165
G2 X53.3854 Y41.3086 Z-2.5 I-0.25 J0.0
G2 Y41.7416 Z-2.6 I0.125 J0.2165
G2 X53.7604 Y41.5251 Z-2.7 I0.125 J-0.2165
G2 X53.3854 Y41.3086 Z-2.8 I-0.25 J0.0
G2 Y41.7416 Z-2.9 I0.125 J0.2165
G2 X53.7604 Y41.5251 Z-3.0 I0.125 J-0.2165
G2 X53.3854 Y41.3086 Z-3.1 I-0.25 J0.0
G2 Y41.7416 Z-3.2 I0.125 J0.2165
G2 X53.7604 Y41.5251 Z-3.3 I0.125 J-0.2165
G2 X53.3854 Y41.3086 Z-3.4 I-0.25 J0.0
G2 Y41.7416 Z-3.5 I0.125 J0.2165
G2 X53.7604 Y41.5251 Z-3.6 I0.125 J-0.2165
G2 X53.3854 Y41.3086 Z-3.7 I-0.25 J0.0
G2 Y41.7416 Z-3.8 I0.125 J0.2165
G2 X53.7604 Y41.5251 Z-3.9 I0.125 J-0.2165
G2 X53.3854 Y41.3086 Z-4.0 I-0.25 J0.0
G2 Y41.7416 Z-4.1 I0.125 J0.2165
G2 X53.7604 Y41.5251 Z-4.2 I0.125 J-0.2165
G2 X53.3854 Y41.3086 I-0.25 J0.0
G2 Y41.7416 I0.125 J0.2165
G2 X53.7604 Y41.5251 I0.125 J-0.2165
G0 Z3.0
G0 X57.456 Y39.9944
G0 Z1.0
G1 F300.0 Z0.0
G2 F800.0 X57.081 Y39.7779 Z-0.1 I-0.25 J0.0
G2 Y40.2109 Z-0.2 I0.125 J0.2165
G2 X57.456 Y39.9944 Z-0.3 I0.125 J-0.2165
G2 X57.081 Y39.7779 Z-0.4 I-0.25 J0.0
G2 Y40.2109 Z-0.5 I0.125 J0.2165
G2 X57.456 Y39.9944 Z-0.6 I0.125 J-0.2165
G2 X57.081 Y39.7779 Z-0.7 I-0.25 J0.0
G2 Y40.2109 Z-0.8 I0.125 J0.2165
G2 X57.456 Y39.9944 Z-0.9 I0.125 J-0.2165
G2 X57.081 Y39.7779 Z-1.0 I-0.25 J0.0
G2 Y40.2109 Z-1.1 I0.125 J0.2165
G2 X57.456 Y39.9944 Z-1.2 I0.125 J-0.2165
G2 X57.081 Y39.7779 Z-1.3 I-0.25 J0.0
G2 Y40.2109 Z-1.4 I0.125 J0.2165
G2 X57.456 Y39.9944 Z-1.5 I0.125 J-0.2165
G2 X57.081 Y39.7779 Z-1.6 I-0.25 J0.0
G2 Y40.2109 Z-1.7 I0.125 J0.2165
G2 X57.456 Y39.9944 Z-1.8 I0.125 J-0.2165
G2 X57.081 Y39.7779 Z-1.9 I-0.25 J0.0
G2 Y40.2109 Z-2.0 I0.125 J0.2165
G2 X57.456 Y39.9944 Z-2.1 I0.125 J-0.2165
G2 X57.081 Y39.7779 Z-2.2 I-0.25 J0.0
G2 Y40.2109 Z-2.3 I0.125 J0.2165
G2 X57.456 Y39.9944 Z-2.4 I0.125 J-0.2165
G2 X57.081 Y39.7779 Z-2.5 I-0.25 J0.0
G2 Y40.2109 Z-2.6 I0.125 J0.2165
G2 X57.456 Y39.9944 Z-2.7 I0.125 J-0.2165
G2 X57.081 Y39.7779 Z-2.8 I-0.25 J0.0
G2 Y40.2109 Z-2.9 I0.125 J0.2165
G2 X57.456 Y39.9944 Z-3.0 I0.125 J-0.2165
G2 X57.081 Y39.7779 Z-3.1 I-0.25 J0.0
G2 Y40.2109 Z-3.2 I0.125 J0.2165
G2 X57.456 Y39.9944 Z-3.3 I0.125 J-0.2165
G2 X57.081 Y39.7779 Z-3.4 I-0.25 J0.0
G2 Y40.2109 Z-3.5 I0.125 J0.2165
G2 X57.456 Y39.9944 Z-3.6 I0.125 J-0.2165
G2 X57.081 Y39.7779 Z-3.7 I-0.25 J0.0
G2 Y40.2109 Z-3.8 I0.125 J0.2165
G2 X57.456 Y39.9944 Z-3.9 I0.125 J-0.2165
G2 X57.081 Y39.7779 Z-4.0 I-0.25 J0.0
G2 Y40.2109 Z-4.1 I0.125 J0.2165
G2 X57.456 Y39.9944 Z-4.2 I0.125 J-0.2165
G2 X57.081 Y39.7779 I-0.25 J0.0
G2 Y40.2109 I0.125 J0.2165
G2 X57.456 Y39.9944 I0.125 J-0.2165
G0 Z3.0
G0 X61.1515 Y38.4636
G0 Z1.0
G1 F300.0 Z0.0
G2 F800.0 X60.7765 Y38.2471 Z-0.1 I-0.25 J0.0
G2 Y38.6802 Z-0.2 I0.125 J0.2165
G2 X61.1515 Y38.4636 Z-0.3 I0.125 J-0.2165
G2 X60.7765 Y38.2471 Z-0.4 I-0.25 J0.0
G2 Y38.6802 Z-0.5 I0.125 J0.2165
G2 X61.1515 Y38.4636 Z-0.6 I0.125 J-0.2165
G2 X60.7765 Y38.2471 Z-0.7 I-0.25 J0.0
G2 Y38.6802 Z-0.8 I0.125 J0.2165
G2 X61.1515 Y38.4636 Z-0.9 I0.125 J-0.2165
G2 X60.7765 Y38.2471 Z-1.0 I-0.25 J0.0
G2 Y38.6802 Z-1.1 I0.125 J0.2165
G2 X61.1515 Y38.4636 Z-1.2 I0.125 J-0.2165
G2 X60.7765 Y38.2471 Z-1.3 I-0.25 J0.0
G2 Y38.6802 Z-1.4 I0.125 J0.2165
